/* XPM */
static char *bocal[] = {
/* columns rows colors chars-per-pixel */
"128 111 251 2 ",
"   c #0C0E07",
".  c #15180D",
"X  c #191715",
"o  c #1B1B13",
"O  c #1D1C1B",
"+  c #231D13",
"@  c #211E1D",
"#  c #1C240E",
"$  c #1E2313",
"%  c #242B15",
"&  c #2D2917",
"*  c #242619",
"=  c #2A2D1B",
"-  c #2C3619",
";  c #2C331C",
":  c #31351D",
">  c #333B1E",
",  c #1C1E21",
"<  c #221F21",
"1  c #1C2327",
"2  c #1E2832",
"3  c #252322",
"4  c #292625",
"5  c #2C2926",
"6  c #26292A",
"7  c #2D2B2A",
"8  c #332C24",
"9  c #312D2C",
"0  c #2C3325",
"q  c #343C23",
"w  c #363928",
"e  c #272D34",
"r  c #302F30",
"t  c #2C3234",
"y  c #2B363A",
"u  c #333334",
"i  c #3A3634",
"p  c #3C3A36",
"a  c #343838",
"s  c #343B3C",
"d  c #3C3B3B",
"f  c #4B3E26",
"g  c #433E3A",
"h  c #38441D",
"j  c #3B4324",
"k  c #3B4626",
"l  c #3C432A",
"z  c #3C4339",
"x  c #434729",
"c  c #434B2C",
"v  c #49522A",
"b  c #575627",
"n  c #555A2B",
"m  c #464B35",
"M  c #42423D",
"N  c #4B5335",
"B  c #535838",
"V  c #5A6335",
"C  c #696C37",
"Z  c #2C3944",
"A  c #343C43",
"S  c #3A3E42",
"D  c #333D4A",
"F  c #2E3E50",
"G  c #413E42",
"H  c #3C4243",
"J  c #394549",
"K  c #324654",
"L  c #3B4955",
"P  c #3B5068",
"I  c #434543",
"U  c #474945",
"Y  c #42464A",
"T  c #454B4C",
"R  c #4B4C4C",
"E  c #524E49",
"W  c #4A5547",
"Q  c #4B524C",
"!  c #52524E",
"~  c #575A48",
"^  c #444C53",
"/  c #494E53",
"(  c #4D5254",
")  c #485657",
"_  c #4C545C",
"`  c #535453",
"'  c #565956",
"]  c #545A5C",
"[  c #5B5D5B",
"{  c #625D56",
"}  c #566248",
"|  c #5A635B",
" . c #6E6E50",
".. c #63625D",
"X. c #6A655A",
"o. c #485767",
"O. c #555C62",
"+. c #5A5E62",
"@. c #545D6A",
"#. c #485C74",
"$. c #515D70",
"%. c #615F61",
"&. c #5C6264",
"*. c #586668",
"=. c #5C636C",
"-. c #516676",
";. c #576775",
":. c #5C6673",
">. c #5C6A7B",
",. c #646462",
"<. c #646767",
"1. c #6B6A65",
"2. c #646A6C",
"3. c #716E68",
"4. c #69736B",
"5. c #73716B",
"6. c #787569",
"7. c #646B73",
"8. c #696D73",
"9. c #646D7B",
"0. c #6C7275",
"q. c #687677",
"w. c #64727C",
"e. c #6B737C",
"r. c #767976",
"t. c #747B7C",
"y. c #9E764A",
"u. c #837C73",
"i. c #798633",
"p. c #7B8555",
"a. c #6B8377",
"s. c #7B837B",
"d. c #788479",
"f. c #8B9A34",
"g. c #9EA35A",
"h. c #84857C",
"j. c #948A78",
"k. c #D3C071",
"l. c #586C86",
"z. c #566E8B",
"x. c #597498",
"c. c #657183",
"v. c #647283",
"b. c #6B7582",
"n. c #6C7A84",
"m. c #657789",
"M. c #6C7B8C",
"N. c #737C83",
"B. c #7A7E84",
"V. c #737E8B",
"C. c #687C96",
"Z. c #5A7BA7",
"A. c #617BA0",
"S. c #847C84",
"D. c #7C8384",
"F. c #78858A",
"G. c #6C829A",
"H. c #748394",
"J. c #768D93",
"K. c #788898",
"L. c #5C82B7",
"P. c #6B84A7",
"I. c #768BA6",
"U. c #698AB7",
"Y. c #7690B0",
"T. c #7695B9",
"R. c #6C93C9",
"E. c #6B94CD",
"W. c #799BC6",
"Q. c #7DA2C9",
"!. c #78A3D8",
"~. c #77A9EB",
"^. c #78ABEF",
"/. c #868A87",
"(. c #848B8C",
"). c #928B88",
"_. c #8A938B",
"`. c #96968B",
"'. c #858D94",
"]. c #8C9394",
"[. c #89959A",
"{. c #979997",
"}. c #949B9C",
"|. c #A79B8D",
" X c #92AD90",
".X c #9AA59A",
"XX c #ADAD94",
"oX c #A5A69B",
"OX c #8693A9",
"+X c #8797A8",
"@X c #959DA4",
"#X c #889DB5",
"$X c #9AA5A8",
"%X c #96B0AF",
"&X c #8AA3BA",
"*X c #98A8B5",
"=X c #A5AAA6",
"-X c #B3AEA6",
";X c #A9B5A8",
":X c #B6B6AA",
">X c #A3ACB3",
",X c #A8B4B8",
"<X c #B6B9B6",
"1X c #C6B5A3",
"2X c #A2C4A7",
"3X c #B3C7AC",
"4X c #B9C4B9",
"5X c #E3DB98",
"6X c #CACBB8",
"7X c #829EC3",
"8X c #87A6C8",
"9X c #96ABC6",
"0X c #92B1CF",
"qX c #9CB2CA",
"wX c #88ACD3",
"eX c #8BB3DB",
"rX c #97B6D7",
"tX c #9CBCDC",
"yX c #A6B8CA",
"uX c #B2BEC5",
"iX c #A5BBD3",
"pX c #A9BED5",
"aX c #A4BEDB",
"sX c #8DB6E4",
"dX c #8EB8E5",
"fX c #8BB6E8",
"gX c #8EB9EA",
"hX c #93BAE4",
"jX c #9BBDE2",
"kX c #92BDF0",
"lX c #A0BEE0",
"zX c #B7C9CE",
"xX c #A6C1DC",
"cX c #ACC5D8",
"vX c #B1C4DA",
"bX c #B5C9DA",
"nX c #9EC3E9",
"mX c #A3C2E2",
"MX c #A7C6E6",
"NX c #B3CCE5",
"BX c #AED1E5",
"VX c #B9D2E3",
"CX c #CDD3CF",
"ZX c #DEE0D4",
"AX c #E6E8D7",
"SX c #C9DBE8",
"DX c #D3DEE3",
"FX c #D6E3E9",
"GX c #D4E7F1",
"HX c #EFF5EF",
"JX c #F6F9EC",
/* pixels */
"@ 3 4 4 @ * 3 @ @ @ O O @ @ @ @ @ @ @ @ @ @ * * * 3 3 3 3 3 3 3 4 3 3 3 3 3 3 3 4 3 3 4 4 4 3 3 3 3 3 3 3 3 3 3 3 3 3 3 3 3 3 3 3 3 3 3 3 3 3 3 3 3 3 3 3 3 3 3 3 3 3 3 3 3 3 3 3 3 4 4 3 3 3 4 3 3 4 4 3 4 4 3 4 3 3 3 3 3 3 3 3 3 3 3 3 3 3 3 3 3 < 3 3 3 O O ",
"@ 4 9 9 4 4 3 3 3 3 3 3 3 3 3 3 3 3 3 4 4 4 4 4 4 4 4 4 4 5 5 5 5 5 5 7 7 9 9 9 9 9 9 9 9 9 9 7 9 7 9 7 9 9 7 7 5 7 4 4 5 7 7 7 5 7 7 7 7 7 4 4 4 4 4 4 7 7 7 7 7 7 7 5 5 5 5 7 8 5 8 9 9 9 9 9 9 u i 9 7 5 5 7 7 7 7 7 7 7 4 4 4 4 4 4 4 3 3 3 3 3 3 3 3 3 O O ",
"@ * 4 * @ 4 u a a d a a a a a a a y t t u u u u u u e u u u u 9 u u u u u u p u.`.I i U p p p d d d d d d d d p p p p p p d p p p d d d d u i d d d d d p d d d d d p d M d d d p p d d d d d u R :X).d d p u u 7 7 7 7 7 7 4 7 7 4 4 4 4 4 3 3 3 7 7 4 3 3 O @ ",
"@ @ 3 3 3 a ^ ^ ^ / _ _ / ^ ^ ^ ^ ^ ^ A A S A S S S S S S d d d d d d d a d I 1.ZXXXU ..! ! ! ! ! ! ! ! ! ! ! ! ! ! ! ! ! ` ` ` ! ` ` ` ` R R ` ` ` ` ` ! ! ! ! ! ! ! ! X.` ! ! ! R ! R R U I d =XAX1.U I I d u u u u u u u u u u u u u d p u a d S S t 7 3 O @ ",
"* @ 3 7 d d ^ _ ] ' O.&.=.=.O._ _ O.O._ Y S d d d I I I I z I I M d d d d d d U h.AX|.X.[ ' ' ' ' { { { { ................................' ! ..............{ { { ..{ ..6...{ ..{ [ [ ' ' ` I r.JX`.! ! ! U M p i p d d d M M M M M M I I I I / ( / Y a 7 3 O @ ",
"* @ 3 7 M I I Y ] +.+.+.=.2.=.=.&.O.+.&.O.( I I d z z I I I I I I M M M M M g I ~ oXAX`.' ..1.1.1.1.1.1.1.1.5.5.1.1.1.1.1.1.3.1.5.5.5.5.5.1.X.5.5.5.5.5.5.5.5.5.5.5.1.1.u.1.1.1.1.1.1.1...' ..ZX6X1.' ' ! U g p p M M M M I I I I I I I I R ( ' ' ( Y a e 3 @ @ ",
"* O 4 7 M I ` ` [ ] ] O.O.+.=.=.=.+.O.O.+.&.] R H z d M I I I M M M M M M M M M U ' `.6Xh.U { 1.1.1.1.1.1.1.1.1.1.1.5.5.5.5.1.1.5.5.5.5.5.5.5.5.5.5.5.5.5.1.5.5.5.5.5.1.u.1.1.1.1.1.1.X...! :XAXh.{ ' ' U M g g M M M M M I I I I I I U ( ] ] ' ( Y Y d r 3 < @ ",
"3 @ 4 7 I I ` ` ,.,.| ] ' ] ] +.&.2.=.+.+.+.+.+.( I M M M d I M M M M M M M M I U R { -XZXr.I ..1.1.1.1.1.1.1.1.1.1.5.5.5.5.5.5.5.5.5.5.5.5.5.5.5.5.5.5.2.2.2.5.5.5.2.1.u.1.1.1.1.1.X...' h.AX{...{ ' R M g M M M M M M M I I I I I R ' ] ] ' ( ( ( R d u 4 < @ ",
"3 @ 4 7 I I Q ` ......,.| ` ` ] +.&.=.2.2.&.+.&.&.] / I I d M M M M M M M M I U I U ! u.:XZX5.R ..,.1.1.1.1.1.1.1.1.1.1.2.2.2.2.5.5.5.5.5.5.5.5.5.1.5.5.2.2.2.2.5.5.1.1.u.1.1.1.1.1.,.[ ,.ZX6X1...' ! I M M M M M M M M M I I I U ( ' ' ' ( ( ( ( ( Y I S 4 3 @ ",
"3 @ 5 4 d I R ` | ..........[ ' ` ] [ +.&.2.&.O.] ] ] R I z M M M M M M M M I I I I R 5.5.:XZX5.` ..,.1.1.1.1.1.1.1.1.1.1.2.2.2.2.5.5.5.5.5.5.2.5.1.1.1.2.2.2.2.1.2.1.1.u.1.1.1.1.,.,.' :XAXr...{ ` R I I I I M M M M M M M I U ` ' ( ( ( ( ( ( ( ( R Y I 4 3 @ ",
"4 * 7 7 4 6 S Y [ [ [ [ | | ....[ ' ` ] [ &.,.&.&.=.7.&.` R U I M M z M M M I I U U R 5.5.5.:XZX5.` ..,.1.1.1.1.1.1.1.1.1.1.1.1.1.1.2.2.2.2.1.1.1.1.1.1.1.1.1.1.1.1.1.1.u.1.1.1.,.,.' h.AX`...[ ` R I I I I I M M M M M M I U / ( / R R / ( / / ' ] R Y Y 7 3 3 ",
"4 3 9 ..h.[ a t a Y ( ` ` ` ' ' [ [ ` ` ` ] [ &.2.&.O.] [ [ ` R I M d d d M I I I I R 5.2.[ ..:XCX2.` ........1.1.,.1.1.1.1.1.,.,.1.1.1.1.1.1.1.1.1.1.1.1.1...,.,.,.,.1.h.........[ [ CX:X..' ! I I I I I I M g g M M M M U R R R Y Y R / R R ( ( ( Y Y H 7 4 3 ",
"4 3 9 9 ! r./.r._ A y H Y Y Y Y Y R R R R Y ` [ [ &.,.[ ] [ [ [ ` I d I I I I I I I R 5.4.[ R [ :XCX2.` [ [ [ [ { ' [ [ { [ [ [ ] [ [ [ +.+.2.&.[ [ [ [ [ [ ` ' [ [ [ [ 6.` ` ` ` Q oXCX1.` R I d G I I I d d d d M M M R R R R R R R I S H H H H S a a a 7 4 3 ",
"5 3 9 7 e e H 2.{.{.4.Y y y A S H H H H S S H Y ' [ [ [ ,.[ ' ' [ [ R Y Y I I I I Y R 5.2.' Y Y ` :XCX2./ ( ( ` ` / / ( ( ` ( ( / ( ( ( ' ' =.O.( ( ( ( ( ( / / / / / ( 5./ / / R r.AXr.Y Y H S I I I I I I I I M I R R ! R R R R R H t t t t t t t t e e 4 4 3 ",
"7 3 9 7 e a ^ ^ _ 8.{.=X{.2.^ L L ^ ^ ^ ^ ^ ^ ^ _ ] ` ' [ | ..[ ` ' [ | ' Y / ( ( ( ' r.0.+.( / / ] :XCX2._ _ _ _ _ _ _ _ _ _ _ _ _ _ _ _ _ w.@._ _ _ _ _ _ _ O._ _ _ O.t.O.O._ =.CX=XO._ ( ^ ( _ O.O.O.o.O.' R R ' ` ! R R ! R I H S y a A A A A H H y t 7 4 3 ",
"7 3 9 7 e ' *X$X=X8X8X8XtXbXzXyX8XQ.Q.Q.Q.Q.8X8XY._ I U ! ' [ | ..' ' ,.0.2.:.T.8X8XW.&X&X8XW.W.T.T.&XSXDX&XW.W.7XW.W.W.W.W.W.W.W.7XW.W.W.7XcXwXW.W.Q.W.W.W.Q.Q.Q.Q.Q.8X&X8X8XW.zXFXwX8X8X8XQ.8XwXwXwXwXwXeXT.7.2.=.` R R ! R d u S H a o.T.Q.Q.W.W.W.V.h.U 4 3 ",
"9 4 u 7 e ,.:XyXuXuXrXsXeXeXeXxXVXVXmXhXsXsXsXgXQ.=.I H I R ` [ ' [ [ 2.e.b.n.eXgXdXsXrX0XdXsXsXsXdXsXsXSXGXhXgXgXgXkXkXkXkXkXkXkXgXgXgXgXgXGXmXgXgXgXgXgXgXgXgXgXgXfXgXrXkXfXmXHXmXsXsXsXfXfXgXgXgXgXgXgXkX8Xb.9.=.` ! R I d i a H H A H #.T.sXhXmXVX@X` r 4 4 ",
"9 4 u 7 e ;.uX:XyXyX,XrXsXsXeXeXeXrXcXVXNXnXeXsXQ.;.Y I I I Y R ` [ [ 8.N.N.V.0XdXsXsXrXwXsXsXsXsXsXsXsXsXSXFXhXfXgXgXgXgXgXgXgXgXgXgXfXgXgXGXNXfXgXgXgXgXgXfXfXsXsXsXfXrXsXhXGXVXsXsXsXsXsXsXdXdXdXhXkXkXkXwXb.9.:.` Y d d d i u I Y J A H :.*XvXNXjXl.a 7 4 4 ",
"9 4 u 7 e ;.hX,X:XiX<X,XrXsXeXeXeXeXeXeXtXbXVXNX8X;.H I I Y ^ Y Y R ( 2.n.N.H.0XdXsXsXrX0XsXsXsXsXsXsXdXsXhXSXFXhXgXgXgXgXgXdXdXdXdXsXfXgXgXGXNXfXfXfXfXfXfXsXfXfXfXfXfXrXsXVXFXhXsXsXsXsXsXdXhXdXdXdXkXkXkXwXn.w.=.I i d d d u u H =.>.2._.].e.@.P.eXl.a 7 4 4 ",
"9 4 i e e ;.dXhXuX:XyXuX,XrXsXeXeXeXeXeXeXwX0XaXzX=X/.,./ ' K.+X+X[.O.O.v.b.H.0XsXeXsXrX0XsXsXdXsXdXdXsXdXdXhXSXSXhXdXdXdXdXdXdXdXdXsXfXgXgXGXNXfXgXfXfXsXsXsXsXsXsXsXgX0XmXFXlXsXsXsXsXsXsXsXdXsXdXhXkXhXkXwXn.>.o.d u u d d u t Y [.bXyXn.^ J J L ;.o.a 7 4 3 ",
"9 5 i e e ;.dXsXrX,X:XuX:X>XrXeXeXeXeXeXeXeXeXeXT.e.h.oX/.=.w.K.+X+XF.=.>.>.M.0XeXeXeXrXrXsXsXdXsXsXsXsXsXsXsXhXSXSXhXhXdXdXdXdXdXdXdXdXgXgXGXNXdXdXsXsXsXsXsXsXsXsXsXdXqXFXNXsXsXsXsXsXsXsXsXsXhXjXnXkXhXkXwXm.;.O.a u u u u I 4._.+XrXeX8XC.^ J J L F A 7 4 4 ",
"u 5 i t y >.hXeXeXrX,X-X,X:X,XrXeXeXeXeXeX0X0XeX#X:.R ` ,.2._ &.&.=.&.=.v.w.M.0XeXrXrXrXrXeXsXdXsXsXdXdXdXsXsXsXrXNXjXsXsXsXsXsXsXsXsXsXdXdXGXNXsXsXsXsXsXsXsXsXsXsXsXsXqXbXhXsXsXsXsXsXsXsXsXhXhXjXjXhXhXhX8Xm.;.O.a u a a d ..[ ( C.eXeXeXeXT.;.L L F A 7 4 4 ",
"u 7 i [ r.[.mXnXmXmXxX<X<XzX<XuXxXtXtXtXtXtXrXrX&Xw.' [ [ | &.&.,.,.,.0.n.n.H.0XrXrXrXrXrXrXrXrXrXnXmXrXjXmXmXMXMXMXMXMXMXMXmXmXmXmXmXmXmXmXGXFXcXcXcXcXcXcXcXcXNXNXNXVXzXcXhXhXhXhXsXsXsXsXhXhXhXhXhXhXdXhXwXH.m.v.7.e.r.7.7.=.=.7.I.hXsXsXsXhXrXY.v.;.@.a 4 4 ",
"u 7 i 2.].$XmXmXVXVXVXVXCXCXCXCXCXVXVXbXbXbXcXxX&XF._._./._._._.`.`.{.{.@X@X@XrXrXrXrXtXrXrXrXrXrXmXVXxXcXSXSXSXSXSXSXSXSXSXSXSXSXSXSXSXSXSXHXHXSXDXDXDXDXDXDXFXFXFXHXHXZXSXtXjXhXhXhXhXhXhXhXhXNXVXVXjXhXhXrX[.+X>XuXyX&X&X&X+X+X+X8XjXjXjXjXnXnXnXjXY.M.S 4 4 ",
"u 5 i 2.].*XmXvXVXVXVXVXVXCXCXCXCXCXVXbXbXbXcXxX&X<XHXHXHXJXJXJXJXJXJXJXJXJXHXVXtXrXrXtXrXtXtXtXtXmXSXcXcXSXFXFXFXFXFXFXFXFXFXFXFXFXFXDXDXSXHXHXDXDXZXFXFXFXFXFXFXFXFXFXCXSXtXtXtXtXjXjXjXjXhXjXmXcXmXhXjXnXrX+X$X*X&X#X#X#X#X+X+X+X8XjXjXjXjXnXnXnXnX#XM.H 7 4 ",
"u 5 p 1._.*XNXvXVXVXVXVXVXVXCXCXCXCXCXzXzXbXcXcX&X<XHXJXJXJXJXJXJXJXJXJXJXJXJXFXtXtXtXiXqXtXtXtXtXmXSXcXcXSXFXFXFXFXFXFXFXFXFXFXSXFXDXDXDXDXHXHXDXDXZXFXFXFXFXFXFXbXbXvXvXbXtXtXjXjXjXjXjXjXjXjXjXtXjXjXmXNXcX+XG.G.I.+X+XH.I.+X+X#X8XjXjXjXjXnXnXnXnX8XM.Y 7 4 ",
"u 7 p ` 2.[.bXbXVXVXVXVXVXVXSXCXCXCX6X6XCXbXbXcX&X<XHXJXJXJXJXJXJXJXJXJXJXJXJXFXiXtXtXiXtXtXtXtXaXbXSXcXcXSXFXFXFXFXFXFXFXFXSXSXbXSXbXSXSXSXHXHXSXSXSXSXSXDXCXSXbXaXaXaXcXaXtXjXjXtXjXtXjXjXjXjXjXjXjXjXmXNXaXY.G.n.v.F.H.n.K.+X+X+X8XjXjXjXjXnXnXnXnX8XM.Y 7 4 ",
"u 9 g R [ F.yXyXbXbXbXVXVXVXbXbX6X6XCX6X6XzXbXcX&X<XHXHXAXAXJXJXJXJXJXJXJXJXJXFXxXtXtXiXtXiXiXiXaXNXSXcXcXSXFXFXFXFXSXVXVXNXcXcXxXcXaXcXcXcXHXFXiXaXaXiXiXcXcXaXaXaXaXaXcXaXaXlXlXlXjXtXjXjXjXtXtXtXtXjXmXNXtXI.K.H.b.8.w.w.n.V.K.+X8XjXjXjXnXmXnXmXnX8XM.Y 7 4 ",
"i 9 g U ' F.qX,XyXiXxXcXcXcXiXiXyX:X1X:X<X6XzXcX&X,XAXHXCX<XZXJXJXJXJXJXJXJXJXFXxXiXiXcXiXaXaXaXxXbXSXvXcXFXFXFXSXVXbXcXcXxXxXxXaXaXaXaXxXxXGXSXaXaXaXaXaXaXaXaXaXaXaXaXiXaXxXmXmXlXlXaXlXlXlXlXaXaXaXlXmXNXtX+XI.+X+XV.8.:.w.n.I.Y.8XnXjXjXjXmXmXmXmX8XM.Y 7 4 ",
"i 9 M U ' F.iXyXiXiXiXiXiXiXiXiXyXyX1X1X<X1X:X,X$X].CXJXZX6XAXJXJXJXJXJXJXJXZXSXiXiXiXiXiXiXiXaXxXcXVXcXvXSXSXSXbXcXcXcXcXcXcXxXxXxXaXxXcXcXGXSXaXaXaXaXaXaXaXaXaXaXaXxXyXaXmXmXmXmXmXmXlXmXmXmXmXmXxXmXmXNXcX*X+X+X#X+XK.v.w.n.H.I.8XnXjXjXjXmXmXmXmX8XM.Y 7 4 ",
"i 9 g U ' D.iXyXyXiXiXiXiXiXyXyXyXyXyX:X1X1X1X<X*X'.=XCX4X:XCXJXJXJXJXJXJXAX,XyXiXiXiXiXiXiXiXcXcXcXVXvXvXVXvXcXvXvXcXcXcXcXcXcXcXxXcXcXcXcXGXSXxXxXaXaXaXaXaXxXxXxXxXxXyXxXxXmXmXmXmXmXmXmXmXmXxXxXaXmXmXVXbX>X+X+X#X#X+XH.v.w.v.G.T.jXtXtXjXmXmXmXmX8XC.Y 7 4 ",
"i 9 g U ` F.iXyXyXiXiXiXiXiXyXyXiXyXyXyX<X1Xk.1X=X].{.@X@X}.=X:X4X<X6XZXCX,X=XcXiXiXiXyXyXiXiXiXcXcXvXvXvXvXvXvXvXvXcXcXcXcXcXcXcXcXcXcXcXcXGXSXxXxXaXaXxXxXxXxXxXxXxXcXyXcXxXxXmXmXmXmXmXxXmXxXaXaXaXxXMXVXbX*X+X+X#X#X#XI.M.w.n.v.Y.jXjXtXjXmXmXmXmX8XC.^ 7 4 ",
"i 9 g U ` F.iXyXyXiXiXiXiXiXyXyXiXyXiXiXyX<Xk.k.|.].`.oXoX@X@X@X}.}.}.=X$X$X=XyXiXiXiXyXyXiXiXiXcXcXcXvXvXvXvXvXvXvXcXcXcXcXcXcXcXcXcXcXcXcXGXSXaXcXxXxXaXaXaXxXcXcXxXcXyXcXxXxXxXxXxXxXxXxXxXxXaXxXaXaXMXNXvX$X@X[.'.H.H.n.9.w.b.b.I.tXlXtXaXlXlXlXlX#X7.I 9 4 ",
"i u g U ` V.iXyXyXiXyXiXiXiXiXiXyXyXyXiXyX$XoXXX|.'./.].{.}.{.@X@X@X}.>X>X$X$XyXiXiXiXyXyXiXiXiXpXcXcXvXvXvXvXvXvXvXvXcXcXcXcXpXcXpXpXcXcXcXGXSXaXcXxXaXaXaXaXcXcXcXxXxXyXaXxXxXaXaXxXxXxXxXxXxXaXaXaXaXMXmXiX'.B.B.2.,...%.+.+.+.2.K.aXtXtXtXrXrXrXrX+X' d 9 4 ",
"i u M d R V.iXyXyXiXyXyXyXyXiXiXyX$X*XyX,X{.*X,X{.'.].@X@X[.'.{.=X=X@X*X*X@X@XyXiXiXiXiXyXiXiXiXpXpXcXvXvXvXvXvXvXcXcXcXcXpXpXpXiXpXiXiXpXaXGXSXaXpXaXiXiXiXaXaXxXaXaXxXyXiXaXaXaXaXaXaXaXaXaXaXaXaXaXaXpXMXiXK.B.N.2.,...%.%.%.,.2.H.tXtXrXrXrXrXrXrXI.+.I 9 4 ",
"i u M e H F.yXuXyXqXqXqXyXyXyXiXyX{.$X*X{.`.$XyX*X].{.=X$X].D.`.=X=X}.{.@X{.@XyXiXiXiXyXyXiXiXiXpXpXiXcXvXvXvXvXvXcXcXcXpXpXiXiXiXiXiXiXaXaXGXSXaXaXaXiXrXrXrXaXaXaXaXaXyXiXaXaXaXaXaXaXaXaXaXaXaXaXaXaXpXaXiXK.B.N.2.1.,.{ { ,.,.,.H.rXrXrXrXrXrXrXrX#X>.H 9 4 ",
"i u M e T F.yXuXyXqXqXqXyXyXyXyXyX[._._._._.`.$X].'.{.$X=XoX|.oXoX}._.].@X{.$XyXiXiXiXyXyXiXiXiXiXiXiXvXvXvXvXvXcXcXcXcXpXpXpXiXiXiXiXiXiXiXGXSXiXaXiXiXrXiXrXaXaXaXaXaXyXiXaXaXaXaXaXaXaXaXaXaXaXaXaXpXpXaXiXH.B.N.2.,.,.&.,.{ ..,.H.rXrXrXrXrXrXrXrXY.o.A 7 4 ",
"i u g p ` F.yX,XqX9X9XqXyXqXyXyXqX].(.].]._._./.(.'.].@XoXoX-X-XXXoX}.}.=X$X=XuXyXyXyXyXyXyXyXiXiXiXiXvXvXvXvXvXvXcXcXcXpXiXiXiXiXiXiXiXiXiXGXSXiXiXiXrXiXiXiXaXaXaXaXaXyXiXaXaXaXaXaXaXpXcXcXpXcXcXcXcXcXcXiX'.B.r.2.7.z.x.l.2...2.H.rXrX0X0XrXrXrXwXI.o.A 7 4 ",
"p u g g ` N.&X>X&X&X&X&X9X9X9X9X&X[.'.(.(.(.(.D.F.'._.{.].].}.}.{.{.}.@X$X$X=X,X*X@X&X*X*X*X*X9X9X9X9XyXyXyXyXyXyXyXyXqXqXqXqXqXqXqXqXqXqXqXFXVX0X0XwXwX0X0X0X0X0X0X0X0X*XqXqXqXqXrXrXqXiXyXiXyXiXiXiXyXyXiXyX'.B.r.2.7.z.x.z.2...X.F.9X0X0X0XwXwX8X8XP.o.A 7 4 ",
"p i M M R r.*X>X*X#X#X#X#X#X#X#X+X'.(.(.D.F.D.D.F.H.D.(./.].].].(.].{.{.$X$X=X>X{.$X*X*X*X*X,X,XyX9X9XuXuXyXyX9X9X9X9X9X9X9X9X9X9X9X9X9X0X0XSXbX8X7XW.W.7X7X7XW.W.7X8X8X&X8X8X8X8X8X7X#X&X9X9X9X&X*X@X*X$X$X@X'.B.r.2.7.z.x.l.,.{ ..B.*XyXiXyXqX9X9X9X'._ S 7 4 ",
"p i I I Y r.-XXX:X=X{.{.{.@X@X@X].(.(./.(.(.D.(.'.'.{.=X}.)._././.`.oX;X<X<X4X=XoX:X:X-X=X:X:X:X:X:X:X:X:X:X:X=X=X=X$X$X@X$X$X$X*X*X$X$X$X*XDXCX@XI.I.I.I.I.I.I.I.I.+X+X@X+X+X+X+X+X+X+X+X*X*X*X*X$X=X=X=X=X=X[.+X[.'.H.G.C.M.F.D.F.+X,X<X<X<X<X<X<X<X}.7.Y 9 4 ",
"p i I d Y 6.|.|.-X=X{.{.{.{.[.[.(././.(.(.F.B.(.'.F./._./.r.B./.`.|.|.oX=X=X:X=X:XXX|.oX|.|.|.|.XXXXXXoX{.{.{.{.{.{.{.{.}.}.{.{.{.{.{.{.}.@XCXzX@XI.I.I.I.I.I.I.I.I.I.+X@X#X+X#X+X+X+X+X+X*X*X$X$X$X=X=X>X=X$X[.'.F.r.D./.r.0.r.B.K.+X*X{.{.].}.}.=X}.[.2.I 9 4 ",
"p i I d Y 6.|.|.XX=X{.{.{.{.{.[.(././.].{./.B.D.'.K./././.N.e.r.D.`.{..X=X=X=XoX1XXX|.|.|.|.|.|.|.|.|.`.{.{.{.{.{.{.`.{.`.}.}.}.{.}.}.}.{.{.6X<X@XI.I.Y.Y.Y.I.I.I.I.I.+X@X+X+X+X+X+X+X#X&X@X*X>X=X$X>XyXyXyX*X'./.B.r.r./.r.2.D.K.K.K.].`.).).`.].}.].].+.G 9 4 ",
"p i U S Y 5.).).`.].].].].].[.]./.D.D.D._.(.B.D.'.'./._./.B.N.N.D.].{.}.=X=X=XoXXX|.`.|.`.|.|.`.|.`.`.`.`.`.`.].].].].].{.{.{.{.[.{.{.{.].}.CX,XK.K.I.I.I.I.I.P.G.G.P.+X@X+X+X+X+X+X+X+X+X{.@X$X$X@X$X$X>X>X$X'./.B.r.B./.D.K.+XH.b.F.'.].(.(.].].[.'.'.+.G 9 4 ",
"p p U H / 2./.(._.(./.D.D./.d././.d.r./._./.r.D.'.'.h././.D.n.e.N.].`.`.$X}.}.oX-X-X=X=X=X=XoX=X=X=X=X=X=X=X=X].].{.@X@X@X@X@X@X@X{.}.}.].}.zXyX+X+XH.o.o.P L F Z v.+X+X@X@X*X*X+X+X@X@X@X$X$X$X$X$X@X}.@X$X@X'.'.D.r./.[.@XK.n.7.,.r.S.[.@X+X+X@X@X+X+X@.G 9 4 ",
"p p U H / =XJXJXHXHXFXzX4XZX:XZXJX6X:X6XCX3X2X;X%XF.h.h./.D.N.N.N._.`.}.=X=X=X:X6X6X6X<X=X=X<X6X6XCX:XoX<X:X=X].].$X$X$X*X*X*X*X@X{.{.}.}.{.4X,X+X*XK.y Z Z Z e e n.*X*X$X*X*X*X*X*X*X*X*X>X>X>X>X>X*X>X*X*X$X[.'.F.(.[.+XH.b.2.{ { X.1.{.=X=X=X=X>X*X+X@.G 9 4 ",
"i i U a I ,XHXHXHXHXHXzX=X4XoX6XZX4X3X;X;X6XAX4X>XF.r.h.r.r.N.N.D._.`.oX=X=XoX:X<X<X<X,X$X@X=X:X:X:X{.{.<X=X].{.{.$X$X$X$X*X*X*X@X}.}.}.@X}.4XzX@X*XK.F H F e e e V.*X*X$X$X*X*X*X*X*X*X*X*X*X*X*X*X*X*X*X*X*X[.'.+X@XJ.F.t.r.5.1.5.5.r.{.>X$X@X@X$X@X+X+.G 9 4 ",
"i i U a S >XHX,XCXHXFXzX]./..X2X3XAXAX6XXX3X3X;X*XF.B.S.B.r.r.D.D._.`.}.=X@X=X:X;X;X=X,X*X@X[.{.}.{._./.}.oX}._.{.>X>X}.@X*X*X@X}..X$X*X>X*XzXzX}.*XF.A F Z e e e N.uXuX,X>X*X*X*X*X*X*X>X,X*X+X+X+X+X[.+X*X>X+X&X&XI.F.N.r.1.3.6.h./.).=X>X@X@X$X*X*X@X8.Y 9 4 ",
"i i M a S D.=XB.(.{.=XzX/.r._..X X2X2XoX X X_. X}.F.D.D.D.t.e.r.r._.].}.$X}.}.{._.(.(.$X[.(.D.D._.`.{.{.{.=X=X=X=X$X}.F.'.].{.{.{.{._./._.].,X$XF.[.>.e e e e 2 2 r.CX6X:X:X}.[.].].(./.].@X@XF.F.D.D.D.F.[.@X#X&XI.K.F.(.r...{ ` { X.1./.].)./._.{.{.].B.[ 9 4 ",
"i i M u A h.XXh.`.`.r.{.r._._. X X X XXXXXoXoXXX$XF.t.4.2.0.r.u.j.`.)._.{.{.{.|.).r.a.[._.d.d.D.D././.D.0.4.d._.{._.F.D._._.`.].].].h.5.5.r.r.t.0.r.F e e e 2 2 1 O.].{.}.}.].(.(.D.,.1.r.'.@XN.0.0.0.t.D.}.@X+XI.K.r.2.2.,.[ +.2.d.r.2.7.8.2.r.r././.F.r.` 9 4 ",
"i i M t a h.XXj.|.:Xr.,./.=X.X.X X X X XXX X.XoX@XF.8.| [ 2.r.u.j.)./.S./.].{._.h.d.D.{._.d.d.D.D.{.(..X:X`.h._.oX.XD.F.>XzX<X:X{.].h.r.r.r.r.r.[.D.y e e e 2 1 1 A 2.(.].F.D.(.(./...4.D.].@Xw.:.8.8.8.n.[.@X[.+XF.r.| I z d Y 2.D.t.&.=.7.=.+.&.] =.:.` I 7 4 ",
"i i M a H g.5Xg.g.5X_.h..X=XoXoX X X;X1X.X.X;X;X*X[.'.F.@X>X>X=X>XzXCXCXCXCXzXD.8.d._.{.{._.`.`.`.|..XXX:XoX`.{..X{./._.;XCX6X4X]._.h.`.|.oX:XCXCX[.H y e e 2 1 1 1 r.6X=XoX`.`.].r.Q Q ,./.{._.e.>.8.8.t.F.}.@X+X'./.2.Y H Q ' 4.a.&.W 4.d.h.r.t.;.A 1 t 7 7 3 ",
"i i M E ` XXCX.X`.|.r.r.h.d..XzXcXcXcXVXcXcXVXVXtX+X*X>XuXuX,X,XuXCXDXCXDXCX$X&._ r.h.`.(.r.d.r.r.h.`.)./.r.r.r.w.8.8.D._._.}.>X$X$X/.).{.}.:X6X<X@XJ y y e 2 2 1 2 6.:X=X<X-XoXoX1.z H Y d._.`.`.D.8.8.8.r.F.[.K.r.2.` I H Q W | 4.| ,.d.j./.F.m.;.y X t 6 7 3 ",
"i i M u a v.m.o.( ( Q ] &.2.&XVXSXSXVXVXVXVXGXGX&Xl.o.Q J ^ ^ ^ _ ( ( ] 8.H.H.a.h.h.r._.D.d.d.( H H 4._.d.Q Q ( d.F.D.a.0.0.+XrXtXjXC.H H ^ ] | 0.K.] Q J A y y Z H a O.N.&XtX*XS.U z J J =.w.t.r.8.8.>.8.t.D.K.V.7.&.R I H Q ' 4.4.4.4.d._.v.;.;.#.J X t t 7 3 ",
"i i g t e y Q Q =.=.Q K.8.t.FXHXHXHXGXSXVXyX@X[.J.:.| Q :.F.D.e.2.' H J ;.rXBX2X3X6X;X.X;X3X6X:X,.Q 4.3X;X] J J  X2X%X X X%XrXhXhXhXx.H ( _ _ ( &.:._ Q J A J L _ &.e ( 0.m.8XrXN.z z J J 8.:.7.w.>.;.:.:.t.D.K.V.7.&.R I H Q Q } } | 1.0.J.0.>.;.o._ 1 e 6 7 3 ",
"i i g u u a Q ] 2.,.| ,XD.r.FXHXHXCX4X$X[.J.D.d.D.t.4.4.a.D.d.r.r.4.&._ w.rXBX;X;X;X.X=X;X3X3X6Xd.' 1.6X6Xd.Q Q a. XF.D.%XtX&X&X9X9XM.9.0.4.r./.r.&.] ( ^ J Q ] ' ..` r.[.+XwXrX#X( U J U ' R R ] &.&.&.&.,.2.e.=.] [ R H d Q Q ~ W W | 4.F.a.a.d.6.4.U t 6 7 3 ",
"i i g U ! ' ,.r.h.r.r.].r./.uX,X{._._..X.X X X4.t.F.(.$X<X;X,X<X<X;X{.r.(.bXGXZX3X;X;X:X;X2X;XXXh.' ..3X2X_.X.1.j.oX.X>XvXyX=X=X=X*X*X>X.X`.}.XXh.&.' ` 7.1.1.1.1.u.|.<X<XzXVXcXvX$X3.X.X.X.X.X.d.`.`.{..X X.XyX&Xn.&.I d d U Q ~ N W W m.Q.&X3X5X5X5X1XR t 7 4 ",
"u i g g ! ' ,.1.5.3.r./._._._./././.[.%X%X%X,X;.;.w._._.<X4XzX,XzX4X<X,X<XSXFXCX,X,X>X>X>X;X4XzX$XJ y a.2X%Xd.r./.`.=XbXbXvXvXvXvXvXyX,X=X=X`.| | 8.J ` .. .X.X.3.h.-XCX:XzXbXbXNXyXu.3.X.X.! ,.,X2X%X%X3X2X3XVXNX+X7.R I I U Q ~ W W W m.0X3X3X5X5XZXZX..i 7 4 ",
"u i g g U e.F.0.1...5./.r.r.5.h./.d.(.}.[.H.K.o.o.w.oX=X<X=X$X<X,X<X<X<X<X<X4XuX&X+XH.[.(.(._.{.a.y y Q F.{.u.r.d.}.iXaXaXaXiX9X9X*X&X*X=X:X.X,.| a.L {  .6.1.{ X.j.-X1X=XuXyXyXyXiX#X' E ` E &.G.G.H.K.[.'.K.'.[.(.N.,.[ [ ] ' W W W W | F.J.J.K.J.[.'.H 6 7 4 ",
"u i g 7 e H J J a 7 ( ' I M U ' <.2.=.] ] ( ( J L $.7.O.O._ L _ O.O.=._ Y Y Y H J A J 7.0.| [ ,.,.y y y &.&.A J v.8X0XwXwXwXwX8X#XY.Y.I.F.d.F.2.| :.o.E r.D.r.h.`.`.`.|.`.r.( ^ o.C.wXv.7 e u Y Q Q Q ^ ( ( ( / R / 7.2.e.e.2.=.W ( | | W | | ( | ( _ | a t 7 3 ",
"u i d , 1 1 6 y a t _ | W ~ ~ ( &.:.o._ Q ] J A A J F A L L ( D o.G.l.Z e e e e e H Y 2.4.] ] 2.r.J y y ( H D #.8XwX8X8XwXwX8X8XrXrXY.@X#XJ.K.@._ m.;.W &.F.].oXoXoXoXoX{.].G.P.T.Q.wX8XP J a J J Y ( &.] ^ O.2.7._ =.:.H.F.t.&.Q | &.| W | | ( ( W ( ' t t 7 3 ",
"r i d , 6 a a J J ( 2.4.| 4.0.:.>.D.8.r.4._ J t 2 6 H O.F.w.8.H.K.+X=.A =._ J a _ ] | 2.4.| | r./._ y y A A L I.P.m.m.C.m.P.8X8XxXMXY.#XzX,X[._ S.v.J z Q D..X3X<X:X;X:X=X$XH.J.+X&XwXeXT.&.H.G.G.G.m.7.r.0.7.F.[.F.F.n.[.K.F.2.' ' ' | Q | &.| Q ( W Q t a 7 4 ",
"u i d , 6 a H z ' &.4.D.n.F.F.w.0.].r.r.r.Q J J A y 0.$X>XF.=.+XJ.J.=.J D.8.Q H &.&.&.2.4.| | d./.&.y y y J G.8XH.H.[.+XF.H.#X8XmXNXY.*XCXzX[.+.).' J _ &.r._.;XoX=X;X;X.X.X&X&X*X&XqXtXrXK.#X!.Q.Q.Q.Y.F.t.0.F.[.F.F.b.[.'.F.&.| | ~ ' Q | ' ] L Q Q W t A 7 7 ",
"u i d , 6 H ` Q 1.4.t.F.J.F.n.w.t.].(.d.D.Q J J A y '.uX>X@X>.*X#X%XJ._ F.t.2.H 2.4.r.0.0.&.&.d./.0.J y J H.qXqX=X=X:X:XoXoX@X8XcXbX#X$XCXCX$XB.).B.n.n.N.r.d./.d./.{..X].].9XtXqXrXqXtXrX&XI.K.K.K.[.$X].0.e.'.[.F.F.e.'.'.F.0.' ' Q Q J U i y y z J Q t A 7 5 ",
"u d d , 6 [ [ [ Q Q 8.D.n.v.w.:.0.].(.8.8.Q J J A J ].uX>X+X:.J.&Xv.Q J t.&.Q Y 0././.r.0.&.2.r.r.,.H A &..X;X;X:X4X4X4X<X:X=X=XzXCX;X4XZXZX<X=X=X=X.X.X.X.X=X;X;X;X=X:X.X.X>X>X*X*X>X;X*X*X$X/.r.d._.{._.8.2.D.(.N.N.7.'.'.D.t.| | ! ~ U z 0 t e t J ( t A t 5 ",
"u p i , t d 6 H t 2 J w.w.w.:.=.w.n.8.&.=.Q J L J J ].[.w.:.H.J.n.=.A y J Y H ( D.].r.4.2.&.<.r.r.2.J J &..X;XoX;X3X4X4X;X;X.X.XCXCX;X4XCXCX4X;X.X;X;X;XoXoX;X4X4X;XoX:X.X.X;XoXoX=X;X3X:X;X;X_.r.d._..X_.&.O.t.B.8.8.=.F.F.B.2.' | Q Q W z t t e t J ( t t 7 5 ",
"u p i , a 6 1 t t 2 6 =.w.w.w.;.0.n.:.&.&._ Q ( L J =.n.yXxX&XH.J y H Q ^ J a Q r.D.e.2.&.] 0.r.r._ y L o..Xa.Q O.r.(.].r.&.S Y {.=X(.$X.X$X$X=.&.=X;Xd.' | | _.h._ H &.2.] U H Y 4.| | h._..X_.r.d._..X{.&.&.r.F.0.8.=.N.B.N.8.[ ` ` Q Q z i i 0 i Q Q t 6 5 5 ",
"u d p , 4 1 2 A J J t ^ w.w.v.:.w.n.=.&.o.:.( A y ^ +XK.H.v.J 2 2 J =.F.J.A y A :.n.8.2.O.] 0.=.&.J y L =.$Xr.H ^ O.B.(.r._ a A (.$X/.[.D..X_.| &.=X;Xr.W | | r.r.y 2 S O.( a a Y | z 6 | d..X`.r.d./.{.{.] &.N.F.e.e.=.B.B.t.8.&.` ! Q ` U i a a H Y H a 6 4 5 ",
"u d d 6 6 t y a y 6 y ^ w.w.n.w.w.n.;.;.;.;.L Z 1 A P K D e Z D J >.*X*X[.K J J :.F.n.e.:.w.w.v.o.A J ( O.$X0.y J O.D.(.r._ A S (.=X[..Xr.d.a.r.a.;X;Xd.&.=.Q 2.`.y 4 I [ +.Y e y H t 1 W d..X`.r.r.d._.].>.9.V.H.n.b.:.V.F.V.e.2.] ( ( ( Y J a a J Y H y 6 3 4 ",
"9 d p 6 6 6 2 6 t y H O.n.w.v.w.w.w.l.x.x.#.J P K K o.P K Z K o.o.n.yX,X@Xo.P o.l.M.G.n.m.C.C.x.J J ^ _ ] .X0.y J ] r./.r.] H H (.=X.X.Xd.d.D._..X;X;Xd.o.L J 2.`.S e Y | ,.` 6 z z u 6 t 4..X{.r.r.d./.].M.C.G.I.M.M.l.H.K.H.V.e.=.O._ ( ^ Y Y J L L H y 6 3 5 ",
"9 d u 1 1 1 1 6 a J Q D.H.w.v.v.w.w.x.U.L.z.y P z.#.;.;.P J o.;.o.H.,X,X@Xl.P #.l.C.P.C.x.U.L.l.y Y ( &.&..X0.y J _ r.D.r.2.( &.[.=X=X.XD._./..X=X;X;Xd.o.L y | j.H t H [ 2.` 0 H U U a 6 ( .X`.d.r.r.d._.C.A.P.I.G.C.z.K.K.H.V.b.9.=.O.O._ ( ^ ( o.o.J t e 3 5 ",
"u d u $ 1 O 1 A _ =.8.n.F.v.w.v.w.:.P.R.R.Z.P P x.>.;.o.L o.;.w.$.+X*X,X+Xm.#.;.l.C.P.P.P.R.R.Z.o.( ( =.7..Xa.A J ;.7.0.[.'.D.(.{.=X=X.X/._._.$X;X:X:Xd.;.P t ` 1.d a d ] 8.' t H Q ' ! 6 a `.{.d./.r.r./.P.P.I.I.P.C.m.K.K.H.H.n.w.7.:.=.@.o.o.#.#.;.A 6 e 3 7 ",
"9 d u O 1 1 a ] &.:.0.n.F.n.v.C.v.=.P.!.R.R.L.Z.P.x.l.o.P v.;.n.;.+X*X,X+XH.#.;.l.A.U.P.U.R.R.R.!.R.R.R.T.$X+Xz.J #.7.2.'.[.(._..X>X=X{._._._.$X;X:X;Xd.l.Z.#.;.:.J t i ' 0.' a d Y [ ' 0 6 /..Xh._.h.r.d.I.U.T.Y.P.C.z.H.H.H.F.V.b.9.9.:.;.;.;.l.z.x.#.A 7 3 7 ",
"9 d u X 1 J ( ] ] 7.0.w.F.>.P Z.;.L x.R.R.R.R.L.Z.z.;.o.L :.o.H.>.J.*X,X+XI.;.l.z.P.R.U.R.~.~.~.~.~.^.~.!.>X+Xz.K #.F.r.D.(.(.].$X=X=X{._._._.$X=X:X;Xd.l.L.R.R.R.P 4 L o.2.` a a a ! ` t 6 a..X/._./.d.d.I.R.T.Y.C.M.;.V.V.V.N.n.e.9.7.7.>.>.z.x.Z.U.L.#.7 3 5 ",
"9 p u X 1 J ( ( ( 8.8.:.;.L K z.o.L Z.R.R.R.R.L.x.l.o.L L :.;.H.>.H.+X*X+XI.z.z.Z.U.R.U.R.~.~.^.~.~.^.^.~.yX#XZ.z.R.+X(.n.D./._..Xj.j._._._.[..X=X;X;X/.l.L.R.R.R.K z | W ,.r.' ' Q ' ' a J /..X/._._.h.d.Y.R.W.Y.A.m.:.b.N.b.e.e.e.7.7.:.:.>.m.C.P.U.R.l.u 4 4 ",
"9 d u O 1 6 t a H :.7.( J J F J L o.L.R.R.R.R.U.x.;.o.L L w.;.n.v.n.+X*X+XI.x.Z.Z.U.R.T.R.^.^.~.~.^.^.^.~.yX&Xx.P !.J.D.M.n.=.&.h.g.f.i.p.4.0.d./.=X;Xd.l.L.R.R.C.W N c m &./.r.4.&.d./././.{.oX/._._./.a.I.R.W.Y.A.m.;.e.e.e.9.8.7.2.2.:.:.>.l.C.U.R.R.l.7 4 4 ",
"9 d u O O 1 6 e a :.7._ J L J L P l.U.!.!.!.R.U.x.l.#.o.o.9.;.v.v.v.+X+X+XI.x.Z.Z.R.R.T.R.~.~.~.~.~.^.^.~.,XJ.o.A l.&.2.M.m.( Y ..g.g.f.f.f.B R ' .XoXr.#.U.U.l.m c m l m ` 4.| ' ] 4.4.,.&._.`.| [ [ ( C.R.R.W.Y.A.m.;.9.e.9.9.7.7.7.:.:.:.v.m.C.P.R.R.z.7 4 4 ",
"7 p 9 O , 6 t t J &._ L K L L P o.x.R.!.~.!.!.R.Z.z.;.#.o.v.;.>.v.l.K.+X+XI.Z.Z.U.R.!.T.R.~.~.~.R.Z.z.l.o.[.2.y y t H ^ @.@.^ ( &.]  .f.f.g.f.' ' {..Xd.J Q U w w l l w i Y I u 6 H ` z a y r./.S H I S x.R.R.W.Y.A.m.;.>.e.9.9.7.7.7.7.9.v.m.C.P.U.U.R.z.9 3 4 ",
"7 p 9 O , t t y a J J L J L L o.#.x.R.!.!.!.R.U.Z.z.l.;.o.v.;.>.>.>.G.+X+XP.Z.L.U.P.R.U.R.~.~.R.P x.Z.x.J _.=.y t a H Y ^ Y H Y | &.( } f.f. .Q ' `._.r.w x q j l l l * t H 7 7 1 1 7 t 0 t 4._.R R R R o.U.W.T.U.C.m.$.;.:.7.7.7.7.7.7.9.v.C.C.P.U.U.R.z.9 4 3 ",
"7 p 7 O O 1 4 6 t y a A J L L o.#.x.R.!.!.!.R.U.Z.m.l.l.;.v.;.>.;.l.G.+XY.P.Z.U.;.j =.P.R.~.~.P K !.x.K F ].K.o.t y A ^ =.O.( ( Y i Y ( Q ~ W Q ' `._.4.w l l c l l 0 e J H 1 O 3 t i a i 0 <.`.( ( ` ` / m.T.T.P.C.m.$.;.:.:.7.7.7.7.7.9.v.C.C.P.U.U.R.z.u 3 3 ",
"7 p 7 O O 1 1 4 6 e t e y L o.o.;.C.T.!.!.!.W.U.A.C.m.m.;.v.;.;.;.v.G.+XI.P.C.U.$.; > } T.~.~.#.K P K z.U.*XK.o.F J a ( :.O.( ] Y 7 a ( R Y U Q ' `._.d.m l l w w z o.Z.x.^ 7 4 7 7 d H I I 1./.I Q ` ` ( >.Y.Y.P.M.v.;.:.:.=.=.:.:.:.7.9.v.C.C.P.P.Y.U.z.u 3 3 ",
"7 p 7 O , e y y A F H A 4 F o.o.;.x.U.W.R.W.T.U.P.C.m.m.;.>.;.:.;.v.G.I.G.P.P.U.;.> ; j m.!.!.K Z x.R.!.R.$XH.#.o.;.a Y =.O.( ( R d Q ( Q Y U U Q _.h.p.i.n 0 0 w ;.T.T.C.^ z R I 7 0 I U U 2./.d R ` ` ` >.P.P.G.M.v.:.:.:.=.@.=.:.:.7.9.v.M.C.P.P.Y.U.z.u 3 3 ",
"7 p 7 O , e y A A H H A 7 H o.o.l.C.U.T.W.T.U.P.G.M.M.m.>.>.:.;.;.v.H.K.G.C.P.U.m.j ; ; z T.x.Z z.W.Q.R.T.$XF.l.O.;.^ Y =.] ( ( I d ] [ ( Q U I Q `.d. .f.i.; a o.o.( :.>.( M U R I t i U U 1.`.U Q R Q ` 9.G.P.C.m.v.:.:.:.=.=.=.=.:.7.9.v.m.M.G.P.P.P.l.u 3 3 ",
"5 i 7 O O 4 y S H H H H A L O.#.l.C.U.T.W.T.U.P.P.C.M.m.>.>.:.;.:.v.H.K.G.P.P.U.P.N > ; j w.D y x.#X7XU.P.@Xn.#.L ^ S / =.] ( Y I z Q B l z U z Q `.| V f.f.c o.$.0 m ~ N l l m I R d u I R 1.`.Q ! ` ` ' 9.C.G.C.m.v.9.:.:.:.=.=.=.:.9.9.v.n.M.G.P.P.P.l.u 3 3 ",
"4 i 5 , O 3 a S H Y ^ Y L ( o.;.l.C.P.T.T.T.Y.P.P.G.M.v.>.;.:.;.:.v.H.G.n.=.0.G.T.=.j > j q.#.P P.@X].4.C.{.8.o.( A e H [ ] Y U I I R j ; j ; 0 U  .; h f.g.W z l j N B B m l l M U p u I R 1.`.` ` ` ` ] 9.M.G.C.m.v.7.7.7.:.=.=.=.:.7.9.v.m.M.C.G.P.P.l.u 3 3 ",
"4 i 4 , , O t H Y ^ ^ ^ ^ O.@.;.m.C.P.Y.T.T.Y.P.P.G.M.v.>.:.:.;.:.v.H.G.v.j j m =.G.N w > ( o.P P.$Xj.W ;.[.8.o._ Y Y ` [ ] ( Y Y Y [ W j B w # > v % # l V i c q x x j x c m w z U I M U ! 2.{.[ ` ` ` ] 9.M.C.M.m.v.7.:.7.7.=.=.=.:.7.9.v.m.M.M.C.G.C.l.u 3 * ",
"4 u 3 3 3 , e H ^ ^ ^ ( _ o.$.;.l.C.P.Y.T.Y.Y.I.P.G.M.v.>.:.:.:.>.v.H.H.v.m w > > W | B j > z ;.D.p. .Q #._.2._ Y Q / [ [ ` Q R R R ' m > v N w h h ; # * 0 l l l m c x c v z i d U U ! ` ` 2.{.[ ` ' ' +.7.n.M.M.m.v.7.7.7.7.7.=.=.:.7.9.v.m.M.M.M.C.C.;.u 3 3 ",
"3 9 3 3 3 t A Y ^ ^ ^ _ O.@.;.;.v.C.I.Y.Y.Y.Y.I.I.G.M.v.>.>.:.:.9.n.F.H.H.&.N j > j B  . .W > W V V n Q @.W m U U Y Y [ | m l l w z z w = c B c > ; q w w 0 j m N c j j N ~ z z z R ` ` ` ` 1.{.&.' ' ] +.9.b.n.n.b.w.9.7.7.7.7.7.7.7.7.9.9.b.n.M.M.M.C.;.u 3 3 ",
"* 9 3 3 6 S H Y ^ ^ _ _ o.@.=.:.l.C.G.P.I.I.P.P.G.M.m.>.>.:.:.:.w.n.v.| W W B B l B n  .p.G.z > x v x z z w w U R ( ~ ~ W m l j > # % % = x B j ; z h.g.f.B w l N c w j ~ ` z z z U ! ` [ ` ,.{.,.' ] O.+.7.b.n.n.b.9.7.7.7.7.7.7.2.7.7.7.9.v.m.m.m.n.m.;.u 3 @ ",
"* 7 3 3 6 S H Y ^ / _ o.@.@.@.:.>.v.m.C.C.M.M.M.n.b.w.7.:.=.=.:.w.n.:.j > j j N V } B B  .P.( % j h j j j l 5 M Q | | ~ B j > > w ; ; % % j B w 0 0 p.k.k.g.c ; c v m i i ( U z I U ! ` ..[ ,.{.,.+.+.+.=.7.b.b.n.b.e.7.7.7.7.7.7.7.7.7.7.9.v.v.m.m.m.m.;.a 3 @ ",
"@ 7 3 O 4 A S Y ^ ^ _ O.O.@.=.=.>.v.m.M.M.M.n.n.m.b.9.7.=.=.=.7.n.n.:.z j l j w N } ~ n  .G.J # j > j l j m R ' ~ | ~ l w w w l w 8 w z 0 ; x ; m w B g.g.k.B ; * ; M Y I Y m z z m ~ ....,...6.,.&.&.&.2.7.b.b.n.b.e.9.7.7.8.7.7.7.7.7.9.9.v.v.v.v.v.l.$.t 3 O ",
"@ 5 * O 6 S H Y / _ ] O.O.@.=.:.>.v.m.M.H.H.M.n.b.w.7.7.=.=.7.e.n.w.w.| v j m l c m B W B W > # j j j j q Q ' B N W U w w ; ; j l m B | w * > 0 U z l N  .V w 0 # ; p U I z l m c c N N B ' ..,.2.2.2.2.7.9.b.b.b.b.e.9.7.7.7.7.7.7.7.7.9.9.b.v.v.l.v.>.$.e 3 O ",
"@ 5 @ @ 7 H H / _ ] ] O.+.&.=.:.9.v.n.V.V.V.n.n.b.w.7.7.7.7.e.b.b.8.&.| N B w l l > l z m c ; 0 c m c l w l w j z 0 z U U z M w j m ~ ..0 * = 8 W m m l ; $ ; * % w w M w c m m N N c c c c B X.2.2.2.2.7.9.b.b.b.b.e.9.7.7.7.7.8.8.8.9.9.e.b.b.v.v.v.>.$.u 3 O ",
"O 3 O , 7 H Y ( ' ] O.+.+.=.=.:.9.b.n.V.V.V.V.n.e.e.9.7.7.9.e.e.| m w W m m l > > % ; % c > z Q B m N w % ; > z ( ^ i z z z w w c m } Q * = = ; z m p l 0 w w w w m j l j c c l c c c c c c c } 5.8.2.7.7.9.b.b.b.e.e.9.7.7.7.7.8.8.8.9.9.9.b.b.b.v.v.>.$.u 3 O ",
"O 3 O , 7 Y Y ' ] O.O.+.&.=.=.7.w.b.V.V.V.V.V.n.e.e.e.7.9.0.r.| l > w m W m j % % % ; ; w % m  .~ z ; % % > j l Y U 0 ; ; w w l m m W l * ; = 8 w 0 * 0 * w j j l m h > > j j j l l l c c c N ..0.8.7.7.7.e.b.b.b.e.9.8.8.7.7.7.7.8.8.9.e.9.9.b.b.v.v.>.$.u 3 O ",
"O 3 O 1 e Y ^ ' ] O.+.+.=.=.=.7.e.n.n.V.F.V.V.n.n.e.e.e.2.W ,.W j j c j q m c j l B l % % # V y.B w * ; ; > h j w 0 i z R U w q x m l ; * w w > > % # # # w j j l c j > > j c N N N N c m W ..2.0.0.8.7.8.e.e.b.b.e.9.8.8.7.7.8.8.8.8.9.e.9.9.v.b.b.v.>.#.u 3 O ",
"O 3 O 3 u Y / ' O.+.+.=.=.=.7.w.e.n.n.V.F.V.V.n.n.b.b.e.W W U w ; w c c > j j j N } c $ # f y.y.x % = > j j j j c ; 5 w p * w j c m ; w j x x j > ; % % $ ; j j c h l z % > j B B N B ~ ..1.2.2.r.0.0.8.8.9.e.b.b.e.9.7.7.8.8.7.7.8.8.8.9.e.9.9.9.v.v.9.$.u 3 O ",
"O * O 3 u ^ / ] +.+.=.=.:.7.e.b.V.V.H.G.K.K.H.H.V.V.V.&.p ] O.z ; 8 w l ; % * % j c ; * % c C y.C X . $ ; w j w x l ; w l N ' m v w # > N N c w > ; ; ; $ * w l > ; ; ; % > x B c ..5.5.1.1.5.5.r.r.0.8.8.9.e.e.e.e.9.8.7.7.7.8.7.8.8.8.8.e.9.9.9.9.9.9.$.a 3 O ",
"O * O 3 u ^ ^ ' O.+.=.=.7.e.b.V.V.H.G.K.K.K.K.H.H.V.N.z z N.0.m x N c j ; % $ $ q w % % $ . = q ; .   . $ $ 0 d 8 w 8 m N | ' q j % # > N B x j j > > ; X 0 ; ; % > > > % % q x j ~ ~ m j  .5.2.0.0.8.8.8.e.e.b.b.e.e.8.8.7.7.7.7.8.8.8.8.e.9.9.9.9.9.9.$.d 3 O ",
"X @ O 3 u ^ / ] O.O.=.:.7.e.b.n.V.H.G.K.K.K.G.H.H.V.=.z e.r.N x m m m m m ; # . $ * . # . $ w w ; . o J a 4 X u z 8 m x = m m : * o % > N V N c c j > . . m > $ $ ; j j > ; > w l j ; j j C 6.5.r.r.0.0.0.e.t.b.t.e.e.8.8.8.8.8.7.8.8.8.8.e.e.9.9.9.9.9.$.S 5 O ",
"X @ @ 3 u ^ / O.O.+.=.7.9.e.b.N.V.H.H.G.K.K.H.H.F.F.( =.N.~ j c = = l m B w % % # # . X . = c c w o X 4 3 * X * i B B 0 = w m q = * ; ; v } B c > ; *     m ; . * j j j j > ; ; > l j v v n 3.r.r.r.0.0.0.e.e.e.e.e.e.0.8.8.8.8.8.8.8.8.8.9.e.e.9.9.9.9.$.S 5 O ",
"X @ O 3 a ^ / ] +.=.7.9.e.e.b.N.V.F.H.H.H.H.H.F.V.V.` r.| q c w X = N ~ m w j h ; % . . . q B x ; % *       . * m B 8 l m q j ; X $ * % % w w % % ; > %   % . . = x c j c v > ; w j j j ; c 1.r.r.r.8.0.0.0.e.t.e.e.e.8.8.8.8.8.8.8.8.8.8.8.9.e.9.7.9.:.$.S 5 O ",
"X O O 3 a ^ ( O.+.2.7.8.e.e.b.N.V.V.H.H.H.H.H.V.F.V.e.N.m > j j : = x j % * c v h # # % . w B : $ : c 8 o     = l * ; j q j w * . * ; = = ; % % > > j ;   .   . * q v c c B c ; w c l q > m 1.5.r.r.8.8.0.0.t.t.e.t.e.8.8.8.8.2.8.8.8.8.8.8.8.9.8.7.7.:.@.S 5 O ",
"X @ O 3 a ^ / ' +.2.7.8.8.e.e.N.N.V.F.F.H.F.V.V.V.N.V.0.w ; x c > % > % * * ; c j # % h > $ m * $ 8 N c = o o 8 * X ; : q c w $ = q c m B ~ w > > h x %         . X w N N B N > : j q j x ! 5.5.5.r.8.8.0.0.0.t.t.t.0.0.8.8.8.8.8.8.8.8.8.8.8.8.8.8.7.=.@.d 5 O ",
"X O O 3 a ^ ^ ' =.2.2.7.7.8.e.e.b.N.V.V.V.N.N.N.N.N.e.z = ; j x = ; * X w m * j > % > v C c j : * = x c * o + & + X ; ; w v : o x B B ~ ~ x q j j x j .         . . % j B B B > : j q c c m ..2.2.2.0.r.0.0.8.0.0.0.8.8.0.8.8.8.8.8.8.2.8.8.8.8.8.8.7.@.O.d 5 O ",
"X O O * a ^ ( +.&.=.2.2.7.8.0.e.e.b.N.N.n.b.N.n.N.e./ X X > > : = + . . w 8 ; v j j v n C C j j & + = q + o + & + = ; ; j j * o B B } N l $ x B N x ;         . . # # ; j B B ; % l q x x : B ~ ~ ,.2.2.2.2.2.2.8.8.2.2.2.2.2.2.2.2.2.2.2.2.2.2.2.7.7.@.O.d 4 O ",
"X O O * a Y ` ] +.+.+.&.2.2.2.7.8.0.e.e.7.e.e.e.8.R g 5 : > % * * X X $ : * w v x V V C C C v c = o o & * + * 8 * 8 % % ; % # * B B m 8 $ o x N c ; % o         # % % % q B c ; # j w c x % w l x ~ ,.2.2.2.2.2.8.8.8.2.2.2.2.2.2.2.2.2.2.2.2.2.2.2.2.=.O.d 4 O ",
"X O O 3 7 u a a a d d d S S I I I Y Y Y Y Y Y Y I u g m q : * X * 5 u 8 = X j v h V C C V C x v 8 + * 8 8 8 & & 8 = % > > > o X B ~ q = $ * > h ; ; ; w = * $ $ % ; % % ; c j > . ; > v q * % ; j B U U R R R R R R R / / / / R / / ( ` ` ` ` ` ` ` ( ( / d 4 O ",
"X @ @ 7 7 e u u u u a a d d d S S S S S S S H H S d d 8 : * @ * * 8 w u 8 8 q h h V C C n b j c q * m E ~ { { E = % w N B : X X m B w q * $ % > % w m B q % * = x ; X $ * > h ; X X > v 8 * % % > x p u a p a d u u u u a a p p d d d d d d d d d d d d d d 7 O ",
"X O * 3 @ 3 3 3 3 3 3 3 3 3 3 3 3 3 3 4 3 3 4 3 3 4 5 : : * * * * * * * * * q h h b C V b v > c q * 8 g g g M g + ; B B x * X X : l w w ; $ % % = B ~ ~ l : * * > > X $ $ % v > * X * % = = * ; > q 0 7 9 r u u u r r r r u u u u u u u u u u a p p u u u u u O ",
"O * O X X X X X X X X X X X X X X X X X X X X X X X X : : 5 * * * * 5 8 5 4 : h h x C n b b > x 8 * * 8 8 8 8 *   ; j c > % . X 5 w w w ; $ $ $ = B B m l w X $ > v % X o X n v * @ O X * * * * % ; X X X X X X X X X X X X X O O O O O O O O O @ @ @ 3 * 3 * O "
};
