/* XPM */
static char *bookshelf[] = {
/* columns rows colors chars-per-pixel */
"128 128 256 2 ",
"   c #FF00FF",
".  c #1B1B1C",
"X  c #151416",
"o  c #0F0E11",
"O  c #1C1D26",
"+  c #261E24",
"@  c #242224",
"#  c #2A2829",
"$  c #352A29",
"%  c #333233",
"&  c #3A3839",
"*  c #2F2E32",
"=  c #231E1E",
"-  c #453A39",
";  c #573837",
":  c #4B2F2D",
">  c #703939",
",  c #46423C",
"<  c #57453A",
"1  c #77473B",
"2  c #68493B",
"3  c #3A3B45",
"4  c #2C354F",
"5  c #2B385E",
"6  c #4B3E42",
"7  c #763748",
"8  c #443C6C",
"9  c #3E4246",
"0  c #384B59",
"q  c #3C526E",
"w  c #3E6772",
"e  c #4B4A4C",
"r  c #464546",
"t  c #564948",
"y  c #59534D",
"u  c #494B54",
"i  c #554A52",
"p  c #5B5B5C",
"a  c #565557",
"s  c #4A5251",
"d  c #664A47",
"f  c #784947",
"g  c #68554B",
"h  c #755749",
"j  c #655859",
"k  c #714E55",
"l  c #67665A",
"z  c #776655",
"x  c #595B63",
"c  c #4D5671",
"v  c #665B63",
"b  c #795B66",
"n  c #5D6368",
"m  c #506874",
"M  c #636364",
"N  c #6C6B6C",
"B  c #686668",
"V  c #756B68",
"C  c #77726A",
"Z  c #696C73",
"A  c #766C77",
"S  c #6C7277",
"D  c #737374",
"F  c #797879",
"G  c #6C756C",
"H  c #5D6453",
"J  c #8A493B",
"K  c #88384C",
"L  c #864545",
"P  c #955757",
"I  c #8F5550",
"U  c #AE5251",
"Y  c #866858",
"T  c #916E53",
"R  c #B26655",
"E  c #8B596B",
"W  c #AF586A",
"Q  c #876868",
"!  c #996A67",
"~  c #87756C",
"^  c #867978",
"/  c #957372",
"(  c #A66968",
")  c #A67A6A",
"_  c #B37272",
"`  c #D24658",
"'  c #C87170",
"]  c #C86461",
"[  c #853C3E",
"{  c #7A8A70",
"}  c #5F807E",
"|  c #89837A",
" . c #97877A",
".. c #B38A67",
"X. c #AF8871",
"o. c #BAA675",
"O. c #979766",
"+. c #D78A5C",
"@. c #DA9664",
"#. c #C88975",
"$. c #D18C72",
"%. c #CDAC79",
"&. c #E3AF66",
"*. c #E7CE6A",
"=. c #D9C762",
"-. c #396D98",
";. c #4F728C",
":. c #797B86",
">. c #6C758E",
",. c #5F66A4",
"<. c #867C86",
"1. c #93758C",
"2. c #AD758B",
"3. c #A16F95",
"4. c #D7778B",
"5. c #568A98",
"6. c #508892",
"7. c #7B8486",
"8. c #728B96",
"9. c #4F93A8",
"0. c #6798B9",
"q. c #708EA8",
"w. c #55A6AF",
"e. c #71ADB2",
"r. c #77C3BB",
"t. c #5195C4",
"y. c #56A5C2",
"u. c #7AA5C6",
"i. c #6EA9CB",
"p. c #64B6EA",
"a. c #64A5D5",
"s. c #6ECACB",
"d. c #50C3CD",
"f. c #3F9DA9",
"g. c #848384",
"h. c #8B8B8C",
"j. c #878788",
"k. c #94898A",
"l. c #86948B",
"z. c #98938C",
"x. c #888994",
"c. c #988995",
"v. c #8A9496",
"b. c #949393",
"n. c #989898",
"m. c #A68A86",
"M. c #A69788",
"N. c #A58B95",
"B. c #A39D9A",
"V. c #A69B97",
"C. c #B69190",
"Z. c #90A798",
"A. c #A5A19D",
"S. c #ACA39A",
"D. c #B2A790",
"F. c #989BA5",
"G. c #8996AB",
"H. c #AC9AAA",
"J. c #9CA4A6",
"K. c #96A7B9",
"L. c #91ABB7",
"P. c #AAA5A3",
"I. c #ACACAB",
"U. c #A6A7A7",
"Y. c #B4A9A7",
"T. c #B6B3AC",
"R. c #A8AAB5",
"E. c #A9B4B8",
"W. c #B4B4B3",
"Q. c #BCBBB4",
"!. c #BBBBBC",
"~. c #B7B7B8",
"^. c #ADB0AF",
"/. c #CE948D",
"(. c #D7B896",
"). c #CBA98E",
"_. c #E6B995",
"`. c #C6A7A8",
"'. c #C6B7A9",
"]. c #C5BAB7",
"[. c #D2B5B1",
"{. c #E49999",
"}. c #B9D293",
"|. c #BCC5B8",
" X c #D2CC96",
".X c #C8C3BC",
"XX c #D8C7B9",
"oX c #D1CAAA",
"OX c #E4C8B6",
"+X c #ECD0B0",
"@X c #EAC59B",
"#X c #86A7C6",
"$X c #93B2CD",
"%X c #A7BBCA",
"&X c #BCBDC2",
"*X c #B5BBC8",
"=X c #ABADCB",
"-X c #90A7D3",
";X c #C4BDC3",
":X c #CCBEC9",
">X c #BEC1C4",
",X c #B9C7C8",
"<X c #AAC5D6",
"1X c #B7C8D5",
"2X c #B3D1CB",
"3X c #A7CEDF",
"4X c #C3C3C4",
"5X c #CBC4C3",
"6X c #C4C5CA",
"7X c #C5CBCD",
"8X c #CBCACD",
"9X c #CAC9C7",
"0X c #D4CBC9",
"qX c #D9D3CB",
"wX c #CCCCD2",
"eX c #C6C9D5",
"rX c #D2CCD5",
"tX c #CBD3D8",
"yX c #D3D3D5",
"uX c #DAD5D3",
"iX c #DBDAD4",
"pX c #D3D5DA",
"aX c #D5D9DD",
"sX c #DBDADB",
"dX c #D8D8D8",
"fX c #C8D2CC",
"gX c #E3D8CA",
"hX c #E2DDDD",
"jX c #E5DBD5",
"kX c #EAD2C9",
"lX c #DCE2D6",
"zX c #E4E3DD",
"xX c #ECE6D8",
"cX c #F0ECDC",
"vX c #CCD9E2",
"bX c #D5DBE1",
"nX c #DADEE3",
"mX c #DADAEA",
"MX c #D0CDE2",
"NX c #E2DEE5",
"BX c #DDE1E5",
"VX c #DDE3EA",
"CX c #D4E3EC",
"ZX c #E4E4E4",
"AX c #E3E4EB",
"SX c #E5E9EC",
"DX c #EBECEB",
"FX c #EAE8E4",
"GX c #F1EDE6",
"HX c #F1F2ED",
"JX c #EBEDF1",
"KX c #E5E7F2",
"LX c #EDF1F3",
"PX c #F3F4F4",
"IX c #F8F8F8",
"UX c #EEF1EC",
/* pixels */
"                                                                                                                                                                                                                                                                ",
"                                                                                                                                                                                                                                                                ",
"                                                                                                                                                                                                                                                                ",
"                                                                                                                                                                                                                                                                ",
"                                                                                                                                                                                                                                                                ",
"                                                                                                                                                                                                                                                                ",
"                                                                                                                                                                                                                                                                ",
"                                                                                                                                                                                                                                                                ",
"                                                                                                                                                                                                                                                                ",
"                                                                                                                                                                                                                                                                ",
"                                                                                                                                                                                                                                                                ",
"                                                                                                                                                                                                                                                                ",
"                                                                          `.]         7XVXbX                                              b                 J.B n R.R.*XjX                                                                                      ",
"                                                                      #XtX`.' P d   & J.NXbX                                      zXdXM & d 8.0 3   8.$X  ^ ].D S =X=X*XuX                                                                                      ",
"                                                                    yX1X1X`.4.P d c 3 v.nXaX7X                                  M dXyXB j V 5.0 a x.v.%X^.| .XD :.=X=X:XuX                                                                                      ",
"                                                                    rX1X1X]./.! t c 3 j.NXwXfX                                # p GXdXN V.N.5.0 x <.G.,XT.j.qXA :.=X=X:XqX                                                                                      ",
"                                                                    rXeX<X5X/.( d m 9 :.BXwX,XZ.                              # l ZXyXN V.N.5.0 e B 8.,X^.k..XA :.R.=XeX0X                                                                                      ",
"                                                                    rXeX<X0X/._ d m 3 S dX8X4Xn.                              # M ZXyXV V.N.5.0 9 a 8.1X^.k.~.B :.R.=XrX].                                                                                      ",
"                                                                    rXrX%XyX/._ d m c S yX8X5XN.                              * N ZXyXv z.c.5.0 9 x G.fXU.b.~.Z x.R.=XrX^.                                                                                      ",
"                                                                      rX$XyX)./.d c c Z wX7X,XW.                              r F ZXyXB V.c.6.0 r p G.1XU.n.W.B x.H.=XrXP.                                                                                      ",
"                                                                      eX%XyX'.).k c c m tXtX,X4X                              r ^ ZXyXB V.c.6.0 e x q.tXI.^.~.x 1.R.=XrXV.                dX                                                                    ",
"                                                                zX    rX%XtX'.).k x ;.m 1X1X,X.Xj.U.].]..X4X!.!.Q.j.y B k.z.  & ^ ZXwXN S.~.8.s e x 8.eXW.T.^.D x.R.=XrXV.              ].hXDX                                                                  ",
"                                                                HXBX  rX%XwX'.).f i ,.0.<X<X,XQ.M k.Y.Y.Y.`.V.:.V.X. .V.D.D.y & F ZXyXB P.|.8.s r d 1.`.C.C.C._ 2.2.N./._ U U       ~.Q.Q.zXPX                                                                  ",
"                                                                DXyX  rX*XeX'.).h i ;.5.<XtX,X^.p p n B M p x x M B N N n M M e D ZXwXM P.W.5.0 ; U ` ] ] ` ` ` ` ` ` ` ` ] ` _ Y.T.Q.    GX                                                                    ",
"                                                                UXQ.&XrX1X1XoX%.h j 7.g.oXXXoXD.Y ^ <.<.j.^ 8.9.9.9.9.9.6.6.9.6.q.BX8Xj S.I.6.e d P W 2.2.W W P K 2._ ( ! E E >.1.x.      DX                                                                    ",
"                                                                HX4Xn.rX*X<X].%.h T &.*.*.*.%.$.$.$.$.#.$.$.x.y.w.y.y.y.y.y.i.i.$XaX4Xi V.J.w G F.7.,.u.q.>.#XG.Z 0.$XJ.D.,.,.,.,.,.      HX                                                                    ",
"                                                                HXFX  ~.1X%X.X).T ..*.*.*.*.&.%.%.(.).%.%./.`.,X,X,X,X,X,X7X7X,X5XBXyXj.^.W.v.].7X,X%X%X|.,XtXyX4XtXmXtXdXMXMXMXMXnXPXPXHXPX                                                                    ",
"                                                                DXDXGXGXDXFXDXGXzXzXcXcXcXcXcXGXGXGXGXGXGXGXHXHXHXHXUXUXDXDXDXDXDXDXDXGXGXGXGXGXGXZXZXZXzXzXzXzXZXhXhXDXZXhXsXdXyX0X8X0XdXPX                                                                    ",
"                                                                HXzX9X.X.X^.W.W.W.W.W.W.W.W.W.W.W.W.^.W.W.W.^.W.^.^.^.^.^.I.I.I.P.I.I.I.I.P.P.S.A.A.V.A.V.A.A.I.^.P.I.9X].^.P.S.A.A.A.  0XPX                                                                    ",
"                                                                HXsX.XQ.I.h.z.h.z.z.z.z.z.z.z.z.z.z.n.n.n.n.n.V.V.A.A.A.A.V.A.n.n.V.V.A.A.A.A.P.P.P.I.I.I.^.~.].].Q.Q.].^.Y.P.P.        dXPX                                                                    ",
"                                                                HXUX  .X.XQ.Q.Q.Q.Q.Q.Q.Q.Q.Q.Q.Q.Q.Q.Q.Q.Q.Q.]..X!.|.!.|..X.X4X4X.X.X.X.X.X.X4X4X9X9X8X9X9XyXuXuXyX.X].Y.              hXIX                                                                    ",
"                                                                HXHX  yXqX9X.X|..X.X.X.X4X4X4X4X5X4X.X5X5X.X|.Q.Q.W.W.I.I.I.I.U.n.Z.U.n.v.h.h.j.j.F D F F j.h.h.h.v.U.zX                zXIX                                                                    ",
"                                                                HXHX    .X                                                            p p p j M p p p p j B B B B x v.GX                ZXIX                                                                    ",
"                                                                HXHX    9X                                                        C | F h.n.j.M N N.N.m./ ^ a e p p n.HX                GXPX                                                                    ",
"                                                                PXHX    9X    D D D F F                                           C C ~ ^ / ~ Q ! ' ' _ _ W W U U _ /.HX                DX                                                                      ",
"                                                                  PX    4X    m ;.-.-.-.-.;.;.;.;.;.;.v.j.j.>.c.n.              y j z ( _ /././.{.4.{.{.{.{.{.{.{.[.kXDX                HX                                                                      ",
"                                                                  ZXE E / k 7 S q.q.0.0.0.0.0.0.0.0.e.>XyX0Xk.V.V.V.M.V.V.V.m. .^ Q Q ; :.<XsXjXgXyX0XdXzXaXaXfX,X^.Q.I.                PX                                                                      ",
"                                                                  hXP K K K K K K K K K K 7 7 K 7 % % % Q V.b.^ F B ^ ^ j r a N % 6 n * 9 Z.W.oX XM.j.U.I.T.'.T.l.G G G                 PX                                                                      ",
"                                                                  ZX].[.[.[.[.`.`.Y.N.C.C.C.C.C.N.F.E.F P 1.0 & V.k.B.U.D e e S a 7.*Xu . D h.U.|.^.R.J.J.E.E.v.j.:.x.v.              yXPX                                                                      ",
"                                                                  DXqXjXjXxXxXxXFXGXjXjXFXHXHXGXGXwX1Xv.W 1.0 - ].P.n.U.j.M & Z p j.E.p X D n.%X<X1X1XvXvXvXvX>X>X!.>X8X4X            sXPX                                                                      ",
"                                                                  JXR.C.C.`.`./././././.).).).(./ >.1Xv.W c.;.B T.P.R.U.j.B * S a | ^.Z X N h.n.n.n.I..X0X5X].].'.'.`.'.].            sXIX                                                                      ",
"                                                                  JXi.t.t.t.i.u.i.t.y.t.t.t.0.#Xw x 1Xj.P 1.K.P.Y.V.W.U.F N # B e | J.S X p V V ^ ^ ^ ^ ^ ^ M.V.M.M.M.M.z.            BXIX                                                                      ",
"                                                                  UXb.x ;.,.0.0.0.0.i.i.;.c c c 3 Z 1Xj.P 1.E.5XU.c.J.J.D N O x e F n.7.. n l.8.v.b.v.8.8.} S 8.7.7.7.j.{             ZXIX                                                                      ",
"                                                                  PX/.W W W ' ' ' _ C.C.2.W W W W 1.%X7.P ^ K.].N.^ x.F.B N . x e B h.7.. # G Q.Q..XL.e.e.r.r.s.|.XXXX'.              ZXIX                                                                      ",
"                                                                  PXH.k.c.c.N.N.N.N.c.k.k.1.1.c.c.:.8.>./ H.,X0XY.P.~.7XR.W.n.I.p S g.j.. X B .X.X.X%Xr.r.e.e.e.J.V.S.Y.b.            DXPX                                                                      ",
"                                                                  IX~.j D D Z v.h.n.n.v.j.x.v.v.v.7.U.v.b.JXAXAXAXVXBXAXAXAXAXAXN B F v.* $ D j.h.n.E.,X,Xl.D { { V C h.j.            DXIX                                                                      ",
"                                                                  PXT.v S Z N :.j.j.n.n.F B B N Z D n.N F DXaXaXaXbXbXbXbXaXbXAX:.n N n.* = M S B F 7.v.v.n.n.n.n.D B Z S             DX                                                                        ",
"                                                                  PXZX0XyX8XyX8XQ.^.>XfX7XfXyXdXdXdXW.9 j JXnXaXaXbXbXbXaXbXbXKXn.a p j.& = N n.n.J.J.U.U.~.>X7X!.U.R.~.*X            PX                                                                        ",
"                                                                  IX4Xl.J.U.J.l.7.7.l.v.J.^.^.U.^.b.v.9 t AXSXbXaXnXbXaXaXbXnXJXU.s p V e * n.sXyXaXaXsXZXZXzXzXzXlXlXlXqX            PX                                                                        ",
"                                                                  PXW./ 3.x.q.9.;.m >.>.>.>.>.>.>.A 0 * - hXIXKXAXAXAXAXAXVXKXLX~.e p a e . B }.oX~.}.}.}.}.}.}.}.}.}.}.}.}.          PX                                                                        ",
"                                                                  PX!.D q.9.9.w.9.9.w.w.w.w.w.w.9.w.6.* $ 0XSXBXnXnXnXBXnXVXVXJXwX9 r 3 e . s Z.Z.x.v.l.l.l.l.l.7.>.:.:.:.<.        yXPX                                                                        ",
"                                                                  IX4X8.3Xs.d.d.s.s.s.s.s.s.s.s.d.d.w.& $ ].SXnXnXnXnXAXAXVXVXKXaXr 3 % 3 % e m <.1./ E ! ( _ _ _ _ 2./.' ' /.      sXPX                                                                        ",
"                                                                  PX8X5.w.w.f.f.9.9.9.9.9.9.9.9.9.9.6.& $ Y.JXBXVXVXVXSXJXVXVXVXnXa % % j z.Y.8X0XOXOX_.@XOX+X+X_.&.&.&.&.&.&.      NXPX                                                                        ",
"                                                                  JXsXn.j.:.n n n n F D x n B B B S F F C I.JXSXSXSXSXSXAXVXVXVXnXI.U.A.^..XyXDXFXxXxXkXkXkXkXkX+X+X+X+X+X+XkXxXDXPXPXIX                                                                        ",
"                                                                    UXZXZXBXBXsXBXBXZXZXZXZXZXZXFXFXFXGXSXDXDXDXDXDXDXDXDXDXDXDXDXFXZXBXsXsXhXsXuXuX0X0X0X5X5X5X0XuXhXuXuXsXDXDXDXZXDXPX                                                                        ",
"                                                                    JX  yX5X.X.X].].'.'.'.'.'.j.D D D D S N N B B M B N F h.n.n.n.j.D a % a V m.M.M.M.C.C.M.M.D.D.'.XX'.'.XX        ZXIX                                                                        ",
"                                                                    PX    '.(.(.(.(.(.(.(.(.(.z # r l l j - & - , , r , & e s N F N p % . & V X.%.%.).(.(.oXoXXX(.(.+XoX+X+X        DXIX                                                                        ",
"                                                                    PX    XXOXOXOXOXOXOXOXOXXXV B A.S.S.k.C F C C V C B B V N C N p e * . # y o._._._._.@XOX+X+X+X+X+XOX+X@X        DX                                                                          ",
"                                                                    PX    AXAXAXAXAXAXAXKXKXaXe | I.A.A.V.A.A.A.V.n.n.n.n.I.A.U.M & % . . - , C dXhXZXDXDXDXDXGXZXZXPXPXGX          DX                                                                          ",
"                                                                    PX    rXAXAXAXNXNXAXAXKX~.r | T.A.n.x.v.v.j.:.:.S x S 7.x.W.e r $ X . , z z.9X0XuXuXuXuXjXdXuXuXdXsXzXhX        PX                                                                          ",
"                                                                    PX    5XZXZXZXhXhXhXhXhXqXV.n.V.j./ ^ ^ <.^ ^ ^ j i B A k.k. .V.V.l $ V k.5X;X5X0XqXuXuXdXyXrXaXaXaXDXZX        PX                                                                          ",
"                                                                    PX    .XqXzXzXzXzXzXzXxXxXT.S.^ f I L [ P ! ! ! P L L I P g  X'..XF t T ).XX~.%X%X%X%X%X%X-X-X-Xi.$X3X          PX                                                                          ",
"                                                                    PX    .XXXqXqXqXqXqXqXqXgXb.M.D.Q f L L L P P P I L L P P 2  X'.T.a k.T +.+X.X%X%X%X1X1X1X1X1X%X<X1X1X          PX                                                                          ",
"                                                                    PX    XXgXgXgXqXqXqXqXXXqXV./ ! ~ ~ ~ ~ T Y Y Y k d d k $ <  XoX^.p ]./ ..+X.X2X2X2X2X2X2X2X2XJ.n.n.W.        nXPX                                                                          ",
"                                                                    PX    ].XXXXXXXXXXXXXXOXoXF R.].F.F.U.E.E.I.n.n.n.R.U.P.& <  XoX^.a ;XV c =X7XaX7XaXaXaXaXdXsXsXsXdXjX        ZXPX                                                                          ",
"                                                                    PX    wXmXmXNXmXmXNXNXKX~.g _.(.c.x.b.F.F.P.n.P.F.;XW.Y.y d oXoXV.a 5XB 8 K.*XwXwXaXwXaXaXaXyXaXsXsXsX        ZXPX                                                                          ",
"                                                                    PX    Y.].].].;X;X;X;X&X:.V +X[.P.n.V.V.V.M.m.M.m._ ' ' 6 g oXoXV.M `.h ) [.E.K.K.K.K.K.K.K.K.K.K.K.E.        ZXIX                                                                          ",
"                                                                    PXaX  o.).).).).o.).).Y $ ^ OXkXkX[.XXqXgXqX].].]..XuXqXi h oX.Xk.B 2.f @.+XW.K.K.L.L.L.G.G.G.L.K.L.          AXPX                                                                          ",
"                                                                    PXaX  '.XXXXXXXXoXoXoX'.[.m.P ! ( /././.C.) ! Q Q B N F - z oX.Xn.B 2.1 @.+XJ.q.q.q.q.q.q.q.q.q.G.$X          DXPX                                                                          ",
"                                                                    PXwX  '.gXjXjXjXjXjXjXjXxXB # p N qXjXgXqXU.B l l M a p = Y  X.Xn.v 2.1 @.OX7.w w w m ;.;.;.;.;.6.            DX                                                                            ",
"                                                                    PXyX  A.nXVXVXmXVXVXVXVXKXF f Q ^ XX0XgX0XV.^ ~ ~ Q b b $ T  X.Xk.b 2.> @.[.8.6.5.5.5.5.5.5.5.5.9.q.          DX                                                                            ",
"                                                                    JXyX  I.aXaXaXaXaXtXtXaXtXj.N.C.H.Y.`.rX[.[.`.`.`././.m.d O. X.Xh.b W > @.+XF w w w m m m c m m m Z Z         JX                                                                            ",
"                                                                    JXsX  hXZXZXZXZXZXZXZXGXhXN :.:.7.j.c.b.c.n.c.c.n.n.n.v.y O.%.].j.F `.1 @.@XV y j j j M N B l B B M a         JX                                                                            ",
"                                                                    DXZX  gXxXxXxXxXxXxXxXxXgXs y B l Y ! ( ( ( ! ! ! ! V V $ O.o.].F V '.1 @.@XV j j j y j j j g g g t t Y       JX                                                                            ",
"                                                                    DXDX  gXcXxXxXxXxXxXxXxXqXz.yXwXwXrXyXyX0X0X0X0X0X0X8XyXj.O.o.Y.G F Y.1 @.(.) ) ) ) ) X.X.X.X.X.X.X.X.X. .    JX                                                                            ",
"                                                                    DXSX].zXcXcXcXcXcXcXcXcXqX^.DXAXAXAXSXSXZXZXZXZXZXZXAXAX^.M.D.T.| j.Y.L @.@XC.OXOXOXOX[.XXXX[.[.[.[.[./.R.`.dXJX                                                                            ",
"                                                                      ZX8XdXdXdXdXdXdXdXdXdXqX0XaXaXaXaXaXaXaXyXaXyXaXyXyXyX8X5X.X5X!.].5X`.(.OX`.0X0X:X:X[.[.[.].[.[.].].].;X].aXPX                                                                            ",
"                                                                      AX8XyXdXdXdXdXdXdXdXdXuXyXsXsXsXsXsXsXdXdXsXdXsXsXsXsXyXyXuXuXyXyXsXuXuXjXsXhXhXhXhXhXhXNXNXNXNXNXhXsXsXsXZXPX                                                                            ",
"                                                                      JXZXFXFXFXFXSXSXSXSXZXSXSXAXAXAXAXZXZXZXnXsXsXaXaXaXaXaXaXsXnXyX8X8X8XjXdXaXtXaXwXaXwX4X4X4X5X&X8XsXDXDXDXSXPX                                                                            ",
"                                                                      SX  aXI.j.j.F D N S S F k.k.j.h.j.C C V p e y y t & r s e V ^ r # # r ! 1.h.h.F.F.F.k.E E E b e c         nXJX                                                                            ",
"                                                                      SX    v.    V s & y s , , a B N a s p D Z x r , g a . * & & % O X X r G | D.).M.U.T.'.(. .V v i p <.      BXJX                                                                            ",
"                                                                      KX    h.    M.| l C j r M p s p 9 9 s p B p r % :.M * # * * # O # . % p r j l l p C F ^ l r 3 r e p       BXJX                                                                            ",
"                                                                      SX    j.    | V.F z | e * r r e - & r r r & * r v.r y & # # O # # . # V F.U.U.F.v.n.n.n.v.:.>.x.F.R.      AX                                                                              ",
"                                                                      JX    {     y T.Q.C a x & B h., y | C B 3 Z 3 i 8.S V B % X # * # X * l ^.eXtX1X1X1XtXaXtXK.K.%XwXeX      AX                                                                              ",
"                                                                      JX    V     = | 8XI., 3 c % 7.h.U.yXuX8Xj.8.>.j Y e.G.J.N * . . X X $ t - a M x a a x n n c & & e a       SX                                                                              ",
"                                                                      JX  y y - : $ - B ^ - # & * r 6 Z *XuXuXyXF.8.>.P ) #XE.U.p # X X X $ y ~ j M Z D F j.7.j.F x p M D a     DX                                                                              ",
"                                                                      JX  s e * : ; 6 j ; : - : t d & e D E.uXuX0Xv.>.>.) M.u.K.U.a . o X $ y 5XhXhXZXZXZXZXZXGXZXZXZXzXhX      JX                                                                              ",
"                                                                      SXB s e # $ $ 6 t h h 2 2 h 2 - t <.Z E.uXuX5X7.>.8.M.D.u.K.V.e . X $ g ^.4X4X5X4X4X9X9X4X].~.~.!.!.      JX                                                                              ",
"                                                                      SXp y a * $ 6 e y i y e i y y i j F n.a n.yXqX].:.>.:.M.Z.u.K.n.r . # h j r r e e e a a e % * * e 3     aXJX                                                                              ",
"                                                                      SXj.~ e 3 e v p x Z :.v.F.x.:.B F B D k.3 v.yX0X].S ;.>.M.A.e.J.h.& # j e , r a H l l l H r , , p       aXDX                                                                              ",
"                                                                      KXY.m.e e x v i v <.F.F.b.<.A F <.x * D F * x.yX0XW.Z m >.M.Z.e.n.F * y l { { O.o.{ O.O.O.O.{ l G       yXDX                                                                              ",
"                                                                      SXC.W E 1.1.3.3.2.2.2.2.2.2.4.2.2.6 3 * j.Z 3 F.8X].F.a c Z  .7.0.F s r Y ......@...........h , r       yXDX                                                                              ",
"                                                                      SXJ.>.0.0.t.0.0.u.#Xu.u.#Xu.u.u.q.% 0 M F I.j.:.U.P.n.h.D S j h m q.l y T +.+.+.+.@.@.@.+.+.h & -       uXZX                                                                              ",
"                                                                      SX%X$Xp.p.p.p.p.p.p.p.p.p.p.p.p.i.x.n.~.~.!.~.~.!.!.~.W.R.R.U.b.j.G.U.j. .$././././.).).).).m.j.Z       dXZX                                                                              ",
"                                                                      SXvX1X3X3X3X3X3X3X<X<X%X$X$X#XL.%XW.~.!.&X&X&X&X7X4X&X&X&X&X&X&X&X>X>X4X4X].].]..X5X.X5X5X5X4X4X7X      sX                                                                                ",
"                                                                      VXBXaXsXsXaXaXaXaXyXdXuXuXsXyXW.0X4X4X4X7X;X4X7X7X4X&X4X&X4X4X>X>X>X4X4X4X4X4X4X4X4X4X4X5X4X4X4X7X7X    sX                                                                                ",
"                                                                      BX7XW.wXyXwX8X8X;XF D b.Y.Y.I.8XuX8X8X8X7X7X7X7X7X4X7X7X7X7X7X7X7X>X4X4X4X4X4X4X4X4X4X4X4X4X4X4X7X7X7X  sX                                                                                ",
"                                                                      VX>X  wXwXwX8X;Xk.= . y ^ ^ <.0XuX8X8X8X8X8X8X8X7X7X7X7X7X8X7X7X7X4X4X4X7X7X7X7X4X4X4X7X4X4X4X4X4X7X8X4XsX                                                                                ",
"                                                                      BXwX&X7X7X8X8X4Xj.& % y ^ ^ c.0XuXrXwXwX8XwXwX8X8X7X8X8X8X8X8X7X7X4X4X4X7X7X7X7X7X7X7X7X7X7X7X4X4X4X4X].sX                                                                                ",
"                                                                      bXbXaXaXaXaXaXyXwX4X!.~.!.W.E.uXsXyXaXaXaXaXaXyXyXyXyXyXyXyXyXyXyXyXyXyXwXyXyXyXyXyXyXyXyXsXsXaXaXdXyXyXsX                                                                                ",
"                                                                        nXaXtXwXwXwXfX7X7X7X7X7X9X5X!.!.8XT.XX].^.U.J.P.].Q.n.h.j.n.P.h.U.W.Q.oXoX XoXoXoX XM.M.V.U.        4XsX                                                                                ",
"                                                                        &Xl.v.v.v.Z.Z.J.J.U.U.U.V.j.a M V.> X.! d 0 q 3  .z.% # 4 * y . , o.%.=.=.*.*.*.*.o.T / ~ b.        Q.sX                                                                                ",
"                                                                        ~.n.>X~.W.U.P.Y.V.M.k.^ V j - a S.L X.! d 0 c 3  .M.% * - = % X & =.=.=.=.=.=.=.*.(.D.`.Y.'.        ].sX                                                                                ",
"                                                                        ~.a p a t d I I I I f p j > ; p Y.[ X.) d 0 q u  .M.% - h # % X # T O.T Y h h h ~ V V v V ^         ].dX                                                                                ",
"                                                                        *Xu q c q v b b j i & * * g y M H.> _ ) d 0 5 3  .M.% - Y # * X # % a y i u u u x B F x.U.&XR.      4XaX                                                                                ",
"                                                                        ,X-.-.-.-.q q ;.;.;.m c m 8.S D Y.> _ ) d 4 5 3 ~ z.% - z = O o . a >.x.F.F.W.&X7XwXwX7X&XI.j.      5XaX                                                                                ",
"                                                                        eX0 7 7 k 7 k E E E E E E b b B U.> ( X.h 0 5 4 C V.% r F # # X o j Y.H.V.k.^ V v y e 6 % 3         4XyX                                                                                ",
"                                                                        tXp V Q Q Q Q Q b d ; d i t - - P.> R _ g 4 5 4 V Y.& & F * % * : : f P U I T I P I f 6 u u         5X                                                                                  ",
"                                                                        tXB Z.E.E.^.^.^.8.m e m 5.6.c % ^.> P _ d 4 4 4 z S.& * N # % - I ; f ( R ] #.#.#.#.R P j c         8X                                                                                  ",
"                                                                        tXp P.T.~.].T.Y.Y.Y.V.n.n.h.D 6 Y.> L ( : 4 4 O g z.% X . X * ; J ; - f R ] #.#.#.#.R P d d         8X                                                                                  ",
"                                                                        tXB / ( ( ( ( ( P I L f > : $ $ ^ : ; f $ O O O $ t # X = X # t I 1 ; ; R #.#.#.#._ P f d -         wX                                                                                  ",
"                                                                        vXv.V.m.m.2.2.2./ / / ^ ~ j = = # # $ ; : : ; : : ; # = , X # y I 1 2 1 U P R _ ' _ U U P 6         yX                                                                                  ",
"                                                                        vXU.!.!.~.W.W.^.I.P.V.b.k.V # = $ k 2 2 L J J 7 k ; = = # . . - k > I I U I R R ] ] R U U f j       wX                                                                                  ",
"                                                                        vX^.!.!.~.~.W.W.I.I.U.n.n.F # - k T T h d 2 > : 1 1 : ; p s * & ! R ] ' $.$.$.$.$.$.$.#.R I f       yX                                                                                  ",
"                                                                        vX&X!.~.~.~.W.W.W.I.P.V.n.^ * & d T T h g 1 ; O : ; > : l C j y Y P R ' $.#.#.#.#.#.$.$.' L d !     yX                                                                                  ",
"                                                                        tX>X!.~.~.~.~.W.W.I.I.A.A.j.* # $ g < ; 2 2 1 : ; 2 : # l | ^ V j z d X.X.X.X.X.X.) ) ) ) T Y Y y ~.yX                                                                                  ",
"                                                                        vX,X!.!.~.~.~.~.W.W.I.P.U.z.% # # * & & - - 2 - ; g t & V M.k.^ G C V <.b.F <.F.R.x.x.G.>.>.>.m u n.aX                                                                                  ",
"                                                                        vX7X&X&X&X!.~.~.~.W.^.I.I.V.r * x A A Z A 6 * * * * e j C T.S.z. .C F K.=X>.8.#X#Xq.>.5.q.9.9.>.w G.aX                                                                                  ",
"                                                                        bXeX>X>X>X>X>X&X!.!.!.^.^.A.r * & 3 & & i k k j j j j j k..X~.Y.S.z.F 7.e.0.0.i.i.0.u.u.#X#X#XK.J.~.aX                                                                                  ",
"                                                                        bXtX7X7X7X7X7X7X7X7X7X7X7X7XW.U.R.^.W.~.!.;X4X4X7X7X7X7XwXyXyXyX0X8X4X!.%X<X1X1XtXtXaXaXaXaXaXaXaXyXaX                                                                                  ",
"                                                                        tXtXtXtXtXtXaXaXtXaXaXaXbXbXbXnXnXnXBXBXnXnXbXaXtXwXwXwX                                    R.eX  wX                                                                                    ",
"                                                                        vX*X                                                                                          *X  wX                                                                                    ",
"                                                                        vX,X                                                                                          R.eXwX                                                                                    ",
"                                                                        bX1X                                                                                            *XwX                                                                                    ",
"                                                                          tX                                                                                            J.8X                                                                                    ",
"                                                                          tX                                                                                            n.8X                                                                                    ",
"                                                                          vX                                                                                                                                                                                    ",
"                                                                                                                                                                                                                                                                "
};
