/* XPM */
static char *cluster_pcs_front_left[] = {
/* columns rows colors chars-per-pixel */
"128 231 244 2 ",
"   c #FF00FF",
".  c #060606",
"X  c #070709",
"o  c #0C0C0D",
"O  c #0B0609",
"+  c #130C0D",
"@  c #10100F",
"#  c #0D0E12",
"$  c #0D0D1A",
"%  c #160C17",
"&  c #0E1014",
"*  c #0F131C",
"=  c #131313",
"-  c #191917",
";  c #14161A",
":  c #15191D",
">  c #1A1A1B",
",  c #19161A",
"<  c #21171D",
"1  c #2F101A",
"2  c #22211F",
"3  c #131422",
"4  c #141A23",
"5  c #1B1D23",
"6  c #141E2A",
"7  c #191B29",
"8  c #16193A",
"9  c #1A1C3D",
"0  c #181835",
"q  c #0F0F27",
"w  c #261A27",
"e  c #36162C",
"r  c #261937",
"t  c #37112B",
"y  c #1D2125",
"u  c #1D232B",
"i  c #16202D",
"p  c #1C2532",
"a  c #1C2437",
"s  c #222224",
"d  c #22252B",
"f  c #25292E",
"g  c #2B2B2C",
"h  c #2A2725",
"j  c #35322D",
"k  c #232A33",
"l  c #2B2D33",
"z  c #242D3A",
"x  c #232639",
"c  c #26303D",
"v  c #2C323B",
"b  c #2E3134",
"n  c #333334",
"m  c #32353C",
"M  c #39393C",
"N  c #352930",
"B  c #491617",
"V  c #5C191A",
"C  c #641D19",
"Z  c #4E152E",
"A  c #6C1831",
"S  c #463C36",
"D  c #4B2F2A",
"F  c #6B2420",
"G  c #51453B",
"H  c #1C1C43",
"J  c #1E1B4A",
"K  c #1A1741",
"L  c #241C49",
"P  c #281C53",
"I  c #341D5C",
"U  c #371A5A",
"Y  c #391747",
"T  c #1D2244",
"R  c #222247",
"E  c #2B3543",
"W  c #293648",
"Q  c #343A44",
"!  c #3B3D45",
"~  c #323C4A",
"^  c #333641",
"/  c #272253",
"(  c #2B3D54",
")  c #35295A",
"_  c #3A1D68",
"`  c #3C226C",
"'  c #352263",
"]  c #3F2470",
"[  c #59175C",
"{  c #4A1756",
"}  c #771656",
"|  c #6F1651",
" . c #591B65",
".. c #4C1D68",
"X. c #651B6A",
"o. c #661D74",
"O. c #791B69",
"+. c #51216F",
"@. c #5E2869",
"#. c #3C424B",
"$. c #3C4047",
"%. c #384557",
"&. c #2D435D",
"*. c #3A4D63",
"=. c #3A516B",
"-. c #464649",
";. c #554C47",
":. c #595347",
">. c #474B54",
",. c #4A525D",
"<. c #565659",
"1. c #554E53",
"2. c #625C59",
"3. c #695546",
"4. c #6A645B",
"5. c #736855",
"6. c #465467",
"7. c #555C66",
"8. c #495B73",
"9. c #414F62",
"0. c #5C6169",
"q. c #596677",
"w. c #4B617C",
"e. c #6D666C",
"r. c #6B6B6C",
"t. c #686664",
"y. c #726C68",
"u. c #74726D",
"i. c #7C756B",
"p. c #686D74",
"a. c #6C7278",
"s. c #737474",
"d. c #7A7673",
"f. c #7C7A75",
"g. c #767A7B",
"h. c #7C7C7B",
"j. c #747679",
"k. c #716E71",
"l. c #625D5F",
"z. c #AD2E1E",
"x. c #981638",
"c. c #8B1735",
"v. c #A51937",
"b. c #9A2623",
"n. c #AA2823",
"m. c #80201F",
"M. c #8F174D",
"N. c #A41645",
"B. c #841966",
"V. c #8C705B",
"C. c #877966",
"Z. c #827B74",
"A. c #827E7A",
"S. c #887F73",
"D. c #957E69",
"F. c #A87A44",
"G. c #7F807E",
"H. c #97866C",
"J. c #83827D",
"K. c #8A857C",
"L. c #8B8377",
"P. c #9B8C75",
"I. c #958C7C",
"U. c #9A8E7C",
"Y. c #968973",
"T. c #9D917C",
"R. c #A6977A",
"E. c #AB906E",
"W. c #B3A07E",
"Q. c #C49B5B",
"!. c #556E8A",
"~. c #777D83",
"^. c #6B7A8A",
"/. c #527AA8",
"(. c #7D8183",
"). c #7B848B",
"_. c #7A8795",
"`. c #6D8197",
"'. c #5383BA",
"]. c #788CA3",
"[. c #7E96B0",
"{. c #838583",
"}. c #8B8985",
"|. c #8B8C8B",
" X c #868786",
".X c #948E86",
"XX c #9E9282",
"oX c #93928D",
"OX c #9B958C",
"+X c #979286",
"@X c #858D96",
"#X c #8A9299",
"$X c #939492",
"%X c #9B9A95",
"&X c #9B9D9C",
"*X c #969998",
"=X c #8E908E",
"-X c #A19583",
";X c #A49984",
":X c #A1968B",
">X c #A49A8D",
",X c #AB9C84",
"<X c #A49C92",
"1X c #A69F95",
"2X c #B09F82",
"3X c #9EA09D",
"4X c #B7A586",
"5X c #A3A19C",
"6X c #AAA49B",
"7X c #AAA397",
"8X c #B3AB9C",
"9X c #8D9AA5",
"0X c #8998A7",
"qX c #939EA6",
"wX c #959EA7",
"eX c #859CB5",
"rX c #94A2AB",
"tX c #9AA3A7",
"yX c #8BA2BA",
"uX c #97A8B7",
"iX c #8EA0AD",
"pX c #ABA9A5",
"aX c #ABACAC",
"sX c #A4A7A6",
"dX c #A6AEB4",
"fX c #A9B4B8",
"gX c #B1B1AC",
"hX c #C4B08F",
"jX c #8AA6C6",
"kX c #96ADC5",
"lX c #9CB2CA",
"zX c #9BB7D4",
"xX c #92AED0",
"cX c #A6B8CA",
"vX c #A4BDD7",
"bX c #809EC2",
"nX c #AAC1DA",
"mX c #B3C6DA",
"MX c #B3CBE4",
"NX c #B7CEE7",
"BX c #BAD2EC",
"VX c #B5CDE9",
"CX c #C3DAF3",
"ZX c #CCE3F6",
/* pixels */
"                                                                                                                                                                                                                                                                ",
"                                                                                                                                                                                                                                                                ",
"                                                                                                                                                                                                                                                                ",
"                                                                                                                                                                                                                                                                ",
"                                                                                                                                                                                                                                                                ",
"                                                                                                                                                                                                                                                                ",
"                                                                                                                                                                                                                                                                ",
"                                                                                                                                                                                                                                                                ",
"                                                                                                                                                                                                                                                                ",
"                                                                                                                                                                                                                                                                ",
"                                                                                                                                                                                                                                                                ",
"                                                                                                                                                                                                                                                                ",
"                                                                                                                                                                                                                                                                ",
"                                                                                                                                                                                                                                                                ",
"                                                                                                                                                                                                                                                                ",
"                                                                                                                                                                                                                                                                ",
"                                                                                                                                                                                                                                                                ",
"                                                                                                                                                                                                                                                                ",
"                                                                                                                                                                                                                                                                ",
"                                                                                                                                                                                                                                                                ",
"                                                                                                                                                                                                                                                                ",
"                                                                                                                                                                                                                                                                ",
"                                                                                                                                                                                                                                                                ",
"                                                                                                                                                                                                                                                                ",
"                                                                                                                                                                                                                                                                ",
"                                                                                                                                                                                                                                                                ",
"                                                                                                                                                                                                                                                                ",
"                                                                                                                                                                                                                                                                ",
"                                                                                                                                                                                                                                                                ",
"                                                                                                                                                                                                                                                                ",
"                                                                                                                                                                                                                                                                ",
"                                                                                                                                                                                                                                                                ",
"                                                                                                                                                                                                                                                                ",
"                                                                                                                                                                                                                                                                ",
"                                                                                                                                                                                                                                                                ",
"                                                                                                                                                                                                                                                                ",
"                                                                                                                                                                                                                                                                ",
"                                                                                                                                                                                                                                                                ",
"                                                                                                                                                                                                                                                                ",
"                                                                                                                                                                                                                                                                ",
"                                                                                                                                                                                                                                                                ",
"                                                                                                                                                                                                                                                                ",
"                                                                                                                                                                                                                                                                ",
"                                                                                                                                                                                                                                                                ",
"                                                                                                                                                                                                                                                                ",
"                                                                                                                                                                                                                                                                ",
"                                                                                                                                                                                                                                                                ",
"                                                                                                                                                                                                                                                                ",
"                                                                                                                                                                                                                                                                ",
"                                                                                                                                                                                                                                                                ",
"                                                                                                                                                                                                                                                                ",
"                                                                                                                                                                                                                                                                ",
"                                                                                                                                                                                                                                                                ",
"                                                                                                                                                                                                                                                                ",
"                                                                                                                                                                                                                                                                ",
"                                                                                                                                                                                                                                                                ",
"                                                                                                                                                                                                                                                                ",
"                                                                                                                                                                                                                                                                ",
"                                                                                                                                                                                                                                                                ",
"                                                                                                                                                                                                                                                                ",
"                                                                                                                                                                                                                                                                ",
"                                                                                                                                                                                                                                                                ",
"                                                                                                                                                                                                                                                                ",
"                                                                                                                                                                                                                                                                ",
"                                                                                                                                                                                                                                                                ",
"                                                                                                                                                                                                                                                                ",
"                                                                                                                                                                                                                                                                ",
"                                                                                                                                                                                                                                                                ",
"                                                                                                                                                                                                                                                                ",
"                                                                                                                                                                                                                                                                ",
"                                                                                                                                                                                                                                                                ",
"                                                                                                                                                                                                                                                                ",
"                                                                                                                                                                                                                                                                ",
"                                                                                                                                                                                                                                                                ",
"                                                                                                                                                                                                                                                                ",
"                                                                                                                                                                                                                                                                ",
"                                                                                                                                                                                                                                                                ",
"                                                                                                                                                                                                                                                                ",
"                                                                                                                                                                                                                                                                ",
"                                                                                                                                                                                                                                                                ",
"                                                                                                                                                                                                                                                                ",
"                                                                                                                                                                                                                                                                ",
"                                                                                                                                                                                                                                                                ",
"                                                                                                                                                                                                                                                                ",
"                                                                                                                                                                                                                                                                ",
"                                                                                                                                                                                                                                                                ",
"                                                                                                                                                                                                                                                                ",
"                                                                                                                                                                                                                                                                ",
"                                                                                                                                                                                                                                                                ",
"                                                                                                                                                                                                                                                                ",
"                                                                                                                                                                                                                                                                ",
"                                                                                                                                                                                                                                                                ",
"                                                                                                                                                                                                                                                                ",
"                                                                                                                                                                                                                                                                ",
"                                                                                                                                                                                                                                                                ",
"                                                                                                                                                                                                                                                                ",
"                                                                                                                                                                                                                                                                ",
"                                                                                                                                                                                                                                                                ",
"                                                                                                                                                                                                                                                                ",
"                                                                                                                                                                                                                                                                ",
"                                                                                                                                                                                                                                                                ",
"                                                                                                                                                                                                                                                                ",
"                                                                                                                                                                                                                                                                ",
"                                                                                                                                                                                                                                                                ",
"                                                                                                                                                                                                                                                                ",
"                                    4.4.:.:.:.                                                                                                                                                                                                                  ",
"                                    tX9X@XG.t.4.                                                                                                                                                                                                                ",
"                                    sXuXuXuXuXrXrX                                                                                                                                                                                                              ",
"                                      uXuXuXuXuXuX=X                      <.p.                                                                                                                                                                                  ",
"                                      tXuXuXuXuXtXf.                    S M >.,.<.<.>.1.1.                                                                                                                                                                      ",
"                                      sXtXtXtXtX*Xs.4.                    M >.>.>.-.G G G S V.V.                                                                                                                                                                ",
"                                      5XoX*XtX&X}.g.t.                    1.7.<.>.:.F.OX{.e.D.E.                                                                                                                                                                ",
"                                      >XoX*X3X*X}.f.t.                    2.e.p.e.V.Q.gXuXiXqX0X#X#X                                                                                                                                                            ",
"                                      T.&X&X&X*X}.f.r.                    2.e.e.e.C.W.gXuXrXqXqX9X9X0X0X9X9X9X                                                                                                                                                  ",
"                                      H.%X%X*XoX}.f.u.                    <.e.e.e.C.W.pXdXrXrXqXqXqX9X9X9XqXqX9XqXtXrXtX                                                                                                                                        ",
"                                      C.oX=X*X}.}.f.s.r.                  <.e.e.e.e.P.8XsXtXtXrXrXqX9XqXrXrXrXrXtXrXtXtX}.                                                                                                                                      ",
"                                      E.tX9X}.}.}.(.j.r.                  t.e.e.e.y.P.8XaXsXsXtXrXqXqXrXrXrXtXqXtXqX&X=Xf.y.                        m u E E                                                                                                     ",
"5.4.                                    fX_.s.@X}.{.g.u.                  e.f.e.t.D.E.8XaXaXsXtXrXrXqXtXtXtXqX&X&X&X}.{.f.u.                        d = ; : > 5 5 d k                                                                                           ",
"  ;.G S                                 cX~.0. X}.{.f.s.                  e.Z.s.y.E.Q.4XgXgXaXsXuXuXtXtXwXwX&X&X*XoX Xf.f.u.                        d 1 D e w , , ; ; : : > 5 s g                                                                               ",
"    G :.3.S                           fXfX_.p.g.|. Xf.s.                  e.A.s.e.E.Q.4XgXgXaXsXdXuXqXwX&X&X&X*X*X}.{.f.f.f.                        d 1 C F Z Z e e w 5 , ; ; ; ; ; ; > w d                                                                     ",
"    D 2.V.3.D                         cXuX].`.a.(. X(.g.                  4.f.k.e.C.E.4XgXgXaXsX*X).&X&X&X&X*X*X}. XJ.f.f.                          u < F b.b.c.A Z Z e r w 5 5 5 ; = = & = = ; > w e N                                                         ",
"      ;.5.V.S G           j.^.p.,.%.p.cXuXeX].`.^.(.(.g.s.                <.y.e.e.e.t..XgXaXpXsX}.=X3X&X&X*X*X}.}.{.G.f.f.f.                        k < F b.b.x.x.M.} [ { Y r r r 5 ; = # # # # # # # # = 5 w h N                                               ",
"      S 2.V.;.1.vXnXvXlXeXyXkXlXeX].eXkXkXjX]._.^.~.~.g.(.                t.e.e.e.e.2..XgXpXsX5X&X&X&X&X%X*X}.}.{.{.f.f.f.f.                        k < C b.b.x.c.} } [  .{ U L 8 0 3 3 ; $ $ # # # # # # ; ; ; ; s                                             ",
"      D ;.V.:.M eXMXvXxXzXzXzXzXzXzXkXqXeXeX].`._.`.~.g.).MXCX            t.p.k.k.e.l.{.aXsX5X3X&X&X&X%X*XoX}.}.{.{.f.f.f.f.                        d < V b.x.x.M.} | [  .{ U P K K 0 0 q q 3 3 3 * ; 3 3 3 5 5 : 5                                             ",
"        S 4.<.n <.kXnXnXxXxX[.].eX].0X#X].[.jXeX].q.7.a.~.nXBXBXCX        7.p.j.j.k.e.{.aXsX3X%X%X%X%X%X*X}.}. X{.{.f.f.f.f.                        5 % Z x.c.x.M.} [ [ [ U U P K K 0 0 0 0 0 0 0 0 0 0 0 0 0 x 5 5                                             ",
"        S ;.<.M M   qXvXMXvX0X7.^.`.)._.uXyXyXuX0X^.`.^.a.cXBXBXBXCXCX    0.7.7.a.~.k.{.sXtX&X*X%X%X%X*X*X}.}.{.{.J.f.f.f.f.                          < Z c.x.c.} } [ [ U U U L K K 8 0 0 0 8 8 8 8 8 J J L 9 0 3 5                                             ",
"        j S 1.! n     _.cXMXMX_.>.,.<._.cXlXkXkXcXlXjX[.^.0XMXVXBXBXBXCXZXuX^.!.8.6.<.f.tX&X&X@X}.*X*X*X*X}.}.{.{.J.f.f.f.A.                          < Z c.c.} } } [ { U U L K H 9 8 8 8 9 9 9 8 8 H J J L 9 0 3 5                                             ",
"          M >.-.n n l l 0.cXMXcX>.-.m #.q.].kXlXlXxXyXxXlXlXnXvXVXVXBXBXCXlX_.0X#Xp.! <.tX&XtXuXqX).{.*X*X}.}.{.{.{.f.G.G.A.                          % Z A } | } | [ ..U P H H H 8 8 8 H J J J H H J J P P r 0 3 5                                             ",
"          j -.1.M l g g     dXnX0.-.-.Q m c ,.eXkXxXjX[.].^.[.uXuXcXVXVXBXnX0X#X9XrX0X@XqX&XsXfXfXa.1. X*X}.}.{.{.(.G.G.J.J.                          < Z | } } | [  . .I P H H 8 8 8 9 H J J J J J J P _ _ L 0 3 >                                             ",
"          M -.<.<.l g h       tXp.! >.! ! c f >.q.q.!.%.k d -._.@XkXVXVXVXBXvXyX0XqX_.9XqXqXgXfXdX<.>.j.}.}.}.{.{.{.G.(.J.J.                          < Z | } } [  . ...I P H 9 8 9 9 H J L P P J J P _ _ _ L 0 3 >                                             ",
"          n -.>.e.M d b     #.n m n >.#.#.Q k c ,.7.7.#.>.q.eXMXVXMXMXVXVXVXvXjXbXeXeXqX9XtXfXfXsX>.-.e.(.|.|.|.{.{.(.G.J.J.                          < t | | [  . ...I I P H H 9 H H H L P ' ` _ P _ _ _ _ L r ; >                                             ",
"          g >.>.-.m d ! p.q.<.-.l d -.-.#.! l l a.@Xq.E Q 9.^.zXMXMXMXMXnXnXnXzXxXjXjXeXqXuXfXfX&Xt.1.t.g.(.{.{.{.{.(.{.{.A.                          < t [  . . ...I I I P J H H H H T / ) ` ` ` _ _ _ _ ..L r ; >                                             ",
"        l s >.0.>.M d m 7.w.!.!.%.s m >.-.#.b d Q 6.#.d d l Q w.yXcXzXzXnXVXMXMXvXzXjX[.qXdXfXfX*X(.p.t.s.f.{.{.{.{.{.{.{.J.                          < t [  . . .U I I P L J H H T T / / ' ] ` ` ` _ _ +.o.Y r ; >                                             ",
"        s s #.7.7.M d *./.'.'.'.%.w d -.#.! m d c p.p.0.q.^.uXcXlXkXkXkXxXzXzXzXzXnXzXxXuXgXfXgX}. Xf.e.p.g.~.(.{.{.{.{.{.J.                          < t {  ...U I I P H H J H H T / / / ' ] ..+.+...+.o.o.Y r % >                                             ",
"        s g >.8.9.l d =././.'./.E 5 y m -.Q c d k ~.qX#XqXkXkXkXvXcXlXlXkXkXeX0XyXjXyXeXuXsXdXsX|. X(.g.p.s.g.(.{.{.{.{.{.J.                          < t U I I I I / H H H H H T R / / ' ] ` +.o.o.o.o.o.X.Y r & >                                             ",
"      d d l 9.8.%.d c !.!././.!.k k c d -.! m k d ,.qX9XqXcXmXcXkXxXvXcXlXkXqX@X_.].eXuXdX).tXtX{. X).~.s.s.f.f.(.{.{.{.{.J.                          < e L I I I / R R H H H H T R / ) ] ] ..o.o.o.o.o.o.X.Y r & >                                             ",
"      c 6.E 6.6.c d E =.*.&.( E d 5 5 5 ! #.m l d f 0.0XuXcXmXNXMXcXyXkXcXkX0X_.~.s.a.9XtX#XtX*X(.(.g.g.~.j.g.~.~.{.{.{.{.J.                          w e L P L L L R R H 9 9 T T R / ' ` ` +.o.o.o.o.o.O.B.{ e & >                                             ",
"        q.w.w.%.f s d k u 5 5 5 5 5 5 > l >.^ l d u d 7.9XcXMXNXNXNXmXlXqX@X(.f.f.f.f.*X&X=XtX}.f.f.s.j.(.~.g.f.f.(.{.{.{.}.%X                        h N R L 8 9 H R R 9 9 9 H R R / ' ` ..o.o.o.B.B.O.B.B.Z t + >                                             ",
"          6.6.Q d 5 5 d u 5 5 5 5 5 5 s 5 -.Q c d y 5 k !.0XmXBXBXNXNXNXmXcXkXqX0X#X=XsX}.J.&X}.|.|. X(.(.(.e.e.a.f.{.{.{.{.1X5X5Xs.n s 5 y           w N x L L L R R x a 9 9 H R R / ` ` +.o.o.O.B.B.B.B.B.Z t X 2                                             ",
"            #.d 5 5 5 5 5 5 5 5 5 5 > d 5 #.%.^ k u 5 E w.w.^.uXmXMXmXmXnXcXkXuX0X#X*XtX&X*X*X Xp.~.=X=X(.f.-.l M t.f.{.{.{.&X5X5X5X}.<.l > > :       > 5 x R R R x x a a a 9 R R R ' ` .. .o.X.O.B.B.B.B.B.Z t X 2                                             ",
"              l 5 5         d d     5 y 5 Q >.Q c u 5 c 8.=.=.w.#XcXmXmXnXcXlXuXqX#XwXsXtX}.=X}.g.e.a.j.f.(.M b 0.e.s.{.J.J.&X5X1X5XsXpX%Xe.M 5       5 5 w r k x x x x a a 9 R R / ' ' ..o.X.O.B.B.B.M.M.N.Z t X 2                                             ",
"                >           5 5       d > M #.~ m d 5 u &.8.=.%.,.~.fXmXmXcXcXuXqX#XwXsXdX{.oX*X*X=X|.f.f.f.p.g.(.f.f.f.J.J.}.*X%X5X5XsXpXaXsXf.$.> : 5 > 5 5 5 5 0 p a a a r R R I I _  . .X.O.B.B.M.N.N.N.Z B X 2                                             ",
"                >           d 5 %.    d : $.~ c c d 5 5 p p p p Q g <.qXcXnXcXuXrX#X=X=X=X(.}.#X@X0XuXuXqX=X{.f.u.s.f.f.G.J. X}.}..X*X%X5XpXgXgXaX}.<.t.>.s ; ; ; ; ; 3 q 0 0 H L I U .. . .X.} B.M.N.N.N.N.Z B . s                                             ",
"                > d   m l ~ k 5 E k d 5 > >.#.c z k y 5 7 a E W ~ y u $.(.fXcXuXuX0X@X7.-.1.)._.^.`.0XuXuXuXqX*X}.f.4.4.u.f.A.f.u.f.~.<.S 1.~.pXaXgXgX&X*X{.<.f o X # # $ $ q 0 L U _  .X.X.} } M.N.v.N.v.x.Z 1 . 2                                             ",
"              c d d y 5 k u ; ; > k d ; > #.,.~ c c d 5 5 E W W ~ d 5 5 d 0.qXdXuX9Xj.,.n s p.0X#X0X0X@X0X0X9X).A.*XoX.XK.Z.4.5.u.a.b > > = m p.a.~.*X&X*X*X*X}.t.n = X X # $ 5 r P U  .X.O.B.} M.x.x.v.n.n.V 1 . 2                                             ",
"        f s 5 5 5 :   c u ; ; ; ; 5 5 ; y %.8.%.~ Q d 5 u ( ( ( ~ d > 5 ; z ,.@XuXwXg.7.! s -.{.}.}.J.}.{.J.s.f.%XaXaXpXsX1X.X2.! d > 2 > > M >.,.6.6.g.*X*XoXoX*X*Xf.>.> X X ; v N r Y [ } B.M.N.v.v.n.n.n.V B X h                                             ",
"      f >           %.u ;     ;   k : ; d 9.8.*.%.Q s 5 z *.&.&.%.d : 5 7 E E ~ a.qXwXa.>.n j L..XoX&XsXdXdX&X&XsXdXaXaXaXpXpX%Xt.$.n j g s > g -.<.7.J.%X*XoXoX=X*X*X&X|.<.b = & ; 5 w r Z | M.v.v.v.n.z.z.C B @ h                                             ",
"      5 ;         %.u ;       ;   u ; ; c 6.8.*.%.l y 5 E &.&.&.%.d : : u ( ( E E 7.=XwXt.! n f.1X&XsXaXgXaXaXdXdXdXdXsX{.{.5XpXpX5X.Xf.y.t.e.e.f.}.%X5X%X%XOXoX=X=X*X*X*X&X=Xs.-.> o # , w t Z A c.n.z.z.z.C B @ g                                             ",
"      ;         ~ 5               u c : ~ 6.6.*.%.d 5 5 E ( ( &.%.k ; > p ( E a u 7 m g.&X0.l >.{.5XsXpXpXsXaXaX}.e.0.$.s s ! 1.<.e.oX8X8X8X8XpX8X6X5X<X%XOXOXOXoXoXoXoX*X=X*X*X}.{.1.s o o % 1 t B V m.z.z.C B @ j                                             ",
"                5 :               d !.p %.6.*.%.E y 5 u E W ( ( ( k ; : 7 7 7 : ; ; ; y 7.j.d l b <.*XpXsXsXsX<.l l b > = > > > d d n t.6X6X8X8X6X6X6X1X<XOXOXOXOXOXoX}.}.}.*X{.-.@X*X}.0.b = o @ 1 1 B V F C B @ j                                             ",
"              ~ 5                 d !.8.( *.%.%.k 5 > u a p i 7 k k ; : : 7 7 7 3 ; ; ; 7 Q 5 m l s n t.*XpX5X-.d n -.g > = ; = = 5 y -.<X6X6X6X6X6X6X6X5X<XOXOXOXK.J.J.A.f.{.{.<.}.=X*X*X}.u.! > o @ < B V V B @ j                                             ",
"              5 ;                   9.!.!.8.*.~ 5 5 > 7 u 5 7 ; d k ; ; : 7 7 7 7 7       &.; l ! l d 5 n t.%X%Xt.-.n g s < > < h M ;.i.%X6X6X6X6X5X5X1X<X<X<X.XJ.K.+XOXOXoXK.{.}.}.}.}.}.=X=X=Xf.1.s o . + 1 B @ j                                             ",
"                                      ~ 9.w.w.c > 5 : 5 u 7 7 ; u k ; ; ; 7 3 7 u         7 ; 5 $.m f d 5 > n t.%X6XOXK.Z.Z.Z.L..X>X<X.XA..X%XoX*X1X5X5X%XoX{.}.OXOX+X+X+X+X+X+XoXoX}.|.}.}.}.}.}.}.{.t.n = . o o j                                             ",
"                                        ~ ~ c 5 > ; ; 7 i 6 7 ; u z ; ; =       7 7 p       ; = ! Q l f d d 5 > g e.6X7X>X>X>X>X<X%X%XOX}.J.{.J.f.J.}.J.J.J..X%XOXOXOXOX.X}.J.J.K.J.f.f.(.{.|.|.}. X}.}.}.u.-.> X j                                             ",
"                                          &.c ; ; = & 7   a 7 5 z E ; 7 ;           7 u       # g ! l f f d s > > > f.6X<X:X:X:XOX{.{.}.{.K.K.A.A.f.s.f.J.oXOXOXoX}.}.f.f.g.j.s.s.f.f.s.s.g.g.{.|.{.{.{.{.}.}.f.;.;.                                            ",
"                                                          * u 7 u E ;                 i :     ; > ! m k f d d > > ; ;.6X<X>X:X:X<XoXf.f.A.A.s.k.e.f.A.f.u.f.}.oX*XJ.j.a.j.j.s.s.s.s.s.j.j.e.t.e.s.f.{.{.{.J.J.}.}.Z.                                            ",
"                                                        7 ;   ; 7 E ; k   p 7           = y   7 & m m l f d d 5 > ; j OX<X>XOXOX:X:XOXK.u.s.A.f.p.s.A.A.f.f.u.f.}.oX}.f.a.j.j.s.s.s.a.a.e.l.t.t.t.t.Z.J.J.J.J.J.J.L.                                            ",
"                                                    8.=.( *.*.; ; E ; ; ; ; & :         ; #     # d Q l k f d 5 > : > J.7X>X:X:X:X:X>X:XXXJ.u.s.J.{.K.A.Z.f.f.f.u.f.{..X{.s.p.p.e.p.e.e.t.4.4.5.C.H.H.P.I.K.J.J.J.K.>X;X                                        ",
"                                            E z z z z z E z u 5 : E : = 5 p : 7                 # ; M c k f d 5 > > ; 2.6X<X>X:X:X:X>X>X>X:XXXZ.u.f.J.A.Z.Z.f.Z.f.f.e.f.K..XJ.s.t.e.e.y.C.C.C.H.H.H.H.P.T.T.I.K.J.Y.;X;X;X;X                                    ",
"                                          z ;       E k 7 # # u u c : = & = = ; u               ; # b m l k d 5 > > ; n {.<X1X>X>X>X>X>X<X<X>X:X.Xf.e.f.J.A.Z.Z.f.f.f.f.e.f.K.}.K.L.L.H.Y.P.U.P.Y.Y.Y.P.T.T.T.T.U.T.XXXX;X;X;X;XXX                              ",
"                                        u ; &     c 7 & # # # 5 k z : = & & & & & & ; 7 5       5 o d M l k d y > > > s >.s.OX1X<X>X>X>X>X<X<X>X:X-XI.i.e.f.K.A.Z.Z.Z.Z.f.u.e.i.K..XXXXXT.I.U.T.U.P.P.P.U.U.U.T.T.T.T.T.T.XX-X;X;X;X-X                          ",
"                                          5 z E 5 = & & =     u c z : =           = & # # & ;     # ; M c k d y 5 > > > > n 2.K.>X<X<X<X<X<X>X>X>X:X:XXXK.e.t.Z.K.Z.Z.Z.Z.Z.f.u.y.u.Z.I.U.I.I.I.U.U.U.T.U.U.U.U.U.P.U.U.T.T.T.T.-X-X;X;X;X                      ",
"                                          ~ u = = ;           u E z : &                   7 & ;   = o c m k d y 5 > , > > o > >.e.XX7X1X1X<X>X>X>X>X:X:X-XXXJ.t.t.i.Z.Z.Z.Z.Z.Z.Z.u.e.y.Z.U.I.I.I.I.U.T.T.T.T.T.P.P.P.U.U.T.T.T.T.T.R.;X;X;XR.R.                ",
"                                      ~ u ; =                 7 E E 7 &                   u & #   ; o d Q l d u 5 > ; > > # # 5 M 2.L.<X7X7X<X>X>X>X>X:X:X-XXX.XZ.e.t.f.Z.Z.i.i.i.C.C.H.Y.Y.I.I.I.U.U.U.U.XXXXT.T.T.T.U.U.U.T.T.T.T.T.R.R.R.R.R.,XR.            ",
"                                  ~ u ; :                       &.( 7 #                   ; o &     o ; Q b d d y > ; ; > = ; 6 7 k ;.i.:X7X7X>X>X>X>X:X-X-XXXXXXXI.i.4.y.i.C.H.H.P.H.H.H.H.Y.I.U.U.U.U.U.U.XXXXT.T.T.T.T.U.T.T.T.T.T.T.R.R.R.R.4X4X4X          ",
"                                  k ;                             &.7 #                     o       # o m m f d 5 > ; ; > = 6 a a 6 y S 4.I.7X1X>X>X>X:X-X-XXXXXXXXXXXI.Y.P.H.H.H.H.Y.P.Y.Y.Y.Y.U.U.U.U.U.T.XXXXXXXXT.T.T.T.T.T.T.R.R.R.R.W.4XW.E.C.V.          ",
"                                c : ;                             &.7 #                             # o f Q k d 5 > ; ; > > p a a p 6 ; g 2.S.>X1X>X>X:X-X-X-XXXXXXX-X-XR.U.P.P.P.U.U.U.U.U.U.U.U.U.U.U.XXXXXXXXXXXXXXXX-XR.R.R.R.W.W.R.H.5.:.j 2 =             ",
"                                ; = :                             %.5 #                             # o d #.l d y 5 ; ; > > p a a a 6 ; ; s ;.i.XX>X>X>X-X-X-X-X-XXX-X-X-XXXT.T.XXT.U.U.U.U.U.U.T.XXXXXXXXXX-X-X-X;X;X,X4X4XW.E.H.5.G j < = = = = =             ",
"                                ; &                             *.E u o                             # o d #.c f y 5 > ; ; > 5     a 7 7 > 7 5 G y.I.;X>X;X-X-XXXXXXXXXXXXXXXXXXXXXXXXXXXT.U.U.U.XXXX-X-X-X;X,X,X2X4X4XE.C.5.G h - @ o = = = = o @ =             ",
"                                                                z y u o                             # o 5 #.Q k d 5 > , ; > >       5 ; ; Q   ; s 2.L.XX;X-X-XXX-X-XXXXXXXXXXXXXXXXXXXXXT.T.T.XX-X;X,X,X4X4XR.P.V.3.S h = o o o @ = = = o X X X o =             ",
"                                                                & : u o                             o X y l Q l d 5 > ; ; = >       & & = z %.c * d <.Z..X-X-X-X-X-XXXXX-X-XXXXXXXXXXX-X-X,X,X4X4X4XR.H.5.:.j < = o o o o = = = =       X X X X @ =             ",
"                                                                  5 u o                           ; X X f l f l d s > ; ; = > >       u E ( ( a p p u M y.I.XX-X-X-X-X-X-X-X-X-X;X,X4X4XhX4XR.H.5.G j - @ o o o o o = =                 o X X X = =             ",
"                                                                    p o                           o X o l Q 5 5 d s > ; ; = > > E E T a p a 6 6 6 6 7 7 d <.K.XX-X-X-X;X,X4X4XhXhXhXR.H.5.G h - o o o o o o o o o =                     X X X X = =             ",
"                                                                    p #                         ; o X # c ~ k : 5 5 > ; = = - > 7 6 6 i 6 6 6 7 6 7 7 7 7 7 M i.XX4XhXhXhX4XR.C.3.S s = = = = = = o o = = = = o                         X X X X = -             ",
"                                                                    k #                         # X o # c Q k u : : > : = = = > ; : * 3 3 7 7 7 7 7 7 7 7 : & s 4.,XE.V.:.j 2 - = = = = = = = # # = =                                   X X X o =               ",
"                                                                    k #                       7 o o o & c #.c d y > = = = = = > ; : * * * * 3 7 7 7 ; * & # # = - h < - = = - > > = = >                                                 X X X o =               ",
"                                                                                              # o o o ; E %.E k u > : ; ; = = = ; 7 7 7 * * * : & o o X X X # = = > > > > > : = = =                                                     X X X o =               ",
"                                                                                            : o o o o : Q %.Q c d 5 : : > = = = ; : i 6 7 7 ; ; & o X X X X # = = > > > > > : = = ,                                                     X X X = =               ",
"                                                                                            # o o o # u ~ #.Q c k y > ; , = = = = : i a 6 7 7 # & = = = o o # = = > > > > > > y                                                         X X X = -               ",
"                                                                                          5 o o X o = k ~ ~ E c k d 5 > > ; = = > : i a a i 6 7 ; = s h o o # = = > > > : : 7 y l                                                       X X X = -               ",
"                                                                                          ; o = X o : E ~ ~ E z k k 5 > > > > > > : i p a i 6 6 6 7 5 : o o # = = > > : ; : 7 7 u l                                                   o X X X = >               ",
"                                                                                          = = u o o u ( ~ E c k k f d s s > > > > > i a i i i i 6 6 6 7 o o # = = > > ; ; ; : : 7 y f                                                 o X X o = >               ",
"                                                                                          = 5 ~ # o k ~ ~ c z k k d d d y > > > s : i 6 6 7 7 7 6 6 6 ; o o o = = > > : ; ; ; : : 7 y f                                               o X X o - >               ",
"                                                                                          = u *.; o z ~ E c k k f d y y > > > 2 > : 7 7 7 7 7 7 7 7 6 & o o o & = > > : ; ; ; ; ; ; : 5 d                                             o X X o -                 ",
"                                                                                            k 6.p o k E E z k u d u y 5 > > > s > : 7 7 7 7 3 3 7 7 7 o o o o = = > > : ; ; ; ; ; ; : : 5                                             o X X o -                 ",
"                                                                                              8.( o 5 c z k u u u u y > > > > s : : 7 7 7 7 * * 7 7 ; o o o o = = > > ; ; ; ; : 7 5 y y 5 y                                           o X X @ -                 ",
"                                                                                              6.=.5 ; p k p u u u y y > > > < > ; : 7 7 7 7 7 * ; ; & o o o o = = > > 7 5 u u u u u y y 5 y                                           o X o = -                 ",
"                                                                                                =.&.; 7 u u u y 5 y > > > > s : ; : : 7 7 7 : ; * & o o o o o = = > > u k k a u u u y y 5 5                                           X X X = -                 ",
"                                                                                                ~ 6.( ; 5 u y y 5 5 > > > > s ; : : 7 7 7 7 : ; # o o o o o o # = > > k a a u u u y y 5 5                                             X X X = -                 ",
"                                                                                                c ~ 6.%.7 7 5 5 5 > = > > s > ; : : 7 5 5 5 5 5 & o & o o o o o = > > k a p u u u y y 5                                               X X X = -                 ",
"                                                                                                  k c =.*.z 7 : 5 > = > > s : 5 y y u u u u k u = o = o o o o o = > > f f f d d                                                     o X X X = -                 ",
"                                                                                                    u u %.6.%.k > = = > > > : d k k k k z k k u o o = o o = o o = > > f                                                             o X X X = -                 ",
"                                                                                                      5 > u E ~ > = > > s > y z c z z z z k a 7 X o = o o = o o = > >                                                               o X X o = -                 ",
"                                                                                                        u ; ; > = = > > > ; u c c k z z k k p ; X = = o o = o o = > >                                                               o X X o @                   ",
"                                                                                                          k 5 = = = > > > ; u z c z c z k a y o o = > o =   o o = > > >                                                             o X X o o                   ",
"                                                                                                            5 o = = = > = ; u z c c k u : ; & o o = > = = = o @ = > = o =                                                           o X X o o                   ",
"                                                                                                            = o o o = = =   z z E %.k o o o = o = = > = = = o o = > = o @                                                           o X X o o                   ",
"                                                                                                              ; = = o =       E ( %.f o X o > = o = = o o o = o = = = o o                                                           X X X o o                   ",
"                                                                                                                              Q c z 5 o X o = @ o o o o o = = = = = > = o                                                           X X X o o                   ",
"                                                                                                                      #.m k y > = & y & o o o o o o o o   = = = = = = o @                                                           X X X o o                   ",
"                                                                                                                Q c f 5 > = = = o o 5 = o o o o o =       = = = = = = o o                                                         o X X X o =                   ",
"                                                                                                        %.Q l s > > > - = = o o X o y = o o o o o o = =   = = o = = =                                                             o X X X o =                   ",
"                                                                                                9.%.E k 5 > - - = = = = = o o o o o y o o o o o o o o = = = = = = =                                                               o X X X o                     ",
"                                                                                          %.~ c u > = = = = = = = : : :           5 > o o o o o o o o o o = = = = =                                                               o X X X o                     ",
"                                                                                      Q f 5 = = = = = = = =                         = = o o     = o o o o o = = = =                                                               o X X X o                     ",
"                                                                                      5 > > > ;                                   d = = o           o o o o o = = =                                                               X X X X o                     ",
"                                                                                    c ; > >                                       5 = = o               o o o o = = = =                                                           X X X X o                     ",
"                                                                                    b : o                                         : = o X                 = o o = = o o @                                                         X X X X o                     ",
"                                                                                  g 5 s o =                                       = = =                   = @ o = = o o o o =                                                     X X X o o                     ",
"                                                                                  > > > o =                                       # =                     = @ o = = o o o o o o                                                   X X X o o                     ",
"                                                                                  = > = o                                       5 o =                     = o o @ @     o o o o o o                                               X X X o o                     ",
"                                                                                    > = o                                       : o                       = o o o @         o o X o o                                           o X X X o o                     ",
"                                                                                                                                = =                       = o o o @             o X o =                                         X X X X o                       ",
"                                                                                                                              l # =                       o o o o o             = o o =                                         X X X X o                       ",
"                                                                                                                              s o =                       o o o o o           > o X o o                                           X X X o                       ",
"                                                                                                                              > o                         @ o o o o           > o o o o                                             X . o                       ",
"                                                                                                                              = =                         o o o o @           = = = o o                                                                         ",
"                                                                                                                            b # =                         o o o o =           o = @ o o                                                                         ",
"                                                                                                                            d o =                         o o o o =             o o o o                                                                         ",
"                                                                                                                            > =                           o o o o =               o                                                                             ",
"                                                                                                                            > >                           o o o = =                                                                                             ",
"                                                                                                                          5 > >                           o o o o @                                                                                             ",
"                                                                                                                        M 5 = =                           o o o o o                                                                                             ",
"                                                                                                                        g > > = =                         o o o o @                                                                                             ",
"                                                                                                                      g 2 > s o =                         o o o o @                                                                                             ",
"                                                                                                                      g = > 2 = =                         o o o o @                                                                                             ",
"                                                                                                                        = > > =                           o o o o @                                                                                             ",
"                                                                                                                          2 = =                           o o o o                                                                                               ",
"                                                                                                                                                          o o o o                                                                                               ",
"                                                                                                                                                            o o o                                                                                               ",
"                                                                                                                                                              o                                                                                                 "
};
