/* XPM */
static char *kitchen_right[] = {
/* columns rows colors chars-per-pixel */
"128 144 237 2 ",
"   c #181A1B",
".  c #22201E",
"X  c #1B1E23",
"o  c #1E2225",
"O  c #1E3026",
"+  c #252627",
"@  c #2F2F2B",
"#  c #2A2A2C",
"$  c #262A33",
"%  c #2A2D35",
"&  c #2B2E39",
"*  c #2E3135",
"=  c #2C3D30",
"-  c #2E323C",
";  c #333335",
":  c #3A3736",
">  c #3B3B3C",
",  c #4A302A",
"<  c #433C39",
"1  c #672C2F",
"2  c #2E4333",
"3  c #49413B",
"4  c #56473A",
"5  c #6D5137",
"6  c #323641",
"7  c #353944",
"8  c #3B3D43",
"9  c #363C49",
"0  c #393E4B",
"q  c #2C3368",
"w  c #423F41",
"e  c #713D43",
"r  c #3D4145",
"t  c #3F4A47",
"y  c #3E434A",
"u  c #3E4452",
"i  c #3A4D6C",
"p  c #434344",
"a  c #4A4643",
"s  c #4C4946",
"d  c #42464C",
"f  c #494649",
"g  c #554B44",
"h  c #524E4B",
"j  c #55514D",
"k  c #59534D",
"l  c #424651",
"z  c #454A52",
"x  c #4A4D53",
"c  c #41475B",
"v  c #464E59",
"b  c #494F59",
"n  c #504F52",
"m  c #4E5155",
"M  c #485359",
"N  c #535354",
"B  c #595653",
"V  c #5B5956",
"C  c #595759",
"Z  c #5B5B5C",
"A  c #655747",
"S  c #705246",
"D  c #645B55",
"F  c #625E5B",
"G  c #5F615F",
"H  c #7B6348",
"J  c #65625D",
"K  c #6B645C",
"L  c #6F685E",
"P  c #716A5D",
"I  c #4D5562",
"U  c #4F586D",
"Y  c #505664",
"T  c #545A63",
"R  c #5B5E63",
"E  c #525969",
"W  c #595D69",
"Q  c #615E61",
"!  c #546362",
"~  c #5D6166",
"^  c #5E626A",
"/  c #5B6476",
"(  c #636365",
")  c #6A6665",
"_  c #6D6964",
"`  c #6A6A6B",
"'  c #736D64",
"]  c #726E69",
"[  c #797266",
"{  c #75716C",
"}  c #7B746B",
"|  c #656A73",
" . c #666C77",
".. c #6A6D74",
"X. c #716F71",
"o. c #6C7176",
"O. c #6D737C",
"+. c #757474",
"@. c #7A7672",
"#. c #7D7974",
"$. c #77787A",
"%. c #7B7A7B",
"&. c #91333C",
"*. c #9E5C38",
"=. c #BB584D",
"-. c #85694B",
";. c #8E724F",
":. c #997A57",
">. c #A0625A",
",. c #916E6F",
"<. c #83786C",
"1. c #81796F",
"2. c #817B73",
"3. c #857C79",
"4. c #7F807B",
"5. c #998A5D",
"6. c #AC8656",
"7. c #978B6B",
"8. c #88847A",
"9. c #958879",
"0. c #B89566",
"q. c #AC9073",
"w. c #B0A47B",
"e. c #D09859",
"r. c #DCA45E",
"t. c #E2A45C",
"y. c #C79B66",
"u. c #CD9A66",
"i. c #C9A26B",
"p. c #D9A867",
"a. c #C9A575",
"s. c #D7AC77",
"d. c #DDB176",
"f. c #E1AA63",
"g. c #E2AF6F",
"h. c #E3B474",
"j. c #4F5D99",
"k. c #676F85",
"l. c #6D7582",
"z. c #6C7787",
"x. c #757B86",
"c. c #7C7D83",
"v. c #727C93",
"b. c #817E83",
"n. c #5C8292",
"m. c #7E8185",
"M. c #7D828C",
"N. c #7A8698",
"B. c #7D8BA2",
"V. c #7F95AC",
"C. c #6D9DCD",
"Z. c #78A7D7",
"A. c #70A8D4",
"S. c #6BBCEA",
"D. c #76B0E4",
"F. c #70C2EE",
"G. c #888887",
"H. c #81848B",
"J. c #948B85",
"K. c #99968B",
"L. c #838A94",
"P. c #878A94",
"I. c #848D9C",
"U. c #948E90",
"Y. c #8B929A",
"T. c #989896",
"R. c #A69888",
"E. c #B19589",
"W. c #A19E92",
"Q. c #A19E9C",
"!. c #98A29D",
"~. c #A3A294",
"^. c #AAA699",
"/. c #B3AC90",
"(. c #B3AB9B",
"). c #838EA3",
"_. c #8692A4",
"`. c #8A94A4",
"'. c #8795AA",
"]. c #8C99AD",
"[. c #959BA5",
"{. c #8A9DB5",
"}. c #8D9CB4",
"|. c #919EB3",
" X c #9CA3A4",
".X c #9AA2AB",
"XX c #8DA1B9",
"oX c #97A3B6",
"OX c #9DAABB",
"+X c #A7A7A8",
"@X c #B2ADA7",
"#X c #A8B4A6",
"$X c #B9B6A7",
"%X c #A6ADB7",
"&X c #ABB3B9",
"*X c #B6B9B8",
"=X c #C9AA84",
"-X c #D6B388",
";X c #D1B390",
":X c #E4BB87",
">X c #C7BAAA",
",X c #BBC3B2",
"<X c #E8C79C",
"1X c #D6C7AF",
"2X c #C5C4B6",
"3X c #9AAAC3",
"4X c #87B1D6",
"5X c #90B6DE",
"6X c #A2AEC0",
"7X c #A7B4C5",
"8X c #AAB7CA",
"9X c #B4BCC2",
"0X c #B1BCCE",
"qX c #ABBBD2",
"wX c #B2BED1",
"eX c #BBC3C9",
"rX c #AAC3DF",
"tX c #B5C1D3",
"yX c #B9C4D6",
"uX c #B9C6D6",
"iX c #BEC9DB",
"pX c #8DC4E5",
"aX c #BACDE5",
"sX c #C7C8C8",
"dX c #C9CED7",
"fX c #C3CCDD",
"gX c #C9D1DC",
"hX c #D4D5D2",
"jX c #EEE1CF",
"kX c #C4CDE1",
"lX c #CAD3E3",
"zX c #C8D3E5",
"xX c #D3DCEA",
"cX c #D5DEF0",
"vX c #DBE3EB",
"bX c #DBE5F2",
"nX c #E5E9EF",
/* pixels */
"W.W.K.K.K.K.K.K.K.K.K.K.K.K.~.W.W.W.T.T.W.~.~.W.W.W.~.~.~.W.W.W.~.W.W.W.W.~.W.~.~.~.~.W.~.W.K.W.W.~.~.~.~.~.W.~.~.K.J.~.~.~.W.W.~.~.~.~.~.~.~.^.^.^.^.^.^.^.^.(.(.^.^.(.(.^.(.(.(.@X@X(.@X(.^.(.$X$X$X(.$X$X$X$X2X2X2X2X>X2X2X2X2X2X*X*X*X*X,X*X,X*X$X$X$X*X$X$X",
"8.8.8.8.8.8.G.G.G.G.J.J.G.G.J.J.J.G.J.J.K.K.K.K.K.K.K.K.K.K.K.K.K.K.K.K.K.K.K.K.T.T.T.T.T.K.K.K.W.~.~.~.W.T.K.T.K.J.K.~.~.~.~.~.~.~.~.~.~.^.^.^.^.^.^.~.~.^.(.(.(.(.(.(.^.^.^.(.$X$X@X@X@X(.(.$X$X$X$X$X$X$X$X$X2X2X2X2X>X2X2X2X2X2X2X2X2X2X2X2X2X,X2X,X,X2X,X,X",
"> > > > > > 8 8 8 r p p p p p p p p p d d f d d d s s s s s s s s x x x x N m N N N N N N N N N N C C C C C C C N N Z Z Z Z Z Z Z Z Z ( ~ ~ ~ ~ ( ~ G ( ( ( ( ( ( ( ( ) _ _ _ ` ` ` ] ] ` ` ] { { { { +.#.#.#.#.#.%.%.%.%.4.8.H.H.H.G.G.G.G.G.G.G.G.G.G.U.U.U.U.",
": > : : > : : : : : > > > > > > > > > > > > > > > > 8 8 8 8 8 8 8 8 8 8 r r 8 r p p r r r p p p p r p p p p p p p d d d d d d d d d d d d d d d d d d d d d f f d d d d d f z f f z z f f d f d f f f f z f f f f z z z f f d d d z d f d l f f z z z z z z x m ",
": > > : > > > > > > > > > > > > > > > > > > > 8 8 8 8 8 8 8 8 8 8 8 r r r p p p p p p p p p p d d d p p d d d d d d d d d d d d d d d d d d f f f f f f f x x z z z z f z z z z x x x z x x z x x x x x x x x x x x x x x z z z x x z x z z z x z x x z x x b C ",
": > > : > > > > > > > > > > > > > > > > > > > > > 8 8 8 8 8 8 8 r r r p p p p d d p p p p d d d d p p p d p d d d d d d d d d d d f f f d f f f f f f f x x x x x z z z z z z z z x x x x x z z x x x x x x x x x x x x x x x x x x x x x x x x x x x x x x m T ",
"> > > > > > > > > > > > > > > > > > > > > > > 8 > > 8 8 8 r r r r r r p p p d d p p p d d d d d d d d p d d d d d d d d d d d d f f f f z f f s f f f f f x x x x f f f f f z z x x x x x x x x x x x x x x x x x x x x x x x x x x x x x x x x x x x x x x m T ",
"> > > > > > > > > > > > > > > > > 8 8 8 p p w w 8 8 w w p p p p p p p p p p p p p p d d d d d d d d d d d d d d d d d d d f f s s s s s x z x x x x s f x x z z x x x x x x x x x x x x x x x x x x x x x x x x x x x x x x x x m x x m m m m m m m m m m m C R ",
"> > > > > > > > > > 8 8 > 8 8 8 8 w p p p p p p p p p p p p p p p p p d d d d s f d d f d f f f s f f f s s s s s f s x s s s s s x x x s s x x x x x x x x x x m m m x x x x x x x x x x x x x x x x x x x m m x m m m m m x m m m m m m m m C C C m C m C C R ",
"> > > > > > > p > p p p p p p p p p p p p p p p p p p p p p d d d f s s s s s s s s s s s s s s s s s s s s s s x s x x x x x x x x x x x x x x x m x x x x x x N N N N N m m m m m m m x x x x x x m m m m m m m m m m m m m m m m C C C C C C C C C C T T R ^ ",
"w w w p p p p p p p p p p p p p p p p p p p p p a a a a a s s s s s s s s s s s s s s s s s s s x x s s s s s s x x x x x x x x x n x n x x N x m m m m m m m N N N N N C C N N N m N N m N N N m m N N C C C C C C C C C m m C C C C C C C T T R T T T R R ) | ",
"p p p p p p p p a a a a p a a s s s s s s s s s s s s s s s s s s s s s s s s x x s N n n N j N N N N N N N N N N N N N N N N N N N N N N N N N N N N N N N N N N C C C C C C C C N C C N N N N N C C C C C C C C C C C C C C C C C C T T T R R R R R ^ ^ ) ..O.",
"a a p s s s s s s s s s s s s s s s s s h s s h s h h j j h j j j j j j N N N N N N N N N N N N N N N N N N N N N N N N N N N N N N B N N N N N N N N C N C C C C Z Z Z Z Z Z Z C C C C C C C C C C C C C C C C C C C C R R R R R R R R R ^ ^ ) ) ) ) ) | | $.l.",
"s s a s s s s s s s h h h h h h h h h j j j j j j j N N j N N N j N N N N N N N N N V V B B B V V Z B B B B V V Z Z V V V V V Z Z Z C Z Z Z Z Z Z Z Z Z Z Z Z Z Z Z ( ( Z Z Z Z Z Z Z Z Z Z Z Z Z Z Z Z R Z R R R R R R R R R ~ ~ ^ ^ ) ) ) | | | ....o.o.O.x.x.",
"h s s h h h h h h j j j j j j j j j k B B B B B B B B B V B B V V V V V V V V V V V Z Z V V Z Z Z Z Z Z Z Z Z Z Z Z Z Z Z Z Z Z Z Z Z Z Z Z Z Z Z Z Z Z Z Z Z Z Z Z ( ( ( Z R R R R R R R R R R R R R ~ ~ ( ~ ( ~ ~ ~ ~ ) ^ ) ) ) | | | ....o.O.O.O.l.l.l.x.M.x.",
"j h h j j j k k k B B B B B B B B V V V V V V V V V F F V V V F F F F F F F F F F F F F F F F F F F F F F F F F F F F J J J J J J J J J J J J J J J J J J ( F F ( Q ( ( ( ( ( ( ( ( ( ( ( ( ( ( ( ( ) ) ) ) ) ) ) ) ) ) ) | ........o.O.O.l.l.l.x.x.x.x.x.M.P.M.",
"B j j k B B V V V V V V V V F F F F F F F J J J J J K J J J J J J J J J J J J J J J J J J J J J J J J K ( ( _ ( J J J J J J ( ( ( ( ( ( J ( ( ( ( ( ( ( ( ( ( ( ( ( ( ` ( ( ( ( ( ( ( ( ( ) ) ) ) ) ) ` ..` ..............O.$.$.$.$.l.x.x.x.c.x.M.M.M.M.M.P.I.P.",
"F k k V F F F F F F F F F F F F K K K K K K K K K K K K K K K K K _ _ _ _ _ _ _ _ _ _ _ _ _ _ _ _ _ _ _ _ _ _ _ _ _ _ _ _ _ _ _ _ _ _ _ _ _ _ _ _ _ _ _ _ _ _ _ _ _ _ ` _ _ ) ) ) ` ` ` ` ` ` ` ` ` ......o.+.+.o.o.$.O.$.$.x.x.x.x.c.x.x.M.M.M.M.M.M.P.P.).`.I.",
"F F F F F J J K K K K K K K K K K K K K _ ' ' ' ' ' ' ' L _ _ _ ' ' ' ' ' ' ' ' ' ' ' ' ' ' ' ' ' ' ' ] ] { ] ' ] _ ' ] _ _ _ _ ] _ _ _ _ _ _ _ _ _ _ ' _ ` ' ' ] ] ] ] ` ` ` ` ` ` ` ` ` ` ..+.+...+.+.+.$.$.$.$.$.$.$.x.x.c.c.x.x.M.M.M.M.M.M.P.I.I.I.).'.`._.",
"J K J K K K K K K K K K K K K K L ' P P ' ' ' ' ' ' ' ' ' ' ' ' ' ' ' ' ' ' ' ' ' ' ' ' ] ] ' ] ' { { [ [ [ ] { ] ] ' ] ] ] ] { { ] ' ] { ] { { ] ] ] { { { { { { { { { { { { { { { +.+.+.+.+.+.+.+.$.$.$.$.$.%.$.$.x.c.c.x.x.M.M.M.M.M.M.P.P.I.I.)._._.`.].].'.",
"K K K K K L L L P P P P P ' ' ' ' ' ' ' ' ' ' ' [ [ [ ' ' ' ' ' ' ' ' ' ' ' [ [ { { [ [ [ [ [ [ [ [ [ [ [ [ [ { { { ] { { { { { { { { { { { { { { { { { @.{ @.@.@.@.+.+.+.+.+.+.+.+.+.+.@.@.@.$.$.$.$.%.%.%.%.%.c.c.c.c.M.M.M.M.M.M.M.P.P.I.I._._._.`.'.].oX].'.",
"K K K L ' ' ' ' ' ' ' ' ' ' ' ' ' ' ' ' [ [ [ [ [ [ [ [ ' ' ' ' [ [ [ [ { [ [ [ [ [ [ [ [ [ [ [ [ [ [ [ [ [ [ [ { { { { { { { { { { { { { { { @.@.{ @.@.@.@.@.@.@.@.@.@.@.+.+.@.@.#.#.%.$.%.%.%.%.%.%.c.c.c.c.c.c.c.c.M.M.M.P.P.P.P.P.I.I.)._._.'.'.].].|.oX|.].",
"K K K P ' ' ' ' ' ' ' ' ' ' ' ' [ [ [ [ [ [ [ [ 1.1.1.[ [ [ [ [ [ [ [ [ [ [ #.[ [ [ [ @.#.[ [ [ [ [ [ [ [ [ [ [ { { { { { [ [ @.@.{ { [ [ @.@.@.@.@.@.#.#.#.@.@.@.@.#.#.#.#.#.#.#.%.%.%.%.%.%.%.%.%.c.c.m.m.M.M.M.M.H.H.P.P.P.P.P.I.I._._._._.'.].{.{.oXoXoX|.].",
"L K K P ' ' ' ' ' ' [ [ [ [ [ [ [ [ [ [ [ 1.1.1.1.2.1.1.1.[ [ [ } #.2.} 2.2.2.2.2.2.2.2.2.2.2.2.#.#.#.2.#.@.@.[ [ [ [ @.@.#.#.#.#.@.@.@.#.#.@.@.@.#.#.#.#.#.#.@.@.#.#.#.#.%.%.%.%.%.%.%.%.%.%.%.c.c.m.H.H.H.M.H.H.H.P.P.P.P.P.P.I.I._.`.`.'.'.].{.{.oXoXoXOX{.{.",
"L K K ' ' ' ' [ [ [ [ [ [ [ [ [ [ [ [ [ 2.2.2.2.1.2.2.1.} [ [ } } 2.1.1.2.2.2.2.2.2.2.2.2.2.2.2.2.2.2.#.#.#.#.#.#.#.#.#.#.#.#.#.#.#.#.#.#.#.#.#.#.#.#.#.#.#.#.@.@.#.#.#.%.%.%.%.%.%.%.%.%.%.%.c.c.m.H.H.H.H.H.H.P.P.P.P.P.P.P.I.I.`.`.`.'.].].{.{.oXoXoXoX3X{.{.",
"L ' ' ' ' ' [ [ [ [ [ [ [ [ [ [ [ [ [ [ 1.2.1.2.2.1.1.1.} [ } } } 1.1.2.2.2.2.2.2.2.2.2.2.2.2.2.2.2.2.2.#.#.#.#.#.#.#.#.2.2.2.#.#.#.#.#.#.#.#.#.#.#.#.#.@.@.@.@.@.#.%.%.%.%.%.%.%.%.%.%.%.c.c.H.H.H.H.H.H.H.H.P.P.P.P.P.P.P.I.I._.`.`.'.].].{.{.oXoXoXoX3X3X{.{.",
"P ' ' ' ' ' [ [ [ [ [ [ [ [ [ [ [ [ [ [ 1.1.2.2.1.1.1.1.2.1.1.} 1.1.2.2.2.2.2.2.2.2.2.2.2.2.2.2.2.2.2.2.2.2.#.#.#.#.3.#.2.2.#.#.#.#.#.#.#.#.#.#.@.#.#.#.@.@.@.@.@.@.%.%.%.%.%.%.%.%.%.%.c.c.b.H.H.H.H.H.H.H.H.P.P.P.P.P.P.I.I._._.`.'.].].{.{.{.oXoXoX3X3X3X{.{.",
"' ' ' ' ' ' ' [ [ [ [ [ [ [ [ [ [ [ [ [ 1.1.2.2.1.1.1.1.2.1.1.1.2.2.2.2.2.2.2.2.2.2.2.2.2.2.2.2.2.2.2.2.2.2.2.2.2.#.#.#.#.2.#.#.#.#.#.#.#.#.#.#.@.@.@.@.@.@.@.@.@.@.%.%.%.$.%.%.%.%.%.%.c.c.c.b.H.H.H.H.H.H.P.P.P.P.P.P.P.I.)._._.'.'.].{.{.{.XXoXoXoX3X3X3XXXXX",
"' ' ' ' ' ' ' ' ' ' ' [ [ [ [ [ [ [ [ [ [ [ [ } 1.2.} } } } 1.1.1.2.2.2.2.2.2.2.2.2.2.2.2.2.2.2.2.2.2.2.2.2.2.2.2.2.#.#.#.#.#.#.#.#.#.#.#.#.#.@.@.@.@.@.@.+.+.+.+.+.%.%.$.%.%.%.%.%.%.%.c.c.H.H.m.m.H.H.P.P.P.P.P.P.P.P.I.I._._._.'.].{.{.{.{.XXoXoX3X3X3X3XoXXX",
"_ ' ' ' ' ' ' ' ' ' ' [ [ [ [ [ [ [ [ [ [ [ [ [ [ #.#.} } } 1.1.2.2.2.2.2.2.2.2.2.2.2.2.2.2.2.#.2.2.#.2.#.#.#.#.#.#.#.#.#.#.#.#.#.#.#.#.#.#.@.@.@.@.+.+.+.+.+.+.+.+.+.$.$.%.%.%.%.%.%.c.c.c.m.m.m.H.H.P.P.P.P.P.P.P.P.I.I._._._.'.'.].{.{.{.{.XXoXoX3X3X3X3XXXoX",
"_ _ ' ' ' ' ' ' ' ' { { { { [ [ [ [ [ [ [ [ [ [ [ [ [ [ [ [ [ [ [ [ [ [ @.@.@.@.@.@.#.#.#.#.#.#.#.#.#.#.#.#.#.#.#.#.#.#.#.#.#.@.#.#.@.+.@.@.@.+.+.+.+.+.+.+.+.+.+.+.$.%.%.%.%.%.%.c.c.c.c.m.m.M.M.H.H.P.P.P.P.P.P.I.I.)._._._._.'.].].{.{.{.XXXXoXoXoX3X3X3XoXoX",
"_ _ ' ' ' ' ' ' ' ' ' ' ' ] [ [ [ [ [ [ [ [ [ [ [ [ [ [ [ [ [ [ [ [ [ [ [ @.@.@.[ @.@.#.#.#.#.#.#.#.#.#.#.#.#.#.#.#.#.#.@.@.@.@.@.#.@.+.+.+.+.+.+.+.+.+.+.+.+.+.+.+.$.%.%.%.%.%.c.c.c.m.m.M.H.H.H.H.P.P.P.I.I.I.I.I.).`._._.'.'.].].{.{.{.{.XXoXoXoXoX3X3X3X{.oX",
"K _ _ ' ' ' ' ' ' ' ' ' ' ' ' ' [ { [ [ [ [ [ { { { [ [ [ [ [ [ [ [ [ @.@.@.@.@.#.#.#.#.#.#.#.#.#.#.#.#.#.#.#.#.#.#.#.#.#.#.#.#.#.%.@.+.+.@.$.$.+.+.+.+.+.$.%.%.$.%.%.c.c.c.c.c.c.c.M.H.H.H.H.H.P.P.P.Y.Y.Y.Y.Y.`.`.`.`.'.'.].].].{.{.{.{.oXoXoXoXoXoX3X3X3X{.oX",
"J K K K _ _ _ _ _ _ _ _ _ _ _ _ _ _ _ _ ' ' ' ' ' ] ] ] ] { { { { { { +.+.+.+.@.@.@.@.@.@.@.@.@.@.@.#.#.%.#.%.#.#.#.%.#.%.%.%.%.%.%.%.%.%.%.%.%.%.%.%.$.%.%.%.%.%.%.c.c.c.c.c.c.c.m.H.H.P.P.P.P.P.I.Y.`.`.`.`.`.`.`.'.].].].].{.{.|.oXoXoXoXoXoXoXoX3X3X3X3XXXoX",
": : : : : : > > > > : : : : : : : : : : : > > > > > > > > 8 8 8 8 r r r p p p p p d p d d d f f f f f z x x x x x x x x x x x x x x x m m N N m m C C C C C C C T T R ^ ^ ) ) ^ ^ ^ R T C m m m z z m m m I I I I I I I T E E E E / / / / / / / / / / / / l.{.oX",
"p p p p p p p d p p p p d p p p r 8 8 8 p r p p p p d d d p p p p p d d d d d f f s s d d d d d f f f f f f f f f f f d d d d d d f f f d f f s f f d f x x x m m m m C C ) ` ~ R R C C x x x x x x x x x x x z d d y 0 0 y d d l l l 0 6 8 8 8 8 8 9 9 9 b {.oX",
"Z Z Z Z N N N C N N N N Z R Z Z C C C C C C Z Z Z Z Z ( ( R Z R R ( ( ( ( ( ( ( ( ) ` ) ( _ ( ) ) ) ) ) ) ) ( ( ` ` ` ) ) ` ` ) ) ) ` _ ) ` ` +.+.....+.+.+.+.+.+.+.$.%.c.H.G.H.H.c.c.%.$.+.+.+.+.+.+.+.%.3.%.$.$.+.X.X.X.+.+.$.$.$.X.( ) ) ( Z C C m b z T {.oX",
"# # # # + + # # + + + + # # # # + # + + # # # # # # # # # # % % % % % % % * * * : : : : : : : : : : : : : : : : : : : > 8 8 : : > > > > > 8 8 8 8 8 8 r y y y d d f f z x x x z z f d 8 : - * & & & & % & & - - - - 6 6 : 6 6 6 6 8 y z z x C C C m m m x E {.oX",
": : : : : : : : : : : : : : : : : : : : : : : : : : : : : : : : > > > > > 8 8 8 r p p d d d d f f f f f f f s s s s s s x x f f f s s s s s x x x x x x x m m m m C C C C C C C C m x d 8 8 : : : : : - & & - - - - - - - : 6 6 6 8 0 y 0 0 y l l l z z l W XXoX",
"> > > > > > > > > > > < 3 p p p 3 p p p p p p p p p p p p p p p p p d f s s s s s x x x m N N N N C C C C C N N N N N C C N C C C C C C C C C C C C C C C T T T R R R ~ ~ ^ ^ ^ ^ R C x d 8 8 8 8 8 : - - - - - - - : - - : 6 6 6 8 0 0 0 0 0 y 0 u u u y / oXoX",
"3 p p a a a a a a a a a a s s s s s s s s s s s s s s s s s s s s s x N N N N N N N N C C C C C C C C C C C C C N C N C N N C C C C C C N C C C C C C Z R R R ~ ^ ^ ) ) ) | | ) ) ^ T m d 8 8 : : : : - - - - - - - : : - 6 6 6 8 8 0 0 0 0 0 0 0 0 u u y / oXoX",
"s h h h h h j j j j j j j j j j j N N N N N B N N B N N N N B V V V Z Z Z Z Z Z Z Z Z R ( ( ( ( ( ( ( R R R Z Z Z Z Z C C C C C C C C C C C C C Z R R ~ ) ) ) ) ) | | ..o.o.o...| ) R m d 8 8 : - - - - - - - - - - 6 : 6 6 6 6 8 8 0 0 0 0 0 9 0 0 y u y / oXoX",
"s j j h h j j j j j j j j k k k k B B B B B B B B B V V V V Z Z Z Z Z Z Z Z F Q ( ( ( ( ( ( ( ( ) ) ) ( ( ( ( ( ( R R Z Z Z C C Z C C C C C R R R ~ ^ ^ ) ) ) | ..o.O.O.O.O.O...| ) R m d 8 8 : - - - - - - - - - - 6 6 6 6 6 8 8 8 8 0 9 9 9 0 0 9 0 y 0 / oXXX",
"s h h h h h h h h h h h h j h h h j j j j j N N B B N N B B V V V Z Z Z Z Z Z Z Z Z ~ ( ( ( ( ( ) ) ( ( ( ( ( ( ( R R R Z Z Z Z Z Z C C C C R R R ~ ~ ^ ) ) ) | ..O.O.O.O.O.O...| ) T m y 8 : - - - - - - - - - - - - 6 - 6 6 8 8 8 8 9 9 9 0 0 0 9 0 y 0 / XX{.",
"s j h h h h h h h h h h h h h h h j j j j j j N N N N N N B N N V V V Z Z Z Z Z Z ( ( ( ( ( ( ( ) ( ( ( ( ( ( ( ( ~ R R R Z Z Z R R R R R R R R ~ ~ ~ ^ ) ) ) | ..o.O.O.$.$.O...| ^ T m y 8 : - - - - - - - - - - - 6 - 6 6 6 8 8 8 8 8 9 9 9 0 9 0 0 y 0 / XXXX",
"j B B B B B B B B B B B B B B B B B B B B B B B V Z Z Z Z Z Z Z Z Z Z F F ( ( ( ( ` ` ` ` ` ` ` ` ` ` ` ` ` ` ` ` ) ) ) ) ( ( ~ ) ) ) ) ( ) ( ) ) ) ) ) ) | | ..O.O.$.$.$.$.O.o.| ) R m y 8 : - - - - - - - - : 6 6 6 6 6 6 6 6 6 8 8 8 9 9 9 9 9 9 0 0 0 | XX{.",
"j k B B k k k B B k k j j j j j j j B N B B B B B V Z Z V V Z Z Z Z Z F F ( ( ( ( _ ) ` ` ` ` ` ` ` ` ` ` ` ` ` ` ` ) ) ) ) ) ) ) ) ) ) ) ) ) ) ) ) ) | | ......O.O.O.$.$.$.O.O.o.) R m y 8 : - - - - - - - - : 6 6 8 6 6 6 6 8 6 8 8 9 9 0 0 9 0 0 0 0 0 | oX{.",
"s j j j j j j j j j j h h j h j j j j j j j j B B N B B V V Z Z Z Z Z Z F F ( ( ( ( ( ( ` ` ` ` ` ` ` ` ` ` ` ` ) ) ) ( ) ) ) ) ) ) ) ) ) ) ) ) ) ) ) | ......O.O.O.O.$.$.$.O.O...) R m y 8 : - - - - - - - - - 6 6 8 6 6 6 6 8 8 8 8 9 9 0 0 0 0 0 0 0 0 l.oX{.",
"a h h h h h h h h h h h h h h h h h h h h h N N N N N N N N V V Z Z Z Z Z ( ( ( ( ( ( ) ) ` ` ` ` ` ` ` ` ) ) ) ) ) ) ) ) ) ) ) ) ~ ~ ) ) ) ) ) ) | | | | ....O.O.O.$.l.l.l.$.O...| R m y 8 : - - - - - - - - - - - 6 6 6 6 6 6 8 8 8 8 0 0 0 0 9 0 0 0 y l.oX{.",
"a s s s s s h h h h h h h h h h h h h h h h N N N N N N N N N N N C Z Z Z F ( ( ( ( ( ) ` ` ` ` ` ` ` ` ) ) ) ) ) ) ) ) ^ ~ ~ ) ) ~ ~ ~ ^ ^ ^ ^ ) ) | | | | ....o.O.$.$.l.l.$.O.O.| R m y 8 : - - - - - - - - - - - 6 6 6 6 6 6 8 8 8 8 8 8 0 0 9 9 0 0 y l.oX{.",
"a a a a a s s s s h s s s s s s s s s s s h h N N j h n s h N N N N B Z Z Z Z R ( ( ( ) ) ` ` ` ` ` ` ) ) ) ) ) ) ) ( ( ~ ^ ) ) ) ) ) ) ) ) ) ^ ) ) | ..o.....o.O.O.$.$.$.$.$.O.O.| R m y 8 : : - - - - - - - - - - : 6 6 6 6 6 8 8 8 8 8 9 0 9 9 0 9 0 y l.{.{.",
"p a a a a a a s s s s a a a a a a a a s s s s h j s s s s s N N N N N C Z Z Z Z R ( ( ) ) ) ) ` ) ) ) ) ) ) ) ) ) ) ) ) ^ ^ ^ ) ) ) ) ) ) ) ) ) ) ) | ..O.o.o.O.O.O.O.$.l.l.O.O.O.| R m y 8 : - : - - - - - - - - - : 6 6 6 6 6 6 8 6 8 8 9 0 9 9 0 0 0 u l.{.{.",
"a a h s a a a a a a a a a a 3 3 a a a a h s s s s N h s s N N N N N N N Z Z Z Z R ~ ~ ) ) ) ) ) ) ) ) ) ) ) ) ) ) ) ) ) ( ) ( ( ^ ) ) ^ ) ) ) ) ) ) ) ........O.O.O.O.$.l.l.O.O.O.| ~ m d 8 : - - - - - - - - : 6 - - 6 6 6 6 6 6 6 8 8 9 0 0 0 9 9 9 0 u x.{.{.",
"a a _ Z a a a a a a a a a 3 < 3 3 3 3 p $.h a f s ` ( s s +.R x N N N C Z Z Z Z R ~ ( ) ) ) ) ) ) ) ) ) ) ) ) ) ) ) ) ) ) ) ) ~ ~ ^ ^ ~ ) ) ^ ) ) ) ) | $.x.x.x.c.M.c.x.x.M.x.O.O.| ~ m d 8 - - - - - - - - - - 6 - - 6 6 6 6 6 6 6 8 8 8 0 9 9 0 9 0 0 u v.{.{.",
"a a ` Z a a a a a a a 4 S -.-.-.-.;.;.;.9.h f f s ( Q s s +.R x N N N C C Z Z Z R R ~ ) ) ) ) ) ) ) ) ) ) ) ^ ^ ~ ~ ~ ( ( ~ ~ ~ ^ ^ ^ ^ ) ^ ^ ) ) ) ) ) ].4XZ.Z.4X4X4XC.C.4XN.O.O.| ^ m d 8 - - - - - - - - - - - - 6 6 6 6 6 6 6 6 6 8 8 9 9 9 9 0 0 0 y M.{.{.",
"a a ` V a a a a a a 4 5 e.t.t.r.f.g.:X<X-Xk p f s ( F d x ..C x N N N N C Z Z Z R R R ^ ) ) ) ) ) ) ) ^ ~ ~ ~ ~ R R R R R R R R R ~ ^ ^ ) ) ) ) ) ^ ) | '.Z.Z.Z.4X5X4XZ.Z.Z.N.O.l.| ^ C d 8 - - - - - - - - - - - - - 6 6 6 6 6 6 6 6 8 8 8 9 9 9 0 0 0 u M.{.{.",
"j j @.V a s a a a h 4 ;.t.t.e.e.r.g.<XjX<X-.f s h ( ( N R %.C x n N N N N N N C Z R R ( ( ) ( ( ^ ) ^ ~ ~ R R R R R R R R R R R R ~ ~ ~ ^ ) ) ) / ^ ) ) '.D.Z.Z.Z.Z.4X4XZ.Z.N.l.l.O.^ m y : - - - - & - - - - - - - 6 6 6 6 6 6 6 6 6 6 8 8 8 9 9 0 9 0 u M.{.].",
"+X+X@X^.T.T.T.T.T.T.K.;X<X<X-X-Xu.-X;X1X>X>X+X+X+X+X+X+X*X*X+X+X+X[.T. X XY.P.+.Z R R ~ ( ( ~ ~ ~ ~ R R R R R R R R R R R R R R R R R W ~ ^ ) ) | / ) ) N.Z.Z.Z.Z.Z.Z.Z.Z.C.I.l.l.O.^ m y : - - - - % - & - - - - - 6 6 6 6 6 6 6 6 6 6 6 8 8 9 9 9 0 0 u M.{.].",
"F s s s : : : : : * % Z xXvXvXhXq.>XX.* : f h s h a 8 8 y z C C C R C [.nXbXbX%XC Z R R R R ~ ~ ~ R R R R Z Z Z Z Z Z R R R R R R R R R ~ ~ ^ ^ | / | ^ N.D.Z.Z.Z.Z.Z.Z.C.Z._.l.l.O.^ m d : - - % % % % - - - - - - 6 6 6 6 6 6 6 6 6 6 6 8 8 9 9 9 9 0 u N.{.'.",
"Z Z N # + # # : X     m sXhXnXhXJ.@XR   o + + + # , o X + : > 8 8 8 : H.gXxXnX&XC Z R R R R R R R R R R R N.{.'.{.{.{.'.| T R R R R R R R R ^ ^ ^ / | ^ B.Z.Z.Z.Z.Z.Z.Z.4X5X_.l.l.O.^ C y : - - % % % % % - - - - - : 6 : - : 6 6 6 6 6 6 8 8 9 9 9 9 0 u N.{.'.",
"` ..+.: # * * : #     m *XgXnXhX8.+XR   X + + + , , # + % r d p 8 8 : m.*XxXbX%XC C R R R R R R R R R Z R Z.F.F.F.F.F.pXO.T T R R ~ ~ ~ ^ ^ ^ ^ ^ ^ ) ) B.A.Z.Z.Z.Z.Z.4X5XpXI.l.l.O.| C d : - - & & & & & - - - - - - - - - 6 6 6 6 6 6 6 8 8 9 9 9 0 9 u N.'.'.",
"+.+.m.V > > > w > #   N hXvXnXdX2.+XW   X + # + : < # # r N x d 8 8 : Y.xXxXbX%XC C Z R R Z Z R R R Z Z R A.F.S.S.S.F.pXO.C T R R ~ ~ ~ ^ ^ ^ ^ ^ ^ ^ ) '.A.Z.Z.Z.Z.4XpXpXpXN.l.l.l.| C d : - - & % & & & & - - - 6 - - 6 - 6 - 6 6 6 6 6 8 8 9 9 9 9 9 u N.'.'.",
"+.$.c.[ K D A k g 4 < _ xXvXnXsX+.+XR o X # % : % : 8 : d f f d 8 : : [.vXvXbX+XC C Z Z C C C R R R C Z ^ Z.F.S.S.S.S.pXO.C T R R R R ~ ^ ^ ^ ^ ^ ^ ) | {.A.Z.Z.4XZ.4X5XpXpXN.l.x.l.| C d : - & % & & & & & & - - - - - 6 6 - : : : 6 6 6 8 8 8 9 9 9 9 l N.'.'.",
"` +.%.3.K A D D A 4 4 ' sXhXnXsX` +XT + # : r m f r m : t m f f r : > Y.sXxXnX.XN C C C C C Z R R Z C C R A.S.D.A.D.S.pXO.C T R R R R R ^ ^ ^ ^ ^ ^ | | ].A.Z.Z.Z.A.Z.8XtXrXI.l.x.l.| C d : - & % & & & & & & - - - - - - 6 - - : : 6 6 6 8 8 8 9 9 9 9 z I.'.'.",
"_ ` +.H.P A D D A 4 4 [ sXhXnXsX) +X^ # * : r r 8 r f t f M f f : : : P.9XxXbX.Xm C C C C C R R Z Z C C T A.S.S.S.S.S.pXO.C T T R R R ^ ^ ^ ^ ) ) ) / | V.Z.Z.Z.Z.Z.4X9X9XqXI.x.x.l.| C d : - & % & & & & & & & - - - - - - - - : 6 6 6 6 6 8 8 9 9 9 9 l N.'.'.",
"_ +.%.8.P A D D A 4 4 @.vXnXnXsXR [.W o + $ * > r : : r m C C M z t f [.vXvXbX[.m C C C C C C C C C C C T A.F.F.F.F.S.pXl.C T T R R R ^ ^ ^ ) ) ) ) | | V.A.D.A.A.Z.4X7X3X4XN.x.x.l.| m y : - & & & & & & & & - - - - - - - - - - 6 6 6 6 8 8 8 8 9 9 9 l N.'.'.",
"j N J _ D A D A A 4 4 %.nXnXnX*XC [.T X o + % : * r : : f C C ! M M f +XbXvXbX[.m C N C C C C C C C C C T A.F.S.F.S.S.pXx.C T T R R R ^ ^ ^ ^ ^ ^ ) | | 3XA.A.C.C.A.4XZ.Z.4XM.x.x.l.| m y : - & & & & & & % & & & & - - - - - - - 6 6 6 6 6 8 8 8 6 8 9 z ).'.).",
": < 3 h g A g g 4 4 4 3.nXvXvX*XC [.m X X + a s * * * * : r r m M m r .XbXxXvX[.m N N C C C C C C C C C T A.F.S.F.F.F.pXl.C T R R R R R ^ ^ ^ ^ ^ ^ ) | I.B.B.B.N.B.]._.'.].M.x.x.l.| m y : - & % % & & & & & & - - - - - - - - - - 6 6 6 6 6 8 6 6 6 6 v ).'.).",
"3 s h g A A A A A A g G.nXnXvX*X8 P.m o + : k a : % * r y d : r M m f %XnXvXvX[.C m N C C C C C C C C C T 4XpX4X5X4X4X5XO.C T R R R R ~ ~ ~ ^ ^ ^ ^ ^ ) | / | o.O.l.l.l.x.x.x.x.x.l.| m y : - & % % % % % % & & & - - - - - - - - - 6 6 6 6 6 6 6 6 6 6 v ).'.).",
"w w p p f s f f f f w C c.c.c.( X : d 0 z x n x d d f m T x d b m x m x.[.[.[.O.m m C C C C C C C C C C C ) | ) ) ) ) ) T T T R R R R R ~ ~ ^ ^ ^ ^ ^ | | / | | O.l.x.x.x.x.x.x.x.l.| m y - - & % % % % % % & & - - - - - - - - - - - 6 6 6 6 6 6 6 6 6 v ).).).",
"w w > > > > > > > 8 > > > > > > w > : > 8 8 8 8 8 r r r r r 8 d d 8 y z m m C C C C C Z C N C C C C C C C C m C C C C C C T T T R R R R ~ ~ ^ ^ ^ ^ ) ) ^ / | | O.O.O.l.x.x.x.x.x.O.^ m y : - & % % % % & & & & - - - - - - - - - - - : : 6 6 6 6 6 6 6 b ).).).",
"s s s s s s s s s a a p p p p p p p p f s s s s s s x x x N N N m m N N N N N N C C C R Z C C C C C C C C C C C C C C C C C T T T T R R R ~ ^ ^ ^ ^ ) ) | | | | | O.O.O.l.x.x.x.l.O.^ m y - - & & & % & % % & & & - & - - - - - - - - - 6 6 6 6 6 6 6 6 v ).).B.",
"s s s s s s s s s a p p p p p p p p a s s s s s s s x x x x N N N N N N C C C C C C Z Z Z N C C C C m m C C C C N m m C C C C C C T T R R R ~ ^ ^ ^ | | | | | |  .o.o.O.O.x.l.x.l.| ^ m 0 - - & % % % % % % % & & & & & & & - - - - - - - - 6 6 6 6 6 6 v ).).B.",
"s h h s s s s s s s s s s s a p p p p p s s s s s s s s x x x m N N N N C C C C Z Z Z R Z N C C C m m m C m N m m f f f f m C C C C C T T R ~ ^ ^ ^ ) | | | | | o. .o.O.O.l.l.l.l.| T x 8 - - & % % % % % % % & & & & & & & - - - - - - - 6 6 6 6 6 6 6 b B.B.B.",
"> > < > < > > > 8 r p p p p p p 8 p p p p p p d d s s s x x x x x x N N N N C N N Z C C C m C C m m m m m m m m x f x m f f C C ( ) C C T R ~ ~ ^ ^ ^ ^ ^ ^ | |  .| | | O.l.l.l.l.| T z 8 - & & % % % % % % % % % & & & & & - - - - - - 6 6 8 6 6 6 6 6 I B.B.B.",
": : : : : # # # * : : : > > > > > > 8 8 8 p p p p p d d s x x s s x N N N N N N m m x m m m m m m m m m m m m m f f m m x r m m +.T.T T T T R ~ ~ R ^ ^ ^ ^ | | | | |  .| O.l.l.l.| T z 8 - & % - - % $ $ $ $ $ $ $ & & & & & - - - - - 6 6 8 6 6 6 6 6 I B.B.N.",
"> : : : # + + + # : : > > > > > > > 8 r r p p d d d f f s x x x x N N N m N N m m x x x x m m m m m m N m m m x z z m m x 8 z Z U.+X~ T T R R ~ R R W W ^ ^ | | | | | | | O.l.l.O.| T z 8 & % - 8 8 : s Z ( x : % $ $ % & & - - : : 6 6 6 6 8 6 6 6 6 - I B.B.N.",
"Z : : : # % : % 8 y 8 : > > > : > > 8 r r p p p 8 8 d f x N x x x N N N m s s x s f z z x x m m m m m m m m m m x m m m z 8 z ( U.*X^ C T R R R T R ~ R W ^ ) | | | | | | O.O.l.O./ T z 8 & % : r > s G.K.K.G.8.{ N 8 & & - : 8 8 8 6 6 6 6 6 6 6 6 6 6 T B.B.N.",
"C : : # # #     z m T ) 8 : : # # : > r p p p p : i j.v T Y.x.$.C m m m d > ..P.H.$.x f f x x x x m m m m m C m m m m m f : y ) U.*X/ C T T T T T R R R R ^ ^ ^ ^ ) | | | O.| O.| ^ C d 8 % % : : : _ K.K.K.J.J.K.J.8.Z : 8 8 8 8 8 8 8 6 6 6 6 6 6 6 6 T B.B.N.",
"> # : # # # + o # s @XsXm.: # + + # > p p p p p % q j.U T oX[.M.m m m x > s *XsXhXvX) f s f x x x m m m m m m m m m m m f : y ` U.@X^ C T T T T T R R R R W W W W ^ ^ ^ | O.| | ^ m z y : % $ % % > @.#.@.#.8.J.K.G.8.{ : 8 d 0 0 8 8 8 6 6 6 6 6 6 6 6 I N.N.N.",
"C x # # + o   X X _ sXvXdXx.* : < , &.S a p d p 8 c j.k.T [.Y.O.m m N x : p P.&X2XhX$.Z m f f z x m m m m m m m m m m m f : y o.P.$.T C m C C T T T T R T R R T R R R W / | | ^ p s ` B p d s 8 * : p s N K [ 9.J.2.#.{ > > r r 8 8 6 6 6 6 6 6 6 6 6 6 E N.N.N.",
"$.C # # + O = 2 # J sXvXvX8X0 # , &.&.&.&.p p f ..H.[.|.&X&X0XM.s m C x # p M.n.w./.$.f f f f z z z x m m z x m m m m z f : y +.P.m m m m m m m m b x m C C l l b m x m T ^ T f p #.R.W.J.J.^.J.f : % + : [ R.K.8.F Z @.N > > 8 8 6 6 6 6 6 6 6 6 6 6 6 E N.N.N.",
"( x # # + O 2 2 # > Z $.[.x.% + 1 e n ) ,.h p x `.%X7X%XsXdXvX[.< k k N # a U.i 7.5.%.f f f f f f z z x z x m m m x z z f : y +.H.m m m m z z z z y 8 0 d 8 - 8 - 8 : d ( ( ( N 8.9.K.>XJ.9.E.q.1.Z # + 3 9.>X$X~.J V J [ n : 8 8 8 8 6 6 8 8 8 8 8 8 6 E N.N.v.",
") s # # + O O + + + * f T C % o , * B c.+.D w s b.%X%X[.&XhXnX&Xk 5./.9.+ , D 8 7.;.D x f f f d f f f f f f x ) $...m f r * 8 +.m.z z z z d d z d 8 % % $ % $.+X@.Z % N 8.H.` %.Q.] /.>X1.9.E.q.9.8.J F [ R././.R.> s B 9.` p > 8 8 8 8 8 8 8 8 8 8 8 6 E N.M.v.",
"` n # # + = o + I l.x : + z l . 1 ; 8 Z ,.D < C J.%X%XP.+XsXvXeXF 8./.{ # w D n P ;.] ) f y y y y y y y y 8 y | G.[.~ 8 * + : 8.U.x z d y 8 8 8 8 : # o X + +.*X1X^.` @.N c.P.T.T.G.1XJ._ J.E.R.J.J.8.8.G.J.9.8.' s s J 8.2.f : : 7 8 8 8 8 8 8 0 0 8 8 / N.v.v.",
") s # # + = o : / '.W : + 8 E , &.e g -.=.S > C T.%X.X$.J.sXbXeX{ 0.-XA > +.+...H.T.Y.m.z : * t f 8 8 8 8 8 8 m $.P.x % + X : G.+Xx y 8 8 8 : : 8 : + X X + s G.~.@XsXP.# ) T.T.&X+XW.[ 9.^.(.W.K.G.8.G.J.J.8.' V V [ [ _ K.J p : : 7 6 6 6 8 8 0 0 0 8 / M.v.v.",
"( s # # . . + r / _.T > + : | 1 e f f w &.>.: N U.T.Y.) J.>XvXyXG.0.s.A : ( ..m.&X8XeX&Xm.] +.#XsX!.+.: : : : T $.m.f % % : p J K.U.f : : : * % : : + + + + s G.W.(.9XM.+ R G.T.sXeXJ.^.@X>X2X2X$XW.G.#.3.2.{ { } [ 2.1.P 8.8.j : - : 6 6 6 6 6 8 8 8 8 / M.v.l.",
"~ p + +     o > / '.W > # : l.1 e x n s e &.: n 3.U.P.Q J.(.9X%X`.W.@X8.] ] o.H.&XtXeX9X X!. X*X2XhXT.: : : : ) $.H.m # 8 s R 8.G.U.d % % % % + o + # F 9.> B G.T.^.*XG.Z ( P.^.*XeX%X+X@X@X*X$X>XW.K.%.G.H.H.( #.[ [ 9.w././.} d 8 d 8 : - : 6 6 6 6 8 / v.l.l.",
"( p . .       + / ].^ > # : l.&.S s s d S &.: h ,.J.b.Q J.R.T.P.Y.K.%X9X X X%XY.%X&XeX%X.X*XeX&X^.^.G.s > : : ) +.c.C # +   > K.U.s : * * * # + + p s h P < B K.K.T.@XT.K.W.@X^.*X*X%X+X+X.X[.Q.W.K.T.T.K.P.T.C N N N 7.q././.9.+.$.x.) u & - & 6 6 6 8 / v.l.l.",
"J h , , , . . + / {.R > # : o.&.S d > 8 e >.4 D 3.J.G.[ 9.R.T.H.Y.T.P.P.%X&XtX.X%X8XeX&X9XgXhXeX+X+X@X1.B N C X.@.%.) p : # p W.U.f p p a 3 : # # : s B s o F T.J.J.@XK.7.w.1XhX@XT.%X+X@X.XP.$.( H.G.J.U.P.P.x w : > 1.q.w.~.+XoXoXoX[.I.`.B.v.9 - 6 6 / v.l.l.",
"J g 5 5 5 1 , . / oXT : + 8 | 1 , < s O.,.=.:.:.q.E.q.:.9.E.R.3.K.T.V Z P.M.&X&X*XeXtXyX*XsXsXvXvX*X*X0.K ` +X@X^.+X+XT.T.K.K.^.+XK.J.J.J.9.8.2.[ [ ' K Z : : _ 3.T.T.8.7.w.$XhX+XP.9X*X%X+X+XH.#.G.P.%.Y.+X+Xm 8 : > 7.7.w.W.7XqX8XrXaXaXaXaXrX/ & - 6 / l.l.l.",
"F g -.-.5 5 4 . x oX..s : d ` , # : : s >.e.y.y.y.0.q.6.0.0.q.q.q.7.k C P.[.eX&X,X*X&X*X*XsXsXnXnXsX@X0.:.-.G.+X+X+X@X@X@X@X@X+X^.W.~.R.R.R.R.R.R.R.R.^.T.] F K [ G.1.1.7.w./.$XW.K.*X@X+X%X+XU.G.P.l.Z c.$.H.T d y z _ } 8.8.`.{.{.{.3X3X3X3XXXk.I u 6 / l.l.l.",
"J K :.:.*.-.5 . # N J X.l.M.1.-.H H H H :.u.y.y.a.=X=X0.0.0.q.E.q.5.h m M.!.!.#X,XeX,X#X#XsXsXvXnXsX1Xa.y.y.6.1.J.+X@X@X+X+X@X@X@X^.~.^./.(.(.(.(.R.q.R.J.] ' [ 1.9.q.7.7.w././.q.R.^.W.T.Q.^.W.8.H.T 8 O.| H.c.b 0 0 0 8 0 d M.[.|.oXOXOXOXoX{.W v 6 - / z.z.k.",
":.6.6.6.6.6.:.-.4 # < F %.J.0.y.y.y.y.y.u.u.y.y.=X=X;X=Xa.a.;X>X=Xa.7.7.R././.$X,X,X2X,X,X,X$X,X,X,X2X=Xi.i.u.y.q.J.Y.Q.+X+X+X@X(.R.(.hXjXjXjXjXjXjXjX1X>XR.8.1.7.7.9.1.7.7.w.w.w.w./.(.(.W.W.W.9.G.x : d m ^ ^ x 0 0 8 6 6 6 d R x.I.].].'._.'.E I - - / z.k.k.",
"i.i.e.e.e.e.e.e.e.6.6.6.a.a.u.u.u.u.u.u.i.i.u.u.s.;X>X-Xs.-X<X1X-Xs.i.i.s.a.=X;X;X>X1X1X>X1X;X1XjX;X1Xi.i.i.i.s.s.a.q.q.(.(.(.(.$X/.^.$X>X>X>X>X>X>X>X>X>X$X@XJ.9.R.R.9.9.9.R././.w.>X(.(././.K.R.W.H 4 : : > b I I I v v l u u u u v v v v u v v T 8 & W k.k.k.",
"p.r.r.r.e.r.r.r.p.p.r.r.p.p.i.i.i.p.r.r.r.r.e.r.i.i.d.p.p.p.h.d.i.i.i.i.i.i.s.d.s.s.s.-Xs.-Xs.-X-Xs.-Xi.i.i.p.d.d.:Xh.h.:X:Xd.-X:X-X-X-X-Xa.=X=X=X=X=X=X-X=X=X-X-X-X-X-X-X-X-X;X-Xa.-X=X-X=X-Xa.w.w.0.6.;.H A F ` ` ) ) ) | ) ^ ^ ^ W ^ ^ W /  .l.b._ C / k./ k.",
"r.r.t.t.e.r.r.f.f.f.f.p.p.p.f.f.f.f.p.r.p.f.f.f.f.r.r.r.p.p.f.f.p.p.p.p.p.p.p.p.p.r.p.p.p.p.r.r.p.p.p.p.p.p.h.p.p.p.g.h.h.g.p.h.h.g.p.g.p.p.g.h.p.p.h.h.d.h.d.d.h.h.h.h.g.p.d.d.p.p.p.p.p.p.p.d.p.p.p.p.i.i.i.i.a.0.0.0.w.0.q.q.q.q.q.q.q.7.7.7.9.q.q.E.l./ / k.",
"5 5 5 5 5 5 A S S H S S S 5 H H H H H H H H H H H H H H H H -.-.H H H H H H H H H H -.-.-.-.H H ;.;.;.;.;.;.:.;.;.:.:.:.:.:.5.:.:.5.5.:.:.:.:.6.:.6.6.6.6.0.q.0.0.0.0.0.0.6.0.0.0.0.0.0.0.0.0.0.0.0.0.i.i.0.0.i.y.i.i.a.i.y.i.i.i.a.a.i.a.a.y.0.7.7.q.q.o./ / / ",
": : : : : : - : : : : : : : 8 8 8 8 r r r r r r 8 8 8 : 8 y y y y y y f d d d d f f z z z z z z z z z z z z z z z l d y y y y y y y y y y y y d y d f z z z z x b x x m m m C C C C C R ) Z C C Z C C C Z C C Z Z F F Z V B B B k h h h k k h h a h B Q / / / / ",
": : : : : : : 8 : : : 8 8 r r r y y y y d y y y y y d 8 r y y d z z z z z z z z z z v b v v v v b b v m m m m v v b v z u z z z z z v v z v z z z z z v v v v b b v v v v m m I m m m | [.[.`.`.`.`.`.`.`.Y.Y.Y.Y.P.M.M.x.x.x.x.$.O...| ) R Z N d 7 & 6 E / / / ",
": : : : : 8 : 8 8 : : 8 8 8 r r y y d d d y y y y y f r r f y y z z z z z z z z z b v m m m b b b m m b m m b v z u m z u z y m z v v v v v v v v v v v v v v b b m m m b m I I m m m ^ &XxXxXxXxXlXlXxXlXlXlXlXkXfXfXfXfXfXfXiXyXyXyXyXyX0X0X9X7X&X[.I.l./ / / ",
": : 8 8 : 8 : 8 8 8 8 8 8 r r r y d d d d d d d y z y y y z z z z z z z z z v v b m m m m m m b b m v v v v v v b m b z u z b b v v v v v v v v v v b b b b b m m m m m m m I I m m m T +XvXbXbXbXvXcXxXxXxXxXxXxXxXxXxXxXxXxXxXxXxXxXxXxXxXxXxXcXvXvXbX'./ / / ",
"8 8 8 : 8 8 8 8 8 8 8 r r r r r y d d d d d y y y y y y r z z z z z z z v z v v v v m m m m m m m m m v v v v v b b v z u z z z v v v b v v b v b b b m m b b m b m m m m I I I I I b C U.gXxXxXlXlXlXlXlXlXlXlXlXlXkXkXfXlXfXfXgXgXgXfXlXlXlXlXlXkXlXxX|./ W / ",
"8 8 8 8 8 8 8 8 8 r r r r r y y y y d d y y y y y y y y y z z z z z z z v v v v v v b m b b m m m m m b b b b b m m m v z z z v v b b m b m b b b m m m b b b m m m m m m I I m m b v m G.gXcXxXlXlXlXlXlXlXlXlXlXlXlXlXlXlXlXlXlXlXkXlXlXlXlXlXlXlXlXxX8X/ W / ",
"8 8 8 8 8 r 8 8 r r r r y y y y y y y t y f f f f f f y y z z z z z v v b m v m b v v b b b b b m m m m b b b b m m m v z v v v v m m m b b b b b b b b b b m m b b m m m m m m m b v m U.gXxXlXlXlXlXlXkXkXfXfXfXfXiX%XoXoX7XiXiXfXiXkXkXkXkXkXkXkXlXxX8X/ W / ",
"8 8 8 8 8 r 8 8 r r r r y y y d y y y t f f f f f z z y y z z z z z v m m m m v b v b b b b b b b m m m I I b b m m m v v b v v v m m m b b b b b m m m m m m m b m m m m m I m m b v m U.gXxXlXlXfXfXkXkXkXfXiXfXiXyXv.l.l.I.yXfXiXiXfXkXkXkXkXkXkXkXxX7X/ W W ",
"8 8 8 8 r r 8 r r r r r y y y y y y y z f f f f y f z d y z z z z v v v m b m m m m b b b m m m b m m m I I m I m I m v v v v v m m m m m m I I m m m m I m I I I I m m I I I I m b v m U.gXxXlXlXlXkXkXkXfXfXfXfXfXfXyX8XtXiXfXfXfXfXfXfXkXkXkXkXkXkXxX8XW E W ",
"8 8 8 r r r r r r y y y y y y y y y y f f f f z u u z y d z z z z v v m m m m m m m m m m b m m m I I I m m m m I I I v v v b v m m m m I I I I m m m m I I I I I I I I I I I m m b v m U.fXlXkXfXyXyXtXtXwX0X0X0X8X8X8X7X8X0XwXwXtXtXtXtXtXtXtXtXyXfXlX6XW U W ",
"8 8 8 r r r r r r r y y y y y y y d d d d d d z z z z y y z z z z v m m v v m m v m m m m m m m m m I I b m m m m m I v v b b b b b m m I I I I m m m m m m m m m I I I I I I m m m v m U.gXlXlXvXlXkXfXiXiXiXiXyXtXwX0X0XwXwXwXwXwXtXtXtXtX0X7X%X&XfXlXoXU U U ",
"8 8 r r r r r r r r y y y y y y d d d d y y d f f z z y z z z z b m m m v v v m m m m m m m m m m I I m b m m m m I I v v m m b m m I m I I I I I I I m m m I m I I I I I I I m m m v C U.gXlXlXxXlXlXlXlXlXkXlXkXkXkXkXkXkXkXkXkXlXlXkXkXlXlXkXyX0XkXlX|.U U U ",
"8 8 r r r r r r y r y y y d d d d d d d y y y f f z z y f z v m m m m m b v m m m m m m m m I m m m m m b b b m m I m b v b b m I I m m m b I I I I I I I I I I I I I I m m m m m m v C U.gXlXfXfXfXiXiXiXiXiXyXyXyXyXyXiXyXyXyXiXiXiXiXiXiXiXiXiXiXkXlX].U U U ",
"8 r r r r r r y y y y d d d d d d d d f d f y z z z z y d z m m v v m m v v v m m m m m m m I I m m I m I m m m m m I m b m m I I I m I m m I I I I I I I I I I I I I I I I I I m b z m U.gXkXfXfXfXiXiXyXyXyXtXtXtXtXtXtXtXtXtXtXtXtXtXtXyXiXiXiXiXkXkX).U U U ",
"r r r r r r r d y d y d y d y y d d d f f f z z z z z d d v m b v v v v v v b m m m m m m m I I m m m m I I m m I I I m v m I m b b I I I I I I I m m I I I I I I I I I I I I I m m z m T.gXkXfXfXiXiXyXyXyXtXtXtXtXwXwXwXwXwXwXwXwXtXtXtXtXtXyXiXiXfXkXB.I I U ",
"r r r r r r r d d d d d d d f f f f f z f z z z z z z d d v m m v v v v v v v b m m m m m m I m m m m I I m I m I I I m v b b m I I I I I I I I I m I I I I I I I I I I I I I I I m v C T.fXfXfXiXiXiXyXtXtXtXtXtXtXwXwXwXwXwXwXwXwXwXwXtXtXtXyXiXiXiXkXv.I I I ",
"r r r r y r d d d d d f f d f f f z z z z z z z z z z l l b b b v v v v v v v b v m m m m m m m m m I m I I m I I I I m v m m I I I I I I I I I I I I I I I I I I I I I I I I I I m v C T.fXfXfXiXyXyXtXtXtXtXtXtXwXwXwXwXwXwXwXwXwXwXwXwXtXtXiXiXiXiXkXv.I I U ",
"r r r y y r d d d d d f d d z f f z z z z z z z z z z l z m m b m m m m m m m b m m m m m m m b m m I I I I m I I I I m m m I I I I I I I I I I I I I I I I I I I I I I I I I I I m v C Q.fXfXiXiXyXtXtXtXtXtXtXwX0XwXwXwXwXwXwXwXwXwXwXwXwXtXyXiXiXiXkXv.I I I ",
"r r r y y y d d y d d d f f f z z z f z z z z z z x z l z b m m m m m m m m m m m m m m m m v m m I I I I m m m I I I m m m m I I I I I I I I I I I I I I I I I I I I I I I I I I I v T  XfXfXiXyXyXtXtXtXtXtXwX0XwXwXwXwXwXwXwXwXwXwXwXwXwXwXyXtXiXiXiXl.I I I ",
"r d r r d y d d d d d f f f z z f z z z z z z z z x x z z b m m m m m m m m m I I m m m m m m m m m I I I I m m m I I m m m I I I I I I I I I I I I I I I I I I I I I I I I I I I I v T +XfXiXiXyXyXtXtXtXtXtXwX0XwXwXwXwXwXwXwXwXwXwXwXwXtXtXtXtXiXiXiXk.v I I ",
"d d d d d y d d d d f f f f f f z z f z z z z z x x b z z b v v v m m m m m I I I m m m m m I I I I I I I I I I m I I b m I I I I I I I I I I I I I I I I I I I ^ T I I I I I I I I v T +XfXiXiXyXtXtXtXtXtXwX0XwXwX0XwXwXwXwXwX0XwXwXwXwXwXtXtXtXiXiXrXk.v I I ",
"d d d d d y d d d z f f f f f z z z z z z z z x x x x z z b b m m m m m m m I I I I I I I I I I I I I I I I I I I I I m m I I I I I m I I I I I I I I I I I I T / T I I I I I I I I v T +XfXiXiXtXtXtXtXtXtXwX0X0XwXwX0XwXwXwXwX0X0X0XwXwXwXwXwXtXyXiXwX/ I I I ",
"d d d d d d d d f z z z z z f f z z z z x x x x x x x z z b b b m m m m m m I I I m m I I I I I I I I I I T T I I I T m m T I I I I I I I Y Y I Y Y Y I I I Y I I I I I I I I I I I v R +XfXiXyXtXtXtXtXtXwX0X0XwX0X0XwX0X0X8X8X0X0X0XwXwXwXwXwXtXtXiXwX/ I I I ",
"d d d d d d d z z z z z z z f z z z z x x x x x x x x z z b b b m m m m m m I I m m m m I I I I I I I I T I I I I I T m m T I I I I I I I I Y Y Y Y I Y I Y I Y I I I I I I I I I I v R +XfXiXiXtXtXtXtXwXwX0X0XwXwX0X8X8X8X8X8X8X8X0XwXwXwXwXwXtXtXiXwX/ I I I ",
"d d d d d d z z z f f z z z z z z z z x x x x x x z x z z x b b m m m m m m m I I I m m m m I I I I I I m m I I I I I m m T I I I I I I I I I I Y T I I Y Y Y I I I I I I I I I I I v R @XfXiXiXtXtXtXtXwX0X0X0XqXwX8X8X8X8X8X8X8X8X0XwXwXwXwXwXwXwXiXwXW v I I ",
"d d d d d d f z z z z f z z z z z z z z z z z x x x b z z x b b b v m m m m I I I I m m m m I I I I I I I I T I I I I b m I I I I I I I I I I I Y I I I Y Y Y I I I I I U U U I I I v R +XfXiXyXtXtXtXtXwXwX0X8XqXqX8X8X8X8X8X8X8X8X0XwXwXwXwXwXwXwXyX8XW v I I ",
"d d d d d d f f z f f f f z z z z z z z z z z z z x x z z x x b b v z m m m m m I I I I m m m I I I I I I I I T I I I m m T T I I I I I I I I I I T I I Y T T T I I I U T T U U I I v ~ +XfXiXyXtXtXtXtXwXwX8X8X8X8X8X8X8X8X8X8X8X8XwXwXwXwXwXwXwXwXtX6XU I I I ",
"d d d d d d f f z z f f f f z z z z z z z x z z z x x z z x x x m v z v m m m m I m I I m m I I I I I I I I T T I I T m I T T I I I I I I I I I Y I I Y T T T T U U U U E E E U I I v ) %XiXiXtXtXtXtXtXwXwX8X8X8X8X8X8X8X8X8X8X8X8XwXwXwXwXwXwXwXwXtX3XU I I I ",
"d d d d d d z z z z z z z z z z z z z z z z z z x x x z z x z x m b b v v v m m m m m m m I I I T T I I T T T T T I I m T T T T T T I I I I Y Y Y Y Y Y Y Y T E T I T T E E E U I I v ^ %XiXiXtXtXwXwXwXwXwX8X8X8X8X8X8X8X8X8X8X8X0X0X0X0XwXwXwXwXwXrX3XU I I I ",
"d d d d d d d z z z z z z z z z z z z z z z z z z z z d l z z x m b b b v v v v m m m m m m I I I I I I T T T T I T I m I I T T I I T T I I T Y Y Y I Y Y Y Y T T T T T T E E U I I v ^ &XiXyXtXtXwXwXwXwX8X8X8X8X8X8X8X8X8X8X8X8X8X8X0X8X0XwXwXwXtXrXoXU I I I ",
"d d d d d d d f f z z z z z z z z z z z z z z z z z z y l z z x b b b b b v v v m m m m m m I I I I I I I I I I I I T m I I I T T I I I I I I T T I I I T T T Y Y E E E E E E T I I v ) &XiXtXtXtXwXwXwXwXwX8X8X8X8X8X8X8X8X8X8X8X8X8X8X8XwXwX0X0XwXiXoXU I I I ",
"d d d d d d d f z z z z f f z f z z z z z z z z z z z y z z z z x z x b b b b b m m b m m m I I I I I I I I I I I I I m I T T T T I I I I T T T T T T T T T U U E E E E E E E U I I v ) *XiXtXtXwXwXwX8XwX8X8X8X8X8X8X8X8X8X8X8X8X8X8X8X0XwXwXwXwXwXiX{.U I I I ",
"d d d d d d d f f f z z z z f f f f f f f f f f f z z y z z z z z z z z x b b b b b b m m m m I m I I I I I I I I I I m m I I I I I I I T T T T Y Y T T T T T E E E E E E E E U I I v ) 9XiXtXtXwXwXwX8XqX8X8X8X8X8X8X8X8X8X8X8X8X8X0X0XwXwXwXwXwXwXiX].U I I I ",
"d d d d d d d d f f z z f f f f f f d d d d d d f f f y d z z z z z z z z z x b b b b m m m m I m m I I I I I I m m I m m I I I I I I I I I I T I Y Y I T T T T E E E E T E E U I I v | 9XiXtXtXwXwXwX8X8XqX8X8X8X8X8X8X8X8X8X8X8X8XwX0XqXwXwXwXwXwXiX'.U I I I ",
"d d d d d d d d d d d d d d d f d d d d d d d d d d d y d l l l l l z z z z z x b v v m m m m m m m I I I I m m I I I v m m I I I I I I I I I I I I I I I T T I I T T U T U U I I I v | *XiXtXtXwXwX8X8X8X8X8X8X8X8X8X8X8X8X8X8X8X8X8XwXwXwXwXwXqXwXiX'.I I I U ",
"d d d d d d d d d d d d d d d d d d d d d d d d d d d y d l d d d d l z z z z z z x b b b b b b m m m I m m m m I I I v m m m m m m I I I I I I I I I I I I I I I I T U T T I I I I v ) *XyXtXtXwXqX8X8X8X8X8X8X8X8X8X8X8X8X8X8X8X8X8X8X0X8XwXwXqXqXrX).I I I I ",
"d d d d d p d d d d d d d d d d d d d d y y y d d y y y d l l l d d d l l z z z z z x b b b b b b b b m m m m m b m m v I I m m m m m m I I I m I I I I I I I I I I I I I T T I I I v ) 9XtXtXtXwX8XqX8X8X8X8X8X8X8X8X8X8X8X8X8X8X8X`.H.P.b.x.).[.7XtXB.I I I I ",
"d d d d d d d d d d d d d d d d d d y y y y y y y y y y d l l l d d d d l l l l l z z z x x b v v v v v b b m m m b m v m m m m m m m b m m m I I I I I I I I I I I I I I I T I I I v ) 8XtXtXtXwXqX8X8X8X8X8X8X8X8X8X8X8X8X8X8X8X8X,.*.*.=.>.l.P.%XtXv.I I I I ",
"f d d d d d d d d f d d d d d d d y y y y y y d y y d y d l d d l d d d l d l d d z z z z z z x x v v v v b m m b m m v b b m m m m m m m m m m m I I I I I I I I I I I I I I I I I v ) 9XtXtXwXwX8X8X8X8X8X8X8X8X8X8X8X8X8X8X8X8X0X,.*.=.=.>.l.P.&XwXv.I I I I ",
"d d d d d d d d d d d d d d d d d y y y y y d d d y d y d d y d l d d d l l d d d l l z z z z z z z z v v v v b b b m v b b m b b m m m m m b b m m m I m I I I I I I I T T I I I I v ) 9XtXtXwXqX8X8X8X8X8X8X8X8X8X8X8X8X8X8X8X8X8XE.,.>.:.,.l.I.+X8Xv.I I I I ",
"d d d d d d d d d d d d d d d d d y y d d d d d y y y y d d d d f l l l l z z l l l l z z z z z z z b b v v b m b b b z b v b v b m m b b b m m m m m m m m I I I I I T T I I I I m v ` 9XtXtXwXqX8X8X8X8X8X8X8X8X8X8X8X8X8X8X8X8X8X[.J.J.J.T.%X%X%X8Xv.I I I I ",
"8 8 8 8 8 8 8 8 8 8 r r 8 8 r y 8 8 8 8 8 8 8 8 r r r r r y y y y y y y y y y y y y y y y d d y d d l l y l l l l d l y d y y y y l l u u u l l l l l l l l l l l l z z z l y 8 d ..o.$.8XtX0X8X8X8X8X8X8X8X8X8X8X8X8X8X7X8X8X8X8X8X%XoXOXOX7X7X7X8XwXl.I I I v ",
": : : : : : : : : 8 8 8 8 8 8 8 8 8 8 8 8 8 8 8 8 8 8 8 8 8 8 8 8 8 8 8 8 8 8 8 8 8 8 8 8 8 r y y y y y 0 y y y y y 0 0 0 0 0 0 8 8 8 8 8 8 8 8 8 8 8 0 8 8 8 0 8 8 8 8 8 8 : % 8 $.m.G.&X8X7X7X7X&XOXOXOXOXOXOXoXoXoXOXoXOXOXOXOXoXOXOXOXOX%X%X3X6X8Xv.I v v v ",
": : * : * * * * * * * * - * : : - - : : : : - - - : : : : : - : : : : - - - - : : : : : : : : 6 : : : : : : : : : : : : : : : : : : : - - - : : - - - : : - - - : - - : * * % # > +.m.U.tXtXtX8X8X8X8X8X8X8X8X8X8X8X8X7X8X7X7X7X7X7X7X7X7X7X8X8X8X8XtXv.v v v v ",
"C T T T T T T T R R ~ ^ R R ^ ^ R T R T T T R R T T R R T ^ ) ^ ^ ^ ) R T T T T T T T T T T T T C C R W T R R R T T R W T T R R T T R R T T R ^ R R ^ ~ T C T C m m x s a a p < < Z %.U.0X8X8X8X7X7X7X7X7X7X7X7X7X7X6X6X6X6X6X6X6X6X%X6X6X6X7X7X7X7X8Xk.v v v v ",
".X.X.X.X.X.X.X.X.X.X.X.X.X.X.X.X.X.X.X.X.X.X.X.X.X.X.X.X.X.X.X.X.X.X.X.X.X.X.X.X.X.X.X.X[..X.X.X[.[..X.X.X.X[.[.[.[.[..X[.[.[.[.[.[.[.[.[.[.[.[.[.[.[.`.Y.Y.Y.Y.P.P.G.H.H.3.@.[ L V ( T.8X8X8X7X7X7X7X7X7X6X6XOXOXOXOXOXOXOXOXOXOXOXOXOXOXOXOXOX%X7XOXU u u u u "
};
