/* XPM */
static char *lounge_yellow_sofa_back_left[] = {
/* columns rows colors chars-per-pixel */
"128 192 185 2 ",
"   c #FF00FF",
".  c #7F7256",
"X  c #84672F",
"o  c #86682F",
"O  c #8B6E34",
"+  c #826B3D",
"@  c #937333",
"#  c #9D7C36",
"$  c #957639",
"%  c #96793E",
"&  c #987A3D",
"*  c #927944",
"=  c #9A7D41",
"-  c #937D4F",
";  c #997F4B",
":  c #8E7B50",
">  c #807359",
",  c #83785E",
"<  c #8B7B58",
"1  c #927E54",
"2  c #A4823F",
"3  c #B08432",
"4  c #B18A3E",
"5  c #BB8F3C",
"6  c #9F8144",
"7  c #9C834D",
"8  c #8F805F",
"9  c #978152",
"0  c #9C8453",
"q  c #93825C",
"w  c #9B865B",
"e  c #A48443",
"r  c #AC8A46",
"t  c #A3874B",
"y  c #A68A4D",
"u  c #AC8C4A",
"i  c #B28F47",
"p  c #B18F49",
"a  c #AF904C",
"s  c #B49047",
"d  c #BA9445",
"f  c #B4924C",
"g  c #B9964D",
"h  c #BD994E",
"j  c #A48A53",
"k  c #AA8E53",
"l  c #A18B5D",
"z  c #A98F5C",
"x  c #AF9255",
"c  c #AD945C",
"v  c #B59552",
"b  c #B99751",
"n  c #B79956",
"m  c #BC9B54",
"M  c #B1965D",
"N  c #B79A5B",
"B  c #BE9D59",
"V  c #BFA057",
"C  c #BEA05B",
"Z  c #958561",
"A  c #9A8760",
"S  c #9D8B61",
"D  c #A28F65",
"F  c #A79265",
"G  c #AA9462",
"H  c #AE9866",
"J  c #A0916D",
"K  c #B49B63",
"L  c #B89D62",
"P  c #BDA163",
"I  c #BEA66B",
"U  c #B1A17A",
"Y  c #C29641",
"T  c #C29D4C",
"R  c #C19E54",
"E  c #C09F58",
"W  c #C6A04E",
"Q  c #CAA24D",
"!  c #C3A156",
"~  c #CAA554",
"^  c #CEA955",
"/  c #C4A35A",
"(  c #C8A65C",
")  c #C7A85F",
"_  c #CCAA5E",
"`  c #D1AA55",
"'  c #D8AD56",
"]  c #D1AD5B",
"[  c #D6B25C",
"{  c #DAB55D",
"}  c #E6B451",
"|  c #E9B653",
" . c #EBB957",
".. c #E0B65B",
"X. c #E2BA5F",
"o. c #EBBC5C",
"O. c #C4A662",
"+. c #C6A964",
"@. c #C9AB64",
"#. c #C3A769",
"$. c #C6AA69",
"%. c #CAAD6A",
"&. c #D2AE60",
"*. c #CEB16D",
"=. c #D5B362",
"-. c #DAB563",
";. c #DEBA63",
":. c #D2B36D",
">. c #DDBB69",
",. c #C3A976",
"<. c #C9AE71",
"1. c #CDB273",
"2. c #CEB478",
"3. c #D2B573",
"4. c #DDBD70",
"5. c #D0B679",
"6. c #D3B97B",
"7. c #D9BD7D",
"8. c #E1BC65",
"9. c #EBBE61",
"0. c #E2BE69",
"q. c #DFC37F",
"w. c #E5C066",
"e. c #ECC365",
"r. c #EFCA66",
"t. c #E6C26C",
"y. c #E9C56D",
"u. c #EDC96D",
"i. c #F5CA67",
"p. c #F1C668",
"a. c #F2CD6B",
"s. c #F8CF6E",
"d. c #F3D16F",
"f. c #E5C574",
"g. c #E9C673",
"h. c #E6C877",
"j. c #EDCB74",
"k. c #E5C679",
"l. c #EBC778",
"z. c #E7CA7A",
"x. c #ECCC7A",
"c. c #F1CE74",
"v. c #F1CF79",
"b. c #EFD17D",
"n. c #F2D176",
"m. c #FAD172",
"M. c #F5D67F",
"N. c #F4D67D",
"B. c #F2D27B",
"V. c #FBD67B",
"C. c #F8D278",
"Z. c #D6C38F",
"A. c #DDC58A",
"S. c #E6C782",
"D. c #E7CD86",
"F. c #EACD83",
"G. c #E7CF8B",
"H. c #E4CB8B",
"J. c #EBCF89",
"K. c #EBD186",
"L. c #EBD185",
"P. c #EAD18A",
"I. c #EDD38A",
"U. c #EBD38C",
"Y. c #EDD58E",
"T. c #EED68D",
"R. c #EED48D",
"E. c #F3D481",
"W. c #F3D682",
"Q. c #F4D782",
"!. c #F7D685",
"~. c #F4D481",
"^. c #F6D882",
"/. c #F6D884",
"(. c #F9D882",
"). c #FCD984",
"_. c #F2D58B",
"`. c #F6D889",
"'. c #F8DA8D",
"]. c #F1D591",
"[. c #F1D994",
"{. c #F7DF9E",
"}. c #F6DB9B",
"|. c #F7DEA0",
" X c #FAE2A4",
/* pixels */
"                                                                                                                                                                                                                                                                ",
"                                                                                                                                                                                                                                                                ",
"                                                                                                                                                                                                                                                                ",
"                                                                                                                                                                                                                                                                ",
"                                                                                                                                                                                                                                                                ",
"                                                                                                                                                                                                                                                                ",
"                                                                                                                                                                                                                                                                ",
"                                                                                                                                                                                                                                                                ",
"                                                                                                                                                                                                                                                                ",
"                                                                                                                                                                                                                                                                ",
"                                                                                                                                                                                                                                                                ",
"                                                                                                                                                                                                                                                                ",
"                                                                                                                                                                                                                                                                ",
"                                                                                                                                                                                                                                                                ",
"                                                                                                                                                                                                                                                                ",
"                                                                                                                                                                                                                                                                ",
"                                                                                                                                                                                                                                                                ",
"                                                                                                                                                                                                                                                                ",
"                                                                                                                                                                                                                                                                ",
"                                                                                                                                                                                                                                                                ",
"                                                                                                                                                                                                                                                                ",
"                                                                                                                                                                                                                                                                ",
"                                                                                                                                                                                                                                                                ",
"                                                                                                                                                                                                                                                                ",
"                                                                                                                                                                                                                                                                ",
"                                                                                                                                                                                                                                                                ",
"                                                                                                                                                                                                                                                                ",
"                                                                                                                                                                                                                                                                ",
"                                                                                                                                                                                                                                                                ",
"                                                                                                                                                                                                                                                                ",
"                                                                                                                                                                                                                                                                ",
"                                                                                                                                                                                                                                                                ",
"                                                                                                                                                                                                                                                                ",
"                                                                                                                                                                                                                                                                ",
"                                                                                                                                                                                                                                                                ",
"                                                                                                                                                                                                                                                                ",
"                                                                                                                                                                                                                                                                ",
"                                                                                                                                                                                                                                                                ",
"                                                                                                                                                                                                                                                                ",
"                                                                                                                                                                                                                                                                ",
"                                                                                                                                                                                                                                                                ",
"                                                                                                                                                                                                                                                                ",
"                                                                                                                                                                                                                                                                ",
"                                                                                                                                                                                                                                                                ",
"                                                                                                                                                                                                                                                                ",
"                                                                                                                                                                                                                                                                ",
"                                                                                                                                                                                                                                                                ",
"                                                                                                                                                                                                                                                                ",
"                                                                                                                                                                                                                                                                ",
"                                                                                                                                                                                                                                                                ",
"                                                                                                                                                                                                                                                                ",
"                                                                                                                                                                                                                                                                ",
"                                                                                                                                                                                                                                                                ",
"                                                                                                                                                                                                                                                                ",
"                                                                                                                                                                                                                                                                ",
"                                                                                                                                                                                                                                                                ",
"                                                                                                                                                                                                                                                                ",
"                                                                                                                                                                                                                                                                ",
"                                                                                                                                                                                                                                                                ",
"                                                                                                                                                                                                                                                                ",
"                                                                                                                                                                                                                                                                ",
"                                                                                                                                                                                                                                                                ",
"                                                                                                                                                                                                                                                                ",
"                                                                                                                                                                                                                                                                ",
"                                                                                                                                                                                                                                                                ",
"                                                                                                                                                                                                                                                                ",
"                                                                                                                                                                                                                                                                ",
"                                                                                                                                                                                                                                                                ",
"                                                                                                                                                                                                                                                                ",
"                                                                                                                                                                                                                                                                ",
"                                                                                                                                                                                                                                                                ",
"                                                                                                                                                                                                                                                                ",
"                                                                                                                                                                                                                                                                ",
"                                                                                                                                                                                                                                                                ",
"                                                                                                                                                                                                                                                                ",
"                                                                                                                                                                                                                                                                ",
"                                                                                                                                                                                                                                                                ",
"                                                                                                                                                                                                                                                                ",
"                                                                                                                                                                                                                                                                ",
"                                                                                                                                                                                                                                                                ",
"                                                                                                                                                                                                                                                                ",
"                                                                                                                                                                                                                                                                ",
"                                                                                                                                                                                                                                                                ",
"                                                                                                                                                                                                                                                                ",
"                                                                                                                                                                                                                                                                ",
"                                                                                                                                                                                                                                                                ",
"                                                                                                                                                                                                                                                                ",
"                                                                                                                                                                                                                                                                ",
"                                                                                                                                                                                                                                                                ",
"                                                                                                                                                                                                                                                                ",
"                                                                                                                                                                                                                                                                ",
"                                                                                                                                                                                                                                                                ",
"                                                                                                                                                                                                                                                                ",
"                                                                                                                                                                                                                                                                ",
"                                                                                                                                                                                                                                                                ",
"                                                                                                                                                                                                                                                                ",
"                                                                                                                                                                                                                                                                ",
"                                                                                                                                                                                                                                                                ",
"                                                                                                                                                                                                                                                                ",
"                                                                                                                                                                                                                                                                ",
"                                                                                                                                                                                                                                                                ",
"                                                                                                                                                                                                                                                                ",
"                                                                                                                                                                                                                                                                ",
"                                                                                                                                                                                                                                                                ",
"                                                                                                                                                                                                                                                                ",
"                                                                                                                                                                                                                                                                ",
"                                                                                                                                                                                                                                                                ",
"                                                                                                                                                                                                                                                                ",
"                                                                                                                                                                                                                                                                ",
"                                                                                                                                                                                                                                                                ",
"                                                                                                                                                                                                                                                                ",
"                                                                                                                                                                                                                                                                ",
"                                                                                                                                                                                                                                                                ",
"                                                                                                                                                                                                                                                                ",
"                                                                                                                                                                                                                                                                ",
"                                                                                                                                                                                                                                                                ",
"                                                                                                                                                                                                                                                                ",
"                                                                                                                                                                                                                                                                ",
"                                                                                                                                                                                                                                                                ",
"                                                                                                                                                                                                                                                                ",
"                                                                                                                                                                                                                                                                ",
"                                                                                                                                                                                                                                                                ",
"                                                                                                                                                                                                                                                                ",
"                                                                                                                                                                                                                                                                ",
"                                                                                                                                                                                                                                                                ",
"                                                                                                                                                                                                                                                                ",
"                                                                                                                                                                                                                                                                ",
"                                                                                                                                                                                                                                                                ",
"                                                                                                                                                                                                                                                                ",
"                                                                                                                                                                                                                                                                ",
"                                                                                                                                                                                                                                                                ",
"                                                                                                                                                                                                                                                                ",
"                                                                                                                                                                                                                                                                ",
"                                                                                                                                                                            %.>.f.h.x.h.                                                                        ",
"                                                                                                                                                                        [ -.t.C.C.C.C.C.C.h.q.                                                                  ",
"                                                                                                                                                                    [ 0.g.!.^.C.C.C.C.C.C.C.C.C.x.h.                                                            ",
"                                                                                                                                                c.C.C.          [ >.x.^.^.^.C.C.b.C.b.b.n.n.n.n.n.n.C.x.                                                        ",
"                                                                                                                                    i.p.9.9.e.e.o.9.y.c.u.0.[ >.b.^.^.!.C.C.C.C.b.C.C.C.n.n.d.n.d.d.d.e.! #                                                     ",
"                                                                                                                            L.g.o.o.|  .| } } o.o.o...[ [ t.b.!.!.!.C.C.C.C.C.C.n.c.n.n.i.i.i.i.i.w.^ T d @                                                     ",
"                                                                                                                    Y.Y.Y._.C.i.c.V.c.c.m.s.i.e.[ [ >.g.!.!.!.!.C.C.C.C.C.C.C.n.n.c.c.u.u.r.r.X.~ h T ~ h                                                       ",
"                                                                                                              Y.Y.Y.Y._.`.(.V.(.(.-.Y ` 8.-.[ -.t.b.!.!.L.b.b.b.C.C.x.C.C.C.n.n.n.g.u.u.r.w.^ h W ` ` ^ f                                                       ",
"                                                                                                        Z.H.L.F.J.[.{.'.!.!.x.f.R 3 5 Q ^ =.f.b.!.!.C.C.!.b.x.b.x.C.C.b.c.n.n.n.g.u.i.r.[ T T ~ ^ ~ ~ ~ v                                                       ",
"                                                                                                    H.Y.Y.L.F.Y.{. X_.!._.k.-.( 4 d W [ t.x.C.b.C.C.C.C.C.b.C.C.x.x.b.b.n.n.c.c.n.u.;.! h ! ~ ! W W ~ !                                                         ",
"                                                                                              H.J.L.L.F.x.F.Y.|. X{.l.F.F.-.^ ~ =.h.C.C.C.b.g.g.C.C.C.C.!.C.b.C.C.C.b.x.g.g.u.u.;.! g T ! ~ ! T ! ! ( /                                                         ",
"                                                                                        H.D.F.x.x.h.f.f.k.Y.{.|. XJ.;.=.] [ t.x.!.!.C.v.v.g.g.c.C.C.v.C.C.C.C.C.v.C.C.c.u.u.8.~ f h R ! ! ! ! ! ! ! / /                                                         ",
"                                                                                  A.H.F.x.x.h.f.f.f.f.k.[. X].S.4.] ` ;.g.C.C.C.C.v.v.C.v.g.x.x.v.v.C.C.C.C.C.C.C.c.c.g.y.] g g R ! ! ! ! ! R R ! ! +.B                                                         ",
"                                                                            A.H.F.F.F.x.h.f.f.x.x.f.F.[.F.:.~ ^ -.g.C.C.C.v.x.x.x.v.x.x.g.x.x.x.g.C.C.C.C.C.c.c.c.g.c.t.! g R ! ! ! R ! ! R R ! ! / +.K                                                         ",
"                                                                      A.D.F.F.F.x.x.f.f.f.f.f.f.g.f.:.R T [ y.v.C.C.C.C.c.g.g.x.x.v.x.x.g.v.x.v.C.C.C.v.c.c.g.g.u.t.] h h ! ! ! ! R R R R R ! / / / /                                                           ",
"                                                                  q.k.x.x.x.h.f.f.f.f.g.g.f.f.f.=.T T -.c.C.C.v.v.v.C.v.v.g.g.x.v.C.v.v.v.v.v.v.C.n.g.g.u.u.g.y._ f f h R ! ! R T T R R R ! ! ! / ( b                                                           ",
"                                                            7.k.g.x.g.g.g.f.t.t.f.f.f.g.g.g.f.] Q 8.g.c.C.C.C.v.v.v.x.v.v.x.v.v.x.x.x.C.v.v.v.v.g.g.g.y.u.u.=.b p g R R ! ! ! R h R R R ! ! ! / / / f                                                           ",
"                                                        :.f.g.g.g.y.t.t.t.t.t.t.t.t.t.t.f.g.f._ 8.g.u.g.c.C.v.v.v.v.v.C.v.v.C.C.C.C.C.C.v.C.v.g.g.g.g.t.@.n u g h R R R R R R R R R R R ! ! / / / / e                                                           ",
"                                                      ~ ;.0.w.t.t.t.w.t.t.t.t.t.t.t.t.g.g.g.4.O e / y.g.u.g.c.v.x.v.C.!.!.C.C.C.C.C.C.C.C.C.c.g.g.t._ a u g R R R R R b h b R R R R R ! ! ! / / / b                                                             ",
"                                                    ,.[ ;.[ [ 8.8.t.w.t.y.t.t.t.t.t.g.g.g.g.>.o v f b -.g.g.g.g.x.C.C.!.!.!.!.C.C.C.v.c.c.g.g.t._ f p h ! ( / ! R R R h b R R R R R / / / / / / / f                                                             ",
"                                                      7 ] [ [ [ [ 8.8.8.w.t.t.t.t.g.g.g.g.g.4.o N +.R i ( y.g.g.g.x.v.C.C.!.!.C.C.g.g.g.g.-./ f p b ! / ( / R R R R b h b b R R R R / / / / / / / u                                                             ",
"                                                      ; v R [ [ [ [ ;.;.8.8.t.t.t.g.g.g.g.g.f.O k / / / g g >.g.g.g.g.C.C.C.C.C.c.g.y.@.f r f b / / / / / R b b b h h h R R R R R ! ! / ! / / / ! e                                                             ",
"                                                      9 N b h ] [ [ [ ;.8.8.t.t.t.g.g.g.g.g.f.$ u +.B / ( b f b >.g.g.g.v.C.v.g.g.@.v f b R R / / / / / R b b b b h b h b b R / ! / ! ! / / / ( R                                                               ",
"                                                      1 c +.B b ~ [ [ [ 8.8.t.t.t.y.g.g.g.g.g.& u #.P B b / / g p _ g.g.g.g.g.=.v f E / ! / / / / R R b b b b b b b b h b b / / / / ! / / / ( / b                                                               ",
"                                                        j %./ C b ! ;.8.;.8.t.t.t.y.g.g.g.x.x.= y #.#.+.B b b / b f R t.g.>.v v b R / / / / R E b b b b R b b b b b b b R ! / / / / ! ! / / ( / b                                                               ",
"                                                        7 %.+.C V b b [ w.8.8.t.t.y.g.g.g.g.x.e y <.#.+.+.B v v b b r e b b v b b b E / E E b b B b B b / b b b b b b b / / / / / ! / / ( ( ( / u                                                               ",
"                                                        - #.#./ / / b b ! 8.t.0.0.t.t.f.g.g.g.u t 1.<.#.+.+.B b b f r e = 6 u f b b B B b b b B b B B b b b f b b b b R / / ! / / ! / / ( ( ( !                                                                 ",
"                                                        q K 1.+./ / C / / ! ;.t.;.8.0.t.t.t.g.v 6 1.<.#.+.+.B b b v u r u r p v b b b b b B B E b b B b b b b b b b b R / ! R ! / / ( ( ( ( ( b                                                                 ",
"                                                          c 1.+./ / / / +./ R =.t.;.;.0.0.t.g.B = 1.1.<.#.+./ B b f f r r r f f v b b B B b b B B B B b b b b b b b R R ! ! ! ! / ( / ( ( / ( f                                                                 ",
"                                                          j <.#./ / / +./ +.@./ _ 8.8.8.0.0.t./ & 1.2.<.#.+.+./ B b f u e r f f b B B E B b b E B B B b b b b b R R ! / / / / / ( / ! / ! ! / e                                                                 ",
"                                                          9 I %.+.+.+.+.+.+.@.@./ ( ;.8.;.8.0._ & 1.5.1.%.+.+.C B b f p r r f v b B B B B B E / b b b b b b / ! / ! / / / / ( ( ( ! ! ! ! / b                                                                   ",
"                                                            c <.#.+.+.@.+.+.+.+.+./ ! =.8.8.8._ $ 1.6.1.%.#.+.+.E b f p r r f v b B B / / B b B b b b b / / / / R b / / / / / ( / ! ! ! R / v                                                                   ",
"                                                            S I #.+.+.+.@.+.+.+./ / / / &.0.-.~ $ %.6.1.%.#.+.+./ b g p r u b b b b b E B B b b b b b b / @.@./ R b / / ! / / / ! ! R ! ! / u                                                                   ",
"                                                              U I +.+.+.@.@.@.@.@./ / @./ ( ~ d @ +.6.1.1.%.+.+./ B g f r u b b b b b b B / b b b g b / / _ / ! ! R / ! ! ! / / / ! ! / / / u                                                                   ",
"                                                                J P +.+.@.@.@.@.@.@.+.@.@.b s # @ +.6.1.<.%.+./ / / b f r f b b b b b b / / ! b b b b b / / ! ! R R ! ! R b R ! ! / ! / B B                                                                     ",
"                                                                  Z K +.@.%.%.@.@.@.@.@.@./ g 2 @ +.6.3.1.%.+.E / / b f r p b b b b / / / / R b R R b b / / R ! R ! ! ! b b R ! / / ! b c                                                                       ",
"                                                                    , K +.%.%.%.%.@.@.@.@.@.! r @ C 6.3.1.%.+./ R / b g u r b E E / / / ! / ! R R R R b / / / ! ! ! / b g b ! / / / n 0                                                                         ",
"                                                                        G +.%.%.@.@.@.%.%.@._ R e B 3.3.1.%.+./ / / b g p i b R E E / / / / R ! ! / ! ! / / / ! ! R / b b / / / / x                                                                             ",
"                                                                          F +.%.%.@.@.@.%.@.@./ b *.3.3.1.%.@./ / / g f f s g b / / ! R / / ! / / / / / / / / R b R b b / / / B j                                                                               ",
"                                                                            S P %.@.%.%.@.@.@.) @.3.3.3.*.%.@./ / ! b g f i g b / / / / / / / / / / / ! / / b b b B B b B B N w                                                                                 ",
"                                                                              Z P +.+.%.@.@.@.+.@.3.:.3.*.%.@./ / / R g f s g R / / / / / / / / / / ! ! / R b b b b b n v z                                                                                     ",
"                                                                                q K +.%.+.@.@.@.*.3.*.:.:.%.@.( / ( R g f f R / / / / / / ! / ! / / / R b b b b b b n v 9                                                                                       ",
"                                                                                  > K %.@.@.@.@.%.:.%.%.:.%.@.( / / R g f g / / / / / / / / ! ! ! / R b b b b b b v j                                                                                           ",
"                                                                                      G +.+.@.@.@.*.%.%.%.%.@.( / ! R g g g R / / / / / / / ! ! / / R b b b b b v 9                                                                                             ",
"                                                                                        G +.+.+.+.%.%.@.@.@.@._ / ! h g h g R / / / / / ( / b b b b b b b b b k :                                                                                               ",
"                                                                                          w B +.+.@.%.@.@.@.@.@.( ! h g h g / ( / / ( ( / / b b B b B b b v j                                                                                                   ",
"                                                                                            < M / +.%.@.@.@.@.@.( / R g b h / / / / / / / / b b B E E b v 9                                                                                                     ",
"                                                                                              . z +.%.%.@.@.@.@.( ( ! g R h / / R / / / / B b b B b b v                                                                                                         ",
"                                                                                                  l #.%.@.@.@.@./ / R s b h / / E / E b R b b b b v j                                                                                                           ",
"                                                                                                    D +.+.+.@.+.( R R = ; b ! / R / b b / E b b v 9                                                                                                             ",
"                                                                                                      A P +.+.@.( ! R + * R E R R E R R / B b k                                                                                                                 ",
"                                                                                                        Z P +.+./ / h r f b b b b E b b b v 0                                                                                                                   ",
"                                                                                                          8 L / / / R i f g g b b b b b v 9                                                                                                                     ",
"                                                                                                              M / / b f g g g h g b b j                                                                                                                         ",
"                                                                                                                z E b f g f b b b v 9                                                                                                                           ",
"                                                                                                                  l B f f f b v k 1                                                                                                                             ",
"                                                                                                                    w v f f f 9                                                                                                                                 ",
"                                                                                                                      1 u t -                                                                                                                                   ",
"                                                                                                                                                                                                                                                                "
};
