/* XPM */
static char *lounge_blue_sofa_front_right[] = {
/* columns rows colors chars-per-pixel */
"128 192 158 2 ",
"   c #FF00FF",
".  c #171D27",
"X  c #1A1F26",
"o  c #161E2A",
"O  c #181F2D",
"+  c #19212E",
"@  c #172333",
"#  c #1A2333",
"$  c #1D2837",
"%  c #172538",
"&  c #192638",
"*  c #1D293A",
"=  c #20252F",
"-  c #212D3C",
";  c #26303E",
":  c #1F2C41",
">  c #202D42",
",  c #243243",
"<  c #25354C",
"1  c #2C3949",
"2  c #313F4E",
"3  c #263651",
"4  c #273853",
"5  c #2A3A55",
"6  c #2A3C58",
"7  c #2E415E",
"8  c #334252",
"9  c #384656",
"0  c #32425B",
"q  c #3A4959",
"w  c #2F4260",
"e  c #324665",
"r  c #3D4D62",
"t  c #354B6C",
"y  c #3A4E6D",
"u  c #3D516E",
"i  c #374E71",
"p  c #384F72",
"a  c #3D5374",
"s  c #3E5579",
"d  c #435263",
"f  c #475867",
"g  c #41536E",
"h  c #495769",
"j  c #47586F",
"k  c #4A5A6A",
"l  c #515F6C",
"z  c #415574",
"x  c #455975",
"c  c #4C5D73",
"v  c #405779",
"b  c #435A7B",
"n  c #4A5E7C",
"m  c #4F6072",
"M  c #4D617C",
"N  c #546375",
"B  c #556579",
"V  c #586779",
"C  c #57687A",
"Z  c #5B6B7C",
"A  c #465E80",
"S  c #4B6180",
"D  c #5D6E82",
"F  c #5F7083",
"G  c #606F82",
"H  c #637383",
"J  c #627282",
"K  c #617181",
"L  c #647383",
"P  c #657583",
"I  c #607184",
"U  c #617184",
"Y  c #607185",
"T  c #627184",
"R  c #617284",
"E  c #607285",
"W  c #617285",
"Q  c #627284",
"!  c #637284",
"~  c #637384",
"^  c #627285",
"/  c #637285",
"(  c #627385",
")  c #637385",
"_  c #617286",
"`  c #617287",
"'  c #627386",
"]  c #627387",
"[  c #647384",
"{  c #647385",
"}  c #647386",
"|  c #637486",
" . c #637487",
".. c #647484",
"X. c #657484",
"o. c #647485",
"O. c #657585",
"+. c #647486",
"@. c #657486",
"#. c #657586",
"$. c #657487",
"%. c #647587",
"&. c #657587",
"*. c #667587",
"=. c #657687",
"-. c #667686",
";. c #677686",
":. c #677687",
">. c #637488",
",. c #647588",
"<. c #657588",
"1. c #647589",
"2. c #667588",
"3. c #657688",
"4. c #657689",
"5. c #667688",
"6. c #667788",
"7. c #677689",
"8. c #667789",
"9. c #65768A",
"0. c #66778A",
"q. c #67778A",
"w. c #66778B",
"e. c #677888",
"r. c #67788A",
"t. c #67788B",
"y. c #67788C",
"u. c #687888",
"i. c #6A7988",
"p. c #6A7989",
"a. c #68788A",
"s. c #68798B",
"d. c #69798B",
"f. c #6B7B8B",
"g. c #6C7B8A",
"h. c #68798C",
"j. c #687A8C",
"k. c #697A8C",
"l. c #697A8D",
"z. c #697B8D",
"x. c #6A7A8D",
"c. c #6B7C8D",
"v. c #6B7C8E",
"b. c #6D7D8C",
"n. c #6E7D8D",
"m. c #6C7D8F",
"M. c #6E7E8E",
"N. c #6C7D90",
"B. c #6D7E90",
"V. c #6E7F91",
"C. c #6F8091",
"Z. c #6F8092",
"A. c #6F8094",
"S. c #728190",
"D. c #708092",
"F. c #718295",
"G. c #738395",
"H. c #748497",
/* pixels */
"                                                                                                                                                                                                                                                                ",
"                                                                                                                                                                                                                                                                ",
"                                                                                                                                                                                                                                                                ",
"                                                                                                                                                                                                                                                                ",
"                                                                                                                                                                                                                                                                ",
"                                                                                                                                                                                                                                                                ",
"                                                                                                                                                                                                                                                                ",
"                                                                                                                                                                                                                                                                ",
"                                                                                                                                                                                                                                                                ",
"                                                                                                                                                                                                                                                                ",
"                                                                                                                                                                                                                                                                ",
"                                                                                                                                                                                                                                                                ",
"                                                                                                                                                                                                                                                                ",
"                                                                                                                                                                                                                                                                ",
"                                                                                                                                                                                                                                                                ",
"                                                                                                                                                                                                                                                                ",
"                                                                                                                                                                                                                                                                ",
"                                                                                                                                                                                                                                                                ",
"                                                                                                                                                                                                                                                                ",
"                                                                                                                                                                                                                                                                ",
"                                                                                                                                                                                                                                                                ",
"                                                                                                                                                                                                                                                                ",
"                                                                                                                                                                                                                                                                ",
"                                                                                                                                                                                                                                                                ",
"                                                                                                                                                                                                                                                                ",
"                                                                                                                                                                                                                                                                ",
"                                                                                                                                                                                                                                                                ",
"                                                                                                                                                                                                                                                                ",
"                                                                                                                                                                                                                                                                ",
"                                                                                                                                                                                                                                                                ",
"                                                                                                                                                                                                                                                                ",
"                                                                                                                                                                                                                                                                ",
"                                                                                                                                                                                                                                                                ",
"                                                                                                                                                                                                                                                                ",
"                                                                                                                                                                                                                                                                ",
"                                                                                                                                                                                                                                                                ",
"                                                                                                                                                                                                                                                                ",
"                                                                                                                                                                                                                                                                ",
"                                                                                                                                                                                                                                                                ",
"                                                                                                                                                                                                                                                                ",
"                                                                                                                                                                                                                                                                ",
"                                                                                                                                                                                                                                                                ",
"                                                                                                                                                                                                                                                                ",
"                                                                                                                                                                                                                                                                ",
"                                                                                                                                                                                                                                                                ",
"                                                                                                                                                                                                                                                                ",
"                                                                                                                                                                                                                                                                ",
"                                                                                                                                                                                                                                                                ",
"                                                                                                                                                                                                                                                                ",
"                                                                                                                                                                                                                                                                ",
"                                                                                                                                                                                                                                                                ",
"                                                                                                                                                                                                                                                                ",
"                                                                                                                                                                                                                                                                ",
"                                                                                                                                                                                                                                                                ",
"                                                                                                                                                                                                                                                                ",
"                                                                                                                                                                                                                                                                ",
"                                                                                                                                                                                                                                                                ",
"                                                                                                                                                                                                                                                                ",
"                                                                                                                                                                                                                                                                ",
"                                                                                                                                                                                                                                                                ",
"                                                                                                                                                                                                                                                                ",
"                                                                                                                                                                                                                                                                ",
"                                                                                                                                                                                                                                                                ",
"                                                                                                                                                                                                                                                                ",
"                                                                                                                                                                                                                                                                ",
"                                                                                                                                                                                                                                                                ",
"                                                                                                                                                                                                                                                                ",
"                                                                                                                                                                                                                                                                ",
"                                                                                                                                                                                                                                                                ",
"                                                                                                                                                                                                                                                                ",
"                                                                                                                                                                                                                                                                ",
"                                                                                                                                                                                                                                                                ",
"                                                                                                                                                                                                                                                                ",
"                                                                                                                                                                                                                                                                ",
"                                                                                                                                                                                                                                                                ",
"                                                                                                                                                                                                                                                                ",
"                                                                                                                                                                                                                                                                ",
"                                                                                                                                                                                                                                                                ",
"                                                                                                                                                                                                                                                                ",
"                                                                                                                                                                                                                                                                ",
"                                                                                                                                                                                                                                                                ",
"                                                                                                                                                                                                                                                                ",
"                                                                                                                                                                                                                                                                ",
"                                                                                                                                                                                                                                                                ",
"                                                                                                                                                                                                                                                                ",
"                                                                                                                                                                                                                                                                ",
"                                                                                                                                                                                                                                                                ",
"                                                                                                                                                                                                                                                                ",
"                                                                                                                                                                                                                                                                ",
"                                                                                                                                                                                                                                                                ",
"                                                                                                                                                                                                                                                                ",
"                                                                                                                                                                                                                                                                ",
"                                                                                                                                                                                                                                                                ",
"                                                                                                                                                                                                                                                                ",
"                                                                                                                                                                                                                                                                ",
"                                                                                                                                                                                                                                                                ",
"                                                                                                                                                                                                                                                                ",
"                                                                                                                                                                                                                                                                ",
"                                                                                                                                                                                                                                                                ",
"                                                                                                                                                                                                                                                                ",
"                                                                                                                                                                                                                                                                ",
"                                                                                                                                                                                                                                                                ",
"                                                                                                                                                                                                                                                                ",
"                                                                                                                                                                                                                                                                ",
"                                                                                                                                                                                                                                                                ",
"                                                                                                                                                                                                                                                                ",
"                                                                                                                                                                                                                                                                ",
"                                                                                                                                                                                                                                                                ",
"                                                                                                                                                                                                                                                                ",
"                                                                                                                                                                                                                                                                ",
"                                                                                                                                                                                                                                                                ",
"                                                                                                                                                                                                                                                                ",
"                                                                                                                                                                                                                                                                ",
"                                                                                                                                                                                                                                                                ",
"                                                                                                                                                                                                                                                                ",
"                                                                                                                                                                                                                                                                ",
"                                                                                                                                                                                                                                                                ",
"                                                                                                                                                                                                                                                                ",
"                                                                                                                                                                                                                                                                ",
"                                                                                                                                                                                                                                                                ",
"                                                                                                                                                                                                                                                                ",
"                                                                                                                                                                                                                                                                ",
"                                                                                                                                                                                                                                                                ",
"                                                                                                                                                                                                                                                                ",
"                                                                                                                                                                                                                                                                ",
"                                                                                                                                                                                                                                                                ",
"                                                                                                                                                                                                                                                                ",
"                                                                                                                                                                                                                                                                ",
"                                                                                                                                                                                                                                                                ",
"                                                                                                                                                                                                                                                                ",
"                                                                                                                                                                                                                                                                ",
"                                                                                                                                                                                                                                                                ",
"                                                                                                                                                                                                                                                                ",
"                                                                                                                                                                                                                                                                ",
"                                                                                                                                                                                                                                                                ",
"                                                                                                                                                                                                                                                                ",
"                                                                                                                                                                                                                                                                ",
"                                                                                                                                                                                                                                                                ",
"                                                                                                                                                                                                                                                                ",
"                                                                                                                                                                                                                                                                ",
"                                                                                                                                                                                                                                                                ",
"                                                                                                                                                                                                                                                                ",
"                                                                                                                                                                                                                                                                ",
"                                                                                                                            c.c.c.c.Z.F.                                                                                                                        ",
"                                                                                                                      c.c.e.e.c.c.c.c.c.B.F.F.                                                                                                                  ",
"                                                                                                                  c.e.P P >.e.e.e.>.>.>.e.c.c.B.F.                                                                                                              ",
"                                                                                                            c.P P P P P P >.>.>.>.>.>.>.>.>.>.e.c.B.F.                                                                                                          ",
"                                                                                                        P P P P P P P P P P >.>.>.>.>.>.>.>.>.>.e.e.c.c.B.                                                                                                      ",
"                                                                                                  P P P P P >.>.>.>.>.>.>.>.>.>.>.>.>.>.>.>.P >.>.>.c.c.c.c.c.F.                                                                                                ",
"                                                                                              Z D D D F P >.>.>.>.>.>.>.>.>.>.>.P >.>.>.>.>.P P >.P P P P P u.u.c.c.                                                                                            ",
"                                                                                        Z Z Z Z D F P P >.>.>.>.>.>.P >.>.>.>.P P P >.P >.P P P P P P P P P P P P P P c.                                                                                        ",
"                                                                                    l N N Z D D D D F P P P >.>.>.>.P e.c.e.>.P P P P P P P P P P P P P P P P P P P Z Z P P                                                                                     ",
"                                                                                  2 q f N C Z Z Z D D D P F P P >.P P P P P P P P Z P P P P P P P P P P P P P Z Z Z Z Z Z Z D P                                                                                 ",
"                                                                                , * , 8 d m B Z Z Z Z D D D F P P P P P P P P P P P P P P P P P P P P P P Z Z Z Z Z Z B B M b b                                                                                 ",
"                                                                                  % & , 8 r c B Z Z C D D D F P P P P F D D P P P P P P D P D G P P Z Z P Z Z Z B B B M M b a z                                                                                 ",
"                                                                                  & @ & * 1 q k N C Z Z D D D D P F D P D D D G G P P P P D Z Z Z Z Z Z Z Z B B B b b b s a e u                                                                                 ",
"                                                                                  & @ & & * , 8 d c C Z D D D D D P D G P G D D Z Z Z Z P Z Z Z Z Z Z Z Z B B M M b v a a a i                                                                                   ",
"                                                                                  & & & @ @ & * 1 q k B Z Z Z Z Z D D P D D D Z Z Z Z Z Z Z Z Z Z Z Z B B B S S A s a a a a a                                                                                   ",
"                                                                                  $ & & & @ @ @ & , 8 d N N Z Z Z Z Z G Z D Z Z Z Z Z Z Z Z Z Z V N N M M S A s s a a a a a a                                                                                   ",
"                                                                                  - & & & @ @ @ @ @ * , q k N Z Z Z Z Z Z Z Z Z Z Z Z Z Z Z N N N c b b b b s a a a a a a a a                                                                                   ",
"                                                                                    & & & & & @ @ @ @ & - 8 d m N Z Z Z Z Z Z Z Z Z B Z N N N c b b A b s s a a a a a a a a a                                                                                   ",
"                                                                                    & & & & & @ @ & @ @ & $ 1 q k N N V V N N V Z B B N N N c M S b v a a a s a a a a a a a a                                                                                   ",
"                                                                                    & & & & & & @ & & @ + & & - 2 d k m N N N N N N N c c M b A b s a a s s s a a a a a a a a                                                                                   ",
"                                                                                    $ & & & & & @ @ & & + + + & - 1 9 d k N N N N c c b b b b s a a a a a s s a a a a a a a a                                                                                   ",
"                                                                                    $ & & & & & & & @ & + + & & & & - 1 q h c c c x b b b v s s s s a a a a s a a a a a a a u                                                                                   ",
"                                                                                      & & & & & & & & & + + & & & & & - 1 r k x b v b s s a a v v a a a a a a a a a a a a a u                                                                                   ",
"                                                                                      & & & & & & & & & & + & & & + & & - 0 u a v s a a s s a s s s a a a a s s a a a a a a u                                                                                   ",
"                                                                                      $ & & & & & & & & & & + & & & & & > 5 e a a a s s s s b s s s a s a a a a a a a a a a                                                                                     ",
"                                                                                      - & & & & & & & & & & & & & & + & > 5 e i i s s s s s s s v v a a a a s a a a a a a a                                                                                     ",
"                                                                                      - & & & & & & & & & & & & & & + & - 5 e i a s a s v s v b b s a a a a a a a a a a a a                                                                                     ",
"                                                                                        & & & & & @ & & O O & & + + + + * 5 i a a s s s b v v b a a a a a a b b b b a a a z                                                                                     ",
"                                                                                        $ & & & & @ & & O O & & & + + + & 5 i s a s s b b s v b a a a a z x b b b z a a a z                                                                                     ",
"                                                                                        * & & & & & & + + O & & & & & & & 3 i a a s v s v b a a a a a a z b M b a a a a a z                                                                                     ",
"                                                                                        - & & & & & & + O O & & & & & & & 3 e s a v s s a a a a a a a z x x b z a a a a a z                                                                                     ",
"                                                                                        ; & & & & & & + + O O O O & & & & < e s s a s s v a z a a z z z z z a a a a a a u z                                                                                     ",
"                                                                                          $ & & & @ + O + + O O O + + + & < e a a s s a b b a a z z z z a a z a a a z a u c                                                                                     ",
"                                                                                            & & & + O & & & & & & + + + & , e a a a a a b a a a a a z z a a a a a a z a g                                                                                       ",
"                                                                                              + + + O O & O & & O O O + & > e a a a a a a a a a z z z z a a a a a a z                                                                                           ",
"                                                                                                O O O O O O + + O O O O & : e a a a a z a a a z z b z a u a a a u                                                                                               ",
"                                                                                                  O O O O O O + O + O O O : e a a a a z a a a z z z a a a a u g                                                                                                 ",
"                                                                                                    O O O O O O + O + O O * w a a a a a a u a z x a a z a u u                                                                                                   ",
"                                                                                                      X O O O O O O + + + * 7 a a a a a a a z b z a a a z g                                                                                                     ",
"                                                                                                        X O O O . O + & & * 7 a a a a a a a a a u z z g                                                                                                         ",
"                                                                                                          X O O . O + & & * 6 y a a a a a a a u y g g                                                                                                           ",
"                                                                                                            X . O O O + & & 5 u a a a u y y u u u                                                                                                               ",
"                                                                                                              X . . O + & & 5 y a a a a y y u y                                                                                                                 ",
"                                                                                                                X . O + + & < y a a a a y u                                                                                                                     ",
"                                                                                                                  X X + + & < e a a a y u                                                                                                                       ",
"                                                                                                                    X + + & < e y u y                                                                                                                           ",
"                                                                                                                      + + & < e y y                                                                                                                             ",
"                                                                                                                          + , 0 r                                                                                                                               ",
"                                                                                                                          = - 0                                                                                                                                 "
};
