/* XPM */
static char *lounge_yellow_sofa_right[] = {
/* columns rows colors chars-per-pixel */
"128 192 189 2 ",
"   c #FF00FF",
".  c #150C04",
"X  c #1E1307",
"o  c #261A09",
"O  c #2D200C",
"+  c #34230C",
"@  c #3C270D",
"#  c #3C2A11",
"$  c #422E11",
"%  c #4B3414",
"&  c #453011",
"*  c #5A3D15",
"=  c #65491C",
"-  c #6A4C1D",
";  c #684617",
":  c #724D1A",
">  c #704A16",
",  c #75531E",
"<  c #7B541B",
"1  c #654E26",
"2  c #6F5429",
"3  c #6D582E",
"4  c #7B5E2C",
"5  c #765A26",
"6  c #645435",
"7  c #695734",
"8  c #6B5935",
"9  c #64563B",
"0  c #685738",
"q  c #6C5B3A",
"w  c #725D35",
"e  c #715E39",
"r  c #7E622D",
"t  c #4C4848",
"y  c #6C6049",
"u  c #7F6A40",
"i  c #7D6F54",
"p  c #835D24",
"a  c #8A5F20",
"s  c #835F29",
"d  c #83642C",
"f  c #8A672A",
"g  c #8B6A2E",
"h  c #8A6225",
"j  c #916624",
"k  c #926E2E",
"l  c #9C712D",
"z  c #826432",
"x  c #876A33",
"c  c #8C6D32",
"v  c #846B3B",
"b  c #906E30",
"n  c #8E713B",
"m  c #8F7035",
"M  c #947333",
"N  c #997634",
"B  c #9C7936",
"V  c #94763A",
"C  c #99763A",
"Z  c #96793D",
"A  c #9C7B3B",
"S  c #A4742B",
"D  c #A8772B",
"F  c #B17E2D",
"G  c #A17E3B",
"H  c #A97A31",
"J  c #8C7241",
"K  c #82704B",
"L  c #967B42",
"P  c #9C7E41",
"I  c #997D49",
"U  c #957945",
"Y  c #967E52",
"T  c #A07F40",
"R  c #A4813E",
"E  c #AB843D",
"W  c #B48434",
"Q  c #B0893F",
"!  c #BB8B3C",
"~  c #C28F3B",
"^  c #C6923E",
"/  c #9D824B",
"(  c #9C8354",
")  c #A58342",
"_  c #A98644",
"`  c #A78847",
"'  c #AB8946",
"]  c #A4854A",
"[  c #A7884D",
"{  c #AC8B4A",
"}  c #B38D44",
"|  c #BB8F42",
" . c #B18E4A",
".. c #AF904F",
"X. c #BC9345",
"o. c #B5914B",
"O. c #BB954B",
"+. c #BE994D",
"@. c #AD8E50",
"#. c #B39352",
"$. c #BA9653",
"%. c #BD9955",
"&. c #BD9C5A",
"*. c #B7995B",
"=. c #BEA571",
"-. c #C39544",
";. c #CC9A44",
":. c #C2974A",
">. c #C39B4C",
",. c #CB9C4B",
"<. c #D09B43",
"1. c #C29C51",
"2. c #C29D59",
"3. c #CDA24E",
"4. c #D6A64F",
"5. c #CCA553",
"6. c #CFA857",
"7. c #C3A15D",
"8. c #CCA65B",
"9. c #CEA85C",
"0. c #D1A654",
"q. c #D3AA56",
"w. c #DAAE55",
"e. c #D5AC5B",
"r. c #D8AE5B",
"t. c #D6B05E",
"y. c #DBB25D",
"u. c #E2B65C",
"i. c #E3B95F",
"p. c #C4A462",
"a. c #C9A763",
"s. c #CCAA64",
"d. c #C8A768",
"f. c #CDAD69",
"g. c #D1AD64",
"h. c #D1AF6B",
"j. c #D8AF64",
"k. c #CFB06B",
"l. c #D5B164",
"z. c #DDB562",
"x. c #DFB964",
"c. c #D3B36D",
"v. c #DBB66B",
"b. c #DDB96B",
"n. c #C5A972",
"m. c #C6AB77",
"M. c #D6B671",
"N. c #D6B972",
"B. c #DBBB73",
"V. c #E1B763",
"C. c #E2BB64",
"Z. c #E9BC64",
"A. c #E3BE6A",
"S. c #E2BD71",
"D. c #E4BF78",
"F. c #E5C067",
"G. c #E6C16B",
"H. c #E9C46D",
"J. c #F1C66D",
"K. c #E6C373",
"L. c #EAC672",
"P. c #ECC974",
"I. c #E6C27A",
"U. c #EAC67A",
"Y. c #EDCA79",
"T. c #EECA7B",
"R. c #F2CB75",
"E. c #F1C872",
"W. c #F4CE78",
"Q. c #BFAA85",
"!. c #C2AB83",
"~. c #D8BD8A",
"^. c #DBC597",
"/. c #EECD82",
"(. c #EDCC83",
"). c #EDCE88",
"_. c #EACD8C",
"`. c #E3C98F",
"'. c #F0CE82",
"]. c #EED08B",
"[. c #F1D087",
"{. c #F2D285",
"}. c #F2D289",
"|. c #F1D28A",
" X c #E9CE91",
".X c #E2CB99",
"XX c #E5CA96",
"oX c #EDD293",
"OX c #F1D390",
/* pixels */
"                                                                                                                                                                                                                                                                ",
"                                                                                                                                                                                                                                                                ",
"                                                                                                                                                                                                                                                                ",
"                                                                                                                                                                                                                                                                ",
"                                                                                                                                                                                                                                                                ",
"                                                                                                                                                                                                                                                                ",
"                                                                                                                                                                                                                                                                ",
"                                                                                                                                                                                                                                                                ",
"                                                                                                                                                                                                                                                                ",
"                                                                                                                                                                                                                                                                ",
"                                                                                                                                                                                                                                                                ",
"                                                                                                                                                                                                                                                                ",
"                                                                                                                                                                                                                                                                ",
"                                                                                                                                                                                                                                                                ",
"                                                                                                                                                                                                                                                                ",
"                                                                                                                                                                                                                                                                ",
"                                                                                                                                                                                                                                                                ",
"                                                                                                                                                                                                                                                                ",
"                                                                                                                                                                                                                                                                ",
"                                                                                                                                                                                                                                                                ",
"                                                                                                                                                                                                                                                                ",
"                                                                                                                                                                                                                                                                ",
"                                                                                                                                                                                                                                                                ",
"                                                                                                                                                                                                                                                                ",
"                                                                                                                                                                                                                                                                ",
"                                                                                                                                                                                                                                                                ",
"                                                                                                                                                                                                                                                                ",
"                                                                                                                                                                                                                                                                ",
"                                                                                                                                                                                                                                                                ",
"                                                                                                                                                                                                                                                                ",
"                                                                                                                                                                                                                                                                ",
"                                                                                                                                                                                                                                                                ",
"                                                                                                                                                                                                                                                                ",
"                                                                                                                                                                                                                                                                ",
"                                                                                                                                                                                                                                                                ",
"                                                                                                                                                                                                                                                                ",
"                                                                                                                                                                                                                                                                ",
"                                                                                                                                                                                                                                                                ",
"                                                                                                                                                                                                                                                                ",
"                                                                                                                                                                                                                                                                ",
"                                                                                                                                                                                                                                                                ",
"                                                                                                                                                                                                                                                                ",
"                                                                                                                                                                                                                                                                ",
"                                                                                                                                                                                                                                                                ",
"                                                                                                                                                                                                                                                                ",
"                                                                                                                                                                                                                                                                ",
"                                                                                                                                                                                                                                                                ",
"                                                                                                                                                                                                                                                                ",
"                                                                                                                                                                                                                                                                ",
"                                                                                                                                                                                                                                                                ",
"                                                                                                                                                                                                                                                                ",
"                                                                                                                                                                                                                                                                ",
"                                                                                                                                                                                                                                                                ",
"                                                                                                                                                                                                                                                                ",
"                                                                                                                                                                                                                                                                ",
"                                                                                                                                                                                                                                                                ",
"                                                                                                                                                                                                                                                                ",
"                                                                                                                                                                                                                                                                ",
"                                                                                                                                                                                                                                                                ",
"                                                                                                                                                                                                                                                                ",
"                                                                                                                                                                                                                                                                ",
"                                                                                                                                                                                                                                                                ",
"                                                                                                                                                                                                                                                                ",
"                                                                                                                                                                                                                                                                ",
"                                                                                                                                                                                                                                                                ",
"                                                                                                                                                                                                                                                                ",
"                                                                                                                                                                                                                                                                ",
"                                                                                                                                                                                                                                                                ",
"                                                                                                                                                                                                                                                                ",
"                                                                                                                                                                                                                                                                ",
"                                                                                                                                                                                                                                                                ",
"                                                                                                                                                                                                                                                                ",
"                                                                                                                                                                                                                                                                ",
"                                                                                                                                                                                                                                                                ",
"                                                                                                                                                                                                                                                                ",
"                                                                                                                                                                                                                                                                ",
"                                                                                                                                                                                                                                                                ",
"                                                                                                                                                                                                                                                                ",
"                                                                                                                                                                                                                                                                ",
"                                                                                                                                                                                                                                                                ",
"                                                                                                                                                                                                                                                                ",
"                                                                                                                                                                                                                                                                ",
"                                                                                                                                                                                                                                                                ",
"                                                                                                                                                                                                                                                                ",
"                                                                                                                                                                                                                                                                ",
"                                                                                                                                                                                                                                                                ",
"                                                                                                                                                                                                                                                                ",
"                                                                                                                                                                                                                                                                ",
"                                                                                                                                                                                                                                                                ",
"                                                                                                                                                                                                                                                                ",
"                                                                                                                                                                                                                                                                ",
"                                                                                                                                                                                                                                                                ",
"                                                                                                                                                                                                                                                                ",
"                                                                                                                                                                                                                                                                ",
"                                                                                                                                                                                                                                                                ",
"                                                                                                                                                                                                                                                                ",
"                                                                                                                                                                                                                                                                ",
"                                                                                                                                                                                                                                                                ",
"                                                                                                                                                                                                                                                                ",
"                                                                                                                                                                                                                                                                ",
"                                                                                                                                                                                                                                                                ",
"                                                                                                                                                                                                                                                                ",
"                                                                                                                                                                                                                                                                ",
"                                                                                                                                                                                                                                                                ",
"                                                                                                                                                                                                                                                                ",
"                                                                                                                                                                                                                                                                ",
"                                                                                                                                                                                                                                                                ",
"                                                                                                                                                                                                                                                                ",
"                                                                                                                                                                                                                                                                ",
"                                                                                                                                                                                                                                                                ",
"                                                                                                                                                                                                                                                                ",
"                                                                                                                                                                                                                                                                ",
"                                                                                                                                                                                                                                                                ",
"                                                                                                                                                                                                                                                                ",
"                                                                                                                                                                                                                                                                ",
"                                                                                                                                                                                                                                                                ",
"                                                                                                                                                                                                                                                                ",
"                                                                                                                                                                                                                                                                ",
"                                                                                                                                                                                                                                                                ",
"                                                                                                                                                                                                                                                                ",
"                                                                                                                                                                                                                                                                ",
"                                                                                                                                                                                                                                                                ",
"                                                                                                                                                                                                                                                                ",
"                                                                                                                                                                                                                                                                ",
"                                                                                                                                                                                                                                                                ",
"                                                                                                                                                                                                                                                                ",
"                                                                                                                                                                                                                                                                ",
"                                                                                                                                                                                                                                                                ",
"                                                                                                                                                                                                                                                                ",
"                                                                                                                                                                                                                                                                ",
"                                                                                b.x.K.K.L.P.P.L.P.P.L.L.K.A.b.                                                                                                                                                  ",
"                                                                                C.P.Y.Y.P.Y.P.P.Y.Y.P.P.P.H.b.                                                                                                                                                  ",
"                                                                              A.C.P.L.P.P.P.P.P.P.P.P.P.P.F.b.                                                                                                                                                  ",
"                                                                              z.F.H.H.P.P.P.P.P.P.P.P.P.L.C.B.m.                                                                                                                                                ",
"                                                                              x.H.H.H.H.L.L.P.P.P.P.L.L.F.C.b.N.                                                                                                                                                ",
"                                                                            x.C.H.H.L.H.L.H.P.P.P.P.L.L.F.x.b.B.Q.                                                                                                                                              ",
"                                                                            C.H.H.H.L.L.L.H.H.P.P.L.L.L.F.b.v.B.m.~.                                                                                                                                            ",
"                                                                          x.F.P.P.L.L.L.H.H.H.H.H.H.H.H.C.z.v.l.2.A./. X                                                                                                                                        ",
"                                                                          x.H.P.P.H.H.H.H.L.H.H.H.L.L.H.C.z.z.r.X.y.H.Y._.                                                                                                                                      ",
"                                                                        l.C.P.L.L.H.H.H.H.F.H.H.H.H.H.H.C.z.y.w.4.u.Z.H./.`.                                                                                                                                    ",
"                                                                        C.H.P.L.P.L.L.L.L.L.L.H.H.L.L.F.C.e.y.w.w.u.Z.H.L.I. X.X                                                                                                                                ",
"                                                                        F.P.L.L.P.L.L.L.L.H.H.H.H.H.H.F.z.r.r.q.u.V.J.H.H.L./.oXoX^.                                                                                                                            ",
"                                                                      A.H.P.L.P.P.L.H.H.H.H.H.H.F.F.F.z.V.C.A.H.E.W.E.H.H.L.Y._._.].}.XX                                                                                                                        ",
"                                                                      A.L.L.L.L.H.H.F.F.F.F.F.F.F.C.C.e.y.H.E.E.E.H.H.H.H.H.L./._./.'.{.oX.X                                                                                                                    ",
"                                                                    A.H.L.L.L.H.H.H.F.F.A.F.F.F.F.F.C.5.' y.C.H.H.H.H.J.A.A.L.Y./._.Y.{.}.}.OX X^.                                                                                                              ",
"                                                                    F.H.H.L.H.F.H.H.F.F.F.F.F.H.H.H.C.t.z E 0.q.C.H.J.H.C.A.J.L./._.{.{.{.{.}.}.}./.I.K.K.K.K.L.L.K.L.Y.Y.Y.K.B.                                                                                ",
"                                                                  A.H.H.H.H.H.F.F.A.A.F.F.F.H.H.H.H.C.b.$.k W ,.e.V.H.A.V.Z.J.L.U.'.}.}.{.{.{.{.{./.Y.L.K.F.K.K.K.K.K.L.L.L.L.K.A.                                                                              ",
"                                                                  C.H.H.F.F.F.F.F.F.C.F.F.F.H.H.H.H.C.b.b.$.D -.e.z.A.A.C.C.H.H.L.Y._.}.}.{.{.{.'.Y.Y.U.K.A.F.F.F.F.F.K.K.K.K.K.K.b.                                                                            ",
"                                                                A.F.H.H.F.F.F.F.F.F.F.F.F.F.F.H.H.F.C.b.B.b.G S :.z.v.A.A.A.A.L.L.Y./.}.}.}.{./.Y.Y.Y.L.L.K.K.F.F.F.F.A.A.F.K.K.K.b.                                                                            ",
"                                                                C.L.L.H.F.F.F.F.F.F.F.F.C.A.F.H.H.F.C.b.B.K.7.p S 2.v.S.A.A.V.K.U.U./.}.}.{.'.Y.Y.Y.Y.L.L.S.A.A.F.F.F.F.A.A.F.K.K.A.c.                                                                          ",
"                                                              b.A.L.H.H.H.F.F.F.C.C.F.F.F.F.H.H.H.H.A.b.B.B.B.V : S 2.v.S.v.z.I.U.U.Y././.Y.L.L.Y.U.U.L.U.b.z.x.A.F.F.F.F.A.A.F.F.K.z.                                                                          ",
"                                                              z.F.F.H.H.H.H.F.F.H.H.F.H.H.H.H.H.H.H.A.b.B.B.B.p.= > H s.v.e.y.D.U.U.U.U.L.S.A.L.L.U.U.U.U.z.e.z.A.A.F.A.A.A.A.A.F.K.b.h.                                                                        ",
"                                                            v.z.H.F.H.H.H.H.H.H.H.H.H.H.F.H.H.H.H.F.b.B.B.B.B.B.V @ < } 7.0.r.S.S.D.B.A.S.U.L.L.K.K.U.U.K.e.e.z.C.A.A.A.A.F.F.A.F.K.S.l.                                                                        ",
"                                                            t.F.L.L.L.L.L.L.L.H.H.F.F.F.H.H.H.H.H.C.c.B.B.B.B.B.&.% + l -.-.q.v.B.B.S.L.U.U.U.L.L.L.U.U.S.7.y.C.C.C.A.A.A.F.F.F.A.F.K.z.                                                                        ",
"                                                          e.z.L.L.H.H.H.H.H.H.H.H.A.H.H.H.H.H.F.C.z.l.B.B.B.B.B.f.2 . * W ~ ,.j.v.S.A.L.Y.Y.U.U.L.L.U.U.B.7.y.z.C.C.C.A.C.A.A.A.A.F.F.b.g.                                                                      ",
"                                                          e.H.H.H.F.C.C.C.C.C.C.C.C.C.Z.C.C.C.C.y.l.g.c.B.B.B.B.M.n X o p F W :.e.r.r.A.Y.'.'.'.Y.U.U.I.v.5.y.y.z.z.C.C.C.C.C.A.A.F.F.F.g.                                                                      ",
"                                                        g.y.F.C.C.C.C.u.u.u.i.i.C.i.C.C.i.C.i.u.y.z.g.c.c.c.N.B.N.[ O o @ : D ! -.,.0.r.S./././.'.'./.I.g.5.y.y.y.z.C.C.C.C.C.C.A.A.A.F.z.f.                                                                    ",
"                                                        e.z.y.e.q.5.5.5.q.q.5.5.>.>.>.O.+.+.5.q.>.#.7.c.c.c.c.N.B.#.# + # $ ; S ^ <.4.y.A.L.U.Y./.Y.(.I.7.e.y.y.z.z.C.C.C.C.C.x.x.C.A.A.A.f.                                                                    ",
"                                                        L c M M M k k M M M b M M M M N M M M M d ) 7.f.g.c.c.M.B.*.# @ & % % * h W ;.;.e.z.V.S.I.U./.D.e.y.C.V.C.C.A.C.C.C.C.C.x.C.A.A.A.e.                                                                    ",
"                                                        ( d B R E E E Q Q Q Q Q Q } } } Q E ' G k _ 7.7.f.c.c.M.M.&.= = - - - = = : a S W :.0.V.U././.B.e.z.V.C.C.C.C.C.C.x.C.C.C.x.x.x.A.z.7.                                                                  ",
"                                                          d N B G R R R E E E E E E E R R R R G M B &.7.f.h.c.c.M.&.b B B N M f p , - , j H ! e.K.I.I.c.e.z.C.C.C.C.C.C.C.C.C.C.A.A.C.C.x.b.9.                                                                  ",
"                                                          f M B B G G B B B N N B B B B B B G G B M $.2.s.f.c.c.c.&.G | X.X.-.-.X.} E N f h j N 2.B.S.v.y.z.C.C.C.C.C.C.C.C.x.C.A.A.A.A.A.A.e.d.                                                                ",
"                                                          V f B B G G G G G G G R R R R R R ) R G b o.&.p.f.c.c.c.$.Q >.3.3.3.3.0.0.0.3.>.X.G f s C 7.A.C.C.C.C.C.C.C.C.C.C.C.C.C.A.A.x.A.K.b.7.                                                                ",
"                                                          / f B G G G G G G G G G R R ) ) _ _ _ R M _ 7.s.f.c.c.c.$.X.3.0.q.r.q.q.q.r.y.y.y.y.e.5.O.2.e.x.C.C.C.C.C.C.C.C.C.C.x.x.C.A.A.C.A.A.e.n.                                                              ",
"                                                            f B G G G G G G G G G G R ) ) _ _ ) R M B 7.p.f.c.c.c.O.>.0.q.r.y.y.y.y.y.y.y.z.V.C.C.C.C.C.C.C.C.C.C.C.C.C.C.C.x.x.x.x.C.C.C.x.x.z.f.                                                              ",
"                                                            M M R R G R R R ) _ _ _ _ ' ' { ' ' _ G M &.p.f.h.c.f.O.3.q.r.y.z.z.y.V.C.C.C.C.C.C.C.C.C.C.C.C.C.C.C.C.C.C.C.C.x.z.z.x.x.C.C.x.C.b.e.!.                                                            ",
"                                                            V M G G G G R R R ) ) ) _ _ _ _ ' ' _ R M #.p.f.c.c.s.X.0.e.y.z.z.z.C.C.C.C.C.C.C.C.C.C.C.C.C.C.C.C.V.z.z.C.z.x.x.x.x.x.C.C.C.x.C.b.e.m.                                                            ",
"                                                            P k G G G G R R R R R R R ) _ ' ' ' ' ) M ) 7.f.f.c.7.>.q.y.y.z.V.C.C.C.C.C.C.C.C.C.C.C.C.C.C.C.C.C.C.C.C.C.z.z.z.x.x.C.C.x.x.x.x.x.z.s.                                                            ",
"                                                            / k B G G R G R G R R R R R ) ' ' ' { ) N T &.s.f.f.$.3.q.y.y.z.z.C.C.C.C.C.C.C.C.C.C.C.C.C.C.C.C.z.C.z.C.z.V.z.z.z.z.z.x.x.x.x.x.x.x.9.Q.                                                          ",
"                                                              M N G G G G R R R R ) R ) _ ' ' ' { _ B B &.p.f.s.O.0.r.y.y.z.V.V.C.C.C.C.C.C.C.C.C.C.C.C.C.C.z.z.z.z.z.z.x.x.z.z.z.z.y.x.C.x.x.x.A.e.m.                                                          ",
"                                                              V M G G G G G R ) ) ) ) ) _ _ ' { { ' R C $.7.f.7.X.q.y.y.y.z.z.z.z.C.C.C.C.C.V.V.V.V.C.C.C.z.z.z.z.z.z.z.z.z.z.y.y.y.y.z.x.z.y.z.C.z.9.                                                          ",
"                                                              P M G G G G G G R ) ) ) _ _ _ {  . .{ ) M #.7.f.$.>.q.r.y.z.z.z.y.z.z.z.z.z.z.z.z.z.z.z.z.z.z.y.y.z.y.y.z.z.z.z.y.z.y.y.y.y.y.y.z.x.b.6.m.                                                        ",
"                                                              ] c B B G G G R R R ) ) _ _ _ ' { { ' ) M #.p.p.} 3.q.e.y.y.y.y.y.y.y.y.z.z.z.z.z.z.z.z.z.y.y.y.y.z.y.e.y.y.y.y.y.y.y.y.y.y.y.y.y.z.x.e.p.                                                        ",
"                                                                c M B B G G R ) ) ) ) ) ) _ { { { _ ) M #.p.$.| 3.q.e.e.e.e.e.r.r.e.r.r.e.e.r.y.r.r.y.y.r.e.t.e.e.e.e.e.e.e.e.e.e.e.e.e.e.e.e.y.y.z.e.9.                                                        ",
"                                                                L f G G G R R ) ) ) _ _ ) _ ' { { ' _ N { &. .:.0.q.0.5.5.5.0.q.q.0.0.5.5.0.e.e.e.q.e.q.e.e.e.9.7.7.5.5.5.5.5.5.5.5.5.5.5.5.5.5.q.e.q.7.                                                        ",
"                                                                I f B G R ) ) R ) ) ) ) ) _ ' { { { ' B _ { B :.3.0.0.0.0.q.q.q.q.e.e.e.e.r.y.y.y.y.y.y.y.y.e.e.e.e.q.0.0.0.q.5.5.5.5.5.5.5.3.3.3.5.3.5.                                                        ",
"                                                                  d B G ) ) ) R R ) ) ) _ { { { { { _ B G M c X.O.2.>.>.O.O.>.>.>.O.O.O.O.o.o.O.o.} } o.o.O.+.2.2.2.>.+.O.O.O.O.o.O.O.+.>.>.2.5.5.6.3.>.=.                                                      ",
"                                                                  d M B G R R R R ) ) ) _ _ ' _ _ _ R B B 4 x M M C B B B B B B G R ) ) ) ) ) ) _ ) _ _ R R ) G G G R R G R R G G B B B B N B B B R c I                                                         ",
"                                                                  c b B B B B G R R ) ) ) ) _ ) _ _ R B B 4 c N B G R _ ' ' ' ' ' '  . . .o.o.o.o.} } } }  . . .' ' ' ' ' ' { ' ' ' _ _ _ ) ) _ ' ) d Y                                                         ",
"                                                                  n c B B B B B G R R ) ) _ ' _ _ _ _ _ G T B G _ _ _ _ ' { ' _ _ ' ' ' { { {  . .' ' ' ' ' ' ' ' ' ' ' _ ' ' ' _ _ ' _ _ ' { { #._ c (                                                         ",
"                                                                  J f B B B B B R R R R ) ' ' _ _ ' ' } ' R _ } } } ' ' ' _ _ _ _ _ _ ' ' _ ' { ' ' ' ' ' ' ' ' ' ' _ _ _ _ ) ) ) _ _ ) _ { { { #.) V                                                           ",
"                                                                  J d B B B B G G G R ) ) ) _ _ _ _ ' ' ' ' _ _ _ _ ' _ _ ' _ _ ' ' ' ' { ' ' ' ' ' ' ' ' { ' { ' ' ' ' _ ' _ ' _ ' ' { { {  .#.o.B I                                                           ",
"                                                                  9 5 M B B B B B B R ) ) ) ) _ ) _ ' ' { _ _ ' ' ' ' ' _ ' ' ' ' ' ' ' ' ' ' { ' ' ' ' ' { ' ' ' ' ' _ _ ' _ _ _ ) ' { { { { #.{ m (                                                           ",
"                                                                  t 1 M B B B B B B G R R R ) ) ) ) ) _ ' _ _ ) _ _ _ _ ' ' ' { { ' ' ' ' ' ' { { { ' ' { { { ' ' ' ' ' _ _ _ ' ' ' { { { ..#.#.) c                                                             ",
"                                                                    2 f M M N B B G G ) ) B ) ) ) ) ) ) { _ ) ) _ ) ) ) _ _ _ _ ) _ _ _ ' ' ' ' ' ' ' ' { { { { ' ' ' _ ' _ ) ' ' { { { { { #.#.) V                                                             ",
"                                                                    r f M M M B B B / ) P B B B ) ) ) ) ) ) ) ) ) ) ) ) ) ) ) _ ) ) ) _ ) ' { ' ' { ' ' { { { ' ' ' _ ' _ _ ' ' _ ' { { { ..#.#.B L                                                             ",
"                                                                    v d Z Z V B B B B B P P B B B ) ) ) ) / B ) ) ) ) ) R ) ) ) ) ) _ ) ) _ ' ' ' ' ' ' ' ' { { ' ' _ _ _ ' ' ' ' { { { { { @.{ M (                                                             ",
"                                                                      r M Z Z Z B B B B P B B B B P / P P P B ) ) G ) ) G B ) ) ) ) ) ) ) ) _ _ ' ' ' ' ' ' { { { ' ' ' ' ' ' ' { { { { { { @.) V                                                               ",
"                                                                      r M M V B B Z B B B B B B B B B P P B B B B B B B ) ) ) ) ) ) B ) ) ) ) ) ) ) ) _ ) ) _ _ _ _ _ ) ) ` ) [ ] ) ] { { @.@.B L                                                               ",
"                                                                      z c V V V V Z V V Z V V Z V Z B B B Z B B B B B B B B B ) ) P B B P P P / P ) ) ) ) ) ) ) ) ) ) ) ) ) ) ) ) / ] ] ] { [ c (                                                               ",
"                                                                        d V V V V V V V V V V V V V V L L V n V V V V V Z Z Z P P P P Z Z V L P Z Z P P P P P P P L L P L L L L L L L L / / V v                                                                 ",
"                                                                        v J e e 3 0 0 0 e e e 0 e 0 0 0 q 6 6 0 6 0 6 0 0 0 0 e e q q q q 0 e q q q q e q q q q q q q q 9 9 6 9 q 9 9 9 y i K                                                                   "
};
