/* XPM */
static char *lounge_yellow_sofa_back_right[] = {
/* columns rows colors chars-per-pixel */
"128 192 185 2 ",
"   c #FF00FF",
".  c #7F7256",
"X  c #84672F",
"o  c #86682F",
"O  c #8B6E34",
"+  c #826B3D",
"@  c #937333",
"#  c #9D7C36",
"$  c #957639",
"%  c #96793E",
"&  c #987A3D",
"*  c #927944",
"=  c #9A7D41",
"-  c #937D4F",
";  c #997F4B",
":  c #8E7B50",
">  c #807359",
",  c #83785E",
"<  c #8B7B58",
"1  c #927E54",
"2  c #A4823F",
"3  c #B08432",
"4  c #B18A3E",
"5  c #BB8F3C",
"6  c #9F8144",
"7  c #9C834D",
"8  c #8F805F",
"9  c #978152",
"0  c #9C8453",
"q  c #93825C",
"w  c #9B865B",
"e  c #A48443",
"r  c #AC8A46",
"t  c #A3874B",
"y  c #A68A4D",
"u  c #AC8C4A",
"i  c #B28F47",
"p  c #B18F49",
"a  c #AF904C",
"s  c #B49047",
"d  c #BA9445",
"f  c #B4924C",
"g  c #B9964D",
"h  c #BD994E",
"j  c #A48A53",
"k  c #AA8E53",
"l  c #A18B5D",
"z  c #A98F5C",
"x  c #AF9255",
"c  c #AD945C",
"v  c #B59552",
"b  c #B99751",
"n  c #B79956",
"m  c #BC9B54",
"M  c #B1965D",
"N  c #B79A5B",
"B  c #BE9D59",
"V  c #BFA057",
"C  c #BEA05B",
"Z  c #958561",
"A  c #9A8760",
"S  c #9D8B61",
"D  c #A28F65",
"F  c #A79265",
"G  c #AA9462",
"H  c #AE9866",
"J  c #A0916D",
"K  c #B49B63",
"L  c #B89D62",
"P  c #BDA163",
"I  c #BEA66B",
"U  c #B1A17A",
"Y  c #C29641",
"T  c #C29D4C",
"R  c #C19E54",
"E  c #C09F58",
"W  c #C6A04E",
"Q  c #CAA24D",
"!  c #C3A156",
"~  c #CAA554",
"^  c #CEA955",
"/  c #C4A35A",
"(  c #C8A65C",
")  c #C7A85F",
"_  c #CCAA5E",
"`  c #D1AA55",
"'  c #D8AD56",
"]  c #D1AD5B",
"[  c #D6B25C",
"{  c #DAB55D",
"}  c #E6B451",
"|  c #E9B653",
" . c #EBB957",
".. c #E0B65B",
"X. c #E2BA5F",
"o. c #EBBC5C",
"O. c #C4A662",
"+. c #C6A964",
"@. c #C9AB64",
"#. c #C3A769",
"$. c #C6AA69",
"%. c #CAAD6A",
"&. c #D2AE60",
"*. c #CEB16D",
"=. c #D5B362",
"-. c #DAB563",
";. c #DEBA63",
":. c #D2B36D",
">. c #DDBB69",
",. c #C3A976",
"<. c #C9AE71",
"1. c #CDB273",
"2. c #CEB478",
"3. c #D2B573",
"4. c #DDBD70",
"5. c #D0B679",
"6. c #D3B97B",
"7. c #D9BD7D",
"8. c #E1BC65",
"9. c #EBBE61",
"0. c #E2BE69",
"q. c #DFC37F",
"w. c #E5C066",
"e. c #ECC365",
"r. c #EFCA66",
"t. c #E6C26C",
"y. c #E9C56D",
"u. c #EDC96D",
"i. c #F5CA67",
"p. c #F1C668",
"a. c #F2CD6B",
"s. c #F8CF6E",
"d. c #F3D16F",
"f. c #E5C574",
"g. c #E9C673",
"h. c #E6C877",
"j. c #EDCB74",
"k. c #E5C679",
"l. c #EBC778",
"z. c #E7CA7A",
"x. c #ECCC7A",
"c. c #F1CE74",
"v. c #F1CF79",
"b. c #EFD17D",
"n. c #F2D176",
"m. c #FAD172",
"M. c #F5D67F",
"N. c #F4D67D",
"B. c #F2D27B",
"V. c #FBD67B",
"C. c #F8D278",
"Z. c #D6C38F",
"A. c #DDC58A",
"S. c #E6C782",
"D. c #E7CD86",
"F. c #EACD83",
"G. c #E7CF8B",
"H. c #E4CB8B",
"J. c #EBCF89",
"K. c #EBD186",
"L. c #EBD185",
"P. c #EAD18A",
"I. c #EDD38A",
"U. c #EBD38C",
"Y. c #EDD58E",
"T. c #EED68D",
"R. c #EED48D",
"E. c #F3D481",
"W. c #F3D682",
"Q. c #F4D782",
"!. c #F7D685",
"~. c #F4D481",
"^. c #F6D882",
"/. c #F6D884",
"(. c #F9D882",
"). c #FCD984",
"_. c #F2D58B",
"`. c #F6D889",
"'. c #F8DA8D",
"]. c #F1D591",
"[. c #F1D994",
"{. c #F7DF9E",
"}. c #F6DB9B",
"|. c #F7DEA0",
" X c #FAE2A4",
/* pixels */
"                                                                                                                                                                                                                                                                ",
"                                                                                                                                                                                                                                                                ",
"                                                                                                                                                                                                                                                                ",
"                                                                                                                                                                                                                                                                ",
"                                                                                                                                                                                                                                                                ",
"                                                                                                                                                                                                                                                                ",
"                                                                                                                                                                                                                                                                ",
"                                                                                                                                                                                                                                                                ",
"                                                                                                                                                                                                                                                                ",
"                                                                                                                                                                                                                                                                ",
"                                                                                                                                                                                                                                                                ",
"                                                                                                                                                                                                                                                                ",
"                                                                                                                                                                                                                                                                ",
"                                                                                                                                                                                                                                                                ",
"                                                                                                                                                                                                                                                                ",
"                                                                                                                                                                                                                                                                ",
"                                                                                                                                                                                                                                                                ",
"                                                                                                                                                                                                                                                                ",
"                                                                                                                                                                                                                                                                ",
"                                                                                                                                                                                                                                                                ",
"                                                                                                                                                                                                                                                                ",
"                                                                                                                                                                                                                                                                ",
"                                                                                                                                                                                                                                                                ",
"                                                                                                                                                                                                                                                                ",
"                                                                                                                                                                                                                                                                ",
"                                                                                                                                                                                                                                                                ",
"                                                                                                                                                                                                                                                                ",
"                                                                                                                                                                                                                                                                ",
"                                                                                                                                                                                                                                                                ",
"                                                                                                                                                                                                                                                                ",
"                                                                                                                                                                                                                                                                ",
"                                                                                                                                                                                                                                                                ",
"                                                                                                                                                                                                                                                                ",
"                                                                                                                                                                                                                                                                ",
"                                                                                                                                                                                                                                                                ",
"                                                                                                                                                                                                                                                                ",
"                                                                                                                                                                                                                                                                ",
"                                                                                                                                                                                                                                                                ",
"                                                                                                                                                                                                                                                                ",
"                                                                                                                                                                                                                                                                ",
"                                                                                                                                                                                                                                                                ",
"                                                                                                                                                                                                                                                                ",
"                                                                                                                                                                                                                                                                ",
"                                                                                                                                                                                                                                                                ",
"                                                                                                                                                                                                                                                                ",
"                                                                                                                                                                                                                                                                ",
"                                                                                                                                                                                                                                                                ",
"                                                                                                                                                                                                                                                                ",
"                                                                                                                                                                                                                                                                ",
"                                                                                                                                                                                                                                                                ",
"                                                                                                                                                                                                                                                                ",
"                                                                                                                                                                                                                                                                ",
"                                                                                                                                                                                                                                                                ",
"                                                                                                                                                                                                                                                                ",
"                                                                                                                                                                                                                                                                ",
"                                                                                                                                                                                                                                                                ",
"                                                                                                                                                                                                                                                                ",
"                                                                                                                                                                                                                                                                ",
"                                                                                                                                                                                                                                                                ",
"                                                                                                                                                                                                                                                                ",
"                                                                                                                                                                                                                                                                ",
"                                                                                                                                                                                                                                                                ",
"                                                                                                                                                                                                                                                                ",
"                                                                                                                                                                                                                                                                ",
"                                                                                                                                                                                                                                                                ",
"                                                                                                                                                                                                                                                                ",
"                                                                                                                                                                                                                                                                ",
"                                                                                                                                                                                                                                                                ",
"                                                                                                                                                                                                                                                                ",
"                                                                                                                                                                                                                                                                ",
"                                                                                                                                                                                                                                                                ",
"                                                                                                                                                                                                                                                                ",
"                                                                                                                                                                                                                                                                ",
"                                                                                                                                                                                                                                                                ",
"                                                                                                                                                                                                                                                                ",
"                                                                                                                                                                                                                                                                ",
"                                                                                                                                                                                                                                                                ",
"                                                                                                                                                                                                                                                                ",
"                                                                                                                                                                                                                                                                ",
"                                                                                                                                                                                                                                                                ",
"                                                                                                                                                                                                                                                                ",
"                                                                                                                                                                                                                                                                ",
"                                                                                                                                                                                                                                                                ",
"                                                                                                                                                                                                                                                                ",
"                                                                                                                                                                                                                                                                ",
"                                                                                                                                                                                                                                                                ",
"                                                                                                                                                                                                                                                                ",
"                                                                                                                                                                                                                                                                ",
"                                                                                                                                                                                                                                                                ",
"                                                                                                                                                                                                                                                                ",
"                                                                                                                                                                                                                                                                ",
"                                                                                                                                                                                                                                                                ",
"                                                                                                                                                                                                                                                                ",
"                                                                                                                                                                                                                                                                ",
"                                                                                                                                                                                                                                                                ",
"                                                                                                                                                                                                                                                                ",
"                                                                                                                                                                                                                                                                ",
"                                                                                                                                                                                                                                                                ",
"                                                                                                                                                                                                                                                                ",
"                                                                                                                                                                                                                                                                ",
"                                                                                                                                                                                                                                                                ",
"                                                                                                                                                                                                                                                                ",
"                                                                                                                                                                                                                                                                ",
"                                                                                                                                                                                                                                                                ",
"                                                                                                                                                                                                                                                                ",
"                                                                                                                                                                                                                                                                ",
"                                                                                                                                                                                                                                                                ",
"                                                                                                                                                                                                                                                                ",
"                                                                                                                                                                                                                                                                ",
"                                                                                                                                                                                                                                                                ",
"                                                                                                                                                                                                                                                                ",
"                                                                                                                                                                                                                                                                ",
"                                                                                                                                                                                                                                                                ",
"                                                                                                                                                                                                                                                                ",
"                                                                                                                                                                                                                                                                ",
"                                                                                                                                                                                                                                                                ",
"                                                                                                                                                                                                                                                                ",
"                                                                                                                                                                                                                                                                ",
"                                                                                                                                                                                                                                                                ",
"                                                                                                                                                                                                                                                                ",
"                                                                                                                                                                                                                                                                ",
"                                                                                                                                                                                                                                                                ",
"                                                                                                                                                                                                                                                                ",
"                                                                                                                                                                                                                                                                ",
"                                                                                                                                                                                                                                                                ",
"                                                                                                                                                                                                                                                                ",
"                                                                                                                                                                                                                                                                ",
"                                                                                                                                                                                                                                                                ",
"                                                                                                                                                                                                                                                                ",
"                                                                                                                                                                                                                                                                ",
"                                                                                                                                                                                                                                                                ",
"                                                                                                                                                                                                                                                                ",
"                                                                                                                                                                                                                                                                ",
"                                                                        k.x.x.f.>.%.                                                                                                                                                                            ",
"                                                                  q.x.N.N.N.N.N.N.y.-.[                                                                                                                                                                         ",
"                                                            z.x.C.N.N.N.N.N.N.N.N.^.E.j.0.[                                                                                                                                                                     ",
"                                                        x.N.C.C.C.C.C.C.N.N.N.N.N.N.^.^.E.x.;.[           N.N.c.                                                                                                                                                ",
"                                                    # ! e.d.d.d.C.a.C.C.N.N.N.N.N.N.N.N.N.E.E.x.>.[ 0.r.c.r.9. .e.e.9.9.p.a.                                                                                                                                    ",
"                                                    @ d T ^ w.a.a.r.a.c.c.C.C.C.C.N.N.N.N.N.E.E.E.b.y.{ { .. . . .} } |  .|  . .j.R.                                                                                                                            ",
"                                                      h ~ T h ~ X.r.r.r.r.c.c.C.C.C.C.C.v.N.N.N.E.E.E.E.j.>.[ { e.a.s.m.c.c.C.c.a.N._.R.R.R.                                                                                                                    ",
"                                                      f ^ ` ` W h ^ w.r.r.r.c.c.c.c.N.N.C.x.N.N.N.b.N.N.E.E.b.y.-.{ ..X.' Y -.(.(.C.(._.R.R.R.R.R.                                                                                                              ",
"                                                      v ~ ~ ~ ^ W T T [ e.a.a.c.c.C.C.j.C.N.N.x.N.x.N.N.N.N.E.E.N.g.{ ` W 5 3 R f.x.E.E.'.}.[.R.F.K.H.Z.                                                                                                        ",
"                                                        ! ~ ! W W ~ ! h ! ;.r.c.c.j.j.n.N.N.v.x.N.N.N.N.N.N.N.N.v.N.j.y.[ W d 4 ) -.k._.E._. X}.R.F.K.R.R.H.                                                                                                    ",
"                                                        / ) ! ! T W ~ ! T g ! ;.r.r.r.j.j.N.N.N.b.N.N.N.N.N.N.N.j.j.v.N.N.N.f.=.~ ^ -.F.F.l.}. X|.R.F.x.F.K.K.J.H.                                                                                              ",
"                                                        / / ! ! ! ! ~ ! ! R h f ~ 8.r.r.c.N.N.c.N.N.N.N.v.j.c.c.j.j.j.v.v.N.E.E.x.y.[ ] =.;.J. X|.}.R.k.f.f.z.x.x.F.D.H.                                                                                        ",
"                                                        B O.! ! R R ! ! ! ! ! R g g ] r.j.c.c.C.N.N.v.N.v.v.v.j.j.j.j.v.N.v.v.N.N.N.N.j.;.` ] 4.S.]. X].k.f.f.f.f.h.x.x.F.H.A.                                                                                  ",
"                                                        K O./ ! ! R R ! ! R ! ! ! R g ! y.c.j.c.j.c.v.v.N.N.v.x.x.v.x.x.j.j.v.v.v.v.v.N.N.N.g.-.^ ~ =.F.[.F.f.x.x.f.f.h.x.F.F.F.H.A.                                                                            ",
"                                                          / / / ! ! R R R R R ! ! ! ! h h ] y.r.j.j.j.c.v.N.N.N.v.v.v.x.j.x.v.v.j.j.j.c.N.v.N.N.v.r.[ T R :.f.j.f.f.f.f.f.f.z.x.F.F.F.D.A.                                                                      ",
"                                                          b ) / ! ! ! R R R R R R ! ! R h f f _ r.j.r.r.j.j.N.N.v.v.v.v.v.v.N.v.x.j.j.v.v.N.v.v.v.N.N.c.-.T T [ f.f.f.g.f.f.f.f.f.h.x.x.x.k.q.                                                                  ",
"                                                          f / / / ! ! ! R R R h R ! ! ! R R g i b =.r.r.r.r.j.j.v.v.v.v.v.v.v.v.v.v.v.v.v.v.v.v.v.N.N.N.c.j.8.W ] f.f.g.f.f.f.f.y.y.f.j.j.j.x.f.k.7.                                                            ",
"                                                          e / / / / ! ! R R R R R R R R R ! R T g u v @.y.j.j.j.j.v.v.v.N.N.N.N.N.v.v.v.v.v.v.v.v.v.N.c.j.r.j.8.) f.g.f.y.y.y.y.y.y.y.y.y.y.r.j.j.j.f.:.                                                        ",
"                                                            b / / / ! ! ! R R R R R h h R R R R R R g u f _ y.j.j.c.v.N.N.N.N.N.N.N.N.E.E.N.v.v.x.v.j.r.j.r./ e O 4.j.g.f.y.y.y.y.y.y.y.y.w.y.y.y.w.0.;.~                                                       ",
"                                                            f / / / / / / / R R R R R b h R R R R / ) ! b p f _ y.j.j.c.c.v.N.N.N.E.E.E.E.N.v.x.j.j.r.j.=.b f v X >.j.j.g.g.y.y.y.y.y.y.y.w.w.8.;.{ [ ;.[ <.                                                    ",
"                                                            r / / / / / / / R R R R R b h b R R R R / ) / / b f a / -.g.j.j.j.N.N.E.E.N.v.v.x.j.j.j.r./ i b O.N o 4.j.j.j.g.f.y.y.y.y.y.8.8.8.{ [ [ { ] 7                                                       ",
"                                                            e ! / / / ! / ! ! R R R b R h b b b b b R / / / / / b f r f _ y.j.c.N.N.N.N.v.j.g.g.j.>.g f / / / k O f.j.j.g.g.f.y.y.y.0.;.{ { { ] { [ R v ;                                                       ",
"                                                              R ) / / / ! ! / ! / R b b b b b b b b b b / / / / / R R b f f @.f.c.v.N.v.j.g.j.>.b f b / E B O.u $ f.j.j.g.g.g.y.y.0.8.8.;.[ ` { ] h b N 0                                                       ",
"                                                              b / ) / / / / / / / / R b h b b b b b b b b E R / / / / ! / R f v =.j.c.j.j.j._ p g / / b B P $.u & g.x.j.j.g.r.y.y.y.w.8.;.{ { ^ b B O.c 1                                                       ",
"                                                              b / ) / / / / / / / / ! b b b b b b b b R B b b B R R / / R E R b f v >.j.y.R f b / b b B O.$.$.y = x.x.j.g.g.r.y.y.y.8.;.8.;.! b C / %.j                                                         ",
"                                                              u / ) ) ) / / ! / ) / / / b b b b b b b E b B b b b b E E / E b b b f b b e r b b v v B O.O.#.<.y e x.j.g.g.g.r.y.y.8.8.w.[ b b V C O.%.7                                                         ",
"                                                                ! ) ) ) / / ! / / ! / / R b b b b f b b b B B b B b b b B B b b f u 6 = e r f v B B O.P #.<.1.t u j.f.f.f.y.y.0.0.y.8.! b b C C / $.$.-                                                         ",
"                                                                b ) ) ) ) ) / / ! R ! / b b b b b b b b b B b b / B B B b b b b v p r u r r v b b B O.+.$.<.1.6 v j.y.y.y.0.8.;.y.;.! / / / / / O.1.K q                                                         ",
"                                                                f ) ) ) ) / ) ) ! ! ! ! R b b b b b B B b B E B B b b E B B b b f f r r r f f b B / +.$.<.1.1.= b g.y.0.0.;.;.0.[ R / / / / / / +.1.c                                                           ",
"                                                                e / ! ! ~ ! ~ ) / / / / / R b b R b b b b E B b E b b B B B B v f f r e u f b B / O.O.$.<.2.1.% / y.0.0.8.8.8._ / @.+./ O./ / / $.<.j                                                           ",
"                                                                  b / ! ! ! ! ) ) ) / / / / R R / / E E b b b b / E E B B B B b v f r r p f b B C O.$.%.1.5.1.% _ 0.8.;.8.;.) / @.@.+.+.+./ O.+.%.I 0                                                           ",
"                                                                  v / R R ! ! ) ) / / / / / b ! / ) / E b b b b E b E / E B B b v f r r p f b B O.O.$.%.1.6.1.$ _ 8.8.8.=.! / +.+.+.O.+.@.O.+.$.<.c                                                             ",
"                                                                  u / ! R R ! ! / / / ! / / b ! / @.) / b b b b b B B B B b b b b b u r p g b / O.+.$.%.1.6.%.$ ~ -.0.&./ / / / +.+.+.@.+.+.+.$.I S                                                             ",
"                                                                  u / / / ! ! ! / / ! ! ! / R / / / @./ ! b g b b B / E b b b b b b u r f g E / O.+.%.1.1.6.+.@ d ~ ) / @./ / @.@.@.@.@.+.+.+.I U                                                               ",
"                                                                    B B / ! / ! ! R b R ! ! ! ! ! ! / / b b b b b ! / / b b b b b b f r f b / / / +.%.<.1.6.O.@ # s b @.@.O.+.@.@.@.@.@.+.O.P J                                                                 ",
"                                                                      c b ! / / ! R b b / / ! ! ! R / / b b R R b R / / / / b b b b p r f b / / E O.%.*.3.6.O.@ 2 g / @.@.@.@.@.@.%.%.@.O.K Z                                                                   ",
"                                                                        0 n / / / ! b g b / / ! R ! / / b R R R R ! / / / / / E B b r u g b / R / O.%.*.3.6.C @ r ! @.@.@.@.@.%.%.%.%.O.K ,                                                                     ",
"                                                                            x / / / / b b / ! ! R / / / ! ! / ! ! R / / / / E E b b r p g b / / / +.%.*.3.3.B e R _ @.%.%.@.@.@.%.%.+.G                                                                         ",
"                                                                              j B / / / b b R b R / / / / / / / / ! / / R ! / / b g i f g h ! / / @.%.1.3.3.*.R / @.@.%.@.@.@.%.%.O.F                                                                           ",
"                                                                                w N B b b B B b b b / / ! / / / / / / / / / / / b g i f g b ! / / @.%.*.3.3.3.@.) @.@.@.%.%.@.%.P S                                                                             ",
"                                                                                    k v n b b b b b b / ! ! / / / / / / / / / / R g s f g R / / / @.%.*.3.:.3.@.+.@.@.@.%.+.+.P Z                                                                               ",
"                                                                                      0 x v b b b b b b R / / / ! / ! / / / / / / R f f g R / / +.@.%.:.:.*.3.%.@.@.@.+.%.O.K q                                                                                 ",
"                                                                                          j v b b b b b b R / ! ! ! / / / / / / / / g g g R / / +.@.%.:.%.%.:.%.@.@.@.@.%.K >                                                                                   ",
"                                                                                            0 v b b b b b R / / ! ! / / / / / / / R g g g R ! / ) @.%.%.%.%.*.@.@.@.+.O.H                                                                                       ",
"                                                                                              : x b b b b b b E b R / ) ) / / / / R g h g h ! / _ @.@.@.@.%.%.O.O.O.O.G                                                                                         ",
"                                                                                                  j n b b b b b b b / / ) ) / / ) / g h g h ! ) @.@.@.@.@.%.@.O.O.B w                                                                                           ",
"                                                                                                    0 v b B B B b B / / / / / / / / h b g R / ) @.@.@.@.@.%.+./ M <                                                                                             ",
"                                                                                                        v b b B b b E / ! / / R / / h R g ! ) ) @.@.@.@.%.%.O.z .                                                                                               ",
"                                                                                                          j v b b B E R b E / E / / h b f R / / @.@.@.@.%.$.l                                                                                                   ",
"                                                                                                            1 v b b b ! b b E R / ! R ; = R R ) @.@.+.O.O.D                                                                                                     ",
"                                                                                                                k b b E b b R b R E R * + R ! ) @.+.O.P A                                                                                                       ",
"                                                                                                                  j v b b b E b b b b f r h / / O.O.P Z                                                                                                         ",
"                                                                                                                    9 v b b b b b g g f i R / / / L 8                                                                                                           ",
"                                                                                                                        j b b b h g g g f b / / M                                                                                                               ",
"                                                                                                                          0 v b b b f f s b / c                                                                                                                 ",
"                                                                                                                            1 x v b f f f B l                                                                                                                   ",
"                                                                                                                                0 f f f v w                                                                                                                     ",
"                                                                                                                                  - t u 1                                                                                                                       ",
"                                                                                                                                                                                                                                                                "
};
