/* XPM */
static char *pc_table_3[] = {
/* columns rows colors chars-per-pixel */
"128 128 142 2 ",
"   c #FF00FF",
".  c #030304",
"X  c #070708",
"o  c #0D0D0E",
"O  c #0F0F11",
"+  c #151516",
"@  c #171719",
"#  c #18171A",
"$  c #171818",
"%  c #19191A",
"&  c #201F1E",
"*  c #20201F",
"=  c #1E1E21",
"-  c #201F23",
";  c #1F2023",
":  c #222224",
">  c #252629",
",  c #2A2A2C",
"<  c #2E2E31",
"1  c #302F33",
"2  c #2F3032",
"3  c #333335",
"4  c #383835",
"5  c #36353A",
"6  c #38373B",
"7  c #37383D",
"8  c #3B3C3C",
"9  c #41413F",
"0  c #3C3D42",
"q  c #3F4042",
"w  c #434343",
"e  c #494746",
"r  c #4B4A47",
"t  c #434549",
"y  c #46494E",
"u  c #4B4B4C",
"i  c #504E4B",
"p  c #52514E",
"a  c #4B4D51",
"s  c #4F5155",
"d  c #545556",
"f  c #595A57",
"g  c #54565A",
"h  c #56595C",
"j  c #595A5C",
"k  c #605E5C",
"l  c #66625D",
"z  c #6B665E",
"x  c #575C61",
"c  c #595D62",
"v  c #5E6165",
"b  c #666664",
"n  c #6F6761",
"m  c #6C6861",
"M  c #61656B",
"N  c #64696E",
"B  c #6D6F6D",
"V  c #746C64",
"C  c #786E65",
"Z  c #746F68",
"A  c #77726B",
"S  c #7A766D",
"D  c #7D786F",
"F  c #626770",
"G  c #666B72",
"H  c #696D73",
"J  c #6F7173",
"K  c #6D737C",
"L  c #727574",
"P  c #7A7671",
"I  c #7C7972",
"U  c #71767B",
"Y  c #767B7C",
"T  c #7D7E7E",
"R  c #7A7D7E",
"E  c #837970",
"W  c #817B73",
"Q  c #807A72",
"!  c #857A70",
"~  c #857B73",
"^  c #877C72",
"/  c #817C74",
"(  c #827D76",
")  c #847D75",
"_  c #847D74",
"`  c #877D74",
"'  c #877E76",
"]  c #897E75",
"[  c #8A7F75",
"{  c #8A8077",
"}  c #8C8177",
"|  c #8D8177",
" . c #86837B",
".. c #87847E",
"X. c #84827B",
"o. c #88857C",
"O. c #89877D",
"+. c #89877F",
"@. c #8A877F",
"#. c #89887E",
"$. c #747B84",
"%. c #787D80",
"&. c #797E81",
"*. c #7A7F81",
"=. c #777E88",
"-. c #7B8083",
";. c #7D8182",
":. c #7D8285",
">. c #7E8284",
",. c #7F8585",
"<. c #7F8586",
"1. c #7D8387",
"2. c #7A818A",
"3. c #878783",
"4. c #808586",
"5. c #848481",
"6. c #8A8781",
"7. c #8B8880",
"8. c #8B8980",
"9. c #8C8A80",
"0. c #8E8B80",
"q. c #8E8B81",
"w. c #8D8B82",
"e. c #8F8D82",
"r. c #8E8C83",
"t. c #8F8C83",
"y. c #888886",
"u. c #8D8B84",
"i. c #8E8C85",
"p. c #8F8D85",
"a. c #8B8982",
"s. c #818689",
"d. c #84898C",
"f. c #888C8D",
"g. c #8F8E89",
"h. c #908D83",
"j. c #919088",
"k. c #92918B",
"l. c #93928C",
"z. c #8E9496",
"x. c #989893",
"c. c #A9A9A3",
/* pixels */
"                                                                                                                                                                                                                                                                ",
"                                                                                                                                                                                                                                                                ",
"                                                                                                                                                                                                                                                                ",
"                                                                                                                                                                                                                                                                ",
"                                                                                                                                                                                                                                                                ",
"                                                                                                                                                                                                                                                                ",
"                                                                                                                                                                                                                                                                ",
"                                                                                                                                                                                                                                                                ",
"                                                                                                                                                                                                                                                                ",
"                                                                                                                                                                                                                                                                ",
"                                                                                                                                                                                                                                                                ",
"                                                                                                                                                                                                                                                                ",
"                                                                                                                                                                                                                                                                ",
"                                                                                                                                                                                                                                                                ",
"                                                                                                                                                                                                                                                                ",
"                                                                                                                                                                                                                                                                ",
"                                                                                                                                                                                                                                                                ",
"                                                                                                                                                                                                                                                                ",
"                                                                                                                                                                                                                                                                ",
"                                                                                                                                                                                                                                                                ",
"                                                                                                                                                                                                                                                                ",
"                                                                                                                                                                                                                                                                ",
"                                                                                                                                                                                                                                                                ",
"                                                                                                                                                                                                                                                                ",
"                                                                                                                                                                                                                                                                ",
"                                                                                                                                                                                                                                                                ",
"                                                                                                                                                                                                                                                                ",
"                                                                                                                                                                                                                                                                ",
"                                                                                                                                                                                                                                                                ",
"                                                                                                                                                                                                                                                                ",
"                                                                                                                                                                                                                                                                ",
"                                                                                                                                                                                                                                                                ",
"                                                                                                                                                                                                                                                                ",
"                                                                                                                                                                                                                                                                ",
"                                                                                                                                                                                                                                                                ",
"                                                                                                                                                                                                                                                                ",
"                                                                                                                                                                                                                                                                ",
"                                                                                                                                                                                                                                                                ",
"                                                                                                                                                                                                                                                                ",
"                                                                                                                                                                                                                                                                ",
"                                                                                                                                                                                                                                                                ",
"                                                                                                                                                                                                                                                                ",
"                                                                                                                                                                                                                                                                ",
"                                                                                                                                                                                                                                                                ",
"                                                                                                                                                                                                                                                                ",
"                                                                                                                                                                                                                                                                ",
"                                                                                                                                                                                                                                                                ",
"                                                                                                                                                                                                                                                                ",
"                                                                                                                                                                                                                                                                ",
"                                                                                                                                                                                                                                                                ",
"                                                                                                                                                                                                                                                                ",
"                                                                                                                                                                                                                                                                ",
"                                                                                                                                                                                                                                                                ",
"                                                                                                                                                                                                                                                                ",
"                                                                                                                                                                                                                                                                ",
"                                                                                                                                                                                                                                                                ",
"                                                                                                                                                                                                                                                                ",
"                                                                                                                                                                                                                                                                ",
"                                                                                                                                                                                                                                                                ",
"                                                                                                                                                                                                                                                                ",
"                                                                                                                                                                                                                                                                ",
"                                                                                                                                                                                                                                                                ",
"                                                                                                                                                                                                                                                                ",
"                                                                                                                                                                                                                                                                ",
"                                                                                                                                                                                                                                                                ",
"                                                                                            f.>.>.>.*.R R *.Y R R Y Y Y Y R *.*.>.>.>.4.>.>.s.                                                                                                                  ",
"                                                                                      > 6 6 3 , , 2 3 2 3 3 3 3 3 3 3 3 3 3 6 6 6 6 6 6 q q e e e t t t u u u a u u 6                                                                                           ",
"                                                                                    + % $ + + % % % % % % % % % % % % % % + + + + $ $ $ $ $ $ $ $ # % # % % % % % > > % =                                                                                       ",
"                                                                                  + + $ + % % % % % % % % % % % % % % % % % % $ + % % $ $ $ $ $ $ % % $ % % % % % = > > +                                                                                       ",
"                                                                                  + + + + + % % % % % % % % % % % % % % % % % % % % # $ $ $ $ $ $ $ $ $ % % % % % > > > % &                                                                                     ",
"                                                                                $ + + + + + % % % % % % % % $ % % % % % % % % % % % % # $ $ $ $ $ $ $ $ % % % % % > > > > +                                                                                     ",
"                                                                                + + + + + + % % % % % % % + + + + % % % % % % % % % % % % % + % $ $ % % % % % % = > > , , % %                                                                                   ",
"                                                                              $ + + + + + % % % % % % % + + + + + % % % % % % % % % % % + + + $ $ $ $ % % % % % = > > , < , + 3                                                                                 ",
"                                                                              + + + + + + + % % % % % % + + + + + % % % % % % + + % % % + $ + $ $ $ % % % % % = > > > < 3 3 > %                                                                                 ",
"                                                                              + + % % + + + + % % % % + + + + + + + + + % % % % % % % $ % $ $ + $ # % % % % = > > > , < 3 6 1 $ ,                                                                               ",
"                                                                            + + % + % % + + % % % % $ + + + + + + + + + % % % % % % % % % + + + + % % % % = = > > > , < 3 6 6 > %                                                                               ",
"                                                                            + $ + % % % $ % % % % % % % % + + + + + + + % % % % % % % % + + $ + + # % % % = > > > > , < 3 6 6 3 % ,                                                                             ",
"                                                                          % + $ $ % + + + + % % % % % % % % % % + + + + + + + % $ + + + + + + + + % % % % = > > > > , < 1 6 6 6 , $                                                                             ",
"                                                                          + $ % $ % + + + + $ $ + + + % + + % + + + + + + + + + + + + + + + + + $ % % % % = > > > > , , 3 3 6 6 3 % >                                                                           ",
"                                                                          + % % % % % + + + + + + + + + + + + + + + + + + + + + + + + $ + + + $ % % % % % = > > > > , < 3 3 6 6 6 < %                                                                           ",
"                                                                        % + % % % $ % % + $ + + + + + + % $ + + + + + + + + + + + + + + + + + $ % % % % % % ; > > > , < 3 3 6 6 6 6 % 3                                                                         ",
"                                                                        > + + % % % % % % $ + $ + + $ % % $ $ + + + + + + + + + + + + + + + + % $ % % % % % > > > > , < 3 3 3 6 6 6 > 6                                                                         ",
"                                                                        6 , & + + + + + + + + + + + + + + + + + o o o o + o + + + + + + o o + + + + + + + % % % > > > , , < 3 3 6 3 4 k                                                                         ",
"                                                                          p i u u i p i u r r r u u r e e e e e 9 e e 9 e 9 9 9 9 e e 9 e e e e e e e e e e e e r u u u u u u p j b L R                                                                         ",
"                                                                          d j f m D W W W W [ [ { { [ [ { W W W W W W W W W W 6...6.t...t.t.O.O...O.@.O.t.t.t.t.@.h.t.t.t.t.t.j.j.4.t.                                                                          ",
"                                                                            d f k z Z Z C Z C C C C Z Z Z Z Z Z Z Z Z Z Z Z Z ..I D I Z A I t...D D D D D D I D D D D D D I I ..4.4.R                                                                           ",
"                                                                              d d k l l l Z Z n z Z Z C Z A Z z z z z z m Z P c.j.t.I Z I j.x.f.I P D A D I ......I I A P I I R R                                                                               ",
"                                                                                      u e                                                                           6 v                                                                                         ",
"                                                                                        t                                                                         > 6 g                                                                                         ",
"                                                                                        u                                                                         > < u d a                                                                                     ",
"                                                                                        u <                                                                       > 3 6 e 6 > = ,                                                                               ",
"                                                                                        g u                                                                       > 3 t u 7 = o o                                                                               ",
"                                                                                        a j                                                                     t , 3 6 6 , = O . O                                                                             ",
"                                                                                        s t                                                                     < > 3 < < > $ o X >                                                                             ",
"                                                                                        d u                                                                     3 6 6 e e 6 , o + b                                                                             ",
"                                                                                        g u                                                                     6 j e e d b b = ,                                                                               ",
"                                                                                        g a                                                                     t J   u d b B 6 d                                                                               ",
"                                                                                        h a                                                                   0 a L                                                                                             ",
"                                                                                        j a y                                                                 0 g                                                                                               ",
"                                                                                          a a                                                                 e v                                                                                               ",
"                                                                                          a t                                                                 e H                                                                                               ",
"                                                                                          a t                                                                 t U                                                                                               ",
"                                                                                          s t                                                                 u >.                                                                                              ",
"                                                                                          g t     <                                                         t s z.                                                                                              ",
"                                                                                          j t   > >                                                   = g   q j                                                                                                 ",
"                                                                                            t   = >                                                   = t   0 N                                                                                                 ",
"                                                                                            t t = >                                                   % 3   0 U                                                                                                 ",
"                                                                                            t t -                                                     $ < c t >.                                                                                                ",
"                                                                                            t t >                                                       , d a                                                                                                   ",
"                                                                                            y t ,                                                       = 0 g                                                                                                   ",
"                                                                                            a t 2                                                       = 0 v                                                                                                   ",
"                                                                                              t 0                                                       > 0 H                                                                                                   ",
"                                                                                              0 y                                                       6 t                                                                                                     ",
"                                                                                              <                                                         6 e                                                                                                     ",
"                                                                                              ;                                                         = <                                                                                                     ",
"                                                                                            > >                                                           >                                                                                                     ",
"                                                                                            > >                                                           =                                                                                                     ",
"                                                                                            = ,                                                           % u                                                                                                   ",
"                                                                                            - ,                                                           % e                                                                                                   ",
"                                                                                            >                                                             % 6                                                                                                   ",
"                                                                                            -                                                             - 6                                                                                                   ",
"                                                                                            >                                                             > 6                                                                                                   ",
"                                                                                            1 >                                                           , u                                                                                                   ",
"                                                                                            e , #                                                       > e B                                                                                                   ",
"                                                                                              u e 3 , > > - > > > > = % % % %                       > 3 d L                                                                                                     ",
"                                                                                                M M G H G N N N M M v c c x c c h g g h h h g g d h N R d.                                                                                                      ",
"                                                                                                      $.$.2.$.K K K K K M K F K K U $.$.=.$.$.$.$.2.>.d.                                                                                                        ",
"                                                                                                                                                                                                                                                                "
};
