/* XPM */
static char *pc_table_1[] = {
/* columns rows colors chars-per-pixel */
"128 128 137 2 ",
"   c #FF00FF",
".  c #040405",
"X  c #060709",
"o  c #0A0A0C",
"O  c #0F0E11",
"+  c #121315",
"@  c #15161A",
"#  c #18171C",
"$  c #17181C",
"%  c #1A1A1E",
"&  c #201E1D",
"*  c #1D1D21",
"=  c #201F23",
"-  c #1F2023",
";  c #222225",
":  c #292622",
">  c #2C2925",
",  c #25252A",
"<  c #28272C",
"1  c #27282B",
"2  c #2B2B2D",
"3  c #312E2C",
"4  c #33312E",
"5  c #2D2E32",
"6  c #2E3134",
"7  c #333333",
"8  c #393734",
"9  c #3B3A35",
"0  c #333539",
"q  c #36383C",
"w  c #3D3C3A",
"e  c #413D36",
"r  c #413E38",
"t  c #44413B",
"y  c #4A453D",
"u  c #4F493F",
"i  c #3B3D42",
"p  c #3E4144",
"a  c #3F4248",
"s  c #434345",
"d  c #4E4A40",
"f  c #42454A",
"g  c #46494D",
"h  c #4B4C4C",
"j  c #524E43",
"k  c #555043",
"l  c #555145",
"z  c #545046",
"x  c #555146",
"c  c #54534D",
"v  c #575148",
"b  c #5A554C",
"n  c #4D4F51",
"m  c #4B4D52",
"M  c #4D5153",
"N  c #4E5256",
"B  c #4E5256",
"V  c #505356",
"C  c #515253",
"Z  c #5E5C57",
"A  c #52555A",
"S  c #525559",
"D  c #55585B",
"F  c #56595D",
"G  c #5A5C5E",
"H  c #5B5C5D",
"J  c #625B4F",
"K  c #615D51",
"L  c #615F57",
"P  c #655E55",
"I  c #626057",
"U  c #666257",
"Y  c #656059",
"T  c #6A655D",
"R  c #565A62",
"E  c #595E63",
"W  c #5E6265",
"Q  c #5F656B",
"!  c #606366",
"~  c #626465",
"^  c #6A6962",
"/  c #6C6B66",
"(  c #616569",
")  c #636668",
"_  c #646668",
"`  c #646769",
"'  c #62666A",
"]  c #67696C",
"[  c #66696B",
"{  c #696D6F",
"}  c #6B6D6C",
"|  c #736F6A",
" . c #747066",
".. c #72716D",
"X. c #676B71",
"o. c #696E72",
"O. c #6B6F72",
"+. c #696E72",
"@. c #6E7072",
"#. c #6E7175",
"$. c #6F7578",
"%. c #6E737A",
"&. c #747472",
"*. c #787773",
"=. c #7D7B71",
"-. c #7A7A77",
";. c #71757B",
":. c #777C7D",
">. c #7E7D7A",
",. c #828078",
"<. c #86847A",
"1. c #83837D",
"2. c #8A877D",
"3. c #89867E",
"4. c #727982",
"5. c #7B7F82",
"6. c #898780",
"7. c #8A8881",
"8. c #8D8A81",
"9. c #8E8B82",
"0. c #8F8D84",
"q. c #8C8A84",
"w. c #80878D",
"e. c #8E8E8A",
"r. c #918E84",
"t. c #91908B",
"y. c #949289",
"u. c #95938B",
"i. c #95938B",
"p. c #99978E",
"a. c #848C92",
"s. c #898F94",
"d. c #8A9296",
"f. c #999792",
"g. c #9F9F98",
"h. c #9C9C98",
"j. c #A2A19A",
/* pixels */
"                                                                                                                                                                                                                                                                ",
"                                                                                                                                                                                                                                                                ",
"                                                                                                                                                                                                                                                                ",
"                                                                                                                                                                                                                                                                ",
"                                                                                                                                                                                                                                                                ",
"                                                                                                                                                                                                                                                                ",
"                                                                                                                                                                                                                                                                ",
"                                                                                                                                                                                                                                                                ",
"                                                                                                                                                                                                                                                                ",
"                                                                                                                                                                                                                                                                ",
"                                                                                                                                                                                                                                                                ",
"                                                                                                                                                                                                                                                                ",
"                                                                                                                                                                                                                                                                ",
"                                                                                                                                                                                                                                                                ",
"                                                                                                                                                                                                                                                                ",
"                                                                                                                                                                                                                                                                ",
"                                                                                                                                                                                                                                                                ",
"                                                                                                                                                                                                                                                                ",
"                                                                                                                                                                                                                                                                ",
"                                                                                                                                                                                                                                                                ",
"                                                                                                                                                                                                                                                                ",
"                                                                                                                                                                                                                                                                ",
"                                                                                                                                                                                                                                                                ",
"                                                                                                                                                                                                                                                                ",
"                                                                                                                                                                                                                                                                ",
"                                                                                                                                                                                                                                                                ",
"                                                                                                                                                                                                                                                                ",
"                                                                                                                                                                                                                                                                ",
"                                                                                                                                                                                                                                                                ",
"                                                                                                                                                                                                                                                                ",
"                                                                                                                                                                                                                                                                ",
"                                                                                                                                                                                                                                                                ",
"                                                                                                                                                                                                                                                                ",
"                                                                                                                                                                                                                                                                ",
"                                                                                                                                                                                                                                                                ",
"                                                                                                                                                                                                                                                                ",
"                                                                                                                                                                                                                                                                ",
"                                                                                                                                                                                                                                                                ",
"                                                                                                                                                                                                                                                                ",
"                                                                                                                                                                                                                                                                ",
"                                                                                                                                                                                                                                                                ",
"                                                                                                                                                                                                                                                                ",
"                                                                                                                                                                                                                                                                ",
"                                                                                                                                                                                                                                                                ",
"                                                                                                                                                                                                                                                                ",
"                                                                                                                                                                                                                                                                ",
"                                                                                                                                                                                                                                                                ",
"                                                                                                                                                                                                                                                                ",
"                                                                                                                                                                                                                                                                ",
"                                                                                                                                                                                                                                                                ",
"                                                                                                                                                                                                                                                                ",
"                                                                                                                                                                                                                                                                ",
"                                                                                                                                                                                                                                                                ",
"                                                                                                                                                                                                                                                                ",
"                                                                                                                                                                                                                                                                ",
"                                                                                                                                                                                                                                                                ",
"                                                                                                                                                                                                                                                                ",
"                                                                                                                                                                                                                                                                ",
"                                                                                                                                                                                                                                                                ",
"                                                                                                                                                                                                                                                                ",
"                                                                                                                                                                                                                                                                ",
"                                                                                                                                                                                                                                                                ",
"                                                                                                                                                                                                                                                                ",
"                                                                                                                                                                                                                                                                ",
"                                                                                                                                                                                                                                                                ",
"                                                                                                                                                                                                                                                                ",
"                                                                                                                                  M i 6 , * ,                                                                                                                   ",
"                                                                                                                          #.F i 5 < < < , , , $ $ &                                                                                                             ",
"                                                                                                                      ' m 0 , , , 1 < < < < < < < , , , ,                                                                                                       ",
"                                                                                                                ] H s < $ * , , , , , 1 < < < < < < 0 0 0 4 < < 4                                                                                               ",
"                                                                                                          ' ' M 0 * $ $ $ * , , , , 1 1 < < < < 0 0 0 9 9 t t t r 9 4 :                                                                                         ",
"                                                                                                      #.~ p , + + + + $ $ * , , , , , 1 1 < < 4 0 0 8 9 9 t y d j j j e 4                                                                                       ",
"                                                                                                +.+.A 0 * + + + $ $ * * $ * , , , , 1 1 < < < < 0 0 9 9 w t y d j x x x L                                                                                       ",
"                                                                                            ;.' f , + + + + $ $ $ $ * * $ = , , , , 1 < < < < < < 0 9 9 r t y u j j L -.0.                                                                                      ",
"                                                                                        +.C 0 * + + + + + + $ + + $ * * $ = , , , , 1 < < < < < 4 0 9 9 w t t y x  .2.2.y.                                                                                      ",
"                                                                                      i , + + + + + + + + + + + + + $ $ $ * , , , , 1 < < < < 4 0 0 9 9 r r t I <.0.0.g.                                                                                        ",
"                                                                                      = + + + + + + + + + + + + $ $ $ $ $ * * , , , , < < < < 0 0 0 9 9 9 j -.r.0.p.                                                                                            ",
"                                                                                      o + # + + + + + $ + $ $ * * * * $ $ * - , , , 1 < < < < 0 0 0 0 t / 0.y.y.j.                                                                                              ",
"                                                                                      . . O $ $ $ + + $ $ * * * * * * * * , , , , 1 < < < < < 0 0 0 c ,.p.y.g.                                                                                                  ",
"                                                                                      . . . o + * * $ * * * * * * * * , , , , , , < < < 5 6 < < t  .y.  e.-.                                                                                                    ",
"                                                                                          . . . o + $ * * * * * * * * , , , , , , < < 5 0 < 0 H 0.    ] C 0 $ +                                                                                                 ",
"                                                                                              o o o O $ = * * * * * * = , , , , , < < < < h >.0.6.  < 5 p 6 + X +                                                                                               ",
"                                                                                                $ X . o + * * * * * , = , , , 1 < < < w / 0.<.<.&.< , + < 0 5 0 C                                                                                               ",
"                                                                                                  # o X . o $ , , - , , , , 1 < , < C >.<.>.-.&.  , m , $ 0 h ~ >.                                                                                              ",
"                                                                                                    < $ + . X + * , , , , , , < s  .<.-.&.&.      0 ~ 5.H C ~ >.                                                                                                ",
"                                                                                                      0 h $ o . o $ , 5 0 s H &.>.-. . .]         < :.                                                                                                          ",
"                                                                                                      0 W     + o + , 0 i C / | ]  .]             6 :.                                                                                                          ",
"                                                                                                      5 H       , * , < 0 s Z / ]                 0                                                                                                             ",
"                                                                                                      < H             p g A ~                     q                                                                                                             ",
"                                                                                                      < H                                         i                                                                                                             ",
"                                                                                                      < F                                         p                                                                                                             ",
"                                                                                                      , A                                         p                                                                                                             ",
"                                                                                                      , C                                         g                                                                                                             ",
"                                                                                                        m                                         m                                                                                                             ",
"                                                                                                        m                                         m                                                                                                             ",
"                                                                                                        f E                                       M                                                                                                             ",
"                                                                                                        s E                                     5 A                                                                                                             ",
"                                                                                                        s '                                     5 m                                                                                                             ",
"                                                                                                        q E                         1           5 M                                                                                                             ",
"                                                                                                        0 E                         , *         5 E                                                                                                             ",
"                                                                                                        0 F                           0 $ ,     6 +.                                                                                                            ",
"                                                                                                        0 F                               * + p 0                                                                                                               ",
"                                                                                                        0 E                                 < + 1                                                                                                               ",
"                                                                                                        0 A                                   i , 1                                                                                                             ",
"                                                                                                        0 m                                       , $ s                                                                                                         ",
"                                                                                                        i g                                         0 * q                                                                                                       ",
"                                                                                                        i f                                           g * 0                                                                                                     ",
"                                                                                                          p                                             w $ h                                                                                                   ",
"                                                                                                          i $.                                            & q                                                                                                   ",
"                                                                                                          i ;.                                            : s                                                                                                   ",
"                                                                                                          q X.                                          t 0                                                                                                     ",
"                                                                                                          q E                                         u 8 ]                                                                                                     ",
"                                                                                                          q R                                       j 9 ]                                                                                                       ",
"                                                                                                          q R                                     L 9 ] s.                                                                                                      ",
"                                                                                                    +     i A                                   L 8 ] d.                                                                                                        ",
"                                                                                                      +   f m                                 J 8 ] a.                                                                                                          ",
"                                                                                                        $ 0 g                               c 0 ' a.                                                                                                            ",
"                                                                                                          < f                             b 4 W w.                                                                                                              ",
"                                                                                                          < 0                           Y 4 W w.                                                                                                                ",
"                                                                                                            * 1                     g.I < W a.                                                                                                                  ",
"                                                                                                            < + 5                 f.Y 3 W a.                                                                                                                    ",
"                                                                                                              , $ 0             y.T < E a.                                                                                                                      ",
"                                                                                                                * $ i           T > F a.                                                                                                                        ",
"                                                                                                                  , * 0       9 3 E a.                                                                                                                          ",
"                                                                                                                    < , < 0 q p Q 4.                                                                                                                            ",
"                                                                                                                      0 5 0 a R $.                                                                                                                              ",
"                                                                                                                                                                                                                                                                ",
"                                                                                                                                                                                                                                                                "
};
