/* XPM */
static char *pc_table_2[] = {
/* columns rows colors chars-per-pixel */
"128 128 128 2 ",
"   c #FF00FF",
".  c #040405",
"X  c #060608",
"o  c #0A0A0C",
"O  c #0E0E10",
"+  c #131316",
"@  c #181717",
"#  c #161619",
"$  c #181718",
"%  c #17181B",
"&  c #1B1B1D",
"*  c #201F1F",
"=  c #1E1E20",
"-  c #1F2023",
";  c #222223",
":  c #292726",
">  c #2D2926",
",  c #252629",
"<  c #282728",
"1  c #27292B",
"2  c #2A2A2B",
"3  c #302F2D",
"4  c #36322E",
"5  c #2D2E32",
"6  c #2E3135",
"7  c #333334",
"8  c #3B3630",
"9  c #3F3A33",
"0  c #343639",
"q  c #36393D",
"w  c #3A3B3D",
"e  c #413C36",
"r  c #403E3F",
"t  c #41403E",
"y  c #373A40",
"u  c #3B3E42",
"i  c #3E4145",
"p  c #424344",
"a  c #4D4A44",
"s  c #44464A",
"d  c #46494D",
"f  c #4B4B4D",
"g  c #524D46",
"h  c #514F4C",
"j  c #52514C",
"k  c #5C564C",
"l  c #474C50",
"z  c #4A4E52",
"x  c #4D5155",
"c  c #4E5358",
"v  c #535353",
"b  c #595956",
"n  c #51555A",
"m  c #555A5B",
"M  c #5B5C5C",
"N  c #645D54",
"B  c #625F58",
"V  c #64625C",
"C  c #6A665E",
"Z  c #5C5F61",
"A  c #595E60",
"S  c #5D6062",
"D  c #5D6162",
"F  c #5E6162",
"G  c #5F6163",
"H  c #5A6064",
"J  c #5D6369",
"K  c #636360",
"L  c #626460",
"P  c #616364",
"I  c #616464",
"U  c #606465",
"Y  c #686661",
"T  c #6A6C66",
"R  c #6D6960",
"E  c #646769",
"W  c #60656A",
"Q  c #63686C",
"!  c #6C6C6A",
"~  c #6D6D6B",
"^  c #6F6F6C",
"/  c #737066",
"(  c #71706D",
")  c #70706F",
"_  c #77746E",
"`  c #6A6F71",
"'  c #696F72",
"]  c #6F7171",
"[  c #6C757C",
"{  c #727271",
"}  c #757572",
"|  c #757573",
" . c #747574",
".. c #757471",
"X. c #797772",
"o. c #767873",
"O. c #777876",
"+. c #787875",
"@. c #797977",
"#. c #7C7A76",
"$. c #7E7C76",
"%. c #747B7E",
"&. c #7D7D79",
"*. c #7D7D7A",
"=. c #7A7C7C",
"-. c #7E7F7C",
";. c #7F807E",
":. c #80807E",
">. c #80817F",
",. c #87867D",
"<. c #737B85",
"1. c #7E8180",
"2. c #7C8182",
"3. c #7D848C",
"4. c #818180",
"5. c #818281",
"6. c #828280",
"7. c #818583",
"8. c #868783",
"9. c #828584",
"0. c #878886",
"q. c #878887",
"w. c #8B8B84",
"e. c #8C8F8C",
"r. c #939695",
"t. c #979995",
"y. c #9A9C9B",
"u. c #A8ADAB",
/* pixels */
"                                                                                                                                                                                                                                                                ",
"                                                                                                                                                                                                                                                                ",
"                                                                                                                                                                                                                                                                ",
"                                                                                                                                                                                                                                                                ",
"                                                                                                                                                                                                                                                                ",
"                                                                                                                                                                                                                                                                ",
"                                                                                                                                                                                                                                                                ",
"                                                                                                                                                                                                                                                                ",
"                                                                                                                                                                                                                                                                ",
"                                                                                                                                                                                                                                                                ",
"                                                                                                                                                                                                                                                                ",
"                                                                                                                                                                                                                                                                ",
"                                                                                                                                                                                                                                                                ",
"                                                                                                                                                                                                                                                                ",
"                                                                                                                                                                                                                                                                ",
"                                                                                                                                                                                                                                                                ",
"                                                                                                                                                                                                                                                                ",
"                                                                                                                                                                                                                                                                ",
"                                                                                                                                                                                                                                                                ",
"                                                                                                                                                                                                                                                                ",
"                                                                                                                                                                                                                                                                ",
"                                                                                                                                                                                                                                                                ",
"                                                                                                                                                                                                                                                                ",
"                                                                                                                                                                                                                                                                ",
"                                                                                                                                                                                                                                                                ",
"                                                                                                                                                                                                                                                                ",
"                                                                                                                                                                                                                                                                ",
"                                                                                                                                                                                                                                                                ",
"                                                                                                                                                                                                                                                                ",
"                                                                                                                                                                                                                                                                ",
"                                                                                                                                                                                                                                                                ",
"                                                                                                                                                                                                                                                                ",
"                                                                                                                                                                                                                                                                ",
"                                                                                                                                                                                                                                                                ",
"                                                                                                                                                                                                                                                                ",
"                                                                                                                                                                                                                                                                ",
"                                                                                                                                                                                                                                                                ",
"                                                                                                                                                                                                                                                                ",
"                                                                                                                                                                                                                                                                ",
"                                                                                                                                                                                                                                                                ",
"                                                                                                                                                                                                                                                                ",
"                                                                                                                                                                                                                                                                ",
"                                                                                                                                                                                                                                                                ",
"                                                                                                                                                                                                                                                                ",
"                                                                                                                                                                                                                                                                ",
"                                                                                                                                                                                                                                                                ",
"                                                                                                                                                                                                                                                                ",
"                                                                                                                                                                                                                                                                ",
"                                                                                                                                                                                                                                                                ",
"                                                                                                                                                                                                                                                                ",
"                                                                                                                                                                                                                                                                ",
"                                                                                                                                                                                                                                                                ",
"                                                                                                                                                                                                                                                                ",
"                                                                                                                                                                                                                                                                ",
"                                                                                                                                                                                                                                                                ",
"                                                                                                                                                                                                                                                                ",
"                                                                                                                                                                                                                                                                ",
"                                                                                                                                                                                                                                                                ",
"                                                                                                                                                                                                                                                                ",
"                                                                                                                                                                                                                                                                ",
"                                                                                                                                                                                                                                                                ",
"                                                                                                                                                                                                                                                                ",
"                                                                                                                                                                                                                                                                ",
"                                                                                                                                                                                                                                                                ",
"                                                                                                                                                                                                                                                                ",
"                                                                                                                      ; q A ` `                                                                                                                                 ",
"                                                                                                                % # % % = = ; 5 f M                                                                                                                             ",
"                                                                                                          % % % % = ; * % % % % % > b M p                                                                                                                       ",
"                                                                                                  ; = % % % = % = * ; * = % % % # @ % 5 b M s                                                                                                                   ",
"                                                                                            ; ; ; ; ; = = = = = = = * * % % % % # # @ @ # 5 b H s                                                                                                               ",
"                                                                                      % ; ; ; ; ; ; ; ; = = = = = = % % % % % % # @ # @ @ @ # 0 M A p                                                                                                           ",
"                                                                                    @ ; > > > ; ; ; ; ; * = % % % % % % % % % % % # # @ @ @ @ @ % 0 M H                                                                                                         ",
"                                                                                    ; 3 3 > > ; ; ; ; ; % % % % % = = = = % % % % # # # @ @ @ @ @ @ % q H H q                                                                                                   ",
"                                                                                    a > > > > ; ; ; ; ; ; % % % % % ; ; = = = % % % % # @ @ @ @ @ @ @ @ % q H A 7                                                                                               ",
"                                                                                    } h : > > > ; ; ; ; = = = = = ; ; = = = % = % % % % # @ @ @ @ @ @ @ @ @ = i W H                                                                                             ",
"                                                                                    &.} b ; ; , ; ; ; = = = = = ; ; ; * = = = % % % % % % @ @ @ @ @ @ @ @ @ # # ; s L 7                                                                                         ",
"                                                                                      2.} b ; * ; * ; ; ; ; ; ; ; ; ; = = % = % % # % # % # @ @ @ @ @ @ @ @ @ # # @ ; 7 %                                                                                       ",
"                                                                                        8.o.M ; * ; ; ; ; ; = = = = = = % % % % % % % # % % % % @ @ @ @ # @ @ @ # @ # ; @                                                                                       ",
"                                                                                          8.$.L : % ; ; ; ; ; = = % % % % % % = % % % % % % % % @ @ @ @ @ # @ @ @ @ @ o                                                                                         ",
"                                                                                            8.8.~ > % ; ; ; ; = ; ; = = = = % = % % % % % % % # @ @ @ @ @ @ @ @ @ o X .                                                                                         ",
"                                                                                              r.w.~ > % ; ; ; ; ; ; ; = = = = = = = = % % % % # # @ @ @ # @ @ o X . .                                                                                           ",
"                                                                                                e.,.} 7 % ; ; ; ; ; ; ; ; = = = = = = % % % % % # @ @ @ @ O X . X @                                                                                             ",
"                                                                                                    q.} 7 % ; ; ; ; ; ; ; ; = = = = = % % % % % % # @ O o . o % p                                                                                               ",
"                                                                                                      ,.$.q % ; ; ; ; ; ; ; ; = ; = = = % % % % # @ o o o % r                                                                                                   ",
"                                                                                                        ;.&.t % ; ; ; ; ; ; ; ; ; ; ; ; = = % @ o o o o @ p                                                                                                     ",
"                                                                                                          ,.&.p % ; ; , , ; ; ; ; ; ; = % @ O o o O O =                                                                                                         ",
"                                                                                                            8.8.f % ; ; , ; ; ; , ; = @ @ o O % 7 , 0                                                                                                           ",
"                                                                                                              ,.8.~ p 7 7 > > > > = # @ @ % 5   b >                                                                                                             ",
"                                                                                                              L } X.$.$._ M p 7 ; % % ; q       j >                                                                                                             ",
"                                                                                                              d M &.Y V V b p 7 > > y           j <                                                                                                             ",
"                                                                                                              z z     o.R L x d f               b ,                                                                                                             ",
"                                                                                                              n y             W                 f ,                                                                                                             ",
"                                                                                                                y                               s ;                                                                                                             ",
"                                                                                                                i                               p ;                                                                                                             ",
"                                                                                                                i                               q >                                                                                                             ",
"                                                                                                                i x                             q >                                                                                                             ",
"                                                                                                                i s                             q =                                                                                                             ",
"                                                                                                                i i                     = , 0 s 0 ;                                                                                                             ",
"                                                                                                                  q             5 p p X X @ ; 6 0 7                                                                                                             ",
"                                                                                                                  q         > 5 d %.= . o % > y y 0                                                                                                             ",
"                                                                                                                  q     > > y       O . . o % < 0 0 z                                                                                                           ",
"                                                                                                                  y 5 , q H         i . . O % - ; ,                                                                                                             ",
"                                                                                                                  6 6 m             ] @ . % ; ; ; =                                                                                                             ",
"                                                                                                              > 5 x                   % @ f s 0 > 7                                                                                                             ",
"                                                                                                          5 5 l                       z y M f q 0 i                                                                                                             ",
"                                                                                                        - q Q                             2.%.%.x d                                                                                                             ",
"                                                                                                      - 0 2.                                    x d                                                                                                             ",
"                                                                                                      % m                                       z i                                                                                                             ",
"                                                                                                      % b                                       z i                                                                                                             ",
"                                                                                                      > 9 ,.                                    d p                                                                                                             ",
"                                                                                                      x > k                                     d s                                                                                                             ",
"                                                                                                        p 4 C                                   s s                                                                                                             ",
"                                                                                                        Q 7 e                                   s s                                                                                                             ",
"                                                                                                          x > j                                 s d                                                                                                             ",
"                                                                                                            q 4 R                               i z                                                                                                             ",
"                                                                                                            J > a                               i x           % @ 0                                                                                             ",
"                                                                                                              c > N                             i s         @ = y                                                                                               ",
"                                                                                                              [ q 8 /                           y       # @ , n                                                                                                 ",
"                                                                                                                J > g                           y c   O @ 7                                                                                                     ",
"                                                                                                                3.z > V                         y 5 O % i                                                                                                       ",
"                                                                                                                  %.7 9 $.                      y ; -                                                                                                           ",
"                                                                                                                    J ; g w.u.                , 5 q                                                                                                             ",
"                                                                                                                    <.s > C t.              ; , p                                                                                                               ",
"                                                                                                                      [ 6 8 _ y.        5 , 5 z                                                                                                                 ",
"                                                                                                                        [ q 4 B }     5 > 0                                                                                                                     ",
"                                                                                                                        <.[ m f f y 0 6 s                                                                                                                       ",
"                                                                                                                            <.[ W z d                                                                                                                           ",
"                                                                                                                                                                                                                                                                "
};
