/* XPM */
static char *piscine_guard_front_right[] = {
/* columns rows colors chars-per-pixel */
"128 128 228 2 ",
"   c #FF00FF",
".  c #060606",
"X  c #0B0B0B",
"o  c #070708",
"O  c #11100F",
"+  c #0F0F10",
"@  c #121212",
"#  c #191917",
"$  c #1C1B1A",
"%  c #181716",
"&  c #0F1010",
"*  c #211F1A",
"=  c #23211E",
"-  c #2A251D",
";  c #252421",
":  c #2B2A26",
">  c #2B2A28",
",  c #312E28",
"<  c #33312C",
"1  c #3A352B",
"2  c #2E353A",
"3  c #2D3133",
"4  c #343534",
"5  c #3C3A35",
"6  c #31363C",
"7  c #34393D",
"8  c #3C3D3C",
"9  c #393631",
"0  c #272C30",
"q  c #413E38",
"w  c #443B2C",
"e  c #3C403D",
"r  c #43423C",
"t  c #49453B",
"y  c #494337",
"u  c #544B3A",
"i  c #5B533E",
"p  c #343C43",
"a  c #393F42",
"s  c #343E49",
"d  c #2F3842",
"f  c #3C4144",
"g  c #36414D",
"h  c #3B444C",
"j  c #3C464C",
"k  c #3B4652",
"l  c #3E4954",
"z  c #3C4D5C",
"x  c #374552",
"c  c #3F505E",
"v  c #3C4F61",
"b  c #3E5162",
"n  c #434543",
"m  c #4C4B44",
"M  c #4C4D4A",
"N  c #454847",
"B  c #524F45",
"V  c #514F48",
"C  c #555246",
"Z  c #5A5445",
"A  c #55534B",
"S  c #5A564A",
"D  c #5D594B",
"F  c #424C54",
"G  c #4B4F51",
"H  c #424E5A",
"J  c #4E5254",
"K  c #44515E",
"L  c #4C545C",
"P  c #475056",
"I  c #515453",
"U  c #5D5B52",
"Y  c #52565A",
"T  c #55595C",
"R  c #5B5C5C",
"E  c #575954",
"W  c #4F504F",
"Q  c #625D4C",
"!  c #645942",
"~  c #635F55",
"^  c #66614D",
"/  c #6A624C",
"(  c #6A6047",
")  c #74654B",
"_  c #7A6A4C",
"`  c #76664A",
"'  c #666154",
"]  c #6B6553",
"[  c #65635B",
"{  c #6D6759",
"}  c #736A54",
"|  c #7B6D53",
" . c #736C5D",
".. c #796F59",
"X. c #726752",
"o. c #7D725C",
"O. c #797058",
"+. c #425464",
"@. c #46586A",
"#. c #4A5B6C",
"$. c #475766",
"%. c #555B62",
"&. c #5B5E63",
"*. c #535E68",
"=. c #4C5E70",
"-. c #5E6165",
";. c #5B6269",
":. c #4F6071",
">. c #516373",
",. c #626466",
"<. c #646669",
"1. c #66696C",
"2. c #6A6C6D",
"3. c #6C6A63",
"4. c #726D62",
"5. c #736E6B",
"6. c #7C7464",
"7. c #74726C",
"8. c #7B756B",
"9. c #7E796D",
"0. c #777264",
"q. c #6B6D71",
"w. c #666B71",
"e. c #6E7173",
"r. c #6D7479",
"t. c #737474",
"y. c #7A7673",
"u. c #7B7A74",
"i. c #737679",
"p. c #77797B",
"a. c #7C7B7B",
"s. c #777877",
"d. c #847355",
"f. c #8A7655",
"g. c #8C7957",
"h. c #84755B",
"j. c #897759",
"k. c #86795D",
"l. c #8B7B5C",
"z. c #927E5C",
"x. c #82704E",
"c. c #827661",
"v. c #847A63",
"b. c #8B7D63",
"n. c #857D6C",
"m. c #897D6A",
"M. c #81776A",
"N. c #917F62",
"B. c #837E74",
"V. c #807E7C",
"C. c #7F807B",
"Z. c #95805C",
"A. c #9A835C",
"S. c #8F8164",
"D. c #8B816C",
"F. c #87806C",
"G. c #938365",
"H. c #948669",
"J. c #96896C",
"K. c #9A8C6D",
"L. c #9C8863",
"P. c #8C8472",
"I. c #83817C",
"U. c #8D8B7C",
"Y. c #898477",
"T. c #948A74",
"R. c #9B8E73",
"E. c #948C7B",
"W. c #968B79",
"Q. c #9C937B",
"!. c #9C9176",
"~. c #A38C63",
"^. c #A48E68",
"/. c #AC946A",
"(. c #A89168",
"). c #B39A6D",
"_. c #B5996B",
"`. c #A6997A",
"'. c #B99E71",
"]. c #BCA275",
"[. c #BEA06F",
"{. c #C7A978",
"}. c #7B7E82",
"|. c #747A83",
" X c #817F80",
".X c #7E8387",
"XX c #7B879B",
"oX c #7E8CA2",
"OX c #848383",
"+X c #8D8C84",
"@X c #8B8C8B",
"#X c #858686",
"$X c #928E84",
"%X c #908F8A",
"&X c #8E908D",
"*X c #949085",
"=X c #92928B",
"-X c #9B958A",
";X c #9D9687",
":X c #8C8F91",
">X c #8E9194",
",X c #8D9298",
"<X c #939494",
"1X c #999793",
"2X c #9C9A94",
"3X c #949699",
"4X c #96989B",
"5X c #9B9C9B",
"6X c #A29A8C",
"7X c #A39A83",
"8X c #A29D94",
"9X c #A19F9A",
"0X c #ACA389",
"qX c #B2A789",
"wX c #A3A29D",
"eX c #AAA492",
"rX c #979DA4",
"tX c #9CA2A9",
"yX c #9EA8B2",
"uX c #A4A5A4",
"iX c #A1A6AB",
"pX c #A9ABAC",
"aX c #A4ABB3",
"sX c #AEB4BC",
"dX c #9FA09F",
"fX c #D6B885",
"gX c #CDB283",
"hX c #E2C38E",
/* pixels */
"                                                                                                                                                                                                                                                                ",
"                                                                                                                                                                                                                                                                ",
"                                                                                                                                                                                                                                                                ",
"                                                                                                                                                                                                                                                                ",
"                                                                                                                                                                                                                                                                ",
"                                                                                                                                                                                                                                                                ",
"                                                                                                                                                                                                                                                                ",
"                                                                                                                                                                                                                                                                ",
"                                                                                                                                                                                                                                                                ",
"                                                                                                                                                                                                                                                                ",
"                                                                                                                                                                                                                                                                ",
"                                                                                                                                                                                                                                                                ",
"                                                                                                          ~._.{.{.hXhX                                                                                                                                          ",
"                                                                                                      d.f.z.~./.'.{.{.fXfXfXfXfXfXgX{.].'.'.].                                                                                                                  ",
"                                                                                                    | | x.f.z.L.(./.'.[.{.{.{.{.{.{.{.].].].'.'.].                                                                                                              ",
"                                                                                            ^.L.h.) ) X.| d.j.z.A.~.~./._._.'.'.'.'.'.'.'.'._._._.'.                                                                                                            ",
"                                                                                        c.v.O.] Q / ) X.| | d.j.z.Z.L.~.~.(.(.(.(._._._._._._._._._.(.                                                                                                          ",
"                                                                                    {  . .~ U S D Q Q / / X.X.| d.h.l.G.L.L.~.~.(.(.(.(.(.(.(.(.(.)._.(.d.!                                                                                                     ",
"                                                                                R [ [ U A M W M V A S S S S S D Q / ] X.X.O.h.k.l.l.G.G.L.L.L.^.(.(.(.^.L.z._ i u                                                                                               ",
"                                                                            T R R T J M M M F M n m M m A A m m B A S S S D Q Q Q ] ] X.| | O.h.k.v.v.O./ k.G.d./ i u                                                                                           ",
"                                                                        T T T T J J G Y G M N F m m M m m D A A B A D D D D Q Q Q ^ ^ ] ] ] X.] X.X.] C S X.k.v.l.O.( i i                                                                                       ",
"                                                                      %.T T T T Y J G Y M F N h G I I I A U U U A S S Q ' ~ X.X.] ] X.X. . .X.X.X.] D B m ] X.X.O.O.O.X.! i i                                                                                   ",
"                                                                  $.$.J T %.%.Y Y T J R J G F H H H F F l h h h p 7 6 f h N n n n n m m B D ~ ] ] ] Q n 5 Q ] ] ] X.X.X.X./ ! i                                                                                 ",
"                                                                $.J J J %.%.&.T T %.K F k F K +.K K H F k h g s p 2 p h h f f p p 7 2 3 0 2 7 p a f f 7 9 y S Q ] X.] ^ ^ ^ Q ! Z Z                                                                             ",
"                                                                  %.F J %.%.*.+.z z l k H +.$.+.K K H H l k h p d p h h h h a p p p p 6 2 7 7 7 7 7 7 7 6 3 n m Q ] / ^ ^ D Q D Z Z Z                                                                           ",
"                                                                  ;.J J *.$.+.v z z l c #.#.#.+.+.+.K z l k g p d h k h h h 7 p f p p 7 2 6 7 7 7 7 7 7 3 , n M A A S Q / Q Q C Z C C Z D                                                                       ",
"                                                                  K H b +.+.+.b z z K #.#.#.@.+.+.b z z l k g p p l l l h h 7 f f p p p 7 2 6 6 6 7 8 9 9 , 8 M A D Q D Q Q ^ D D C A A m                                                                       ",
"                                                                    z z v b b b z +.#.#.#.@.$.+.+.b b z z k g p g l l l k h f p p p p a 7 2 2 6 7 a 6 9 8 9 5 m m C C S Q ' ] X.] Q C N                                                                         ",
"                                                                    v v z v b v b #.=.#.#.#.@.@.$.+.+.z l k g s k l l l l F f p p p a f 6 2 2 7 f 7 7 f n 5 5 n y m D Q ' ] .. .{ S m m                                                                         ",
"                                                                      b b z z b #.=.=.#.#.#.@.$.+.b z z z k g g l H F l h h n p h h p p 6 2 7 f a 7 n N m 8 5 y y ] ~.g.f.d.O. .{ A m                                                                           ",
"                                                                        b v z #.>.:.=.@.@.$.+.+.+.b b z z k g l H F l h g p a F h 7 p a 2 6 f f 7 N M M M y y n e v./.f.d.d. .4. .'                                                                             ",
"                                                                          b b #.>.>.:.=.@.@.$.+.+.b v z z k k H l k h s h h 7 f 7 7 a f 7 a n 8 N A A A A n y m 5 G.~.A.A.d.[ 8.8.                                                                              ",
"                                                                              $.#.:.#.#.#.#.#.$.+.+.b z z x l l k h h j F F a 6 7 f f f 7 f e N A A A I U m m ] ] ^.A.A.A.| ~ Y.                                                                                ",
"                                                                                #.:.#.#.:.#.#.#.@.+.+.z z k l l k k F h p J M a F F a f 7 e n I E U [ 4.9.n.D.T.!.(.A.A.A.X.U                                                                                   ",
"                                                                                        #.@.#.#.$.#.+.z H H l l F F j h f ,.3.U A n a 8 f I 3.7.u.Y.P.Y.Y.Y.T.T.!.L.Z.Z.Z.X.                                                                                    ",
"                                                                                                  $.+.z K H H F J P F F J e.0.[ A E ,.t.I.+X+X+XU.U.U.U.U.Y.E.T.!.L.Z.Z.Z.                                                                                      ",
"                                                                                                            ;.J J J -.%.-.a.0.{ [ u.+X=X=X*X*X$X+XU.U.U.U.U.U.E.W.Z.z.z.z.                                                                                      ",
"                                                                                                                      r..XOX0. .{ C.+X=X=X=X*X+X+X+X+XU.U.U.U.E.W.z.z.z.z.                                                                                      ",
"                                                                                                                          I.0. .{ I.+X&X=X=X=X+X+X+X+X+XU.U.U.E.K.g.z.l.l.                                                                                      ",
"                                                                                                                          B.0.X.{ I.@X=X=X=X=X=X=X*X$X+X+X+XU.E.G.g.l.l.l.                                                                                      ",
"                                                                                                                        4X9.0.X. .I.&X=X<X<X=X=X=X=X=X=X$X+X+XE.z.g.l.g.l.                                                                                      ",
"                                                                                                                        <X8.0.X. .OX&X<X$XE.$X$X*X*X=X=X=X*X$XW.l.l.g.g.                                                                                        ",
"                                                                                                                        @X0.0.X. .OX&X=Xm._ ) ) _ | h.h.O.M.v.v.f.l.g.g.                                                                                        ",
"                                                                                                                        +X0.0.X. .OX&X@Xv._ _ _ _ _ ) ) ) ) ) ) d.l.f.d.                                                                                        ",
"                                                                                                    e.3.4. .4.4.4.4.0.9.9.0.O.X. .I.@X+Xj.f.d.f.f.f.f.f.d.d.h.l.l.f.d.d.                                                                                        ",
"                                                                                                    7.0.0.0.0.0.0.0.0.0.0.0.O.X. .7.a.Y.l.g.f.g.g.f.j.l.l.l.l.l.j.h.h.h.                                                                                        ",
"                                                                                                    7.0.0.0.0.0.0.0.0.M.c.0.O.X.X. .8.Y.l.z.z.l.l.l.l.l.l.l.l.j.d.d.h.h.                                                                                        ",
"                                                                                                    7.0.0.0.0.c.0.0.0.0.0.O.| X.X.X.0.P.l.z.z.l.l.l.l.l.l.l.j.h.d.d.d.d.                                                                                        ",
"                                                                                                  }.0.0.0.0.0.0.0.0.c.c.0.O.X.X.X.X.0.D.z.z.G.l.z.l.l.l.l.l.l.h.h.h.h.h.                                                                                        ",
"                                                                                                  }.0.0.0.0.0.0.0.0.c.c.O...X.X.X.X.M.D.z.G.N.N.G.N.l.l.l.l.l.h.h.h.h.h.                                                                                        ",
"                                                                                                  a.0.B.B.B.I.I.I.Y.Y.Y.B.B.n.n.Y.Y.Y.H.Z.G.N.N.N.N.v.l.l.l.l.l.h.h.h.                                                                                          ",
"                                                                                                  u.8.@X>X3X3X4XrX4X3X3X<X<X<X<X=X=X$Xv.G.N.G.N.G.N.N.v.v.l.l.l.k.k.k.                                                                                          ",
"                                                                                                  u.u.:X>X>X<X<X3X3X<X<X<X<X1X<X=X=XE.v.G.G.G.G.G.N.N.v.v.l.l.l.k.l.l.                                                                                          ",
"                                                                                                  u.a.:X>X<X<X<X<X<X<X<X<X<X<X<X<X=XU.N.G.G.G.G.G.G.G.v.v.v.v.l.l.l.l.v.                                                                                        ",
"                                                                                                  9.I.:X<X<X<X<X<X<X<X<X<X=X<X=X=X=XP.G.G.G.G.G.G.G.G.v.N.v.v.l.l.l.v.v.                                                                                        ",
"                                                                                                  9.OX:X<X3X3X3X4X3X<X<X=X@X%X%X=X$XD.G.G.G.G.G.G.G.G.G.G.G.v.l.v.v.S.S.                                                                                        ",
"                                                                                                OX9.@X>X3X3X3X4X4X3X<X<X=X=X=X=X=X$XH.G.G.G.G.G.G.G.G.G.G.G.G.S.S.S.G.G.                                                                                        ",
"                                                                                                OX9.@X>X3X<X4X4X4X4X4X<X=X=X=X=X=X$XG.G.G.H.H.H.J.H.H.G.G.G.G.S.G.G.G.G.                                                                                        ",
"                                                                                                I.u.>X<X<X4X4X4X4X4X4X1X<X=X=X=X=XE.G.G.H.H.H.H.J.H.H.G.G.G.S.S.G.G.G.J.                                                                                        ",
"                                                                                                I.B.<X<X4X4X4X4X4X4X4X1X<X<X=X=X=XE.G.G.H.H.H.H.J.K.J.H.H.G.G.H.J.J.J.J.                                                                                        ",
"                                                                                                    I.t.t.a.OX@X<X<X4X2X1X1X1X=X*XT.G.J.J.K.K.K.K.K.K.K.R.K.K.K.J.H.H.H.                                                                                        ",
"                                                                                                  tXOX3.,.-.&.&.-.,.<.2.t.u.I.I.E.P.G.K.K.K.H.G.v.h...] Q Z y q y O.M.                                                                                          ",
"                                                                                                  aXI.3.,.,.<.<.,.&.R T Y Y T R B.P.M.M.u , : = $ % @ @ & o o o ; M.J.                                                                                          ",
"                                                                                                  aX<XOXt.2.<.,.-.&.R T T T R R E.Q.v.m.: + @ @ @ @ @ @ @ @ @ o ; v.W.T.                                                                                        ",
"                                                                                                uX4X4XuX4X4X<XOXs.2.,.R Y Y T ,.-X;XJ.v.= @ @ @ @ @ @ @ @ @ @ @ $ M.`.W.                                                                                        ",
"                                                                                                dX4X4X4XwX9XwXwXwX4X1X%XI.a.7.t.8XQ.K.O.$ @ @ @ @ @ @ @ @ @ @ @ $ O.`.`.                                                                                        ",
"                                                                                                  <X%X1X4X9X9X9X9X8X8X8X8X8X8X-X;XJ.K.] @ @ @ @ @ @ @ @ @ @ @ @ % ..`.`.                                                                                        ",
"                                                                                                  <X7.t.s.OX+X1X8X8X8X8X-X-X6X;XT.H.W.Z @ @ @ @ @ @ @ @ @ @ @ @ @ X.`.`.                                                                                        ",
"                                                                                                  =Xy.t.2.q.q.t.a.I.$X-X6X6X6X;XH.J.W.y @ @ @ @ @ @ @ @ @ @ @ @ O / `.`.                                                                                        ",
"                                                                                                pX+Xu.t.e.q.q.q.1.2.2.2.t.V.U.Q.H.J.W.9 @ @ @ @ @ @ @ @ + @ & o o D `.0X                                                                                        ",
"                                                                                                pXOXu.t.t.t.e.q.2.1.1.2.<.,.2.E.T.K.H.; @ @ @ @ + @ @ @ $ $ : 8 @ B 0XqX                                                                                        ",
"                                                                                                pXI.u.t.t.s.t.e.2.1.<.,.2.2.t.;XQ.K.M.$ @ % $ ; 9 y y A U A y B O y 7XqX                                                                                        ",
"                                                                                                uXV.u.t.p.a.a.t.q.1.<.,.,.<.u.6XQ.W.X.$ q B ~ { [ ' S m 5 : $ $ o 9 `.qX                                                                                        ",
"                                                                                                wXu.u.t.s.a.a.y.t.2.<.,.,.,.V.6XW.W.Z $ m m q < : $ @ + o o o o o : `.qX                                                                                        ",
"                                                                                              sX4Xu.t.t.p.a.a.t.t.q.1.,.-.-.Y.6XK.W.y @ $ @ @ o o o & @ @ ; < % o = !.qX                                                                                        ",
"                                                                                              pXtX@Xt.1.2.2.e.2.2.2.1.,.-.-.$X7XJ.W.< @ @ $ @ * : 9 y 5 n A ' $ o $ T.qX                                                                                        ",
"                                                                                              pXuXuX4X@Xt.2.,.,.<.<.<.<.<.,.-X7XK.H.; @ $ q 5 U U C S m 9 : $ o o @ n.qX                                                                                        ",
"                                                                                              pXuXuXuXuXwX<XI.2.,.,.<.1.<.2.6XQ.W.M.$ @ : S 5 q < ; $ @ o o @ @ o O ..qX                                                                                        ",
"                                                                                              uX<X4XuXwXwXwXwX8X+Xu.2.1.<.t.6XQ.W. .@ @ % $ @ @ o o o @ @ ; y m ; o ] qXqX                                                                                      ",
"                                                                                              uXC.a.#X2XwXwXwXwX8X8X-XOXt.a.6XW.!.Q @ @ @ @ @ % = : 9 V U S U m $ o S qXqX                                                                                      ",
"                                                                                              4XI.a.e.p.OX2XwX8X8X8XeXeX6X-X7XT.!.t + $ , 9 m A { ' U A 5 9 $ & o o t qXqX                                                                                      ",
"                                                                                              4XI.a.p.p.p.p.}.%X2X8X6X8X6X-XT.T.T.9 @ A 4.U A m 5 ; $ o o o o o o o 5 7XqX                                                                                      ",
"                                                                                            sX<XC.s.s.s.p.r.q.w.t.OX-X6X6X;XH.T.D.: @ , : = $ @ o o o @ = < , o o o , Q.qX                                                                                      ",
"                                                                                            aX&XC.s.s.}.a.r.q.w.<.<.2.I.*XQ.H.T.n.$ @ @ @ o & @ $ , y M [ U 5 o o o ; E.qX                                                                                      ",
"                                                                                            aX@Xa.p.s.}.}.s.q.1.;.-.-.,.t.E.D.T. .@ @ @ @ , q n n U m y < $ @ o o o $ P.qX                                                                                      ",
"                                                                                            aXOXa.p.s.}.a.p.e.<.;.&.&.&.t.-XE.T.~ @ @ @ @ V U y ; ; @ o o o o o o o @ n.eX                                                                                      ",
"                                                                                          sXtX}.e.1.e.t.t.e.q.<.&.%.%.%.a.6XE.T.B o @ @ @ ; % @ o o o o o o o o o o @ 0.eX                                                                                      ",
"                                                                                          aXaXrX}.-.-.<.1.<.<.,.-.%.%.%.I.-XT.T.5 o @ @ @ o o o o o o o o o o o o o o ] qX                                                                                      ",
"                                                                                          aXtXiXiX,Xe.&.&.-.-.-.-.&.%.%.+X-XT.P.: o @ @ @ @ o o @ o o o o o o o o o o S 7X                                                                                      ",
"                                                                                          yXrXtXiXaXtX#X1.&.&.&.&.&.&.&.@X*XT.n.$ o @ @ @ @ o o @ o o o o o o o o o . y 7X7X                                                                                    ",
"                                                                                          yX#X#XrXiXiXiX4Xa.<.&.&.&.&.<.=X*XT.0.@ & @ @ @ o o o @ o o o o o o o o o . 9 Q.Q.                                                                                    ",
"                                                                                          tXOXt.p.,XtXiXiXuX:Xq.R T T 2.2X*XQ.] o o @ @ O o o o @ o o o o o o o o o . : J.!.                                                                                    ",
"                                                                                          rXOXt.q.w..XrXiXiXuX4X.X-.Y t.2X*XQ.A o @ @ @ @ @ @ @ o o o o o o o o o o . * v.!.                                                                                    ",
"                                                                                          rXa.t.q.q.<.r.>XuXuXuXuX<Xt.OXwXE.E.q o @ @ @ @ o @ @ o o o o o o o o o . . @ c.!.                                                                                    ",
"                                                                                          3Xa.t.q.e.w.<.<.}.rXuXuXuX9X2X-XE.T., o @ @ o o o o o o o o o o o o o o o . O ..!.                                                                                    ",
"                                                                                          >Xa.t.q.e.q.1.-.%.1.<XuXuX4X2XT.T.m.= o & o o o o o o o o o o o o o o o o . o ] Q.                                                                                    ",
"                                                                                        tX@Xu.e.e.t.e.q.;.%.J T a.4XwX2XP.T.0.@ o o o o o o o o o o o o o o o o o o . o Q Q.                                                                                    ",
"                                                                                        rX#Xt.1.1.2.2.1.<.&.Y J Y 2.=X-XD.T.' @ o o o o o o o o o o o o o o @ ; o o o . u Q.Q.                                                                                  ",
"                                                                                        ,X>Xt.R &.-.-.-.&.&.Y I I I 7.*Xn.P.C o o o o o o o o o o o o o O < y A o o o . y W.Q.                                                                                  ",
"                                                                                        >X<X>Xr.R T R R [ [ ~ I G G s.2XP.D.q o o o o o o o o o o o o o < 5 n 8 o o o . 9 T.!.                                                                                  ",
"                                                                                        OX:X3X3X|.-.R R R ~ ~ R J G OX2XD.m., o o o o o o o @ * o o o $ 3.[ A < O o o o : H.T.                                                                                  ",
"                                                                                XXXXXX  a.OX<X3X3X#X,.R R R Y I I   4X-Xn.M.= o & & o o @ : y U @ o o $ n S , : @ o o o * v.T.                                                                                  ",
"                                                                                r.XXoX.XV.u.OX4X3X3X@X2.R T         uX=Xn. .@ o o & & o q < y y o o o o o o @ o o o o o @ O.T.                                                                                  ",
"                                                                                  |.oX}.y.0. .  4X4X4X>X.X          wX$XD.] o o o o o : ' y ~ 5 o o o o o o o o o o o * u v.H.                                                                                  ",
"                                                                                    |.a.8.u.y.0.  4X4X4X4X3X        4XU.D.Z o o o o o m 4.{ : : $ o o o o o o o o - i h.H.H.v.                                                                                  ",
"                                                                                      3.4.5.a.a.y.  4X4X4X4X<X      2XP.D.y o o o o o @ @ ; $ @ o o o o o o O , ! k.S.D.v.l.f.M.9.                                                                              ",
"                                                                                        { 4.5.a.V.u.  4X4X3X4X4X  uX2XD.D.< o o o o o o o o o o o o o o @ 9 / l.S.M.M.      x.d.v.n.7.                                                                          ",
"                                                                                          5.7.t.V.OXI.  4X4X4X4X4X4X1XD.M.= o o o o o o o o o o o o % w ) l.v.M.M.            ) d.v.m.9.4.                                                                      ",
"                                                                                            5.t.y. XOXa.  4X4X4X4X=XY.m.O.@ o o o o o o o o o o % y ) h.k.M.M.                    _ h.v.n.8.                                                                    ",
"                                                                                              7.y.a.a.V.a.  4X4X4X%Xc.D.] o o o o o o o o o * u | h.h.h.h.                            _ h.v.M.X.                                                                ",
"                                                                                                7.a.a.OXOXV.  4X4X+XO.D.Z o o o o o o o - i | l.h.h.h.                                    ) x.                                                                  ",
"                                                                                                  t.a.a.OXOXa.V.<XY...D.y . o o o O , ! d.l.h.h.h.                                                                                                              ",
"                                                                                                    y.a.a.OXOXa.OXB...M.< . o @ 1 ! j.v.h.h.h.                                                                                                                  ",
"                                                                                                      y.a.V.OXOX@X+Xc.c.= % w ) l.v.M.h.h.                                                                                                                      ",
"                                                                                                        a.a.V.#X%XY.M.O.y ) k.M.M.M.M.                                                                                                                          ",
"                                                                                                          a.V.OX@XY.M.h.h.M.O.O.h.                                                                                                                              ",
"                                                                                                            u.OX@XB.M.h.h.O.O.                                                                                                                                  ",
"                                                                                                              a.+Xn.h._ |                                                                                                                                       ",
"                                                                                                                V.O.) ` f.                                                                                                                                      ",
"                                                                                                                  O.f.f.f.f.                                                                                                                                    ",
"                                                                                                                    m.v.l.j.f.                                                                                                                                  ",
"                                                                                                                      n.m.v.v.l.                                                                                                                                ",
"                                                                                                                        n.m.v.v.v.                                                                                                                              ",
"                                                                                                                          n.m.v.v.v.                                                                                                                            ",
"                                                                                                                          y.M.m.m.v.v.                                                                                                                          ",
"                                                                                                                            8.8.M.c.h.d.                                                                                                                        ",
"                                                                                                                              7...d.f.x.                                                                                                                        ",
"                                                                                                                                X._                                                                                                                             "
};
