/* XPM */
static char *piscine_guard_left[] = {
/* columns rows colors chars-per-pixel */
"128 128 207 2 ",
"   c #FF00FF",
".  c #060606",
"X  c #080707",
"o  c #070808",
"O  c #0B0B0B",
"+  c #080808",
"@  c #100F0D",
"#  c #13120F",
"$  c #131313",
"%  c #1B1916",
"&  c #171718",
"*  c #1B1B1B",
"=  c #181615",
"-  c #231F1B",
";  c #211C16",
":  c #23211E",
">  c #2B241D",
",  c #30281F",
"<  c #1F1E20",
"1  c #201F21",
"2  c #1E2830",
"3  c #242324",
"4  c #282626",
"5  c #2B2926",
"6  c #292728",
"7  c #2C2A2A",
"8  c #272528",
"9  c #312B23",
"0  c #312E2C",
"q  c #382E22",
"w  c #35312E",
"e  c #3B342A",
"r  c #252E36",
"t  c #2D333A",
"y  c #363331",
"u  c #393633",
"i  c #3D3935",
"p  c #3C3B3B",
"a  c #30373F",
"s  c #483B2B",
"d  c #423C36",
"f  c #423E3A",
"g  c #44413D",
"h  c #4A443C",
"j  c #4F4537",
"k  c #534534",
"l  c #5B4D3D",
"z  c #594A37",
"x  c #64513C",
"c  c #6B573D",
"v  c #2D3945",
"b  c #333740",
"n  c #343B43",
"m  c #3A3E43",
"M  c #363E4A",
"N  c #393F4A",
"B  c #3B4046",
"V  c #37404B",
"C  c #3A424D",
"Z  c #3B4552",
"A  c #3E4856",
"S  c #3D4B5B",
"D  c #394454",
"F  c #3E4C61",
"G  c #454443",
"H  c #4A4641",
"J  c #4D4A45",
"K  c #41464D",
"L  c #44484D",
"P  c #4C4C4B",
"I  c #534D45",
"U  c #5B4F41",
"Y  c #524E49",
"T  c #5C5243",
"R  c #56514B",
"E  c #5B554C",
"W  c #5E594E",
"Q  c #575045",
"!  c #404752",
"~  c #434A54",
"^  c #4A4E53",
"/  c #434D5B",
"(  c #494F5A",
")  c #4E5053",
"_  c #46505E",
"`  c #4C535C",
"'  c #535353",
"]  c #5B5652",
"[  c #5D5952",
"{  c #55575A",
"}  c #5B5B5B",
"|  c #565A5C",
" . c #635542",
".. c #665945",
"X. c #6B5A45",
"o. c #61564B",
"O. c #635A4D",
"+. c #6C5D4B",
"@. c #685741",
"#. c #735E44",
"$. c #715E48",
"%. c #645D54",
"&. c #695E52",
"*. c #645F5A",
"=. c #685F58",
"-. c #715F51",
";. c #6C614E",
":. c #7A6246",
">. c #73614C",
",. c #7B654C",
"<. c #7F684E",
"1. c #776145",
"2. c #6C6254",
"3. c #67615A",
"4. c #6B635A",
"5. c #6A645B",
"6. c #746454",
"7. c #796754",
"8. c #7B6A55",
"9. c #726659",
"0. c #756A5C",
"q. c #7C6C5B",
"w. c #756956",
"e. c #7E705E",
"r. c #424E61",
"t. c #455263",
"y. c #4A5564",
"u. c #4C5769",
"i. c #4F5969",
"p. c #535A63",
"a. c #5B5F63",
"s. c #525D6C",
"d. c #515760",
"f. c #435F74",
"g. c #57616D",
"h. c #5B626C",
"j. c #596063",
"k. c #5B6471",
"l. c #596574",
"z. c #496578",
"x. c #626365",
"c. c #696662",
"v. c #6C6B6A",
"b. c #686767",
"n. c #756C62",
"m. c #7A6D62",
"M. c #756F68",
"N. c #7D7262",
"B. c #74716B",
"V. c #7C7369",
"C. c #7F786D",
"Z. c #636B73",
"A. c #676C74",
"S. c #737778",
"D. c #826D55",
"F. c #816E5A",
"G. c #867156",
"H. c #8B7356",
"J. c #84725D",
"K. c #89755B",
"L. c #8D795E",
"P. c #947B5C",
"I. c #947B5B",
"U. c #856B4D",
"Y. c #816E61",
"T. c #847463",
"R. c #897662",
"E. c #857966",
"W. c #8C7A65",
"Q. c #81746A",
"!. c #857A6B",
"~. c #8C7D69",
"^. c #927D64",
"/. c #917E69",
"(. c #867E72",
"). c #9B815E",
"_. c #A1845F",
"`. c #8E806C",
"'. c #968165",
"]. c #9B8364",
"[. c #93826D",
"{. c #9E8668",
"}. c #8E8474",
"|. c #8B8177",
" X c #958572",
".X c #998771",
"XX c #968874",
"oX c #998974",
"OX c #968B7A",
"+X c #9A8D7B",
"@X c #9D917E",
"#X c #A48A69",
"$X c #A68B66",
"%X c #AF916B",
"&X c #B3936B",
"*X c #BB956A",
"=X c #BC9A72",
"-X c #B39670",
";X c #C69D6F",
":X c #CBA475",
">X c #D4A873",
",X c #5F6E85",
"<X c #697480",
"1X c #59829D",
"2X c #9D9181",
"3X c #A89D91",
"4X c #E0B682",
/* pixels */
"                                                                                                                                                                                                                                                                ",
"                                                                                                                                                                                                                                                                ",
"                                                                                                                                                                                                                                                                ",
"                                                                                                                                                                                                                                                                ",
"                                                                                                                                                                                                                                                                ",
"                                                                                                                                                                                                                                                                ",
"                                                                                                                                                                                                                                                                ",
"                                                                                                                                                                                                                                                                ",
"                                                                                                                                                                                                                                                                ",
"                                                                                                                                                                                                                                                                ",
"                                                                                                                                                                                                                                                                ",
"                                                                                                                                                                                                                                                                ",
"                                                                                                                              P.G.D.,.$. .                                                                                                                      ",
"                                                                                                                          *X).I.G.D.<.,.$.X. . . .                                                                                                              ",
"                                                                                                                  4X4X>X*X_.P.P.K.G.G.D.8.,.>.+.X... .l l l l l U U Q                                                                                           ",
"                                                                                                          -X=X:X:X:X;X*X$X).).P.P.P.K.K.G.D.8.8.>.>.+... . .Q l U U U Q                                                                                         ",
"                                                                                                    ^.].#X*X=X=X*X*X*X#X].].].).P.P.L.K.K.J.D.8.8.>.>.+.X. . . .x Q Q Q Q W                                                                                     ",
"                                                                                                J.K.^.#X$X%X*X%X$X#XJ.8.K.L.L.L.L.L.L.K.J.J.J.8.8.6.6.>.;.+... . . .Q Q Q Q W O.                                                                                ",
"                                                                                              F.J.^.].#X#X#X#X].^.q.W 4.q.J.q.q.q.q.q.q.q.8.w.w.6.;.4.;.+.O.O.O. . .Q Q Q Q Q W O.                                                                              ",
"                                                                                          8.q.J.W.'.'.'.^.T.e.q.0.W [ 4.O.4.4.4.O.%.O.&.4.4.&.O.O.O.O.O.W W W W Q Q U I I I W W W W                                                                             ",
"                                                                                        q.q.J.J.T.J.q.9.9.4.4.4.%.R ] %.W O.%.%.O.%.W %.%.%.O.W W O.Q R W W R I I Q R I I Y R R Y Y                                                                             ",
"                                                                                    4.9.0.0.9.4.%.%.%.&.4.4.4.4.[ W ' ' %.W W W W O.O.4.%.O.O.W O.%.R W W W R J I W Y J R R P J f J                                                                             ",
"                                                                                [ %.%.%.] ] [ [ %.%.4.9.9.0.9.4.%.' ^ ^ ^ ^ P J Y W [ %.] ] W R W W R ] [ ] W R W W Y R R J H g g G                                                                             ",
"                                                                              %.' ] ] R R ' [ 3.4.4.4.*.] ' ^ ^ ^ ^ ^ ^ ! ! B m B B ! A A K i B N a n N B B B K K P P G J J J G ] G                                                                             ",
"                                                                                P P ' ] ] [ } { ^ ^ ^ A ^ A ^ ^ ^ ^ A A A A N B ! A ! ! A B m A B n M C B B N B M M M n a b m i [ P                                                                             ",
"                                                                                P ' ] } { ` ~ A ^ ~ ~ ~ ~ ^ ^ ^ ~ ^ A A A B B ! ! ! ! ! A B n A B M M C C B B B C C M N a b B m [                                                                               ",
"                                                                                ^ ) ` y.t.~ ^ ~ ~ ~ ~ ~ ~ ~ ~ ~ ~ ~ ~ A A B ^ ^ ^ ^ ^ ^ ( K G ^ ^ M M C C A B M B M M N n n K K [                                                                               ",
"                                                                                  ^ ~ y._ ^ ^ y._ _ t.t.t._ ~ ~ ~ ~ ~ A B ! ~ ~ ~ ~ } W.W.K.K.W.9.M M V A A B B C M n B n n P ' }                                                                               ",
"                                                                                  ^ ! ~ A ( ` y.y.y.t.t.t.t.t.t.~ ~ ~ A A ~ ~ ~ ~ ~ n.K.8.F.J.K.4.C M M A A B A M n B N n B ) ' }                                                                               ",
"                                                                                    ! A ~ y.y.y.y.y.y.y.y.t.t.t.t.~ A A ~ t.t.t.t.~ N.K.].].^.].4.V M C A A A B n B B n B B ' ) } }                                                                             ",
"                                                                                      A ~ y.y.y.y.u.u.u.u.y.t.t.t.r.~ A t.y.t.t.t.y.T.L.{.].].].*.A M A A A A M B A n N K K } ^ ' }                                                                             ",
"                                                                                        A ~ ~ y.y.u.u.u.u.t.t.t.t.r.A ~ t.y.y.y.t.p.W.^.].].].].} A V A A A C B A n n K K ^ } ) ' |                                                                             ",
"                                                                                          A ~ r.t.y.y.y.y.t.t.t.t.~ A t.y.y.u.y.t.a.R.^.].].'.'.{ A A A A B M A n n ^ K K ) } ^ {                                                                               ",
"                                                                                              r.t.t.y.t.t.r.t.t.t.A ~ y.u.u.y.y.t.c.K.^.'.^.^.^.{ A A A A M B M n B ^ B K | { B B                                                                               ",
"                                                                                                    t.t.t.r.r.r.A A y.s.s.s.s.s.u.M.K.'.^.^.^.W.` A A A C A B M K ` ^ ^ K a.) t                                                                                 ",
"                                                                                                          t.r.t.A F u.g.l.l.l.l.l.E.K.^.^.^.^.W.{ t.A A A A ^ ^ ^ ^ ^ ^ K j.n 2 2                                                                               ",
"                                                                                                                r.    s.h.l.g.l.Z.T.R.^.^.^.^.T.` y.~ A ~ ` ` ` ^ ^ ` B ^ ` r r                                                                                 ",
"                                                                                                                                v.T.W.^.^.W.W.T.` y.~ y.` p.A.h.p.` ^ B ^ ` M B V                                                                               ",
"                                                                                                                                  T.W.^.W.W.W.T.            S.l.g.` A B A A.g.v f.1X                                                                            ",
"                                                                                                                                  T.^.^.W.W.W.T.                s.~ A M A <X^ v z.1X                                                                            ",
"                                                                                                                                T.T././.W.W.T.N.                    C M ~                                                                                       ",
"                                                                                                                                T.T./.^.W.W.T.m.                                                                                                                ",
"                                                                                                                                T.W./.W.W.R.T.q.                                                                                                                ",
"                                                                                                  6.9.9.9.0.q.q.q.m.0.m.m.m.m.T.T.~./.W.W.R.T.q.                                                                                                                ",
"                                                                                                &.&.4.4.9.9.0.q.q.m.m.m.N.T.T.T.W./.W.W.W.T.T.                                                                                                                  ",
"                                                                                                -.8.q.F.J.J.T.R.R.W.W.W.~./././.[./.W.W.W.T.T.                                                                                                                  ",
"                                                                                                6.q.F.F.J.J.R.R.R.W.W.W././././.[./.W.W.R.T.J.                                                                                                                  ",
"                                                                                                6.q.J.J.J.R.R.R.R.W.W.W./././././.W.W.R.R.T.q.                                                                                                                  ",
"                                                                                                6.F.J.T.R.R.W.W.W.W.W.~././././././.W.W.R.T.q.                                                                                                                  ",
"                                                                                                8.J.J.R.R.W.W.W.^./././././.[.[././.W.W.R.T.q.                                                                                                                  ",
"                                                                                              6.8.J.T.R.R.W.W./././././.[.[.[.[././.W.W.R.T.q.                                                                                                                  ",
"                                                                                              6.q.J.R.R.R.W.W.~././././.[.[.[.[.[.~.W.W.R.T.q.                                                                                                                  ",
"                                                                                              6.q.J.R.R.R.W.W./.~./././.[.[.[.[.[./.W.W.R.T.F.                                                                                                                  ",
"                                                                                              6.F.R.R.W.W.W.W.~././././.[.[.[.[.[.[.W.W.W.R.J.                                                                                                                  ",
"                                                                                              6.J.R.W.W.W.W.W.~././././.[.[.[.[.[./.~.W.W.R.T.                                                                                                                  ",
"                                                                                              8.J.R.W.W.W.W.W.W.~./././.[.[.[.[.[./.W.W.W.W.T.q.                                                                                                                ",
"                                                                                              8.T.W.W.W.W.W.W.W.W./././.[.[.[.[.[./.~.W.W.W.R.J.                                                                                                                ",
"                                                                                              8.R.W.W.W.W.W.W.W.~.[.[.[.[.[.[.[.[./.~.W.W.W.W.T.                                                                                                                ",
"                                                                                            6.q.R.W.W.W.W.W./././.[.[.[.[.[.[.[.[.[./.~.W.W.W.T.                                                                                                                ",
"                                                                                            8.q.W.W.W.W.~./././.[.[.[.[.[.[..X[.[.[.[./.W.W.W.W.T.                                                                                                              ",
"                                                                                            q.J.W.W.W.W././.[./.[.[.[.[.[.[..X.X/./.[.[.~.~.W.W.T.                                                                                                              ",
"                                                                                            q.T.W.W.W.W././.[.[.[.[.[.[.[.[..X[./.[.[.[.[./.W.W.W.                                                                                                              ",
"                                                                                            F.R.W.W.W.^./.[.[.[.[..X.X.X.X.X.X[.[..X.X.X[.[.[./.W.                                                                                                              ",
"                                                                                            D.T.W.W.~./.[.[.[..X.X.X.X.X.X[.[.~.~.~.~.T.N.T.W.E.N.                                                                                                              ",
"                                                                                                q.N.0.H h f f d d i u u u w 0 0 7 7 4 3 3 H T.T.0.R                                                                                                             ",
"                                                                                                J.T.0.7 3 3 3 3 3 3 3 3 3 3 3 3 3 1 1 < * i `.`.~.q.                                                                                                            ",
"                                                                                                W.~.9.7 7 7 6 6 6 6 8 8 3 3 3 3 3 3 3 1 * 7 ~.[.~.T.                                                                                                            ",
"                                                                                              R.W.~.4.7 7 7 6 4 6 6 8 8 3 3 3 3 3 3 3 1 * - q..X[.T.                                                                                                            ",
"                                                                                              R.W./.o.6 7 7 6 6 6 3 3 4 3 3 3 3 3 3 3 1 * * o..X[.W.                                                                                                            ",
"                                                                                              R.W./.I 6 7 7 6 4 6 3 3 3 3 3 3 3 3 3 1 < * * h [.[.W.q.                                                                                                          ",
"                                                                                            F.W.~.~.h 4 7 7 6 4 3 3 3 3 3 3 3 3 3 3 1 * * * 0 ~.[./.J.                                                                                                          ",
"                                                                                            q.W.~.~.d 4 7 6 4 3 3 3 3 3 3 3 3 3 3 3 * * * * 3 e.[.~.0.                                                                                                          ",
"                                                                                              W.~.E.u 3 4 4 3 3 3 3 3 3 3 3 3 3 3 3 * * * * * +..X/.6.                                                                                                          ",
"                                                                                              W.~.T.0 3 3 3 3 3 3 3 3 3 3 3 3 3 3 3 * 3 5 3 = h .X[.q.I                                                                                                         ",
"                                                                                              W.~.0.7 3 f f H g H Y W Y [ J W W W ] 7 W 4.u = w [.[.T.R                                                                                                         ",
"                                                                                              W.`.4.3 4 W I n.4.4.4.%.%.%.%.=.W R W u f I 7 & 3 T.[.W.%.                                                                                                        ",
"                                                                                              W.`.W 3 3 0 u 7 0 4 7 7 3 5 3 3 3 3 * * * * * * * 4..X~.4.                                                                                                        ",
"                                                                                            `.~.`.I 3 3 3 3 3 3 3 * * * * * * * * * * * * * * = I XX[.n.                                                                                                        ",
"                                                                                            [.`.`.h 1 3 3 3 i 3 u i u i i f u 7 u 7 H H w = * = w [.[.N.}                                                                                                       ",
"                                                                                            XX[.`.i < 3 3 u n.i 4.%.4.W %.%.%.W %.f *.4.u = = = > T.[.E.}                                                                                                       ",
"                                                                                            .XXX`.0 * 3 3 u H u f i u u u u w 0 4 3 5 3 * = = = = 4..X~.c.                                                                                                      ",
"                                                                                            +X.X~.3 * * 3 * * * * * * * * & & & * & = & = = = = = I XX[.n.                                                                                                      ",
"                                                                                          +XXX+XN.> * * 3 3 3 3 3 3 3 3 * * 3 3 3 3 7 u u u 4 = = w .X.XV.a.                                                                                                    ",
"                                                                                          .X.X+X0.* * 7 *.3.] W ] [ ] 4.R ] 4.3.[ 3.J W 4.R H = @ > ~..X~.x.                                                                                                    ",
"                                                                                          .XXX+X%.* * 0 I ] R Y I R I Y H H f f i i g w 7 0 > = = = 0..X.Xv.                                                                                                    ",
"                                                                                          .XOX+XQ * * * * * * * * * * * = = = = = = = = = = = = = O Q +XXXB.                                                                                                    ",
"                                                                                          +XOX+Xg & * * * * * * * * * * * * * * * * * 3 = = = = @ O i OXOXC.v.                                                                                                  ",
"                                                                                          @XOXOXu = * * * * 5 J g J 0 Y H H ] J Y 4.R R 3 = = @ @ O 3 }.OX(.v.                                                                                                  ",
"                                                                                          @XOX}.5 = * * * & w %.' R u G J J f J J J i g * O O O O O = N.+X}.B.                                                                                                  ",
"                                                                                          2XOX~.3 = * * & & * 3 * < & & * * = = = = = = O O O O @ O O O.+XOXB.                                                                                                  ",
"                                                                                          2XOXN.* = * * * = = = = = = = = = = = = = = = = = O O O O O d +XOXV.                                                                                                  ",
"                                                                                          2X+X0.= = = = = = = = = = = = = = = = = = = = = @ O O O O O 4 OX+X|.v.                                                                                                ",
"                                                                                          2X2X%.= = = = = = = = = = = = = = = = = = = = = = @ @ O O O = !.2XOXv.                                                                                                ",
"                                                                                          2X2XI @ = = = = = = = = = = = = = = = = = = @ = @ O O O O O O 4.2XOXB.                                                                                                ",
"                                                                                        3X2X2Xf @ = = = = = = = = = = = = = = = = O @ O O O O O O O O O h 2XOXC.x.                                                                                              ",
"                                                                                        2X+XOXw @ = = = = = = = @ @ @ @ @ O = = O O O O O O O O O O O O 5 OXXX(.A.                                                                                              ",
"                                                                                      .XXXOX}.4 @ = = = = = @ @ = @ = = = O O O O O O O O O O O O O O O = !.XX!.A.                                                                                              ",
"                                                                                      [..XOX!.* @ @ = = = = @ O @ @ @ @ O O O O O O O O O O O O O O O O O 4..X~.B.                                                                                              ",
"                                                                                      [..XXXn.= @ O = = @ @ @ O @ O O O O O O O O O O O O O O O O O O O . h [.W.B.,X                                                                                            ",
"                                                                                        .X.X4.# @ @ O @ @ O O O O O O O O O O O O O O O O O O O O O O O . 5 W.E.N.A.                                                                                            ",
"                                                                                        `..XW O = = @ @ O O O O O O O O O O O O O O O O O O O O O O O O . = q.W.N.A.                                                                                            ",
"                                                                                        ~..Xh O = = @ O O O O O O O O O O O O O O O O O O O O O O O O o o O O.W.T.n.                                                                                            ",
"                                                                                        !.~.u O O = @ O O O O O O O O O O O O O O O O O O O O O O O O o O . h ~.E.4.g.                                                                                          ",
"                                                                                      !.~.~.5 O O O O O O O O O O O O O O O O O O O O O O O O O O . O O O . 9 W.W.4.a.                                                                                          ",
"                                                                                      T.~.T.- O O O O O O O O 3 3 4 w > O O O O O O = g 4 i W > . . O O O . % N.W.q.x.                                                                                          ",
"                                                                                      T.~.q.= O O O O O O O 0 %.> 7 n.i . O O O O = [ g @ i 4.% . O O O O . O 4.~.e.5.                                                                                          ",
"                                                                                      !.~.4.O O O O O O O 3 E.W w J %.> O O O O O J !.*.J 4.J * . O O . . . . h ~.T.0.l.                                                                                        ",
"                                                                                    |.E.~.o.O O O O O O O > H R V.g i 4 . . O O O % - J [ 4 5 * O . . . . . . 9 !.E.e.h.                                                                                        ",
"                                                                                    q.T.~.I O O O O O O O O . O 0 & > 5 * O O O O . . O = * 4 4 = . O O + . . % N.E.N.x.                                                                                        ",
"                                                                                    6.T.~.d . O O O O O O O O o . O # = O O O O o O . . . o X X O O O O + . . O 4.!.T.c.                                                                                        ",
"                                                                                    ;.J.!.w . O O O O O O O o o . . . . . . . . . . . . . . . . . . . . . . . . h !.T.4.u.                                                                                      ",
"                                                                                    6.e.T.> . O O O O O O O o . . . . . . . . . . . . . . . . . . . . . . . . . 9 T.T.9.p.                                                                                      ",
"                                                                                    q.T.q.% . . o . . . . . . . . . . . . . . . . . . . X + O O O O O O @ @ @ @ > q.e.6.]                                                                                       ",
"                                                                                    q.T.6.% # % ; - - - > > > , 9 q e e s s s k k k z l x x X.X.X.X.#.>.>.>.>.>.>.8.q.6.                                                                                        ",
"                                                                                    T.T.q.+.>.8.D.J.J.J.J.K.K.J.G.J.J.K.G.G.D.D.D.D.D.D.F.F.F.F.J.J.J.F.q.q.F.F.F.q.q.6.                                                                                        ",
"                                                                                    T.F.q.J.J.e.e.J.J.T.T.J.J.F.q.q.F.F.D.8.8.8.8.8.8.8.q.q.8.8.q.q.8.8.q.q.q.q.8.8.,.>.                                                                                        ",
"                                                                                    8.>.X.6.6.8.q.q.q.q.q.q.q.8.8.8.                                              :.1.>.q.                                                                                      ",
"                                                                                    ,.:.#.                                                                        1.>.8.V.                                                                                      ",
"                                                                                  T.D.U.#.                                                                        #.>.q.V.                                                                                      ",
"                                                                                  E.D.,.x                                                                         >.8.m.N.                                                                                      ",
"                                                                                E.T.F.$.                                                                            q.m.m.                                                                                      ",
"                                                                                E.T.F. .                                                                            0.n.n.n.                                                                                    ",
"                                                                                T.T.q.k                                                                             9.n.n.n.                                                                                    ",
"                                                                              V.T.T.6.                                                                              6.0.n.m.                                                                                    ",
"                                                                              E.Y.Y.U                                                                               6.0.0.n.                                                                                    ",
"                                                                            m.m.Y.6.                                                                                X.>.>.>.+.                                                                                  ",
"                                                                            6.8.8.X.                                                                                  c #.c                                                                                     ",
"                                                                            :.<.,.c                                                                                                                                                                             "
};
