/* XPM */
static char *quiet_room_1[] = {
/* columns rows colors chars-per-pixel */
"128 128 195 2 ",
"   c #0A0605",
".  c #0C0907",
"X  c #0E0B0A",
"o  c #120E0B",
"O  c #18130F",
"+  c #191613",
"@  c #1C1A16",
"#  c #191718",
"$  c #1E1C1A",
"%  c #211B16",
"&  c #201E1B",
"*  c #22211D",
"=  c #2A241F",
"-  c #211F20",
";  c #252422",
":  c #292622",
">  c #282827",
",  c #332C25",
"<  c #3A2E24",
"1  c #312E2B",
"2  c #2E302E",
"3  c #3B3126",
"4  c #33312D",
"5  c #3C342B",
"6  c #2E2F30",
"7  c #312F30",
"8  c #2F3031",
"9  c #343433",
"0  c #393633",
"q  c #373837",
"w  c #363638",
"e  c #373839",
"r  c #3B3B3B",
"t  c #433425",
"y  c #42362B",
"u  c #43392E",
"i  c #4B3B2D",
"p  c #513E2D",
"a  c #433B33",
"s  c #4B3E32",
"d  c #413E3B",
"f  c #3F403B",
"g  c #54412E",
"h  c #4C4135",
"j  c #43413D",
"k  c #4A443D",
"l  c #534334",
"z  c #594736",
"x  c #5B4B3C",
"c  c #634D38",
"v  c #6A523C",
"b  c #72583E",
"n  c #3E3F40",
"m  c #3F4143",
"M  c #494643",
"N  c #494747",
"B  c #434649",
"V  c #46494C",
"C  c #4C4C4B",
"Z  c #574D43",
"A  c #514E4A",
"S  c #5C5145",
"D  c #50504E",
"F  c #53524E",
"G  c #5B544C",
"H  c #474C50",
"J  c #4A4E51",
"K  c #4D5255",
"L  c #4F5458",
"P  c #545453",
"I  c #575856",
"U  c #5A5A55",
"Y  c #525659",
"T  c #685644",
"R  c #755C43",
"E  c #635D54",
"W  c #625F59",
"Q  c #5F605D",
"!  c #7A6248",
"~  c #62625D",
"^  c #6A645A",
"/  c #72685D",
"(  c #575C60",
")  c #5A5E62",
"_  c #5D6165",
"`  c #5F6468",
"'  c #636463",
"]  c #676764",
"[  c #6A6A66",
"{  c #62666A",
"}  c #6B6D6C",
"|  c #726E66",
" . c #6E706E",
".. c #72726D",
"X. c #7A746A",
"o. c #676D71",
"O. c #6A6E72",
"+. c #6D7275",
"@. c #6E7579",
"#. c #6E777A",
"$. c #727474",
"%. c #787772",
"&. c #767876",
"*. c #71767A",
"=. c #85684C",
"-. c #8B6D51",
";. c #8F7053",
":. c #987555",
">. c #A37C5A",
",. c #83776B",
"<. c #837E76",
"1. c #7E807E",
"2. c #A9845C",
"3. c #83827D",
"4. c #8A837A",
"5. c #93887D",
"6. c #B28963",
"7. c #757D82",
"8. c #797E82",
"9. c #777F88",
"0. c #778085",
"q. c #7C8285",
"w. c #778188",
"e. c #7C858A",
"r. c #7F888D",
"t. c #7E8991",
"y. c #878884",
"u. c #8A8985",
"i. c #828689",
"p. c #938D85",
"a. c #8E908F",
"s. c #93928D",
"d. c #9B9389",
"f. c #8A8E92",
"g. c #848F98",
"h. c #879095",
"j. c #8C9294",
"k. c #869299",
"l. c #8C959B",
"z. c #8E989E",
"x. c #929594",
"c. c #949897",
"v. c #9A9995",
"b. c #92969A",
"n. c #9A9D9C",
"m. c #A09F9C",
"M. c #9CA09F",
"N. c #A2A19E",
"B. c #8C97A0",
"V. c #8E9AA1",
"C. c #9A9EA1",
"Z. c #959FA8",
"A. c #96A0A6",
"S. c #9DA3A4",
"D. c #9EA9AE",
"F. c #9AA7B0",
"G. c #A3A4A4",
"H. c #A7A8A7",
"J. c #A2A6A9",
"K. c #A4AAAC",
"L. c #ABACAD",
"P. c #ABB0AF",
"I. c #ACAEB1",
"U. c #A3AFB9",
"Y. c #A6B1B4",
"T. c #ACB3B4",
"R. c #ACB6B9",
"E. c #B2B5B5",
"W. c #B3BCBD",
"Q. c #B8C0BF",
"!. c #AFBBC3",
"~. c #B4BEC1",
"^. c #B9BEC1",
"/. c #B6C0C2",
"(. c #BBC3C3",
"). c #BDC6CB",
"_. c #BCC9D2",
"`. c #C2C9CC",
"'. c #C5CDD3",
"]. c #C9D3DA",
"[. c #CCD5DB",
"{. c #D2DADD",
"}. c #CED9E1",
"|. c #D4DDE4",
" X c #D1DEE8",
".X c #D7E0E7",
"XX c #D8E2E9",
"oX c #DDE7F0",
"OX c #DEE9F2",
"+X c #E2ECF5",
"@X c #E4EFF8",
"#X c #E5F2FA",
"$X c #EAF5FA",
"%X c #ECF7FB",
"&X c #F3FDFE",
/* pixels */
"& $ $ $ @ @ @ @ & % % @ @ @ @ @ @ @ @ @ @ @ $ $ @ $ $ $ $ $ $ $ $ * * * * * * * * * * * * * ; ; ; ; ; ; : ; : : : : : : ; : : : : : : : : > , , , , , , 5 5 5 y u s i l l z c b ! =.:.2.6.6.6.6.>.>.>.>.>.:.:.:.:.:.:.-.=.=.! R b b b b v v c c z z g p i t t t ",
"* & $ $ @ @ @ @ @ @ @ @ @ @ @ @ @ @ @ @ $ $ $ @ @ @ $ @ @ $ $ & $ $ $ - * * * * * * * * * * * ; * * ; ; ; ; ; : : : : : : : : : : : : : : : > > , , , , 4 5 5 y y i i s l z c T ! -.:.2.6.6.6.2.:.:.:.:.:.:.:.:.:.-.-.=.=.R R b b b v v c c z z g p p i t t t 3 ",
"* & * & $ @ @ @ @ @ @ @ @ @ @ @ @ @ @ $ $ $ $ @ @ $ @ @ @ @ $ $ $ $ $ * * * * * * * * * * * * * * * * ; * ; : ; ; * : : ; ; ; : : : : : : : > > > , , , 1 5 5 5 y y i i l l c T ! :.2.2.6.6.2.:.:.:.:.:.:.:.:.;.-.=.! R R b b b v v c c c z g g p i i t t i y < ",
"* * & & $ @ @ & @ @ @ @ @ @ @ @ @ @ @ @ $ $ $ $ $ @ @ @ @ $ $ $ $ $ & & & * * * * * * * * * * * * * * * * * ; ; ; ; : ; * ; ; : : : : : > : : > , , , , , 5 5 5 5 y y i i z c T =.:.>.2.2.2.:.:.:.:.:.;.-.-.-.-.=.R R R b v v v c c z z z g g p i i t t t 3 3 < ",
"* & & & & & & & $ @ @ @ @ @ @ @ @ @ @ @ $ $ $ $ @ @ @ $ @ $ $ $ $ $ $ & $ $ & * * * * * * * * * * * * * * ; ; ; = = : : ; : : : : : : : : > > > > , , , , < 5 5 5 5 y u s z c R -.:.>.2.2.:.-.-.-.-.-.-.=.=.=.! R R b v v v c c z z z z l g p i i i t t 3 < < , ",
"& $ $ & & & & & $ $ $ $ @ % @ % @ @ @ @ $ $ @ $ @ $ $ $ $ $ $ $ $ & & * & & * * * * * * * * * * * * * ; ; ; : ; : : = : ; : : : : > > > : > > > > > , , , , 3 5 5 5 y u h z T R :.:.>.>.:.-.=.=.=.=.=.=.=.! R R b v v v c c c z z z g g g p i i i y t t 3 < , , ",
"& @ @ $ $ $ & & $ $ $ @ @ % % % @ @ @ $ $ @ @ $ $ $ $ $ & & $ - - * * * * * * * * * * * * ; ; ; ; ; ; ; ; : : : > : : > > > > > > > > > > , , , > , , 1 1 4 5 5 5 5 y s l z T =.:.:.:.:.-.! ! ! ! ! ! ! R R R v v c c c c c z z l l g g p i i i i t t 3 3 < , , ",
"@ @ @ $ $ & & & $ $ $ @ @ % % & $ @ @ $ @ @ $ $ $ $ $ $ & & * * * * * * * * * * ; ; ; ; ; > : ; ; ; > > > > > > > > > > > > 1 1 > , , , , , 1 1 1 1 1 4 4 5 5 5 5 5 u s l z R =.:.:.:.-.! R R R R R R T T T v c c c c c z z z z l l p i i i i i i y y 3 3 < , , ",
"@ + @ $ $ @ @ & & $ $ @ @ $ $ $ $ $ $ $ $ $ $ $ & * * * * * * ; ; * * ; ; ; ; ; : > > > > > > > > > > > > > > > 1 1 1 4 1 4 4 4 4 4 4 4 4 4 4 4 4 4 4 4 5 5 5 5 5 y a h x T ! =.;.;.-.! R T R T T T T T T c c c c z z z z z l l l l s i i i i i s y 5 3 3 < , , ",
"+ + + + @ @ @ @ & @ @ @ @ $ $ $ $ $ $ $ $ $ $ $ * * * * * * ; > ; ; : > > > > > > > > > > > > > > > > 1 4 4 4 4 4 4 4 4 4 4 4 4 4 4 4 4 4 5 0 0 0 0 0 0 0 0 0 0 0 a a h x T ! =.=.=.! T T T T T T T T c c z z z z z z z z l l l h s i i i i u s k y 5 3 3 < , , ",
"+ + + + + + @ @ @ $ @ @ & & $ $ $ $ $ & * * * & * * * * * ; ; : > > > > > > > > > > > > > 1 4 4 4 4 4 4 4 4 4 9 9 9 9 0 9 q q q q q q 0 q q q q q q q q q q q q q a s k x T ! ! ! ! T T T T T T T T c z z l l l l l l l l l l s s s i u u u u i h u 5 3 3 < , , ",
"+ + + + + + @ @ @ $ @ @ $ & $ * & & & * * * * * * * * * ; > > > > > > > > > > 4 4 4 4 4 4 4 4 4 4 4 9 0 0 q q 9 q q q q q q q q q q q q q q q q q q q q a a a a a a k k S T R ! ! T T z z z c c c z z k l l l l l l l l l h s s s i u u u u y a u 5 5 3 3 3 3 , ",
"+ + + + + + + @ $ @ @ @ $ @ $ & $ * * * * * * * * * ; ; : > > > > > 4 2 4 4 4 4 4 4 4 9 0 0 0 q q q q q q q q r d j d r d j j j j j j j j j j j j d d d d d d d d j k k S T T T T S z z z z z z z z l l h h h s s h s s h s s s a u u u u u y u u 5 5 5 5 5 3 , ",
"+ + + + + + + @ @ @ @ @ $ @ $ * * * * * * * * * ; ; : > > > > > 1 4 4 4 4 4 4 9 0 q q q q q q r r d j j j j j j j j j j j j j j j j j j j j B B j j j j j j j j j k k Z S T T T S Z Z x k k k k l h s s s s s s s s s s s a a a a a u u a u 5 5 5 5 5 5 5 3 3 3 ",
"+ + + + + + + @ @ @ $ $ $ $ & * * * * * * * ; * : > > > > > 2 4 4 4 9 9 9 0 q q q r r r r f f j j j j j j j B N N N N N N N N N N N N N N N N N N N N N B B B N N N Z Z G G G S Z N k k k k h h h s a a a s a a a a a a a a a a u u u u a u 5 5 5 5 5 5 5 5 3 5 ",
"@ + O + + + + @ @ @ $ $ & & * * * * * * ; ; : > > > > > > > 4 9 9 9 q q q q q r r j j j j j j B B N N N N N N N N N C N C C C C C C C C N C C C C N N N N N N N N Z A G G G G Z Z Z N k k h h a a a u y a a a a a a a a a u u u a u u u a u 5 5 5 5 5 5 5 5 5 5 ",
"+ + O O + + + @ @ @ $ $ & $ * * * * * ; ; ; : > > > > > 4 4 9 9 9 q q q r r r j j j B B N N B C N C C C C C C F F F F F F P P P F F F F F F F F F F F C N C C C A F G I G G G Z Z N N k k j d a a y y 5 y a a a a a a a a a a a a a a a a q q q q 5 5 q 0 5 5 5 ",
"+ + + + + @ + @ @ $ $ $ $ $ & * * * ; ; ; : > > > > > 4 4 9 0 q q r r r j j B B B N N C C C C C C F F F F F P P P P P P U U U I P P P P P P P P P P P F F F F F P U E E U G F A A Z N k k k d a a a 5 5 0 a a a a a a a a a a a a a a a a q q q q a q q q 0 5 5 ",
"+ @ + + + @ @ @ @ @ $ $ $ * - * * ; ; ; > > > > > > 4 4 9 q q r r r j j B B B C C C C C F F C P P P P I U U U U I I I I I I I I U U I I U I I I U U U U I U U U U E ~ ^ E U I G G F Z Z k k k j a a a a a a a a j j a a a a a a a a a a a a a a a a q q q q q q ",
"+ @ + + + @ @ @ @ @ $ $ $ * * * ; ; ; ; > > > 4 4 4 9 9 9 q r r j B B B N C C C C F P P P P P P U U I I I I Q I Q ~ ~ ~ ' ' ' ~ ~ ~ ~ ~ ~ ~ ~ ~ ~ ~ I I U W W ~ ^ ^ ^ ^ ~ E E E U U G S Z Z Z k k k j a a j j j k k k j j j j a d j d d j a d d a a a a a a q q ",
"@ $ + + + @ @ @ @ $ $ $ * * * ; ; ; ; : > > 4 9 9 9 9 q r r r j B B N C C C P P F P P I I I I I I I ~ ~ ' ' ' ' ' ' [ [ } } [ ' ' ' ' ' ' ' ' ' ' ' ' ' ~ ~ [ [ [ | | [ ^ ^ ^ ^ ^ E E G S S Z Z Z k k k k k k k k k k k k k k k j k j j j j j j j j j a j j a q ",
"$ $ + + @ @ @ @ $ $ $ * ; ; ; ; ; ; > > > 4 9 9 9 q r r r j B B N C C C P P P P P P I I I ~ I ~ ' ' ' ' [ [ [ } } }  . ...} } } } } } } } } } } } [ [ [ [ [ X.....X.X.| | | / / ^ ^ ^ E T T G G S Z Z Z N N N N N N N N k k N N k k j k k k k k j j j j j j j q ",
"@ $ @ @ $ @ $ $ $ $ * * ; ; ; ; ; ; : > > 9 9 q r r r r j B N C C C F P P P U U I I I ~ ' ' ' ' [ [ }  ...$.$.$.$.$.$.$.%.%.$.$.$.$.$.....$.................%.X.X.X.%.%.X.X.X.X.X.X./ / E E E E T G G F A A A A A N N N N N N N N N N N N N N N k k k j j j j a ",
"@ $ @ @ $ $ $ $ $ $ * ; ; ; ; ; ; ; > > 4 9 q r r r j B B N C C F P P U I I I I I I ~ ' ' } [ } } ..$.%.%.%.%.%.&.&.&.&.&.1.&.&.&.&.&.&.&.&.&.&.&.&.&.&.&.<.3.3.3.4.4.<.<.<.<.,.,.,.,.X./ / ^ ^ E E T G G G F F F F A A N Z N N N N N N N N N N N N B B j k j j ",
"$ $ $ $ $ $ $ & ; ; ; ; ; ; ; ; > > > 2 9 q r r B B B N C C F P P U I I I I Q ~ I ~ ' ' [ } } } $.&.&.&.&.1.&.&.1.3.y.1.&.&.&.&.%.%.%.$.$.$.$.$...........%.%.%.%.X.X.| | | | | / / ^ E / X.X./ ^ ^ E E E U U I I F F F F F A A A N A C N N N N N N N N N j j j ",
"$ * $ $ $ & * ; ; ; ; ; ; ; ; ; ; ; ; : > 4 9 9 q r r r B B B B C C F P P P P P I I I I ' } } $.&.&.3.3.3.y.y.y.y.y.u.[ ; ; ; ; * ; ; * * * * * * * * * = : , : = = * * * & & % % % + + T ,.,.X./ / ^ ~ W E E U U P F P P F F F F F F F A A A A N N N N N N j j ",
"$ $ $ $ $ $ $ & $ $ $ $ $ $ $ $ $ $ $ $ ; > 9 q r j B B B C C C C P U I Q ' ' ' }  .$.&.q.y.y.$.&.1.y.y.y.y.u.u.u.u.x.[ X       . X o o o O + + + + + + % % % % % @ @ @ @ + + + O O O + T 4.,.,.X.| | ^ ^ ~ ~ W E U U P P I I P F F F F F F F A A N N N N N N j ",
"$ $ $ $ * * * * * * - $ $ * * - * $ $ * ; 4 9 r B B C C C P P P P I I ' ' ' [ }  .$.&.y.y.j.y.$.&.3.y.u.u.u.u.u.u.a.x. .O       . . X X X o O O + + + + % % % % + + + + + + O O O O O @ E 5.<.,.,.%.X.| [ ^ ^ ~ ~ W U U U U U U U P P F F F F F F F F A N N N B ",
"$ - $ - ; ; * * * ; ; ; ; ; ; * ; ; * * ; 9 r B C F P P I I I I I _ ' ' } } } $.$.&.y.y.u.x.u.%.1.y.y.u.u.a.a.a.a.a.x.$.+ X         . X o o o o O O + + % @ + + + + + + O O O O O o O @ E 5.4.<.<.%.%...| [ [ ' ~ ~ W I U U U U U U U U P P F F F F F F A N N N ",
"$ & ; ; ; ; ; ; ; ; ; ; ; ; ; ; ; ; ; ; ; 9 B C P U I Q ' ' ' ' ' ' } } +.$.$.$.&.q.y.u.j.x.x.&.1.y.y.u.a.s.x.x.x.x.c.&.+ X         . X X o o o o O + + + + + O O O O O O O O o o o o @ E 5.5.4.<.,.%.%.....[ ' ' ~ ~ ~ U W U U U U U U U U I P F F F F F A N N ",
"$ ; ; ; ; ; ; ; > > ; ; ; ; ; ; ; ; ; ; ; r B P I ' } } } }  .+. . .$.$.$.$.&.&.1.y.u.u.x.n.n.&.y.y.u.u.x.x.x.x.x.x.x.y.$ X           X X X X o o O O + O O O O O O O O O o o o o o o @ E p.5.4.4.<.X.%.......[ [ ' ~ ~ ~ ~ W I U I U U U U U I P F F F F F C N ",
"* ; ; ; ; ; ; > > > > > > ; ; ; ; ; ; ; > r C I Q } $.&.&.&.&.&.&.%.&.%.&.&.&.&.y.y.u.x.x.n.n.&.y.y.u.a.x.x.x.x.x.j.x.y.& X X         X + + X o o O O O O O O o O o O o o o o o o . o $ ~ p.5.4.4.3.<.&.%.....[ [ ' ' ' ~ ~ ~ ~ W W I U U U U U U U P F F F C C ",
"* ; ; > > > > > > > > > > > > > > > ; > > r C I ' $.&.y.q.q.y.q.y.1.q.&.1.q.q.y.y.u.u.x.n.n.n.&.y.y.u.x.x.x.x.x.x.x.c.u.; X o o + +   e e.o.+ . . o O O o o o o o o o o o o . . . . o $ E p.5.5.4.3.<.&.%.%.....[ [ [ ' ' ~ ~ ~ ~ ~ ~ W I U U U U U U P F F C N ",
"; ; ; > > > > > > > > > > > > > > > > > > r P _ } &.y.a.u.y.y.y.y.y.y.y.y.y.y.y.y.u.a.x.n.n.M.&.y.u.a.x.x.c.c.c.c.c.n.u.; O O O $ $   8 @._ @ o O O O + + O O + + + + + + + O O O o o $ E d.p.5.4.4.<.&.&.%.......[ [ [ ' ' ~ ~ ~ ~ ~ ~ I I U U U U U I F F A C ",
"; ; ; > > > > > > > > > > > > > > > > > > r P _ } 1.u.x.j.j.j.j.j.u.u.y.y.y.y.y.y.u.j.x.n.S.G.y.y.u.j.x.x.n.c.n.n.n.n.j.> O X X X X X + @ @ $ * * * * * * * = = : ; ; ; ; * & & & $ @ @ E d.p.5.4.4.3.<.&.&.&.......[ [ [ ' ' ~ ~ ~ ~ ~ W ~ I I U U U P P P F F ",
"; ; > > > > > > > > > > > > > > > > > > > r P '  .q.j.n.n.n.c.c.x.x.a.u.u.y.y.u.u.a.x.x.n.n.G.y.y.u.x.x.n.n.n.n.n.c.n.x.> X X X . . X + $ $ & * * * * * * * * = * ; ; ; ; * * & $ @ @ $ E d.p.p.4.4.3.<.&.&.&.......} [ [ [ ' ' ' ~ ~ ~ ~ ~ Q Q U U U U I P F F ",
"; ; ; ; > > > > > > > > > > > > > > > > > r P ' +.y.j.n.M.M.n.n.n.c.x.j.u.u.u.u.u.j.x.n.n.n.G.y.y.u.x.x.n.n.n.n.n.c.n.x.9 O X X .   X + @ $ $ & * * * * * * * = ; ; ; ; ; ; * * & $ $ $ U d.p.p.5.4.3.<.&.&.&.&.....} [ [ [ [ ' ' ~ ~ ~ ~ ~ ~ Q I U U U U U P F ",
"; ; ; > > > > > > > > > > > > > > > > > > r P ' $.y.x.n.S.M.M.M.n.n.n.x.j.f.u.u.a.j.x.n.n.M.G.y.y.j.x.n.n.n.n.n.n.n.n.n.9 O X X X   . + $ $ $ & * * ; ; : : : : : : : : ; ; ; ; * & & & G v.p.p.u.4.3.<.&.&.&.&.......} [ [ [ [ ' ' ' ~ ~ ~ ~ ~ I U U U U P F P ",
"; ; ; > > > > > > > > > > > > > 9 9 > 8 > r P ' $.y.x.n.S.M.M.M.S.n.n.x.x.j.j.u.a.j.x.c.n.M.G.y.u.j.x.n.n.n.n.n.n.n.n.n.r O o X X   X + $ $ * * * : : : : : : : > > > > > > > : ; * * & G v.a.p.u.4.3.3.&.&.&.&.$.......[ [ [ [ [ ' ' ~ ~ ~ ~ ~ ~ I U U U I F F ",
"; ; > ; > > > > > > > > > > > > 9 7 9 9 8 r K ' $.y.u.n.n.n.n.n.S.S.n.n.x.x.j.j.u.j.j.c.n.n.G.y.u.j.x.n.n.n.M.M.n.n.n.n.B O O X X . . + $ & * ; ; : > > > > 1 1 1 1 1 1 1 > > > > ; * $ F v.s.p.u.4.3.3.&.&.&.&.&.......[ [ [ [ [ ' ' ' ~ ~ ~ ~ ~ I I U U I P F ",
"; ; > ; > > > > > > > > 2 2 > 8 9 8 > 9 9 9 C ' +.&.u.x.n.n.n.n.S.S.n.n.n.x.j.f.f.j.j.x.n.n.G.u.u.j.x.n.n.n.M.M.n.n.n.S.C + O o X X . @ & * ; ; : > > 1 1 1 1 4 4 4 4 9 9 9 9 4 > > ; $ F v.s.u.u.y.3.3.<.&.&.&.&.$.......[ [ [ [ [ ' ' ~ ~ ~ ~ Q I I U U I P F ",
"; ; > > > > > > > > > > 8 2 8 8 2 9 6 6 9 9 C ' $.&.u.c.n.n.n.n.S.S.n.n.n.x.j.j.j.j.j.x.n.n.G.u.y.j.b.n.n.M.M.S.n.C.S.S.P + + o X X . @ & ; ; > > > 1 1 4 0 0 0 0 0 0 q 0 0 9 9 4 > > $ N v.a.u.u.y.3.3.3.&.&.&.&...........[ [ [ [ ' ' ' ~ ~ ~ ~ Q I U U U P P ",
": > > > > > > > > > > > > 8 8 8 8 > > > 9 9 C _ } &.i.x.n.n.n.n.S.M.n.n.x.x.j.j.j.j.j.x.n.n.S.u.y.j.x.n.n.M.S.S.S.S.n.S.I + + o X X X $ * ; : > > 4 9 0 0 0 r r r r r r r r r 0 9 1 > $ N v.a.u.u.y.3.3.3.&.&.&.&.&.........[ [ [ [ ] ' ' ' ' ~ ~ ~ W I U U I P ",
"> > > > > > > > > > > > 8 9 8 8 2 8 > 2 9 9 V I } $.y.j.c.n.n.n.n.n.n.n.b.j.j.j.j.j.j.x.c.n.S.y.y.j.n.n.n.S.S.S.S.S.S.S.I + + O o X X $ ; ; > > 1 4 0 0 0 q d d d d d d r r r q 9 4 > @ N s.s.u.u.u.3.3.3.<.&.&.&.&.........} [ [ [ [ ' ' ' ' ' ~ ~ ~ I U U I F ",
"> > > > > > > > > > > > > > 2 8 2 > 2 8 9 9 B Y ' $.&.y.j.x.b.n.n.n.n.n.l.j.j.j.f.f.j.j.c.n.n.y.y.x.b.n.S.S.S.S.S.S.S.S.I + + O o o X @ * : > > > 4 9 0 0 q r d d d r j d d d r 0 4 > $ N s.a.y.y.u.y.3.3.<.&.&.&.&....... .} [ } [ [ [ ' ' ' ' ~ ~ Q I U U P P ",
"> > 6 8 > > > > > > > > > > 2 2 2 > 2 8 9 9 m P ' } &.y.y.u.j.j.x.n.n.j.j.j.j.j.u.j.j.j.n.n.n.u.y.b.n.n.S.S.S.S.S.S.S.D.' + + + O X X $ * : > > 1 9 9 0 0 r r r d d d j j j d r q 9 > $ N s.s.3.3.u.y.3.3.<.&.&.&.&.........} } [ } [ [ ' ' ' ' ~ ~ Q I U U P P ",
"> > 8 8 > > > > > 6 6 > > > > > > 2 9 9 9 9 n P _ ' *.q.i.y.y.j.j.j.j.j.j.j.j.u.u.j.j.x.n.n.n.a.u.n.n.S.S.S.S.S.S.S.S.K. .$ + + O o o $ ; : > > 4 9 9 0 0 r r r d d d j B j d r q 9 > $ N u.u.y.y.u.y.3.3.<.&.&.&.&....... .} } } [ [ ' ' ' ' ~ ~ Q Q I U U P P ",
"> > 9 9 > > > 6 6 6 6 6 6 6 9 6 6 6 9 9 9 9 r J I ' $.&.q.y.y.y.j.j.j.j.j.j.y.y.u.u.j.x.n.n.n.a.f.n.n.S.S.S.S.G.S.S.S.K.$.$ + + O o o $ ; : > > 4 9 0 0 0 r r d d j j j B j d r q 9 > $ N u.u.u.u.y.y.3.3.<.<.&.&.&.........} } } [ [ ' ' ' ' ~ Q I I I U U I P ",
"> 2 9 w > > > 6 6 6 > 6 6 6 9 9 9 9 9 9 9 9 r C I ' O.$.8.q.y.y.f.j.j.j.j.j.u.y.y.y.j.j.x.x.n.u.y.n.C.S.S.S.S.G.S.S.S.K.&.$ + + O X X $ ; : > > 4 9 0 0 q r d d d j j j j j j r q 9 > $ N s.u.u.u.y.y.3.3.<.<.&.&.&.&.......} [ [ [ [ ' ' ' ' ~ Q I I U U U P P ",
"8 9 9 9 6 > 6 6 6 6 6 8 9 9 9 9 9 9 9 9 9 9 r C Y ) } $.&.q.q.i.y.y.y.f.j.f.f.u.y.u.j.j.x.b.n.u.i.n.C.S.S.S.S.S.S.S.S.K.&.$ + + O X X $ ; : > > 4 9 0 r r r r j d j j j B B B d r 9 4 $ B s.u.u.u.y.y.3.3.3.&.&.&.&.&.......} [ [ [ ' ' ' ' ' ~ ~ I I I U U P P ",
"9 9 9 w 6 6 > > 6 9 9 9 9 9 9 9 9 9 9 9 9 9 e V Y I { O.$.&.q.e.y.y.y.y.y.y.y.u.f.j.j.j.x.n.n.j.i.n.C.S.S.S.S.S.S.S.S.K.q.* @ + + X X $ ; : : > 4 9 q r r r d j j j j B N B B j r 9 4 & B s.u.u.y.y.y.3.3.3.&.&.&.&.$.$.....} } [ ' ' ' ' ' ' ~ ~ I I I U U P P ",
"9 9 9 r 9 > 6 6 8 9 9 9 9 9 9 9 9 9 w w w w e B P I _ ' +.&.&.q.e.i.y.y.y.y.y.f.f.f.j.j.x.b.n.x.i.n.C.S.S.S.S.S.S.S.S.K.y.* @ + + o X $ ; ; > > 4 9 q r r r d j j j j B B N B j r 0 9 * j s.u.u.y.y.y.3.y.3.&.&.$.$.$.$.....} } [ [ ' ' ' ' ' ~ I I I I U U P P ",
"9 9 9 e 9 6 6 8 9 9 9 9 9 9 9 9 9 w w e w e r B K I _ { O.+.&.8.q.q.i.i.y.y.y.f.u.j.j.x.b.n.n.n.y.n.C.S.S.S.S.S.S.S.S.D.y.; @ + + O X @ : : > 1 4 9 0 r r r d j j B B N N N B j r q 4 * r a.u.u.y.y.y.3.3.&.&.&.$.$.......} } } [ ' ' ' ' ' ' ' I I I I I U U P ",
"9 9 w e 9 9 8 9 9 9 9 9 9 9 w w w w w e r r r B C Y ) { } +.&.&.q.q.e.i.i.y.y.u.u.j.j.b.n.n.x.n.y.n.C.S.S.S.S.S.S.S.S.K.a.; @ + + + X + : : > 1 9 0 q r r d j j j B B B N N N B r q 9 * r u.u.u.y.y.3.&.&.&.&.&.$.$..... .} } } [ ' ' ' ' ' ' ' ~ I I I I U U P ",
"9 w w r 9 6 9 9 9 9 9 9 9 w e w w w 9 e r r r B C P I ' ' O.$.&.&.q.q.q.q.i.y.y.u.j.x.n.n.b.j.n.i.n.C.S.S.S.S.S.S.S.S.K.j.; @ + + + o + : : 1 1 9 0 q r r d j j j B B B N N B B r 0 9 * r u.u.u.y.3.3.&.&.&.&.$.$.......} } } [ ' ' ' ' ' ' ' ~ I I I I U I I P ",
"w w e r e 9 9 9 w w w w e e e w w e e r r r r B C J Y ) ' } } $.$.&.&.&.8.q.y.y.y.j.j.n.n.x.x.n.q.b.C.S.S.S.S.S.S.S.S.K.j.> @ + + + o + : > > 4 0 q r r r d j j j B B B N N B B r 0 9 ; 0 u.u.y.3.3.3.&.&.&.&.$.$...} } } } [ ' ' ~ ' ' ' ' ~ I I I U I U I P P ",
"w w w r r 9 9 9 9 w e e r r r r e r r r r r r B V C P I ) ' } +.$.&.&.&.&.8.q.i.y.f.j.n.n.n.x.n.q.b.n.C.S.S.S.S.S.S.S.K.x.> $ + + + o + > > 1 9 0 r r r d d j j B j N N N N B B d 0 4 * 9 u.u.y.3.<.&.&.&.$.$...} } } } } [ ' ' ' ' ' ' ' ' I I I U P P P P P P ",
"w w w e r 9 9 9 9 9 0 e r r e r r r r r r r r m V C P Y I ' ' } +.*.&.&.&.8.q.i.y.f.j.b.n.n.n.n.q.b.n.C.C.S.S.S.S.S.S.J.n.9 $ $ + + O + > > 1 9 0 r r r d d j j j j B N N N B B r 0 4 & 9 u.u.y.<.&.&.&.&.$.$...} [ [ [ [ ' ' ' ' W W I I I I I I I P P P P F F ",
"e 9 e r r 9 9 9 9 w e e r r r r r r r r n r r m B C K P I ) { } +.$.&.&.&.q.q.i.y.u.j.x.n.C.C.C.y.b.C.C.C.S.S.S.S.S.S.G.n.9 $ $ + + + + > 1 4 0 q r r r d B B B N N N N N N N B j r 9 * 9 y.y.3.&.&.&.&.$.$...} } [ [ [ [ ' ' ~ ~ ~ I I I I I I P P P P P P F F ",
"9 0 e r r 9 9 9 9 e e e r r r r r r r r n n n m B C K Y I I ' [ O.$.&.&.&.q.q.i.y.y.f.j.n.n.C.C.i.b.C.C.S.S.S.S.S.S.S.S.n.r $ $ # + + + > 1 9 0 r j B B N C C A A A A A F F F C C B r : 4 y.y.&.&.&.$.$.$.$...} } [ [ ' ' ' ~ I I I I I I I I I P P P P P P P F ",
"9 9 e r r 9 9 9 9 r r r r r r r r n n n m m B B B C J Y I I _ { O.+.*.&.&.8.q.y.y.y.u.j.b.n.n.S.y.l.n.C.C.S.S.S.S.S.S.S.C.r $ $ $ + + + 1 9 q d j N C A F I I I I U E E U U W U P C N > 7 1.y.&.&.$.$.$. .} } } } ' ' ' ' ' ~ I I I I I I I I I P P P P P K C C ",
"9 9 w r r 9 9 w e r r r r r n m n n n B B B B B V C K Y I I _ ] } +.*.&.&.8.q.y.y.y.j.j.b.n.n.C.i.f.n.C.C.S.C.S.S.S.S.S.C.B $ $ $ $ + + 1 0 d N C A I U U W ~ ~ ~ ^ [ [ ' ' ' ' ~ I A 4 9 &.1.&.$.$.$.$.$.} } } } ' ' ' ' ' I I I I I I I I I I P P P F P K C C ",
"w w w e r w w w e r r r n n n m n B B B B B B B C J K Y I I _ { } O.$.&.8.q.q.i.y.f.j.b.n.n.n.S.y.l.C.S.S.S.S.S.S.S.S.J.S.C $ ; & $ + + 9 q j N F I U W ~ ' ' [ [ | ............[ W I 9 4 &.y.&.&.&.$.$.$.$.} } } } [ [ ' ' ' ) I I I I I I I I I P P P P P P C ",
"w w w e r e w r r r n m m m m m B B B B B B B V C P P I I ) ' ' } +.*.8.q.q.i.y.f.j.n.n.n.S.S.J.j.b.S.J.K.K.K.K.K.K.K.K.I.P - ; - $ + + 9 r N A I I ~ ' [ } ......%.&.&.&.&.&.&...' I r 9 y.u.y.y.y.&.&.&.&.$.$.$...} } } } ' ' ' ~ I ~ ' ' I I I I P P P P P P ",
"w w w e r r e r r n m B B B B B B V V V V V V C C P Y I ) ' { } +.$.&.&.q.i.y.f.j.n.C.S.S.G.K.K.b.C.K.T.T.T.T.T.T.T.T.E.E.I ; ; ; - $ # 9 r C P I ~ [ } ..&.&.&.&.&.<.<.<.3.<.&.&.[ ~ j 9 u.x.u.u.u.y.y.y.y.&.&.$.$.$.} } } [ ' ' ' ' I ' ' ~ I I I I U I I U P ",
"9 w e r r r r n n B B B B B B B V V V C J C J K K P I I ' { ' } +.*.&.q.y.y.f.j.j.n.C.S.S.G.K.P.n.S.T.R.W.W.W.W.W.W.W.W.Q.} ; ; ; ; $ $ 9 B C I ~ [ ....&.&.3.3.3.3.y.3.4.3.3.3.<...' N r s.v.s.u.u.u.u.u.y.3.&.&.$.$.$...} } ' ' ' ' ' ' ' Q I I I I I I I I I ",
"9 e r r n n r n B B B B B B B V V C J J J J K K K Y I _ { ' } +.+.&.q.y.y.y.j.j.l.n.C.S.G.J.K.T.J.G.R.R.W.W.W.W.W.W.W.Q.(.$.: : ; ; $ $ 9 j F I ~ [ ..&.&.3.y.y.u.u.u.u.u.u.y.y.3.&.} C r x.n.x.u.u.u.u.u.y.y.8.&.&.$.$.$. .} [ ' ' ' ' ' ' ' Q I I I I I I I I ",
"e r r n m m n m B B B V V V C J J J K K K K K P I I I _ ' } O.+.$.&.q.i.i.y.f.j.l.n.C.S.J.J.K.T.K.K.W.W.W.Q.(.(.(.(.(.(.`.$.> > : ; $ $ 9 B P I ' ..&.&.3.y.u.u.u.u.s.a.a.u.u.u.y.&...F r x.n.c.x.u.u.u.u.y.y.q.&.&.&.$.$...} } ' ' ' ' ' ' ' I Q Q I I I I I I ",
"m m m B B B m B B V V C J J J K K K Y Y Y P Y I I I ) _ ' } O.+.*.&.q.q.q.y.f.j.l.n.C.S.J.J.I.T.J.S.W.W.Q.(.(.(.(.(.(.(.`.&.> > > ; $ $ 0 B P W [ ..&.3.y.u.u.u.s.s.s.s.s.s.a.u.u.3.&.P j x.n.n.x.a.u.u.u.u.y.y.&.&.&.&.%.$.} } ] ' ' ' ' ' ' ' ' ' ' ' Q I I I ",
"B B B B V V B V V V V J K K K L L Y Y Y Y I I I I I _ ' ] O.+.+.&.&.8.q.q.y.j.l.b.n.C.S.S.K.I.T.J.S.W./.Q.(.(.(.(.(.(.).`.q.> > > : - $ 9 B I ' } $.&.y.u.u.s.s.s.x.x.x.x.s.s.s.u.3.&.U B c.G.n.x.j.u.u.u.y.y.y.&.&.&.&.&.$. .} } ' ' ' ' ' ' ' ' ' ' ' ' I I I ",
"V V V C J J B V V C J K K L L L Y I Y I I ( ) ) ) _ _ ' [ +.+.+.*.&.q.q.q.y.f.j.n.n.C.S.S.K.U.T.K.S././.(.(.(.(.(.(.(.).`.y.1 > > > - $ 9 N I ' } &.y.y.u.s.s.v.v.v.v.v.v.v.x.s.a.y.3.~ B n.G.n.x.j.u.u.u.u.y.q.&.&.&.&.&.$.$.} } } ' ' ' ' ' ' ' ' ' ' ' _ I Q ",
"C C C K K K C C V J K K L L Y I Y I I ) ( ( ) ) _ _ ' [ } O.+.+.*.&.8.q.q.i.f.f.l.n.C.S.J.U.U.Y.S.C./.~.(.(.(.(.(.(.(.).`.f.9 > > > ; $ 9 N I ' $.&.y.u.u.x.v.v.n.n.v.v.v.v.v.v.s.u.3.~ B x.G.n.x.j.u.u.u.u.y.q.&.&.&.&.&.$.$. .} } ' ' ' ' ' ' ' ' ' ' ' ' _ ' ",
"K K K K L Y J H H K L L L Y Y I I I I ( ) ) ) _ _ _ { ' } +.@.*.*.&.8.q.i.y.f.f.l.n.C.S.S.K.U.U.K.S./.~./.(.(.(.(.(.(.).`.j.9 9 7 > ; $ 9 N I [ $.&.y.u.s.x.v.n.m.N.N.N.N.m.n.n.x.u.y.' B x.S.n.x.j.f.u.u.y.y.y.q.&.&.&.%.$.$.} } } [ ' [ ' ' ' ' ' ' ' ' ' ' ' ",
"K K K K Y I H H J K L L L Y I I I I I ( ) ) ) _ _ _ _ { ' +.+.*.*.&.8.q.i.y.f.f.j.l.n.S.S.D.K.K.K.S.~.~././.(.(.(.(.(.).`.n.9 9 9 > : $ 0 C I } &.y.u.u.x.v.n.m.N.G.G.G.N.N.N.m.v.s.u.[ B x.S.n.x.j.u.u.y.i.y.q.&.&.&.&.%.$.$.} } } } [ ] [ { ' ' ' ' ' ' ' ] ' ",
"P P P Y I I J H J K K L L Y I I I I ( ) ) ) _ _ _ _ _ ` [ +.+.*.*.&.7.q.i.i.f.f.j.l.n.C.A.S.S.K.K.S.W.W.~././././.(.(.(.).n.w 9 9 > > $ 9 N I } $.y.u.a.x.v.n.N.G.G.G.H.G.N.N.N.n.s.u.} B x.C.b.j.j.f.y.y.i.y.q.&.&.&.&.$.$.$.} } } } } [ { ' ' ' ' ' ' } } ' } ",
"Y Y Y Y I I K V H J K L Y Y I I I ( ( ) ) ) ) _ _ _ _ ` [ O.+.+.+.&.7.8.e.i.y.f.f.j.j.b.C.S.S.D.K.n.W.W./././././././.(.).S.e 9 9 7 > & 9 N I } $.y.u.a.x.v.n.G.G.G.G.H.G.G.N.m.n.s.u.} B j.C.b.b.f.u.i.i.y.y.q.8.&.&.%.$.$.$. .} } } } } ] ' ' ' ' [ } } } } } ",
"Y Y Y I ( ) Y V J K K L Y Y I I I ( ( ) ) ) _ _ _ _ ` { ] +.+.+.@.&.7.8.q.e.i.y.f.f.j.j.C.C.S.S.S.j.W.W.W.~./.~.~././.(.).S.r 9 9 9 > & 9 C I } $.y.u.a.x.n.n.G.G.H.H.H.H.G.G.G.n.x.u...B f.C.b.j.f.u.i.i.i.y.y.1.&.&.&.$.$.$. .} } } } } ' ' ' ' { } } } } } } ",
"I I I I ( ) I V H J K K L Y I I ( ) ( ) ) _ _ _ _ ` { { O.+.+.+.+.*.&.&.8.q.i.y.y.f.f.j.l.n.n.z.z.f.W.W.W.~.~.W.W.~.~./.(.K.r 9 9 9 > - 9 C I } &.y.u.x.x.n.G.G.G.H.L.H.G.n.c.n.n.x.u.$.N u.C.b.j.f.u.i.i.i.y.y.q.&.&.&.$.$.$. .} } } } } } ' ' { { } } } } } } ",
"I I I I ( ) ( V V J K K L Y Y I I ( ( ( ) ) ) _ _ _ ` { ' o.O.O.+.+.*.&.7.8.q.q.i.y.y.i.y.f.j.j.j.y.R.W.R.W.W.R.W.~.~.~./.K.B 9 9 9 > ; 7 C W } &.y.u.x.x.n.G.G.H.L.L.L.N.u.y.y.u.y.y.$.C j.S.b.f.f.u.u.y.y.y.y.8.&.&.&.&.$.$.+.} } } } } } ' { ' [ } } O.} +. .",
"I I I I ) ` ) V V H J K K L Y Y I ( ( ( ) ) _ _ _ _ _ ` { ' O.+.@.*.*.*.&.8.7.8.e.i.e.q.q.e.y.y.f.y.R.R.R.R.R.R.W.W.W.W./.U.B 9 9 9 > ; 7 N W  .&.i.u.x.c.n.G.G.L.L.L.u.x.u. .} $.$.$.} C a.S.n.j.u.u.u.y.i.y.y.8.&.&.&.&.$.$.$.O.} } } } } } ' ] } } O.+.$.+.+.",
") I I ( ) _ _ B V V J K K Y Y Y Y I ) ( ( ( ( ) ` _ _ _ _ ' O.+.+.+.+.@.&.7.7.7.8.q.q.q.8.8.e.i.y.i.R.R.R.T.T.R.R.R.R.W.~.Y.V 9 9 9 7 ; 7 C I  .&.u.x.x.x.n.G.G.L.L.E.u.I x.} P I I ' I B u.C.n.x.u.u.u.u.y.y.y.q.&.&.&.&.$.$.$.$.+.O.} } } } } ' ' } $.$.$.+.+.",
"( ( I ( ) _ _ B B V V K L Y L Y Y Y Y I I Y I ) _ ) ) ) ) { ' O.+.o.O.+.@.&.&.&.&.8.8.&.+.+.&.q.i.q.T.R.T.T.T.T.R.R.R.R.W.Y.C 9 r 9 9 ; 7 C I  .&.u.x.x.n.n.G.G.L.L.L.E.O.$.*.N j C J J B u.C.n.x.f.u.u.u.y.i.i.q.8.&.&.&.$.$.$.$.+.+.} } } } } ' ' } $.$.$.$.+.",
") ( I ( ) ` { V B V V J K Y L L L Y Y I I Y I ) _ _ _ _ ) _ { o.O.O.O.O.+.@.@.@.+.' ' ) I { C.C.q.8.Y.R.T.T.Y.Y.T.T.R.R.R.U.C 0 e 9 9 ; 7 C I } &.y.x.x.n.n.G.G.L.L.L.E.G.} &.C 7 9 r B B f.S.n.x.f.u.u.y.i.i.8.8.8.&.&.&.*.$.$.$.+.+.+.+.+.} } ' } +.$.$.$.*.$.",
"( ( I I ) _ { J B V V J K K K L L L I I I I ) ) ) ) _ _ _ _ { { ' ' ' O.+.O.O.O.' ) ) ) _ q.S.L.q.7.D.R.T.Y.Y.Y.Y.T.T.T.R.U.K q r e 9 > 7 N I  .&.y.a.x.n.n.G.H.L.L.L.E.E.y.} P > ; 7 r C u.S.n.j.u.u.u.y.i.y.q.q.8.&.&.&.*.*.$.$.$.$.+.+.+.O.O.} } +.$.%.&.&.+.",
") ( I I ) _ { J B V V J K K K K P P Y Y L Y I I I ( ( ) ) _ { { { { [ [ O.O.O.O.' _ ' ' { { ' n.i.&.S.R.Y.Y.U.U.U.Y.Y.T.T.U.P r r e 9 > 7 N W $.&.y.a.x.n.m.G.L.L.L.E.E.E.G.' ' > $ ; 9 C y.C.n.b.j.f.y.y.y.i.q.q.8.&.&.&.&.*.*.$.$.$.+.+.+.O.+.} } +.&.&.&.&.&.",
"( ( ( I ( _ { K B V H J K K Y Y Y Y Y Y K P Y I I I ( ) _ { { { { { ] [ O.O.e.b.b.n.C.C.C.b.*.q.8.*.A.R.Y.U.K.K.K.U.Y.Y.Y.U.I r r r 9 > 7 N I $.<.y.a.x.n.n.G.L.L.L.I.E.E.E.$.' B $ $ 6 C y.C.n.b.l.j.y.y.y.i.q.q.q.&.&.*.*.&.*.$.$.+.+.+.+.} } } } +.&.&.&.&.&.",
") ) I I I ) { K m B V J K K K Y Y Y Y Y I ( I I I ( ) _ _ { { { { { ' ' ' o.O.+.+.@.+.@.@.8.E.W.8.+.n.R.U.K.K.K.K.U.U.Y.Y.U.) r r r 9 > 9 C I $.1.y.a.x.n.n.G.K.L.L.L.I.T.E.y.I ' 9 - > C u.S.n.b.j.f.y.y.i.i.y.q.8.&.&.&.*.&.&.*.$.+.+.+.+.O.} } +.+.&.&.&.&.&.",
") ( I I ( _ { Y m B V H J K P P Y Y Y I ( ( ( ) ) ) ) ) _ _ _ ` ` { { { { o.o.O.+.*.+.+.+.i.{..Xf.O.l.Y.K.D.D.D.D.D.U.U.U.U.) r r r w > 9 C I } &.y.j.x.n.n.G.J.L.L.L.I.T.E.u.I { I ; - C y.S.b.j.f.y.y.i.i.i.q.q.&.&.&.&.&.&.*.$.+.+.+.O.+.O.} O.+.+.$.$.&.&.&.",
"( ( I I ( ) { I m B V J J K K Y Y Y Y Y I I I ( ( ) ( ) ) ) _ _ _ ` ` ` { ' [ [ O.+.O.+.+.@.S.J.7.o.l.U.D.S.S.S.S.D.F.F.F.F._ r r r r 6 9 N I } &.y.u.x.n.n.G.G.L.L.I.I.I.E.x.I ' { & + C y.n.j.j.f.y.y.e.q.q.q.&.&.&.&.&.&.*.*.+.+.+.+.O.O.} } } O.+.$.$.&.&.*.",
") ( I I ( _ { ) B B V J J K K K L L L Y I I I I ( I ) ) ) ) ) _ ` ` _ _ ` { { { ' o.o.o.+.+.+.+.O.' f.U.D.S.S.A.A.S.S.F.S.F.{ r n r r 9 7 N I } &.i.a.x.n.n.G.J.L.L.I.I.I.E.x.I ' O.j + C q.b.f.f.y.y.y.e.q.q.q.&.&.&.*.*.$.$.$.+.+.+.+.O.} } } } } +.$.+.$.$.$.",
"` ) ) ) ) ` ' ` V V C J K K K K L Y Y Y I ( ( ( ( I ( ( ) ) _ _ _ ` _ ` { ' ] ] ' o.o.O.+.+.+.+.+.' y.U.D.S.A.A.A.S.S.S.S.F.o.n B j r 9 9 C I } &.u.x.x.n.n.G.J.L.L.I.I.I.I.i.I ) O.) & C q.b.f.y.i.i.y.e.q.q.8.&.&.*.+.$.$.*.$.+.+.+.} } } } } } O.+.+.$.$.$.+.",
"{ ` _ ) _ ` ' ' C V C J J K K K Y Y Y Y I I I ( ) ( ( ( ) ) _ _ ` ` ` { ] ' ] o.o.O.+.+.+.O.+.+.+.o.e.U.D.S.S.A.A.A.S.S.S.F.+.m B B n 9 9 C I $.1.u.x.b.n.C.G.J.K.L.I.I.I.J.q.O.I } } 9 C 8.l.f.y.q.q.y.e.q.q.8.7.&.*.$.$.$.$.+.+.} O.} } } } } } +.+.$.*.$.+.$.",
"[ [ ` _ ` { o.O.J V J J K K K L Y Y I I I I ( ( ) ) ( ( ) _ _ _ ` { ] ] ] ] o.O.o.+.+.+.+.+.+.+.@.+.e.F.D.A.A.A.A.A.A.S.S.F.*.B B B B e 9 F ' $.y.u.x.b.n.C.G.G.K.L.L.I.L.b.i.n.} { +.K C &.j.f.y.q.q.i.e.e.q.7.7.&.*.*.$.*.$.+.+.+.O.} } } } } +.+.+.$.$.+.+.$.",
"o.[ ` ` { o.O.@.Y V J J K Y Y Y Y I I ( I ( ) ) ) ) ) ) _ _ _ ` ' ' ] ] o.O.+.+.+.+.@.@.@.@.@.@.@.@.7.F.D.A.A.A.A.A.A.A.A.F.7.B B B B r 9 F ' *.y.u.x.b.n.C.G.G.K.L.L.L.K.i.x.I.n.*.$.{ P &.j.f.y.i.q.i.q.e.8.7.7.&.*.*.*.*.*.$.+.O.O.O.O.} O.O.+.+.+.+.$.+.&.&.",
"o.o.{ { { ' O.@.Y C J K Y Y Y Y I I ( ( ( ( ) _ ) _ _ ) _ _ { { ' o.o.O.O.+.+.+.@.@.#.7.7.7.7.7.7.@.7.F.S.A.A.A.A.A.A.A.A.S.0.B N C B r 9 D ' $.&.y.j.b.n.C.G.G.J.L.L.L.C.q.C.I.I.n.i.*.I &.j.f.y.i.e.i.e.q.q.7.&.&.&.&.&.&.&.$.+.O.+.+.O.O.O.O.+.+.@.@.$.+.&.&.",
"o.+.] ' ' O.+.*.) J J K Y Y Y I I ( ) ) ) ) ) _ _ _ _ _ _ { ' o.o.+.+.+.@.#.@.@.@.#.7.7.7.7.7.7.7.7.7.F.S.A.A.A.A.A.A.A.A.S.e.C C C C n w P ' $.8.i.f.x.b.n.C.G.J.K.K.L.j.i.J.I.K.K.S.y.) &.b.f.i.i.i.e.e.q.q.8.&.&.*.&.&.&.&.$.$.+.+.+.O.O.O.O.+.+.@.+.+.&.*.&.",
"o.O.O.o.' O.+.&.` K K Y Y Y I I ) ) ) ) ) ) ) _ _ ` { ` ` ' o.O.+.+.#.#.&.&.7.&.7.7.7.7.w.w.w.w.w.0.7.F.S.A.A.A.A.A.A.A.A.S.e.J J P C B r P ' $.8.i.f.x.b.n.n.S.J.J.K.G.i.x.J.K.G.J.S.j.' 8.b.f.i.i.i.i.i.q.q.8.8.7.&.&.&.&.&.&.$.+.+.+.O.O.+.O.+.+.+.$.$.*.*.&.",
"o.O.O.o.o.O.*.&.{ K K Y Y I I ) ) ) _ _ _ _ _ _ { ' o.o.o.O.+.#.#.&.7.7.7.0.0.e.w.w.w.w.e.e.e.e.e.e.e.F.D.A.A.A.A.A.A.A.A.S.f.Y Y I Y C j P ' $.&.i.f.x.n.n.n.C.S.S.G.n.q.C.L.L.K.G.n.u.{ q.b.f.i.i.q.e.i.q.q.8.8.7.&.&.7.&.7.&.*.+.+.+.O.O.O.O.+.+.+.+.$.*.*.*.",
"O.+.O.o.o.O.*.&.o.L Y Y I I ) ) ) _ _ ` _ _ { ' ] o.O.+.+.+.@.&.7.0.0.0.w.w.w.e.e.e.e.e.e.e.t.t.t.t.t.D.S.A.A.A.A.A.A.A.A.A.k._ ' ' ' I ' x.n.G.L.T.E.^.^.^.(.(.(.`.`.J.n.(.`.`.`.(.R.J.+.q.l.f.i.i.i.q.q.q.q.8.7.&.&.&.7.7.7.7.*.+.+.O.O.O.O.O.+.@.@.@.@.@.*.*.",
"+.@.O.O.o.O.*.&.+.Y Y I ) ) ) _ _ _ ` _ ` { ' O.O.+.+.@.@.@.@.7.0.q.e.e.e.e.e.e.e.e.e.t.t.t.f.t.t.f.f.D.D.S.A.A.A.A.A.A.A.A.l.' } O.} [ &.I.E.^.`.`.`.].].].{.{.|.|..XU.).|.|.|.}.].'.~.8.q.j.f.y.i.i.q.q.q.8.8.&.&.&.&.7.7.7.7.*.@.@.+.+.O.O.O.+.*.*.@.+.+.*.*.",
"+.+.+.+.O.+.*.7.&.I Y I ) ) ) _ ` ` ` ` { ' o.O.+.@.@.#.&.7.0.q.e.e.e.e.e.r.r.r.e.r.f.t.t.f.f.k.k.k.f.S.F.S.A.A.A.A.A.A.A.A.V.O.+.$.$.O.y.E.E.^.`.`.'.].].].{.|.|.|.|.R.|.|.|.|.{.]._.~.q.q.f.f.y.i.i.e.q.q.8.8.7.&.&.&.7.7.7.7.*.@.+.+.+.+.O.+.+.*.@.+.+.+.*.*.",
"+.+.+.+.O.+.*.7.7.I Y I ( ) ) _ { { { ' ] o.o.+.@.&.&.7.0.0.e.e.e.f.t.r.t.f.f.f.f.f.f.g.f.k.k.k.k.l.f.A.F.S.A.A.A.A.A.A.A.A.V.*.*.*.*.$.x.E.~.).`.'.].].].|.|.|.|..X|.|.|.|.|.|.{.].).R.i.q.f.f.y.i.e.e.e.q.q.8.8.&.&.&.7.8.8.&.&.*.+.+.+.+.+.+.+.@.+.+.+.+.$.*.",
"@.@.+.+.+.+.&.8.e.` I I ) ) _ ` { ] ] o.O.O.+.@.&.0.0.q.e.e.e.t.f.f.f.f.f.f.f.f.g.k.k.k.k.k.k.l.B.B.f.A.F.F.A.A.A.A.A.A.A.F.C.&.*.8.&.$.n.W.(.`.'.'.].].|.|.|.|.|.|.|.|.|.|.|.|.}.].).U.8.i.f.f.y.e.e.e.q.q.q.8.7.7.&.&.7.8.8.7.&.*.@.+.+.+.+.+.+.+.@.@.@.+.+.*.",
"@.@.@.+.+.@.&.8.e.{ I ) ) ) ` { { ] ] o.+.+.@.7.0.e.e.e.e.e.f.f.f.f.f.f.h.h.k.k.k.l.k.l.l.l.B.B.V.V.k.A.F.F.A.A.A.A.A.A.A.F.A.7.&.8.&.*.J.^.).`.'.].].{.|.|..X.X.X.X|.|.|.|.|.|.}.]._.S.q.y.f.f.y.e.e.e.q.q.q.8.8.7.&.7.7.8.8.8.&.*.@.+.+.+.+.+.+.+.@.@.@.+.+.*.",
"@.@.&.@.+.*.&.8.e.o.) ) ) _ ` { { ' o.O.@.&.0.e.e.r.e.r.y.f.f.f.f.j.j.j.k.k.k.k.l.l.l.z.z.V.V.V.V.V.l.C.F.F.A.A.A.F.A.A.A.A.A.q.8.q.8.&.T.(.`.'.].].].|.|.|.XXXXXXXX.X|.|.|.|.|.}.]._.B.8.y.h.f.y.e.e.q.q.q.q.q.8.8.7.7.7.8.8.8.7.&.@.+.+.+.+.+.+.@.@.@.@.+.@.@.",
"@.*.&.&.@.*.&.7.e.+.) ) _ _ ' { ] o.O.+.&.7.q.e.r.t.f.f.f.f.f.h.h.l.l.l.l.l.l.l.z.V.z.z.V.V.V.V.C.A.l.C.U.F.S.A.A.S.S.S.F.F.A.e.q.y.8.y.W.).'.].].].|.|..XXXXXXXXXXX.X|..X|.|.|.}.]._.f.q.y.j.f.y.e.e.e.e.q.q.q.8.7.7.&.7.8.8.8.&.*.@.+.+.+.+.+.+.+.@.@.+.@.@.+.",
"@.&.&.&.*.&.7.q.e.&.) _ _ ' { ' O.+.+.*.8.e.e.y.y.f.f.f.h.j.j.j.j.l.l.l.C.V.V.V.z.V.V.V.V.V.C.C.Z.A.V.C.U.F.F.S.A.S.S.F.F.F.A.i.q.i.8.u.^.`.].].{.|.|..XXXXXoXXXXXXX.X.XXX|.|.|.}.].~.f.f.y.h.f.y.e.e.e.e.e.q.q.q.7.7.&.8.8.8.7.&.*.@.@.+.+.+.+.+.+.+.+.+.+.+.+.",
"&.&.&.&.&.&.q.e.e.q._ { _ { ' ' O.@.&.7.e.y.y.f.h.f.h.j.l.l.l.l.l.l.l.z.C.V.V.V.V.V.V.V.C.C.C.Z.A.A.Z.A.U.F.F.F.F.F.F.F.F.F.A.y.i.i.8.b.`.'.].].|.|..XXXXXOXOXOXXXXXXX.XXX|.|.|.|.].R.h.l.f.h.f.y.r.e.e.e.q.q.q.q.0.7.7.8.8.8.8.7.*.@.@.@.@.+.+.+.@.+.+.+.+.+.@.",
"7.7.7.7.7.7.7.e.e.e.{ { { ] O.+.@.@.7.q.y.f.f.f.l.j.l.l.l.l.l.l.l.n.z.z.z.C.C.A.A.C.C.C.C.C.Z.A.A.A.Z.A.U.F.F.F.F.F.F.F.F.F.A.y.y.y.q.J.`.].].}.|.|.XXXXoX+X+X+XOXXXXXXX.X|.|.|.|.].F.V.C.j.h.f.y.r.r.r.e.e.q.q.0.0.7.7.q.q.q.8.&.*.*.@.+.+.@.+.+.@.@.+.+.@.+.+.",
"7.7.7.7.q.q.q.q.7.e.{ { { ] O.@.@.7.q.e.f.f.f.j.l.l.l.l.l.l.l.l.l.n.C.C.C.C.A.S.S.A.A.A.A.A.A.A.A.A.A.A.U.F.F.F.F.F.F.F.F.F.S.f.y.y.y.T.'.].|.|..XXXXXoX+X+X+X+X+X+XXXXXXX.X.X.X|.].C.S.C.j.h.f.y.r.r.r.e.e.e.q.q.0.7.7.q.q.q.8.&.&.*.@.+.@.@.+.+.+.+.+.+.+.+.+.",
"q.0.7.7.7.7.8.7.7.f.o.{ ' O.@.&.7.q.e.f.f.f.l.l.l.l.l.l.l.l.B.B.z.C.C.V.C.C.C.C.A.A.A.A.A.A.A.A.A.S.A.A.U.U.F.F.S.F.F.F.F.F.S.j.y.u.y.^.].].|.XXXXXXOX+X+X+X+X+X+X+X+XXXXXXXXXXX|.'.l.U.C.j.h.f.f.y.r.r.e.e.e.e.q.q.7.7.0.q.q.q.7.&.@.@.@.@.*.+.+.@.+.+.+.+.+.+.",
"q.7.7.7.7.7.7.7.e.h.+.' O.@.&.7.q.r.f.f.k.l.l.l.l.l.l.l.z.V.V.V.V.C.C.C.C.C.A.A.A.A.A.A.A.A.A.A.A.S.S.C.U.U.F.F.S.F.F.F.F.F.F.l.f.f.j.`.].|..XXXXXXX+X+X+X+X+X+X+X+X+X+XXXXXXXXXXX).l.!.C.j.j.h.f.f.t.r.e.e.e.e.q.q.0.0.0.q.q.8.7.&.@.@.@.@.+.+.@.+.+.+.+.+.+.+.",
"q.q.7.7.7.7.7.0.e.f.@.o.+.*.8.q.r.y.h.k.l.z.l.l.l.l.z.z.z.n.C.C.C.C.A.C.C.A.A.A.A.S.A.A.A.A.A.A.S.F.S.C.U.U.F.F.F.F.F.F.F.F.F.l.f.f.n.'.{.|.XXoXOX+X+X+X+X+X+X+X+X+X+X+XOXXXXXXXXX~.C.).S.j.h.f.f.f.r.e.e.e.e.e.e.q.7.7.7.7.8.7.7.&.@.@.@.@.@.@.@.@.@.+.+.+.+.O.",
"e.8.&.7.7.7.7.w.q.h.&.O.+.&.q.r.f.f.h.h.l.l.l.l.z.V.V.V.C.C.C.C.C.C.A.A.A.A.A.A.S.S.A.A.A.A.S.S.F.F.F.V.U.U.F.F.F.F.F.F.F.F.F.l.j.f.S.].|..XXX+X+X+X@X+X+X+X+X+X+X+X+X+X+XoXXXXXXXU.F._.S.j.h.f.f.y.r.r.e.e.e.e.e.q.q.7.7.7.e.q.7.&.@.@.#.#.*.@.*.@.+.+.+.+.+.+.",
"q.q.7.7.7.7.7.e.e.h.7.O.&.q.r.f.f.h.h.j.l.l.l.z.V.V.V.V.C.C.C.C.C.C.Z.C.A.A.A.A.S.S.A.S.S.S.A.S.F.F.F.V.U.U.F.F.F.F.F.F.F.S.F.n.j.f.I.{.|.XXOX+X+X@X#X@X#X@X+X+X+X+X#X#X@X+XoXoXXXS./.].S.j.h.f.f.f.r.r.y.f.r.e.e.q.q.0.7.8.e.q.7.&.@.@.&.*.@.@.*.@.@.+.+.+.+.+.",
"q.q.7.7.7.7.7.e.e.f.e.&.q.r.f.f.h.l.l.l.l.l.z.V.V.V.C.C.C.C.C.C.A.A.Z.C.A.A.A.S.S.S.S.S.S.S.S.S.F.F.F.V.U.U.U.F.F.F.F.F.F.F.F.C.l.f.E.{..XXX+X@X+X+X#X#X#X+X+X+X+X+X@X@X+XoXXXXX|.S.].}.S.l.j.f.f.f.f.r.f.y.y.e.e.q.q.0.7.8.q.q.7.&.&.@.&.*.@.+.*.@.@.+.+.+.+.+.",
"e.e.w.7.7.7.0.e.t.l.f.7.e.f.k.l.l.l.l.l.z.z.V.V.V.V.C.C.C.C.C.C.A.S.A.A.S.S.S.S.S.S.S.S.S.S.S.A.A.S.S.C.Y.U.U.F.F.F.F.F.F.F.F.C.b.j.(.|.XXOX+X#X@X@X@X+X+X+X+X+X+X+X+X+X+X+X+XXX X).|.}.U.l.l.h.f.f.f.f.f.f.r.e.e.e.0.7.0.0.0.7.7.7.&.@.@.@.@.+.@.@.@.+.+.+.O.+.",
"e.e.e.w.e.7.w.e.f.l.l.e.f.l.l.l.l.l.l.l.V.C.C.C.C.C.C.C.A.A.Z.Z.A.S.S.S.S.S.S.S.S.F.S.F.S.S.S.A.A.A.S.C.U.U.U.F.F.F.F.F.F.F.F.Z.n.b.'.XX+X#X#X$X#X#X@X+X+X+X+X+X+X@X+X+X#X#X@X+XXXXXXX}.U.b.l.h.f.f.f.f.f.f.r.e.e.e.q.7.7.0.0.7.7.7.&.&.*.@.+.@.@.@.@.+.+.+.O.O.",
"e.e.e.e.r.e.e.f.g.l.V.f.f.k.l.l.z.l.l.l.z.C.C.C.C.C.C.A.A.A.A.A.S.S.A.S.S.A.S.A.A.S.S.F.S.S.S.A.A.A.S.C.Y.U.F.F.F.F.F.F.F.F.F.A.n.n.].XX+X#X$X$X#X#X#X#X@X+X#X#X#X#X#X#X#X#X+X+XXXXXXX XY.n.l.h.f.f.f.f.r.r.r.e.e.e.8.7.7.7.7.7.7.7.*.@.@.@.@.@.@.@.+.+.+.O.O.O.",
"e.e.e.f.f.f.f.f.k.V.C.f.k.l.l.l.l.z.l.l.C.C.C.C.C.C.C.A.A.C.Z.A.A.A.A.A.A.A.A.A.A.A.A.S.S.S.S.S.A.A.S.C.Y.U.F.F.F.A.F.F.F.S.S.A.n.S.|.OX#X$X$X$X$X#X#X#X#X#X#X#X#X#X#X#X+X#X+X#XOXXXoX.XU.z.k.h.f.f.y.r.e.r.r.e.e.q.8.7.7.7.7.7.7.7.*.@.@.@.@.+.@.@.+.+.+.O.O.O.",
"e.e.f.f.f.f.f.k.l.V.C.k.l.l.l.l.z.z.z.V.V.V.V.V.V.C.C.C.C.C.C.C.A.A.A.A.A.A.Z.A.A.A.A.S.S.A.A.A.A.A.A.C.U.U.F.F.F.S.S.A.A.A.A.A.n.U.XX+X$X$X$X$X$X#X#X#X#X#X#X#X#X#X#X#X#X#X@X+X+XoXOXXXU.l.k.f.f.t.r.r.e.e.e.e.e.q.7.7.7.7.7.7.7.&.@.@.@.@.@.+.+.+.+.O.O.O.o.o.",
"e.e.e.f.f.k.l.l.z.V.C.l.l.l.l.l.l.B.C.C.C.C.C.V.V.V.C.C.C.C.C.C.A.Z.Z.A.A.Z.C.A.A.A.A.A.A.A.A.A.A.A.A.C.F.U.F.F.A.A.S.A.A.A.A.A.n.W.OX$X$X$X$X$X$X$X$X#X#X#X#X#X#X#X#X#X#X#X#X@X+XOXOXOXR.l.f.f.f.t.f.r.e.e.e.e.q.0.7.7.7.7.7.7.7.@.@.@.@.@.@.+.@.+.O.O.O.O.o.o.",
"e.w.e.f.f.k.k.z.V.C.C.B.l.l.l.l.l.l.C.C.z.C.C.C.V.V.V.C.C.C.C.C.C.C.C.C.Z.C.C.C.C.C.A.A.Z.Z.Z.Z.A.Z.A.C.S.U.F.S.S.A.S.A.A.A.A.A.C.`.+X$X&X&X&X$X$X$X$X#X#X#X#X#X#X#X#X#X#X#X#X@X+X+XOXOX~.l.f.f.t.t.t.e.e.e.e.e.0.7.7.7.7.7.7.7.7.@.@.@.@.@.+.O.@.O.O.O.O.O.o.o.",
"q.7.0.t.h.k.l.V.V.C.C.V.B.z.l.l.l.l.n.C.n.n.C.C.V.V.V.V.C.C.C.C.C.C.C.C.C.C.C.C.C.C.C.C.C.C.C.C.C.Z.Z.C.S.F.S.S.S.A.A.A.A.Z.Z.A.C.].$X&X&X&X&X&X$X%X$X$X#X$X#X#X#X#X#X#X#X#X#X#X@X@X+X+X).l.f.f.t.t.t.t.e.e.e.e.0.7.7.7.7.7.7.&.@.@.@.@.@.+.+.O.+.O.O.o.O.O.o.' ",
"7.7.e.f.k.l.V.V.C.C.Z.l.l.l.z.V.l.z.C.C.C.C.C.C.C.C.C.C.C.C.C.C.C.C.C.C.C.C.C.C.C.C.C.C.C.C.C.C.C.C.C.l.C.F.S.S.S.A.A.A.A.A.A.Z.S..X$X&X&X&X&X&X$X$X$X$X$X$X#X#X#X#X#X#X#X#X#X#X@X+X@X+X].C.f.f.t.r.e.e.t.e.e.e.7.7.7.7.7.7.7.@.@.@.@.@.@.@.O.O.@.+.o.o.o.O.o.' ",
"0.e.f.l.C.C.V.A.A.Z.A.l.l.l.V.l.l.C.C.C.C.C.V.C.C.C.C.C.C.C.C.V.C.C.C.C.C.C.C.C.C.C.C.C.C.C.C.C.C.C.C.l.C.S.A.A.A.A.A.A.Z.A.Z.C.U.+X&X&X&X&X&X&X$X$X$X$X$X$X#X#X#X#X#X#X#X#X#X#X@X+X#X#X.XA.f.f.f.f.t.t.e.e.e.e.w.7.7.7.7.7.7.7.@.@.@.@.@.@.@.O.+.+.+.O.O.O.O.O.",
"r.f.l.z.C.A.V.V.V.Z.A.l.l.l.l.l.j.l.V.l.V.z.z.z.C.n.C.C.C.C.V.B.n.C.C.C.C.C.C.C.C.C.C.C.C.C.V.C.V.C.C.l.C.D.F.S.A.A.A.Z.Z.Z.Z.C.R.$X&X&X&X&X&X&X$X$X$X$X$X$X#X#X#X#X#X#X#X#X#X#X#X@X#X#XOXS.f.f.f.t.t.r.e.e.e.w.w.7.7.7.7.7.7.7.7.@.@.@.@.@.@.+.+.@.O.O.O.o.O.@.",
"l.l.z.z.V.C.C.B.V.V.C.l.f.f.l.j.j.l.l.l.l.l.l.l.l.l.l.l.l.l.l.l.l.l.B.V.V.C.C.C.C.C.C.C.C.C.V.V.V.V.V.l.z.S.S.A.A.A.Z.Z.C.C.C.V.(.&X&X&X&X&X&X&X$X&X$X$X$X$X#X#X#X#X#X#X#X#X#X#X#X+X#X#X#XU.r.f.r.r.e.e.e.e.e.e.9.7.7.7.7.7.7.&.*.@.@.@.@.@.@.+.+.+.O.o.o.O.O.@."
};
