/* XPM */
static char *tumo_table[] = {
/* columns rows colors chars-per-pixel */
"128 175 240 2 ",
"   c #FF00FF",
".  c #0B0C0E",
"X  c #070709",
"o  c #0D0F10",
"O  c #0F1112",
"+  c #121314",
"@  c #14161A",
"#  c #15191D",
"$  c #1B1C1D",
"%  c #1E1C14",
"&  c #100F10",
"*  c #292516",
"=  c #342C15",
"-  c #3E361B",
";  c #1B1E22",
":  c #171D26",
">  c #1C2229",
",  c #1B2938",
"<  c #242323",
"1  c #23262A",
"2  c #2B2B2C",
"3  c #26292B",
"4  c #322D2A",
"5  c #3C332C",
"6  c #373229",
"7  c #242B33",
"8  c #272E38",
"9  c #2E3338",
"0  c #383637",
"q  c #312F30",
"w  c #211F1E",
"e  c #453513",
"r  c #4B3A13",
"t  c #44361B",
"y  c #43391B",
"u  c #4A3B1C",
"i  c #433817",
"p  c #523E14",
"a  c #41300E",
"s  c #453A23",
"d  c #4A3C23",
"f  c #46392C",
"g  c #4A3C2B",
"h  c #42362D",
"j  c #513E2C",
"k  c #453C33",
"l  c #4C3E34",
"z  c #423D3B",
"x  c #4A3E39",
"c  c #523E34",
"v  c #53431C",
"b  c #5A481C",
"n  c #4E401B",
"m  c #4D412B",
"M  c #544322",
"N  c #5B4A23",
"B  c #53442C",
"V  c #594A28",
"C  c #4C4136",
"Z  c #4D423A",
"A  c #534334",
"S  c #53453B",
"D  c #59473A",
"F  c #554A3D",
"G  c #5B4B3D",
"H  c #594734",
"J  c #5D5132",
"K  c #604E23",
"L  c #684C2D",
"P  c #63532B",
"I  c #6B592C",
"U  c #695525",
"Y  c #735E28",
"T  c #614D3B",
"R  c #694D35",
"E  c #6C5C33",
"W  c #62543B",
"Q  c #6B5D3B",
"!  c #665536",
"~  c #755638",
"^  c #764F31",
"/  c #7B642A",
"(  c #78642A",
")  c #746334",
"_  c #7C6B3C",
"`  c #776737",
"'  c #7A6C3D",
"]  c #1E3347",
"[  c #1C2E41",
"{  c #24354A",
"}  c #223C58",
"|  c #373F4A",
" . c #3C4249",
".. c #2A435D",
"X. c #27415C",
"o. c #364657",
"O. c #244465",
"+. c #2C4A69",
"@. c #294766",
"#. c #334E6B",
"$. c #364D66",
"%. c #35506D",
"&. c #3B536D",
"*. c #3E5163",
"=. c #335274",
"-. c #494746",
";. c #554B44",
":. c #5D4D42",
">. c #584C46",
",. c #5E5244",
"<. c #5B544B",
"1. c #444A52",
"2. c #575858",
"3. c #635345",
"4. c #645649",
"5. c #645849",
"6. c #6B5C4C",
"7. c #6A5843",
"8. c #735C4C",
"9. c #785C46",
"0. c #6B5D51",
"q. c #665B55",
"w. c #725F51",
"e. c #604E43",
"r. c #6D614B",
"t. c #7B6B42",
"y. c #776746",
"u. c #6C6353",
"i. c #696458",
"p. c #746454",
"a. c #7A6B5C",
"s. c #786856",
"d. c #7B725C",
"f. c #7E744C",
"g. c #465667",
"h. c #445970",
"j. c #545B64",
"k. c #7C6D62",
"l. c #787066",
"z. c #836C2E",
"x. c #836D36",
"c. c #83723C",
"v. c #8B7438",
"b. c #937A38",
"n. c #837342",
"m. c #83754A",
"M. c #8B7745",
"N. c #947D44",
"B. c #887958",
"V. c #8D7655",
"C. c #837563",
"Z. c #857C6B",
"A. c #8A7C6C",
"S. c #867A65",
"D. c #867E70",
"F. c #9E833C",
"G. c #A3873E",
"H. c #988449",
"J. c #998653",
"K. c #8F815A",
"L. c #A38C49",
"P. c #A8904B",
"I. c #A38E56",
"U. c #A79458",
"Y. c #B29954",
"T. c #8B826A",
"R. c #9B8A68",
"E. c #8B8273",
"W. c #8A8578",
"Q. c #928474",
"!. c #968B79",
"~. c #9C9275",
"^. c #A79667",
"/. c #AA9D7C",
"(. c #A79776",
"). c #B59C7C",
"_. c #A08C71",
"`. c #B0A47E",
"'. c #BBA25B",
"]. c #8D8B82",
"[. c #949285",
"{. c #9C9685",
"}. c #948E83",
"|. c #A49B89",
" X c #B79F81",
".X c #A59B91",
"XX c #ADA585",
"oX c #ACA58B",
"OX c #B5A284",
"+X c #BAA384",
"@X c #B6A48A",
"#X c #BAA68A",
"$X c #B2AA8B",
"%X c #BDA98D",
"&X c #B1A987",
"*X c #ABA495",
"=X c #B6AE93",
"-X c #BDAC92",
";X c #B7AA98",
":X c #BAB59B",
">X c #BBB398",
",X c #B4AEA6",
"<X c #BDBAA5",
"1X c #BCB5AC",
"2X c #BEB9AE",
"3X c #B7B4A6",
"4X c #BEB9B2",
"5X c #BBB6B0",
"6X c #A6A5A3",
"7X c #C1AC8E",
"8X c #C1AE93",
"9X c #C1AF98",
"0X c #C4B195",
"qX c #C4B39C",
"wX c #CAB699",
"eX c #C3B6A2",
"rX c #C3BAAC",
"tX c #C6BAA5",
"yX c #C3BDB3",
"uX c #C4BEB7",
"iX c #C5C1AB",
"pX c #D4C2AA",
"aX c #C9C2B6",
"sX c #C6C3BC",
"dX c #CAC5BC",
"fX c #CCCCBE",
"gX c #C8C5B6",
"hX c #D5CFBE",
"jX c #C9C6C1",
"kX c #CCCBC5",
"lX c #CECCC9",
"zX c #C7C6C0",
"xX c #D1CDC5",
"cX c #D1CFCB",
"vX c #D3D1CD",
"bX c #D7D8CB",
"nX c #D5D4D2",
"mX c #DAD9D4",
"MX c #E6E6DE",
"NX c #E7E8E2",
/* pixels */
"                                                                                                                                                                                                                                                                ",
"                                                                                                                                                                                                                                                                ",
"                                                                                                                                                                                                                                                                ",
"                                                                                                                                                                                                                                                                ",
"                                                                                                                                                                                                                                                                ",
"                                                                                                                                                                                                                                                                ",
"                                                                                                                                                                                                                                                                ",
"                                                                                                                                                                                                                                                                ",
"                                                                                                                                                                                                                                                                ",
"                                                                                                                                                                                                                                                                ",
"                                                                                                                                                                                                                                                                ",
"                                                                                                                                                                                                                                                                ",
"                                                                                                                                                                                                                                                                ",
"                                                                                                                                                                                                                                                                ",
"                                                                                                                                                                                                                                                                ",
"                                                                                                                                                                                                                                                                ",
"                                                                                                                                                                                                                                                                ",
"                                                                                                                                                                                                                                                                ",
"                                                                                                                                                                                                                                                                ",
"                                                                                                                                                                                                                                                                ",
"                                                                                                                                                                                                                                                                ",
"                                                                                                                                                                                                                                                                ",
"                                                                                                                                                                                                                                                                ",
"                                                                                                                                                                                                                                                                ",
"                                                                                                                                                                                                                                                                ",
"                                                                                                                                                                                                                                                                ",
"                                                                                                                                                                                                                                                                ",
"                                                                                                                                                                                                                                                                ",
"                                                                                                                                                                                                                                                                ",
"                                                                                                                                                                                                                                                                ",
"                                                                                                                                                                                                                                                                ",
"                                                                                                                                                                                                                                                                ",
"                                                                                                                                                                                                                                                                ",
"                                                                                                                                                                                                                                                                ",
"                                                                                                                                                                                                                                                                ",
"                                                                                                                                                                                                                                                                ",
"                                                                                                                                                                                                                                                                ",
"                                                                                                                                                                                                                                                                ",
"                                                                                                                                                                                                                                                                ",
"                                                                                                                                                                                                                                                                ",
"                                                                                                                                                                                                                                                                ",
"                                                                                                                                                                                                                                                                ",
"                                                                                                                                                                                                                                                                ",
"                                                                                                                                                                                                                                                                ",
"                                                                                                                                                                                                                                                                ",
"                                                                                                                                                                                                                                                                ",
"                                                                                                                                                                                                                                                                ",
"                                                                                                                                                                                                                                                                ",
"                                                                                                                                                                                                                                                                ",
"                                                                                                                                                                                                                                                                ",
"                                                                                                                                                                                                                                                                ",
"                                                                                                                                                                                                                                                                ",
"                                                                                                                                                                                                                                                                ",
"                                                                                                                                                                                                                                                                ",
"                                                                                                                                                                                                                                                                ",
"                                                                                                                                                                                                                                                                ",
"                                                                                                                                                                                                                                                                ",
"                                                                                                                                                                                                                                                                ",
"                                                                                                                                                                                                                                                                ",
"                                                                                                                                                                                                                                                                ",
"                                                                                                                                                                                                                                                                ",
"                                                                                                                                                                                                                                                                ",
"                                                                                                                                                                                                                                                                ",
"                                                                                                                                                                                                                                                                ",
"                                                                                                                                                                                                                                                                ",
"                                                                                                                                                                                                                                                                ",
"                                                                                                                                                                                                                                                                ",
"                                                                                                                                                                                                                                                                ",
"                                                                                                                                                                                                                                                                ",
"                                                                                                                                                                                                                                                                ",
"                                                                                                                                                                                                                                                                ",
"                                                                                                                                                                                                                                                                ",
"                                                                                                                                                                                                                                                                ",
"                                                                                                                                                                                                                                                                ",
"                                                                                                                                                                                                                                                                ",
"                                                                                                                                                                                                                                                                ",
"                                                                                                                                                                                                                                                                ",
"                                                                                                                                                                                                                                                                ",
"                                                                                                                                                                                                                                                                ",
"                                                                                                                                                                                                                                                                ",
"                                                                                                                                                                                                                                                                ",
"                                                                                                                                                                                                                                                                ",
"                                                                                                                                                                                                                                                                ",
"                                                                                                                                                                                                                                                                ",
"                                                                                                                                                                                                                                                                ",
"                                                                                                                                                                                                                                                                ",
"                                                                                                                                                                                                                                                                ",
"                                                                                                                                                                                                                                                                ",
"                                                                                                                                                                                                                                                                ",
"                                                                                                                                                                                                                                                                ",
"                                                                                                                                                                                                                                                                ",
"                                                                                                                                                                                                                                                                ",
"                                                                                                                                                                                                                                                                ",
"                                                                                                                                                                                                                                                                ",
"                                                                                                                                                                                                                                                                ",
"                                                                                                                                                                                                                                                                ",
"                                                                                                                                                                                                                                                                ",
"                                                                                                                                                                                                                                                                ",
"                                                                                                                                                                                                                                                                ",
"                                                                                                                                                                                                                                                                ",
"                                                                                                                                                                                                                                                                ",
"                                                                                                                                                                                                                                                                ",
"                                                                                                                                                                                                                                                                ",
"                                                                                                                                                                                                                                                                ",
"                                                                                                                  O O O O + + + + + + @ @ @ @ # # # ; #                                                                                                         ",
"                                                                                                                + # : > 7 , , , , , [ [ ] ] ] ] { { { >                                                                                                         ",
"                                                                                                                + , X.@.h.#.@.@.@.@.@.@.@.@.@.@.@.@.X.1                                                                                                         ",
"                                                                                                                O 8 #.h.%.+.+.+.@.@.O.@.@.@.@.@.@.@.X.7 <                                                                                                       ",
"                                                                                                                O 7 h.h.&.&.&.&.%.=.=.&.+.#.%.&.&.%.@.7 6                                                                                                       ",
"                                                                                                                & , @.#.#.#.+.+.@.O.%.%.+.+.+.+.+.+.@.7 6                                                                                                       ",
"                                                                                                                w > @.+.+.@.@.X. .| @.@.+.+.+.#.j.j.$.8 5 y.                                                                                                    ",
"                                                                                                        0X8XwXpXi.; @.O.=.+.@.o.,.z @.@.#.#.+.*.2.2.g.8 -.uXdXuX2X                                                                                              ",
"                                                                                              wX0X8X8X8X%X0XtXpXl.: } @.@.+.@.o.:.z X.@.X.X.O.&.j.2.g.{ -.kXkXaXuX2X1XrXrX1X                                                                                    ",
"                                                                                      wXwXwXqX0X-X-X8X8X0XqXtXpXE.: } @.@.@.X.2.:.Z -.| 7 7 ..#.#.#.@.{ | sXxXfXdXsXsXdXuXrXrXrXrX                                                                              ",
"                                                                                  (.%X0X0X8X-X%X7X%X%X8XqXqXqXpX!.; } @.@.X.S 3.-.z F z 2 3 -.2.@.X.@.{ 0 sXxXkXsXsXdXjXsXuXuXuXuXuXrXrX                                                                        ",
"                                                                              A.~.#X7X7X%X#X#X#X%X%X8X0XqXqXeXpX{.> o.*.*.1.;.:.5 0 2 -.z 5 4.i.-. .1. .0 4XxXdXsXdXsXsXsXuXrX2X1X1XrXuXuXuX                                                                    ",
"                                                                          A.A.~.+X7X#X#X+X+X%X%X%X7XqXqX-X;XqXyX*X< 2.l.-.4 q 0 5 q 0 i.-.z <.<.<.-.-.0 q ,XkXsXsXdXsXsXuXuXuXuXrXrXrX2X4X4XuX                                                                  ",
"                                                                        Z.S._.+X#XOXOXOXOX#X#X#X#X#X%X%X-X-XqXtX*X< -.-.9 2 3 3 1 < 0 -.0 2 0 2 1 1 1 1 3 6XcXsXsXsXsXdXjXsXsXsXuXuXuX2X1X1XuXsX                                                                ",
"                                                                      S.S._.+X+XOXOXOX#X#X#X#X#X@X@X#X%X-X-X0XtX-X2 # ; ; ; # # # # ; < < < < 2 2 4 q 5 -.3XvXkXkXzXdXsXkXzXjXsXsXaXuX1X1X1X4XuX                        (.kX                                    ",
"                                                                      S.(.+X+X+XOX X+X%X#X#X@X@X%X8X-X#X-X0XqXtX@Xz 4 5 h z h f l A S D D D :.3.4.6.p.a.W.lXvXlXlXlXkXkXkXsXsXsXuXuXuX4X1X1X5X4X                    y.m.R.2X                                    ",
"                                                                      ).+X+X+XOXOXOX+X+X+X#X#X%X8X0X%X%X8XqXeX;XZ.G T 3.3.e.T 3.3.7.6.w.w.w.p.s.a.a.k.k.*XvXcXlXlXkXkXkXjXjXzXsXuXuXuX4X1X5X4X5X                  7.y.K.$X3X                                    ",
"                                    x.H.U.                            ).+X+X+X X+X+XOX).OX#X7X7X7X%X7X7X8XqX;XQ.s.3.6.0.6.6.6.6.0.6.8.p.a.a.a.a.k.k.k.k.4XcXlXlXkXkXkXkXkXkXkXsXsXuXrX4XuXuX3X                  W Q B.(.                                        ",
"                                    x.P.U.U.U.                          R.+X+X).). X+XOX+X#X%X8X%X%X%X-X0X-XQ.a.a.0.i.i.0.i.p.p.p.p.p.k.S.S.Z.D.E.!.!..XlXcXlXlXlXlXkXkXkXjXjXsXuXuXuXuXuX;X                    Q m.B.                                          ",
"                                    / H.U.U.P.P.                          V.).+X).OX+X+X%X%X8X%X@X@X#X-X>X!.S.A.A.A.E.E.Q.}.{.|..X*X,X1X2XuXsXsXkXlXlXcXnXvXvXcXlXlXkXkXkXsXsXsXuXaXuX;X!.                    Q t.t.`                                           ",
"                                      ` H.U.U.H.                              V.(.+X7X8X%X%X-X#X@X#X-X8X-X-X-XqXeXtXrXrXrXaXdXdXdXxXvXvXxXlXlXvXvXcXvXvXnXvXcXlXlXlXkXjXkXkXkXdXrX@XR.f.                    Q Q _ `                                             ",
"                                        x.J.^.J.N.                              ! m.R.OX%X0X8X%X%X-X0X-X8X9XqXeXeXeXrXrXrXaXdXdXdXxXkXlXkXkXkXkXcXlXcXvXcXnXnXvXvXvXlXkXjXuX;X(.V.y.                        P ) `                                               ",
"                                          n.U.I.N.v.                                  P y.B.R./.%X0X0XqXqXqXqXqXqXeXeXrXrXaXdXdXfXxXxXcXcXvXvXvXnXnXnXnXnXmXmXmXcXsX,X|.Q.V.f.                            V E ` c.                                              ",
"                                            ` J.H.x.x.                                      M V ! y.B.T._. X@X#X-XqXeXtXyXaXdXfXxXcXvXcXvXvXvXvXvXcXkXuX1X*X{.Q.S.s.y.                                    P ) _                                                 ",
"                                              E H.c./                                                 t d j H T 7.8.p.a.S.S.A.E.Q.Q.Q.Q.A.A.S.S.S.a.6.7.7.!                                               I _ c.                                                ",
"                                              y E v./ /                                                                 g j j j g A A c H L L L                                                         P ) c.                                                  ",
"                                                y ( z.Y                                                                 g c c l l :.S c H R ^ ^ ~                                                     K I c.c.                                                  ",
"                                                  n / / (                                                               c H A A :.;.S c H R ~ ~ ~                                                   I V ` c._                                                   ",
"                                                  y b z.(                                                             f D G G G >.2 l S A T ~ ~ ~ 9.    <       MXMXbXiX=XXX/.(.(.(./.$X      K.x.U v P c.c.                                                    ",
"                                                    y U z.Y                                                           l :.:.:.4.    5 S c T 7.9.9.9.      B.hXNXNXbXfX<X=X/.R.K.M._ ) E E E I K b b V ` c.c.                                                    ",
"                                                    y u / / t.B.                  ^.^.^.^.^./.`.0XiX                h D :.:.:.4.      S c D 7.8.8.p.p.  B.hXNXmXfXiX<X<X=XXX/.^.R.K.M.n._ ) I U U U P c.c.c.                                                    ",
"                                                      y b z.t.` P P P V M u i u I ( x.x.M.J.I.U.^././.~.E.          S :.e.:.4.        x S S T 8.8.p.p.N.0XMXmXfXrX3X3XiX:XXXXX/./.(.^.R.R.K.M.x./ U ) n.c.                                                      ",
"                                                      s y ( n.E b p r i e e a p Y / z.v.N.H.P.J.M.Q B g F i.        :.3.3.4.0.          S S T 3.w.p.9.y.T.{.*X3XrXtXtX<X=X$XOXXXXXOX$X$XXX(.^.K.v.P _ n.n.                                                      ",
"                                                      s y v x.E b v p r i e r Y v.v.b.b.F.L.v.P d s s s s S u.    S 3.3.3.0.            >.S G G   7.! s.S.Z.Z.E.{.*X:X>X=X$X$X$X$X$X=X:X:X<X:X/.m.E n.m.m.                                                      ",
"                                                        s y ( ( K b v r r r K b.F.F.F.G.v.P u s s s s s s f F 5.5 l 3.3.4.0.            q.;.G G   J 7.d.S.Z.Z.D.E.E.!.oX$X$X$X$X$X$X>X:XiXfXxX:Xy.y.m.B.                                                        ",
"                                                        s y v ( I K b v u v x.U.P.L.F.Y u t s s d s s s s f g F A A 3.3.4.                <.S G A J r.s.d.Z.E.E.E.E.E.W.{.XX$X&X$X$X=X:XiXfXbX|.Q f.T.T.                                                        ",
"                                                        s y i U ` E P M p I P.Y.Y.v.V t t u y s s s s s s f g g H A 3.4.4.                <.S S s g ! y.d.T.E.E.E.W.].].].].{.XX$X$X$X=X:XgX<Xd.B.!.{.                                                          ",
"                                                          - i v _ f.Q V V N.'.P.Y u t t u u y s s s s s s d g g m B ! 5.                  ;.S G J C g B ! s.T.!.!.[.[.[.[.].].[.oX$X=X:XtX*Xd.S.{.3X                                                            ",
"                                                          5 y i I B.y.P n.Y.M.V u u u u u u u d d d d d d g g g m B ! i.                    S S 3.    S A m B W i.d.Z.W.!.[.[.[.[.|.$XXXS.r.s.W.                                                                ",
"                                                            - y u _ y.t.M.I v u u u u u u u u d d d d d d g m A B M P                       Z S G         4.7.6.<.;.F 5.5.i.i.i.u.i.5.:.<.a.i.                                                                  ",
"                                                              y y V t.! v v v u u u u u u u u d d d d d d B B V V P W                       x S G G         7.0.-.            -.       .                                                                        ",
"                                                                5 y V ` P V v v u u u u u u d d d d d M M M V K P 3.                          S G 3.        q.;.Z   9 0                                                                                         ",
"                                                                  5 y V ` ` P V M M M M v M M M v v v v v M ! 3.3.                            Z G 3.          z S 0   > 7          .  1.                                                                        ",
"                                                                      = M P I I I K K V b b v y = * *     C 3.3.3.                            Z S 3.3.        0 z q     : #     : > 7 9                                                                         ",
"                                                                            % = u t - = * % + O     o   h G 4.5.                                S ,.5.          1 ;       @ : ;         7                                                                       ",
"                                                                            @   .           O +       # z 3.4.4.                                Z G 6.        9 ;                       ;                                                                       ",
"                                                                            @ + + +         +     ;   # C 3.3.                                  Z S 6.                                  #                                                                       ",
"                                                                            + + . O O . o .         # q z 3.,.                                    C 5.p.                                @                                                                       ",
"                                                                          o @         . .           < Z z F                                       l :.p.                                @                                                                       ",
"                                                                            @                       5 z S 4                                       Z F p.Z                                         :                                                             ",
"                                                                            #                       C F C #                                         S 6.5.                                                                                                      ",
"                                                                                                  5 G 3.5                                           S 4.p.                                                                                                      ",
"                                                                  X                               4 :.3.                                            S ,.p.                                                                                                      ",
"                                                                                                  Z Z l                                               F r.<.                                                                                                    ",
"                                                                                                z 3.,.        o                                     < S 5.r.                                                                                                    ",
"                                                                                                S 5.3.        .                                     + Z ,.6.                                                                                                    ",
"                                                                                              z :.3.            O                                       :.5.                                                                                                    ",
"                                                                                              Z ,.,.            O                                       S 4.5.                                                                                                  ",
"                                                                                              C A                                                       l :.5.                                                                                                  ",
"                                                                                                                                                          Z 3.                                                                                                  ",
"                                                                                                                                                          z :.                                                                                                  ",
"                                                                                                                    .                                     5 S G                                                                                                 ",
"                                                                                                                    .                                       f                                                                                                   ",
"                                                                        X                                                                                                                                                                                       ",
"                                                                        X                                                                                                                                                                                       ",
"                                                                        .                                                                                                                                                                                       ",
"                                                                                                                                                                                                                                                                ",
"                                                                                                                                                                                                                                                                ",
"                                                                                                                                                                                                                                                                ",
"                                                                                                                                                                                                                                                                ",
"                                                                                                                                                                                                                                                                "
};
