/* XPM */
static char *vending_machine_front[] = {
/* columns rows colors chars-per-pixel */
"128 128 256 2 ",
"   c #FF00FF",
".  c #09090B",
"X  c #1B1C1D",
"o  c #151618",
"O  c #0E1014",
"+  c #221E1B",
"@  c #23211E",
"#  c #2B241E",
"$  c #36231E",
"%  c #191C24",
"&  c #0F1623",
"*  c #1C2328",
"=  c #1E2230",
"-  c #242324",
";  c #292622",
":  c #2B2925",
">  c #25262A",
",  c #252A2D",
"<  c #2B2B2C",
"1  c #332D28",
"2  c #35322B",
"3  c #3A352C",
"4  c #2B2D32",
"5  c #252B34",
"6  c #2E3135",
"7  c #2D323A",
"8  c #283638",
"9  c #323335",
"0  c #3C3A34",
"q  c #34353A",
"w  c #36393D",
"e  c #3A3B3D",
"r  c #3A3636",
"t  c #332C3A",
"y  c #23201F",
"u  c #443D38",
"i  c #49362D",
"p  c #563326",
"a  c #3D413C",
"s  c #42413C",
"d  c #494538",
"f  c #524B35",
"g  c #715134",
"h  c #353A43",
"j  c #3B3D42",
"k  c #363C48",
"l  c #2B344A",
"z  c #1E2742",
"x  c #4A3B47",
"c  c #79374B",
"v  c #3D4144",
"b  c #3C434C",
"n  c #384749",
"m  c #3C4653",
"M  c #394D4F",
"N  c #394D6B",
"B  c #3D6077",
"V  c #434344",
"C  c #4C4A44",
"Z  c #43454B",
"A  c #454A4D",
"S  c #4B4B4C",
"D  c #474845",
"F  c #534D48",
"G  c #54524C",
"H  c #595448",
"J  c #444B53",
"K  c #4B4D52",
"L  c #454B57",
"P  c #4D5254",
"I  c #4C535B",
"U  c #475758",
"Y  c #535354",
"T  c #5C5B54",
"R  c #53555B",
"E  c #545A5C",
"W  c #5B5B5C",
"Q  c #595755",
"!  c #4F4F51",
"~  c #67594B",
"^  c #645C58",
"/  c #73534B",
"(  c #5B6259",
")  c #53654C",
"_  c #63625B",
"`  c #69665A",
"'  c #766A59",
"]  c #79745C",
"[  c #6A6B52",
"{  c #4C5967",
"}  c #545B62",
"|  c #5A5D63",
" . c #575A68",
".. c #505772",
"X. c #655969",
"o. c #5C6364",
"O. c #596669",
"+. c #596775",
"@. c #587175",
"#. c #636464",
"$. c #646A6C",
"%. c #696967",
"&. c #746C66",
"*. c #6A7567",
"=. c #74726C",
"-. c #7A7669",
";. c #6A6D73",
":. c #656A76",
">. c #6B7274",
",. c #6D737B",
"<. c #677778",
"1. c #7C7A73",
"2. c #73767C",
"3. c #747B7B",
"4. c #787876",
"5. c #7B6774",
"6. c #8C5A38",
"7. c #907153",
"8. c #895171",
"9. c #847B69",
"0. c #837C75",
"q. c #8F706A",
"w. c #A4685F",
"e. c #C87156",
"r. c #7A8478",
"t. c #77896F",
"y. c #76894F",
"u. c #AE8957",
"i. c #898678",
"p. c #968B77",
"a. c #918B70",
"s. c #A79779",
"d. c #B1926E",
"f. c #B6A57B",
"g. c #99A364",
"h. c #C89751",
"j. c #CEAC51",
"k. c #D18D74",
"l. c #CDAC70",
"z. c #E39776",
"x. c #D8C96B",
"c. c #AEB556",
"v. c #3A31A1",
"b. c #511EAC",
"n. c #50578D",
"m. c #556A91",
"M. c #656B85",
"N. c #6A7986",
"B. c #747B84",
"V. c #777B87",
"C. c #777D92",
"Z. c #697795",
"A. c #5150AE",
"S. c #576FA9",
"D. c #6778A7",
"F. c #7075A7",
"G. c #6057A9",
"H. c #5522CA",
"J. c #5057CF",
"K. c #6D5DD5",
"L. c #8A798F",
"P. c #A16398",
"I. c #A35BD8",
"U. c #D55ED2",
"Y. c #C23AAB",
"T. c #7D838D",
"R. c #798588",
"E. c #7D8293",
"W. c #7B8699",
"Q. c #769795",
"!. c #6D8F8F",
"~. c #70AB90",
"^. c #7986A7",
"/. c #6F8EB3",
"(. c #72ACAC",
"). c #5890AA",
"_. c #73B1CE",
"`. c #5F9DD4",
"'. c #76CCD2",
"]. c #72C3A4",
"[. c #868888",
"{. c #948C86",
"}. c #8C9589",
"|. c #969689",
" X c #858A97",
".X c #8C9294",
"XX c #8A9797",
"oX c #979998",
"OX c #96869B",
"+X c #A49686",
"@X c #A69B97",
"#X c #AD8F8E",
"$X c #99A399",
"%X c #8CA895",
"&X c #A7A489",
"*X c #B8A987",
"=X c #A8A79A",
"-X c #B3B198",
";X c #848CA7",
":X c #8893A9",
">X c #979CA4",
",X c #8794B3",
"<X c #9197B3",
"1X c #AF97AB",
"2X c #9BA6A6",
"3X c #8EADB0",
"4X c #A7AAA8",
"5X c #B7B5AA",
"6X c #A8ABB5",
"7X c #ADB3B3",
"8X c #B6BAB7",
"9X c #AEB1A8",
"0X c #CC9494",
"qX c #C7B997",
"wX c #D0B38A",
"eX c #CE8EAE",
"rX c #C7B7AB",
"tX c #E5AA90",
"yX c #B8C7B6",
"uX c #A3C8A3",
"iX c #D4C798",
"pX c #D6CAA5",
"aX c #C8C6BA",
"sX c #D1CEAB",
"dX c #E3D1A4",
"fX c #9797CF",
"gX c #B8BBC2",
"hX c #A9B2CD",
"jX c #9DADD4",
"kX c #C4B6C6",
"lX c #BDC3C4",
"zX c #BEC8CA",
"xX c #A7D3D4",
"cX c #A3D0DF",
"vX c #CECDC3",
"bX c #C4CBCC",
"nX c #CBCDCC",
"mX c #C3C6C6",
"MX c #D1CEC2",
"NX c #D6CFC7",
"BX c #CED0CB",
"VX c #CBD0CB",
"CX c #D3D1C6",
"ZX c #D4D4CB",
"AX c #C8CED1",
"SX c #CDD2D3",
"DX c #CFD6D9",
"FX c #D2D5D4",
"GX c #DADAD5",
"HX c #D4D9DA",
"JX c #DADCDB",
"KX c #D4D6D7",
"LX c #D5D5E6",
"PX c #DDE3E2",
"IX c #DEF1ED",
"UX c #E2E6E1",
/* pixels */
"                                                                                                                                                                                                                                                                ",
"                                                                                                                                                                                                                                                                ",
"                                                                                                                                                                                                                                                                ",
"                                                                                                                                                                                                                                                                ",
"                                                                                                                                                                                                                                                                ",
"                                                                                                                                                                                                                                                                ",
"                                                                                                                                                                                                                                                                ",
"                                                                                                                                                                                                                                                                ",
"                                                                                                                                                                                                                                                                ",
"                                                                                                                                                                                                                                                                ",
"                                                                                                                                                                                                                                                                ",
"                                                                                                                                                                                                                                                                ",
"                                                                                                                                                                                                                                                                ",
"                                                                                                                                                                                                                                                                ",
"                                                                                                                                                                                                                                                                ",
"                                                                                                                                                                                                                                                                ",
"                                                                                                                                                                                                                                                                ",
"                                                                                                                                                                                                                                                                ",
"                                                                                                                                                                                                                                                                ",
"                                                                                                                                                                                                                                                                ",
"                                                                                                                                                                                                                                                                ",
"                                                                                                                                                                                                                                                                ",
"                                                                                                                                                                                                                                                                ",
"                                                                                                                                                                                                                                                                ",
"                                                                                                                                                                                                                                                                ",
"                                                                                                                                                                                                                                                                ",
"                                                                                                                                                                                                                                                                ",
"                                                                                                                                                                                                                                                                ",
"                                                                                                                                                                                                                                                                ",
"                                                                                                                                                                                                                                                                ",
"                                                                                                                                                                                                                                                                ",
"                                                                                                                                                                                                                                                                ",
"                                                                                                                                                                                                                                                                ",
"                                                                                                                                                                                                                                                                ",
"                                                                                                                                                                                                                                                                ",
"                                                                                                                                                                                                                                                                ",
"                                                                                                                                                                                                                                                                ",
"                                                                                                                                                                                                                                                                ",
"                                                                                                                                                                                                                                                                ",
"                                                                                                                                                                                                                                                                ",
"                                                                                                                                                                                                                                                                ",
"                                                                                                                                                                                                                                                                ",
"                                                                                                                                                                                                                                                                ",
"                                    bXmXbXnXnXSX    bX                                                                                                                                                                                                          ",
"                                    nXGXGXHXHXHXHXHXHXHXHXJXJXJXJXJXJXJXJXJXJXJXJXJXJXJXJXJXJXJXGXGXGXGXGXGXGXZXGXGXZXZXZXCXCXCXvXaXvXMXMXaX9X5X                                                                                                                ",
"                                    bXSXSXKXKXKXHXHXHXHXHXJXJXJXJXJXJXJXJXJXJXJXJXJXJXJXGXGXGXGXGXGXGXGXGXGXGXGXGXGXGXZXZXZXZXZXZXZXZXZXZXZXZXCX-X            %.V < 4 3 3 3 0 3 3 3 3 3 3 3 3 3 3 3 3 3 3 4 ' f.s.s.s.s.s.s.                                    ",
"                                    mXSXSXGXHXHXHXJXJXJXJXPXPXPXPXPXPXPXPXPXPXPXPXPXPXPXJXJXJXJXGXGXGXGXGXGXGXGXGXGXZXZXZXZXZXZXZXZXCXCXCXCXCXCX=X            W V r 3 a D D D D D D D a s a a a a a 0 0 0 3 ' f.s.s.s.s.s.s.                                    ",
"                                    lXSXSXmX3.&.3.[.[.[.[.oXoXoXoXoXoX4X6X7X7X7X7X7X8X8X8XmXmXmXmXmXnXnXnXnXnXnXnXnXZXBXnXvXvXBXCXZXCXCXCXCXMXMX=X          Q G V u C <.Q.R.R.Q.Q.Q.T.T.!.!.R.!.r.<.@.! d 3 ~ 9.9.' ] ' [ p.                                    ",
"                                    lXSXSXmXF i T _ _ ( C V V D D x D ~ ` Q ! Y C V e e e e V V V A A A K K K P Y E W W W ( #.#.#.#.%.#.}.CXCXMX          Q C A V d ` $X7X7X4X9X8X$X$X$X$X$X$XXXXX.X.Xr.F 3 f [ 9.9.' [ H a.                                    ",
"                                    8XSXGXnX` ~ t.] -.t.( A Y T ^ Q H w.d.9./ / ' Q e G =.w 4 4 < > , Q #.^ W W W W Y ! A u u s e 0 0 3 =.ZXCXMX          C u C V f i.rXaXaXaXaXBXaXaXaXaXyXyX5X9X5X5X=XH 1 ~ ~ ~ 9.' H ` a.                                    ",
"                                    8XSXGXGX-.~ -.1.1.-.( Y &.i.i.%.! 7.s.+Xd.u.7.` C D =.=.P k x x r x V V Y Q _ #.#.%.%.V e s u u u r 3.CXMXMX          s 0 D A C 3.$X9X9X9X8XmXlXyXyXaXaX7X2X2X$X$X}.F 1 9.p.p.p.p.p.s.a.                                    ",
"                                    7XSXGXGXi.d F 3.3.W ! 7.u.d.l.9.! 7.{.oXd.d.7.^ Q H i.XX,.} Q q.q.5.%.^ V w e j v V Z s e e u s s e 1.CXMXaX|.        r 3 V A C >.!.!.!.(.(.3X3X3X3X3X3X(.Q.!.!.!.3.s : u d d d d d f a.                                    ",
"                                      SXGXGX{.f T oXR.W _ wXwXl.l.7.! 7.f.*Xu.w.~ A Q 7.s.XXW.N.o.` 0.[.0.^ D e v Z A E Y A oXoXoXoX3.T [.CXMXaX|.        : : V A C r.%X%XXXQ.Q.Q.(.'.(.(.Q.(.(.Q.Q.i.-.u ; 3 3 3 3 3 3 f a.                                    ",
"                                      AXGXHX@X[ ` oX[.W %.pXsXwXl.9.^ e.wXqXd.u.^ ! &.a.i.4XXXR.+.#.=.i.i.G q j E A j } E Y aXnXGXGX[.Y oXCXMXaX        : + @ s A V 3.%X%X%Xi.i.i.%X3X3X3X%X%X%XXX1.q.q.3 : 3 d F F F d f                                       ",
"                                      nXGXHX=X[ _ oXV.Y %.sXsXiXwX9.~ e.z.qXd.w.^ Y &.-.1.[.W.N.O.a.&X+Xf.] A } b E ;.I q Y rXmXZXBX[.A oXCXvXaX          o @ e A V @.Q.%X%Xi.] i.p.%X3X(.Q.Q.R.=.&.w./ 3 : 3 f F F F u H                                       ",
"                                      bXSXHX9XH Q {.[.#.=.=XrX-X*Xa.^ 7.d.=Xw.7.~ ! %.-.' =.W.<. .#X0X1X0X#X! $.I $.B.} b Y 7XmXbXmXgX2X9XCXaXaX          O @ e A V )._.Q.( _ *.r.0.i.%X3X3X%Xt.t.i.8.u : : 3 3 3 3 3 1 H                                       ",
"                                      bXSXHX9XD ! [.R.#.3.0.1.=.%.` ^ W =.<X#.Q W W W Q Q #.W.R.2.L.L.B.;.^ S E $.$.>.,.>.V ! Y Y W #.W [.CXaXaX1.      o O + e K V ).'._.{ e N.D.&.~ 3.].~.~.~.~.!.!.! : : ; - @ @ @ @ ~                                       ",
"                                      gXSXKX8X^ ! %.B.! D D D 0.9Xw./ ! | :XK S A A A V A +.R.T.R.3.,. .L q q b L I L J L e 0 r r r r q [.CXaXaX-.      o O + V K v )._._.(.OXjXM.^ u x !.(.(.~.(.3X3XA ; ; @ < , e - @ [                                       ",
"                                      8XSXGXmX&.G %.V.Q A S C 0.rXk.w./ | :XK D S A =.3.3.M.N.M.$.>.$.=.a.7./ =.oXL.K k k e e 0 0 r r q [.CXaXaX        O O - V K v ).`.`.@X0XhX:Xr i ! 3XjX_.(.3X3XU < - - - < { M.b : [                                       ",
"                                      8XSXGXnX=.D %.[.^ A A V W 5Xw.6./ q.>X| { { ..4XvX8X^._.).M.0.q.s.iXl.u.rXaXd.^ k k e V j < q 4 < i.MXaXaX        O O - V P j S.`.S.k.tXhXhXI x ^./.`.S.m.3XC.5 < - - - 4 { +.l : ]                                       ",
"                                      7XSXGXnX0.H &.[.W Y W A Z 5XrX/ / wX1XZ.`./.M.9.p.-.T.jX).M.+X#X9.x.j.7.f.wXd.Y k k e V v k | Z < =.MXaXaX        O O ; V K k A.H.H.8.z.<X+.X.h /.`./.m...#XL. .6 @ # - - 6 q - 3                                         ",
"                                      4XSXGXGX{.` 1.[._ [.$X|.E 7XrX/ H 0X6XB.1X#X#.1.0.^ 2.3XN.N.=X+X=.qXl.' u.wXf.I O.} v V Z B.;X:.< =.MXaXaX        O O > x K x I.I.H.b.P.;XN I X.m././.).M.F.kXOXe @ @ - 3 0 u i 0                                         ",
"                                      oXAXSXGX|.1.i.oX%.9XaXyXo.XXrXq.F 0XkX[.-XaX=.W.[.[..X3XR. X+X@Xi.pXqX[.s.iXqX[.T.} v v A 3. X$.< =.MXvXrX        O O > j K x U.U.b.H.I.KX,XB +.D.^.4X-Xy.OXeX1Xu @ @ - 3 0 d i d                                         ",
"                                        nXSXGX|._ 9.oX3.[.|.[.%.|.l.&.G #XkXV.{.7X:.;.W. X$X3XT.[.@X@X[.pXpXoXi.s.=X.XR.L e j Z V A e < =.MXvX8X        O . < k P x Y.Y.b.A.D.jXLX/.A.K.3XsXqXg.@X1XL.q @ @ o - - - X f                                         ",
"                                        bXSXGX|.C ` |.3.|.@X=X+X{.1.G Q [.6XB.&.,.| %.3.>.[.}.3.V..X.X>.|.9X,.E [.T.O. XT.V e V Z A ~ 4 1.CXvX8X        O . 4 Z Y D X._ #.r.r.F.fX`.J.J.n.g.f.qX=X^...: : 3 : - - : : H                                         ",
"                                        mXSXKXoXs T 1.#.Q ^ 7.&.~ g p i Y 3XB.Y Y ! Y W _ %.%.#.>.B.C.+.$.R.+.b } { } <.T.A e j V V G < 3.MXvX5X        O . q Z Y V *.*.t.%X` } A.J.H.A.v.t.g.y.a.:.n : d {.=X=X=X0.! '                                         ",
"                                        lXAXHX=Xs ! %.7.7.u.7./ 6.g p $ u ,XC.S S A A ! W ^ ^ #.3.[.B.,.>.@.+.L k b b b 2.A e < 4 4 < - [.CXvX5X          . q Z Y q s *.t.i._ i.n.A.H.H.v.q.~ i c i.[ : F 5XaXMXMX0.D -.                                        ",
"                                        lXAXGX9XH C ~ h.j.j.u.c.u.6.g p / 6XoX` ^ ^ W Y Q W %.3.i.qX-X=X|.T..X%.k b L ` a.V q V v j e q oXCXvX5X            e Z P q x D ) ] p.s.i.G.K.fXfX8.c c x t.*.; H 5XaXMXaXL.o.i.                                        ",
"                                        8XSXGX8X' H ~ j.j.l.iX*Xd.k.d.w.h.dXqX+X@X|.%.-.^ ^ i.@X[.qXiX*X=X5XqX[ k n E *X-XC q C.6X:XF. .oXZXMXrX            e A P u X.l T d.*X=X|.4XgXbXAXL.i 1 3 ) d ; ! oX=X=X=X4XoXi.                                        ",
"                                        7XSXGXaX&.H ~ j.h.f.NX+X7.iXk.6.k.pX4X5XrX1.T i._ ^ i.=X[.&XqXi.|.sX-XI L L &.sXpXC q W.hX<X:X} oXZXMXrX            e K P r t l 9.*X-X5X4XgXmXgXAXoXa K $.( 3 ; < : ; - - ; 3 ]                                         ",
"                                        7XSXGXmX9.H -.l.h.u.l.g.s.tXz.7.tXtX6X8XGXi.W -.=.#.3.=X[.oXsXi.}.5X&X,.O.O.1.sXpXC <  XhXjXfX .oXZXvX5X            x K Y e 0 e H ] -.1.=.2.V.[.[.>.G W V q : : : - @ + + + 1                                           ",
"                                        6XAXGXnX-.f [.wXu.7.j.g.[ d.d.7.w.w.q.=XZX|.G ~ 9.%.$.{.r.3.-X|..X=X*XR.I $.}.iXpXC 4 :XLXcXjXM.oXZXvX9X            V K P q q q 4 < : : : : - - - - - @ - ; - : : - i ` H @ 3                                           ",
"                                        oXAXSXBX=.e #.s.wXf.f.g.%.` Q F ^ G u ` [.r.U T ' ^ ^ 9.-.%.[.>.O.i.|.&.%.1.1.s.wXC 4 ;XhXjXfX+.oXZXBX9X            V P A q q V G H G G G F C C C d s 0 : @ - : : - a.NX=X: 0                                           ",
"                                          nXSXSX=.e #.+Xa.[.=.&.%.Y D V A ,.T.$.$.E o.:.o.$.E P P E P ( O.3.$.o.>.Q W r.{.V 4  X6X:X<X+.2XZXMX9X            A I K q T i.3.=.r.i.i.9.-.-.1.1.-.9.` : - < : : =XaX=X- d                                           ",
"                                          bXSXSX1.w $..X| x > o o y ; - - ,.:X2.2.o.( #.%.T.$..X<.$.v A ( o.o.U } P o.<.P w q .XhX6X<X..4XZXvX9X            A I A e i.4 . = l l l l l l k o O o =.C @ < : 3 9XaX@X@ H                                           ",
"                                          bXSXGX[.e 2..X| j * X o 1 ^ ^ 4 &.{.q.&.' ^ ^ ' i.|.|.}.>.%.=._ ` ' ' -.-.&.o.O.j q  .C.2.:.J 4XZXvX9X          o A I Z V i.O . l { n.S.m.n.N ..% . . ` T - : ; < _ %.! @ H                                           ",
"                                          lXSXHX@X! o.B.} 5 % % # d a.&X~ 7.p.a.' ~ d ~ a.q.s.qXqX1.1.[._ G H ~ ~ ~ C b O.v q q q q q q 4XZXnX9X          o A I v V i.O . % l l l l l z z & . . &.G - - @ o o @ O o H                                           ",
"                                          lXSXHX9X_ T 3.B. .~ 1 i a.l.l.u.d.l.d.i.$.7 9.wXu.w.pXiX{.$X-XE 8 w w 6 7 v P +.v q q q q q q 4XZXBX9X          - A I v V -.. . % m +.l l O.O.l & . O 1.C - - @ O 1 f.[ @ ~                                           ",
"                                          yXSXHX9X[ T r.W.<.[.u f j.x.l.d.iXwXd.}.!.U 7.l.u.d.pXdX%X'.zX*.v U U P { U I +.v 6 q q r q q 4XBXBX=X          - A I j A &.. O N ;XbXM.N >X2X..& . O i.s - ; @ o 3 *Xa.: `                                           ",
"                                          8XGXHX8X~ G 3. X<.W.{ d u.x.f.6.j.wXp.<.<.O.g h.u.s.iXqXQ.'.9X` U o.{ O.+.O.o.$.v 6 q r r q q 4XBXBX=X          > A I j P &.O O n.D.^.m.n.Z.D.m.% . o i.r - - @ @ ; 3 3 :                                             ",
"                                          8XSXSXyX` A =.:X<.R.$.v ~ l.s.f d.pX3.O.@.P ~ l.a.-.wX&Xr.-X&XU o.O.o.:.$.$.3.3.v q q q w q q 6XZXZX9X          4 K { j E -.4 X m.D.D.S.S.D.S.m.& . % i.3 - - 0 H f d u 3 ]                                           ",
"                                          8X7X7XyX` V %.[.I b A } 0 h.f.3 ] *X#.n n A 7.wX{.%.*X|.i.pX-X$.U } :.O.( r.>.#.v 4 q q q q q 6XBXBX9X            K  .j W 1.; % n.D.D.S.D.^.^.m.o . > i.< - - d T T H f 0                                             ",
"                                          8X4X4XmX_ j #.[.E b o.B.5 7.u.< $.1.Q 7 v P a.iX|.o.|.}.}.pX&Xo.U O.O.O.o.3.o.o.v < q q w q q 6XBXBX9X            K I w o._ O o n.D.D.S.S.D.D.m.o . 4 i.- - - u G G H s d                                             ",
"                                          7X7X4XmX( w ( 3.o.[..XXX$.W T v o.( A U O. .P 3.,.:.!.<.:.i.o.( o.O.( >.o.#.>.3.V < 4 q q q q 6XZXBX9X          q A I q o.Q # < Z.gXnX/.^.1X<X/.5 . w ` - - - e G C C 0 d                                             ",
"                                            bXlXmX#.q ( >.b | O.+.L q > 6 { B { O.<.+.k O.+.N.@.U +.:.U o.O.} U o.v o.>.3.V 4 q q w q e 7XBXBX9X          e A I q $.T 3 u F.4X5X^.;X#X6X/.* o v Q - @ - 3 0 r r < F                                             ",
"                                            SXbXSX>.6 _ $.7 6 b n = & & 5 B m...+.+.+.7 { O.+.M P { } Y Y I P A v 5 A V Y e 6 v e q q e 7XBXBX9X          e A { w $.T i u F.^.^.F.L.OX^.Z.o o P ( X X @ o X o o o H                                             ",
"                                            bX=XmXr.6 ! W 7 4 b h % O & M @.C.N.@.+.+.5 b { @.M n Z / w.' P b b b 7 V V A e q q q q q w 7XBXBX9X          e A } w >.G 3 I ^.,X;XF.^.;X;XM.1 # E U o < ` ` ` ` _ _ -.                                            ",
"                                            bXbXHX[., v P w , n 7 & O & M !.^.W.+.+.+.5 b { @.m b / e.d.|.} n L b w A E E e q e j j r j 7XBXBXoX          V Z { q 3.v o m /./.^.^.:X:X,XM.; # o.! o 0 a.|.+X+X+X+Xi.                                            ",
"                                            bXDXHXoX< q Y w , h 7 & & & n Q.3X,XW.+.{ 7 b { { m b 0.rXsX|.A v b b A ( %X%Xv w P $.o.| S 7XnXZXoX          V Z I 7 3.v % 8 N { {  ._ X.+.E # + :.D o 0 a.i.i.i.i.|.9.                                            ",
"                                            lXSXHX$X< 6 Y j 7 7 7 * & & k 3XDX7XR.{ { b b I L b b R.GXaX( 4 w e K P [ x.c.d q Y #.E K A 8XnXBX=X          V Z I 7 3.v , * * M U b 6 , , , * % <.a o d 9.D D A D i.0.                                            ",
"                                            lXSXHX4Xq q E L k L L 5 % 5 7 R.AX<X .O. .I I I Z L P _ qX&X! Z A Y $.#.] x.x.d q E $.| ! K 8XnXBXoX          V Z L q R.w 7 5 8 Q.(.<.n 5 6 5 * > 3.e X F 9.! P A D i.i.                                            ",
"                                            8XSXHX9Xe q #.$.I  .,.h * b 4 L >XW.I  .$.K E o.P | o.Y f.*X( o.W =.3.=.-.iX-Xa 6 I ;.;.Q K 8XnXnX[.          V Z L q R.7 , 5 M Q.!.b * 5 7 * * 5 3.q X H -.V A v v p.                                              ",
"                                            7XSXHX7XZ b :.T.M.M.C.L * 4 V L ^.W.} I ;.I K ;.| K ;.E s.qX3.Y E 3.=.=.i.-X&Xa 6 K ;.V.W K 8XBXBX[.          V b L w R., % 7 M Q.O.k X 5 v * * 7 r.< X ^ &.P E v V p.                                              ",
"                                            7XSXHX8X} +.C.:XW.^.<XM.{ O.L k :.B.O.$.,.| $.2.O.O.$.| >.[.>.;.$.$.[.oX;.3.r.j 6 E ;.;.;.K 8XBXnX[.          V b L k R.* O 7 n !.b 5 & * o., % 7 3.< o ` ` e o.A C p.                                              ",
"                                            6XSXKXmX;.Z.W.:X<XhX6X<X<X:X XW. X XC. XB.M.C.B.B.V.,.,.B.,.B.B.2.;.[.[.3..X[.V 6 W ;.o.K K 8XnXnX[.          A v >.E 3.% * 7 8 { * o X * w * % k >.- o ' ` P o.W T p.                                              ",
"                                            oXSXDXbXB.C.^.:X,X,X,X^.W.W.W.;X1X1XOX XC.C.C.B.B.B.B.B.B.B.B.B.B.2.,.2.2.V.2.v 6 Y ;.;.I K gXnXnX[.          Z b $.E 3., w w b b * X % * * * * v >.- o -._ K A V _ p.                                              ",
"                                              SXDXBXR.W.;X,X,X,X,X^.W.W.W.;XeX1XOX XW.W.C.C.W.W. XC.B.B.C.T.[.B.B.B.V.[.B.v 6 A E E K K gXnXnX|.          Z b J b B.6 k j P w 4 % * * * * % Z $.* - -.T P Y 6 _ i.                                              ",
"                                              AXDXSX[.W.,X,X,X,X,X;XW.W.;X X1X0X.XW.W.W.W.W. X X XT.C.T.T..X[.B.C.C.[..XV.v 6 q q w q Z gXnXnX|.          Z b J Z R.j I E E Y Y e V v q 7 * I $.% - 1.s q V , ` i.                                              ",
"                                              bXDXGX.XW.;X,X,X,X:X;XW. X X X4XrX X X XW.W. X.X>X XC.T. X.XXXT.C.T.T.XX.XV.b 6 q q q q Z lXnXbX            V b b A R.> q j r V D D V j q 4 * I o.X < 9.&.%.` _ i.i.                                              ",
"                                              mXDXKX.XC.;X;X,X,X;X;XW.W. XW.1XrX XW. X XC. X2X XW.W.C. X>X[.B.T.T.XX>X XT.Z 6 q q q q Z lXnXmX3.          V b b b [.e 4 q q 0 3 < < < - > w >.W X 3 9.p.{.{.{.{.0.                                              ",
"                                              lXDXHXoXB.^.;X;X;X;X;XW.W. XC.OX>X XW. X XW. X>X X XC.T..X>XT.W.T.T..XoX XC.Z 6 q q q 6 A lXnXmX3.          V b b 7 | 3.=.3.3.3.2.>.#.%.%.%.>.>.6 o q 9.i.p.i.i.{.1.                                              ",
"                                              gXDXHXoXM.W.;X;X:X:X;XW. X XC. X.XW. X.XW. X X.X.XW.T. X.X X.X XT.[. X X[.C.b 6 q q q 6 L lXnXmX1.          Z b v 4 < 4 4 4 4 < > 4 4 4 4 6 6 > * o 0 i.i.{.[.i.[.=.                                              ",
"                                              gXSXHXoX| M.B.B.B.B.B.M.,.,.,.2.,.,.2.2.2.3.B.2.V.3.2.3.3.3.V.V.3.2.2.2.2.2.v 6 q q q 6 L lXnXmX            j b j 7 B B B I ! L L k q k k k l 4 - o u 0.i.i.i.i.i.%.                                              ",
"                                              7XDXHX2Xb J L L L Z b b j j j v V Z v v Z Z Z Z Z A Z S A K K K K K K K K A V j e e e q P lXnXmX            j b k m.`.`.`.@X0X<XfXV.%.:.D.Z.Z.T.C o - 0 e u s s ^                                                 ",
"                                              7XSXHX4Xb b b J b b j k q k j q w w q q w k w w w q q q j v b V V V V V V v V j e e q q P mXnXmX%.          j b j S.`.`.`.L.z.0X^.:.5.5.M.N.|.uX*.X o o < < o o D                                                 ",
"                                              7XSXKX7Xb k b b b b k k q q 4 j Z Z Z Z Z L L L L L L Z k w j v v v v v v v j e j Z j q P mXbXmX#.          j k j M.D.K.K.K.P.1XhX^.M.$.G.D.&XqXt.o X * e q % , !                                                 ",
"                                              4XSXKX8XZ h k k k k k k 7 X q K K K I I I E E E I E I I L 7 e j j j j j j j j e P [.|.Z K bXbXlX#.          j b j M.D.I.I.I.K.I.LXLXhXD.J.J.M.p.) o X X - - w L G                                                 ",
"                                              .XSXDXlXZ q k k k k k k 7 O 4 K P K I I L K L I I I I L I q q j j j j j j j e j v |.9X#.K zXbXmX            j b j :.F.U.U.I.K.K.hXjXfXK.J.A.n.>.G o o o : u o.v G                                                 ",
"                                                AXSXmXK q q h h w k h q % o q Z Z Z Z Z Z Z L Z Z Z L I k q w j j j j j j e w q V _ v P mXbXmX            j b Z {.{.P.U.I..X=X-XT.S.J.A.A.A.:.u o < q e C e q T                                                 ",
"                                                AXSXbXY 7 q q q q q q q 7 4 < 6 q q q q q w q 6 6 q J { q q j j j j e e e w q q q 4 4 E bXbXlX          < k b A -X+X0.{.}.$XyX9Xi. Xn.A.G.$.*.r - ` 1.1.1.1.1.-.                                                ",
"                                                AXSXAXW 4 7 7 q q 7 7 7 7 7 q q q q q q q q q q w e j q q q j j e e e e e w q q q q 4 E bXbXmX          < k b A -X+X0.i.|.=XyX-X=X-X|.3._ ( ` q > &.0.0.i.i.i.1.                                                ",
"                                                AXSXSX#.4 7 7 7 7 7 7 7 7 6 6 6 6 6 6 6 6 q q q q q q q q w j j j e e e w w q q q q 4 E bXbXlX          < j b ! =X+X&.W =.}.|.-XsXaX8X.XT *.*.< < &.1.0.0.0.0.-.                                                ",
"                                                AXSXSX%.4 4 6 7 7 7 6 6 6 7 7 7 6 6 6 6 q q q q q q q q w w e e e e w e e q q q q q 4 E mXbXyX        o < j b E oX1.W W OXC.W.sXdXaXaX6X#.[ T - 3 &.1.0.1.0.0.=.                                                ",
"                                                AXSXSX3.5 4 4 6 6 4 6 7 6 6 6 6 6 K | E E } } Z q q q q q w w w w w w w q q q q q q 4 E mXbX8X        o < k k P r.}.W M.L.:.^.5XsXsXrXrXr.( ` > q &.1.1.1.1.1.                                                  ",
"                                                mXSXSX[.4 4 4 6 4 4 4 4 6 6 6 6 6 Z $.2.$.,.>.Z q q q q q q w q w q w q q q q q q q 4 E bXbXyX        o < k k ! t.9X| ..m.$.r.Q.|.5X9X#Xw.q.&.> 0 &.1.1.1.1.1.                                                  ",
"                                                zXSXSX[.< 4 4 4 4 4 4 4 4 4 4 4 q K o.,.,.,.;.P j q q q q q w q q q q q q q q q q q 4 } bXbX8XG       + < j k U 2XyX4X$.Q.xXyXxXuX/.G.8.Y.P.^ - s =.1.1.1.1.1.                                                  ",
"                                                lXAXSXoX4 4 4 4 4 4 4 4 4 4 4 4 q P E E } E } E j q q q q q q q q q q q q q q q q 6 4 | bXbX8XG       + q j q { cXPXJX[.%XIXIXPXxXZ.8.k.U.P.P % D =.1.1.1.1.1.                                                  ",
"                                                lXAXSX2X4 4 4 4 4 5 5 4 4 4 4 4 4 4 4 6 q q 6 6 q q q q q q q q q q q q q q q q q 6 4 | bXbX8XF       + r k 7 { cXLX4X` *.yXIXIXcXZ.8.eXI.M.D % ! =.1.1.1.1.=.                                                  ",
"                                                8XbXbX4X4 > > > > > > > , , 4 4 < 4 4 j L Z 4 4 4 4 4 4 4 4 q q 6 6 6 4 4 4 4 4 4 4 , | bXbX7XF       @ r k 4 m.cXzX>._ ` t.2XxXcX/.fXeX8.>.D - Q =.1.1.-.-.=.                                                  ",
"                                                  bXbX8X%.$.%.%.%.$.$.$.$.$.$.$.$.$.$.;.;.;.;.;.;.;.;.$.$.;.$.;.$.$.$.$.$.$.$.$.$.#.o.[.bXbX7XG       ; e k 4 { jXoXT _ ( ` >.@.).:.8.P.q.%.a > T -.1.-.=.=.&.                                                  ",
"                                                  bXbXbXnXbXbXbXbXbXzXzXzXzXzXzXzXzXzXzXbXbXbXbXbXbXbXbXbXbXbXbXbXbXbXbXbXAXbXbXbXbXbXnXbXbX7XH         e q , j ,.$.P A A K A A #.{.w.*X{.5.4 < _ 1.1.-.=.=.&.                                                  ",
"                                                  bXAXbXbXbXbXbXbXzXzXzXzXlXlXzXzXzXzXzXzXzXzXzXzXzXzXbXbXbXbXbXzXzXzXzXbXAXbXbXbXbXbXbXbXAX7X          e 4 > > < < 4 < < < > > < r i 0 q 4 > 4 %.-.-.=.=.=.&.                                                  ",
"                                                  7X.X.XoX.X.X.X.X.X.X.X.X.X.X.X.X.X.X.X.XXX.XXXXXXXoXoXoXoXoX>XoXoX>X>X>X>X>X>X>X2X2X2X2X2XoX          0 , > > > > > > > > > > > > > > - - - > q e e e e e C                                                   ",
"                                                    4 4 w 4 q 6 < 4 6 q q 4 6 q w q 6 6 q j q 6 6 6 w q 4 q q j q 6 q q j q q q q j q 4 q 4 e           q > > > > > > > > , > > > > > > > > > - - - - - - % 0                                                   ",
"                                                    w 6 4 6 e q q q q j w q q q j j q w q j j q q q j e q q q j e q q q e w q q q e q q 4 < e           q > > > > > > > > > > > > > > > > - - - > > - - - -                                                     ",
"                                                    j w 4 q q q q q q w w q w e j j e e e j j j q q j j e w w e e e w q w w w q q q q q q 4 C             , > > > > > > > > > > > > > > - - - - - - - - - -                                                     ",
"                                                    q e e e e e e j j j j V V Z V j V Z Z Z Z Z A A Z Z A A A Z Z Z K A V Z A A A Z v V Z Z               q < < < < 4 4 4 4 < < < < < > > > - - - - - - - -                                                     ",
"                                                                                                                                                                                                    Z                                                           "
};
