/* XPM */
static char *vending_machine_front_left[] = {
/* columns rows colors chars-per-pixel */
"128 128 246 2 ",
"   c #FF00FF",
".  c #05060C",
"X  c #06090D",
"o  c #080A0E",
"O  c #070B11",
"+  c #0A0D12",
"@  c #0D1016",
"#  c #0E1218",
"$  c #111217",
"%  c #12151C",
"&  c #15191E",
"*  c #18191D",
"=  c #161A22",
"-  c #1A1D24",
";  c #1B1F29",
":  c #1D2026",
">  c #1E222A",
",  c #1F2631",
"<  c #222225",
"1  c #22252B",
"2  c #25292D",
"3  c #2A2B2D",
"4  c #282829",
"5  c #212631",
"6  c #242932",
"7  c #2B2D32",
"8  c #2D333A",
"9  c #2D3234",
"0  c #343436",
"q  c #353639",
"w  c #38373B",
"e  c #36383C",
"r  c #3A3A3D",
"t  c #3A3936",
"y  c #34312E",
"u  c #473A37",
"i  c #3F423E",
"p  c #45433D",
"a  c #504B3A",
"s  c #353B43",
"d  c #3C3D42",
"f  c #363C46",
"g  c #2E3541",
"h  c #473D43",
"j  c #6B3642",
"k  c #3D4145",
"l  c #3D434B",
"z  c #3C4B47",
"x  c #3E4652",
"c  c #3F5050",
"v  c #395468",
"b  c #366B6F",
"n  c #434345",
"m  c #43454B",
"M  c #444A4C",
"N  c #4A4B4D",
"B  c #4B4945",
"V  c #574D43",
"C  c #4D534D",
"Z  c #58534B",
"A  c #444A53",
"S  c #4B4D53",
"D  c #454B57",
"F  c #514E54",
"G  c #4C5254",
"H  c #4E525B",
"J  c #48575B",
"K  c #535455",
"L  c #53555B",
"P  c #555A5C",
"I  c #5B5C5C",
"U  c #595955",
"Y  c #675A49",
"T  c #635D58",
"R  c #755B4E",
"E  c #5B625A",
"W  c #596041",
"Q  c #66645B",
"!  c #776859",
"~  c #716950",
"^  c #4B5663",
"/  c #545B63",
"(  c #5B5D62",
")  c #535B6A",
"_  c #535676",
"`  c #625F62",
"'  c #635461",
"]  c #6E4E78",
"[  c #5C6263",
"{  c #5D636B",
"}  c #586768",
"|  c #5A6773",
" . c #547074",
".. c #636365",
"X. c #696465",
"o. c #64656A",
"O. c #6A666A",
"+. c #646B6C",
"@. c #6C6B6C",
"#. c #686A65",
"$. c #726C65",
"%. c #726C6C",
"&. c #776D69",
"*. c #6D7469",
"=. c #73726D",
"-. c #7A756B",
";. c #636C74",
":. c #6C6D71",
">. c #636C7A",
",. c #726E71",
"<. c #776B73",
"1. c #6D7374",
"2. c #6C737B",
"3. c #677678",
"4. c #747374",
"5. c #7B7A74",
"6. c #74747A",
"7. c #7B7B7C",
"8. c #777878",
"9. c #A06238",
"0. c #866B58",
"q. c #8E7457",
"w. c #867869",
"e. c #947A6A",
"r. c #857C77",
"t. c #8B7174",
"y. c #A4756C",
"u. c #9A6350",
"i. c #D77E43",
"p. c #76857A",
"a. c #AE8F59",
"s. c #8B826A",
"d. c #978769",
"f. c #888577",
"g. c #968977",
"h. c #949374",
"j. c #AE9872",
"k. c #B7A47E",
"l. c #9A9157",
"z. c #CA956C",
"x. c #CCAC73",
"c. c #D0955A",
"v. c #DBC079",
"b. c #397684",
"n. c #597B91",
"m. c #697688",
"M. c #777C84",
"N. c #6D7798",
"B. c #5D5DB8",
"V. c #6F73A6",
"C. c #7C5385",
"Z. c #6C68D2",
"A. c #847A86",
"S. c #9A7695",
"D. c #B271A9",
"F. c #8756CE",
"G. c #A974D3",
"H. c #348894",
"J. c #539192",
"K. c #7D8284",
"L. c #78838A",
"P. c #7A8596",
"I. c #718C8E",
"U. c #7988A6",
"Y. c #788FB0",
"T. c #6CA8B4",
"R. c #6691A3",
"E. c #6F8ECD",
"W. c #6BAAD0",
"Q. c #848483",
"!. c #8C8B85",
"~. c #868989",
"^. c #958B82",
"/. c #8C9488",
"(. c #979688",
"). c #858C97",
"_. c #978896",
"`. c #8A9497",
"'. c #949493",
"]. c #9C9D9A",
"[. c #979996",
"{. c #A59A87",
"}. c #A69D98",
"|. c #AD9389",
" X c #90A499",
".X c #A6A288",
"XX c #A5A69A",
"oX c #B7A997",
"OX c #BAB49B",
"+X c #B7A38B",
"@X c #8897A6",
"#X c #979BA6",
"$X c #929EB7",
"%X c #AD95A5",
"&X c #8FA5A6",
"*X c #98A5A8",
"=X c #98A6B5",
"-X c #89A9B2",
";X c #ACACAB",
":X c #A6A8A7",
">X c #B4B4AD",
",X c #B9B4AB",
"<X c #A5ADB7",
"1X c #A9B3B7",
"2X c #B3B4B4",
"3X c #BCBBB4",
"4X c #BBBDBC",
"5X c #B8B8B7",
"6X c #B1AFA8",
"7X c #C7978F",
"8X c #CBB390",
"9X c #C3BBB6",
"0X c #D5BAA5",
"qX c #BFC1BD",
"wX c #BDD280",
"eX c #C4C3BC",
"rX c #CAC7BB",
"tX c #D1CAB7",
"yX c #D0C8AA",
"uX c #D5C89A",
"iX c #8D9AC6",
"pX c #9FAFCB",
"aX c #A9B7C5",
"sX c #B4BDC5",
"dX c #A0A9C3",
"fX c #A199DD",
"gX c #BBC2C9",
"hX c #B7C8D7",
"jX c #AAC5CA",
"kX c #BBD0E2",
"lX c #86C1C2",
"zX c #C4C6C3",
"xX c #C7C8C5",
"cX c #CACAC4",
"vX c #CBCCCB",
"bX c #C5C8CA",
"nX c #D1CEC4",
"mX c #D0CFC9",
"MX c #CFD0CD",
"NX c #D2D2CB",
"BX c #D5D1C7",
"VX c #C4CCD3",
"CX c #C8CED1",
"ZX c #CFD1D0",
"AX c #D3D5D0",
"SX c #CBECEC",
/* pixels */
"                                                                                                                                                                                                                                                                ",
"                                                                                                                                                                                                                                                                ",
"                                                                                                                                                                                                                                                                ",
"                                                                                                                                                                                                                                                                ",
"                                                                                                                                                                                                                                                                ",
"                                                                                                                                                                                                                                                                ",
"                                                                                                                                                                                                                                                                ",
"                                                                                                                                                                                                                                                                ",
"                                                                                                                                                                                                                                                                ",
"                                                                                                                                                                                                                                                                ",
"                                                                                                                                                                                                                                                                ",
"                                                                                                                                                                                                                                                                ",
"                                                                                                                                                                                                                                                                ",
"                                                                                                                                                                                                                                                                ",
"                                                                                                                                                                                                                                                                ",
"                                                                                                                                                                                                                                                                ",
"                                                                                                                                                                                                                                                                ",
"                                                                                                                                                                                                                                                                ",
"                                                                                                                                                                                                                                                                ",
"                                                                                                                                                                                                                                                                ",
"                                                                                                                                                                                                                                                                ",
"                                                                                                                                                                                                                                                                ",
"                                                                                                                                                                                                                                                                ",
"                                                                                                                                                                                                                                                                ",
"                                                                                                                                                                                                                                                                ",
"                                                                                                                                                                                                                                                                ",
"                                                                                                                                                                                                                                                                ",
"                                                                                                                                                                                                                                                                ",
"                                                                                                                                                                                                                                                                ",
"                                                                                                                                                                                                                                                                ",
"                                                                                                                                                                                                                                                                ",
"                                                                                                                                                                                                                                                                ",
"                                                                                                                                                                                                                                                                ",
"                                                                                                                                                                                                                                                                ",
"                                                                                                                                                                                                                                                                ",
"                                                                                                                                                                                                                                                                ",
"                                                                                                                                                                                                                                                                ",
"                                                                                                                                                                                                                                                                ",
"                                                                                                                                                                                                                                                                ",
"                                                                                                                                                                                                                                                                ",
"                                                                                                                                                                                                                                                                ",
"                                                                                                                                                                                                                                                                ",
"                                                                                                                                                                                                                                                                ",
"                                    m.hXvX                                                                                                                                                                                                                      ",
"                              1 2 , | hXZXMXNXNXNXmXcX                                                                                                                                                                                                          ",
"                      : > > > > > , | jXvXcXMXNXNXNXNXNXNXNXBXcXcX                                                                                                                                                                                              ",
"              - - - - - > > > > 5 , ) aXvXcXvXNXNXNXNXNXNXNXNXNXNXNXNXNXnXcXeX,X                                                                                                                                                                                ",
"        =X6 = - - : > > > > > 5 6 , ^ aXCXcXvX5XqXcXMXNXNXNXNXNXNXNXNXmXnXnXnXnXcXnXnXcXrX                                                                                                                                                                      ",
"      =X=X8 - - : > > > > > > 5 6 , ^ aXCXcXvX5.B U #.4.~.].;X3XeXcXvXNXNXNXNXmXcXnXnXnXnXnXnXnXnXrXeXeX,X                                                                                                                                                      ",
"      =XP.- - : : > > > > > > 5 6 , D dXVXxXMXj.q.W W y < < 3 0 n K @.7.!.].;X3XeXcXnXBXBXBXBXBXnXnXnXtXrXeX~.1.1.                                                                                                                                              ",
"      D s - - : 1 1 1 1 1 > 1 5 6 , D =XVXcXvXoXj.l.l.a - 3 < * - * $ $ * * : 3 e S +.4.!.].;X,XeXrXrXcXrX9XP K L L p p p p                                                                                                                                     ",
"        - - : > 1 1 1 1 1 1 1 5 6 , x =XVXcXvX}.5.f.j.V < V t : u 0 - $ $ $ $ $ $ - 6 - : 2 2 L 1.U #.5.3X,Xt 0 d N Z ;.| [ J M p                                                                                                                               ",
"        - : : > > 1 1 1 1 1 1 5 6 6 k =XVXxXvXj.u.0.u.u < a Y 4 h ! O.< @ $ $ $ $ 1 8 > 1 7 6 | +.t t n 2X6X0 0 d m Z `.&XI.I. .H                                                                                                                               ",
"        : : > > 1 1 1 1 1 1 1 5 6 6 f =XVXzXvX+Xc.a.a.V 7 Q s.V < 0 5.n * = $ $ 6 J | ) m.>.P.@X..t t N 3XXX3 w d m N L.&X&X@Xn. .                                                                                                                              ",
"        : : > > > 1 > > > > > 1 6 6 f @XVXzXvX7Xi.c.a.V q C *.=.d u ! 5.M 9 s s D n.Y.U.=XU.$X$X6.:X].1.9X].3 w d M M b J.T.T.b.v                                                                                                                               ",
"        - : > > > > > > > > > > 5 6 s @XVXzXvX|.9.9.q.Y 7 k P :.H B |.oXr.7 8 H J ^ P.U.#XY.=X@XK.vXvXL.eX(.3 t k m m b v H.H.b.x                                                                                                                               ",
"        : : : : : > > > > > > > 5 5 g @XVXzXcX!.y y p n q 8 d S S F t.A._.....2.L.m.m.P.#XU.=X@XM.zXbX*XzX!.3 t n k A R.}  .J.3.&.                                                                                                                              ",
"        - : : - - - - : : : - > 1 5 8 ).VXzXcXQ.$ $ - 6 6 , 8 s k s m L +.1.;.{ >.L.@Xm.M.P.m.M.P G P 8.zXf.3 t n k J T.m.>.J.&XQ.                                                                                                                              ",
"        - - - - = - - - - - = : > 1 6 P.VXzXcX!.* < 8 } M.;.v A Z Y d.d.! (.^.S D m.P.:.7.5.[ L.S 0 0 [ cXr.3 t m k v W.=X>.U.jXL.7                                                                                                                             ",
"        = - - = * = - - = = = - > > 6 P.VXzXcX}.u.j v n.T.<XY.>.! y.j.8Xj.rX8XU ^ m.P.&.{.j.h.).m 0 d ..eX5.3 t m m v Y.2XL.E.aX..7                                                                                                                             ",
"        = - = * $ * = - = = = - > > 5 L.hXzXzX9X7Xu.Y.E.R.6.L ) d ! ! ! -.! x.Z A ^ | S -.! d.L.d g | ;.3X=.3 t m k _ F._.m.Y.5XO.7                                                                                                                             ",
"        * = * $ $ $ * = = = = = ; > > m.hXzXzX,X7Xy._.9X_.M.&.M./ Q w.=..X$.8X#.P A J P 5.=.s.M.e 8 >.2.3X#.7 d m k C.F.iXU.<X5XO.3                                                                                                                             ",
"        $ * $ $ $ $ * * = = = = - > > m.hXzXzX9X7X7X}.AX#Xn.m.=X>.Q e.5.8Xw.|.&.k G / ( 8.~.}.~.q 8 M P 3XP 7 d k k ] V.iXE.1X,X..P                                                                                                                             ",
"          * $ $ $ $ $ $ = = = = - > ; >.hXzXxX,Xy.t.#.).m.L >.L.L.T r.Q.OX[.'.6./ L 8.2.2.M.`.M.7 q M $.3XU 0 h m m [ I.V.B.#XXX`.3X                                                                                                                            ",
"          * $ $ $ $ $ $ $ $ = = = > ; | gXzXcX;Xm N q d d q m k K K K ..+.` G k s M +.Q P / } 2.7 2 0 8.eXK q n A m | /.P.Z.%X].].5X                                                                                                                            ",
"          $ $ @ @ $ # # # $ $ = = > ; | gXzXcX;X7 < : 1 M E V ! s.s.B u V Y B 7 7 P ..w.w.=.@.M.t d d `.eXN t m A m ) !.:XgX2X~...@.                                                                                                                            ",
"          $ $ @ @ @ $ @ @ # $ $ = ; - } sXxXxX3XQ Y Y T 5.]..X.XyX8Xg.(.(.].h.g.N #.#.U -.#.[ 1.A Y.N.*X3Xm d m A k A f.!.'.Q.......                                                                                                                            ",
"          $ $ + + + + @ @ @ # $ = - - ) sXxXzXeXx.x.(.(.].].g.{.{.k.{.XX.X[.:.f.(.N #.1.&X;.H +.H iXU.:X3Xn h S A k M G G L [ [ ].!.                                                                                                                            ",
"          @ + + + + + + + @ # $ = - - ^ aXxXzX9Xx.v.XX6X8.~.K r.f.s.OX*X,Xs.w.{.yX!.(.(.;X!.@.@.H iXU.:X,Xn m S A k [ L.M.K.:.7.].5.                                                                                                                            ",
"          @ + + X X + + + + @ $ = - = H aXxXzXeX8X0XgXNXp.1.G 5.8.5.OX;XgX`.Z s.uXXX&X/.(.(.g.4.H pXP.1X;Xd m S A k 1.k s S $ ..N i                                                                                                                             ",
"          + + X . X O + + + @ $ = - = D aXxXzXrX8Xz.oXrX^.5.K Q #.#.p.*XaX*X:.8.K. X1XL.[ 5.r.@.) pXP.2X;Xd N G A M [ 2 6 G - +.n n                                                                                                                             ",
"          + + X . X O O + + + # $ = = A aXvXcXzXg.e.s.{.g.e.s.w.f.r.!.].*X7.+.A G -XjXI.+.p.Q...H N.| 4XXXd S H A M G * 1 L 2 @.@...                                                                                                                            ",
"          O + X . X X O O + + @ $ = = k <XvXcXzXg.w.p.~.^.g.^.w.w.! R 0.0.0.! T @.&X&Xp.5.(.4...0 0 M 5X].d S H A M | H H [ 7 K.'.@.                                                                                                                            ",
"          X O X . . X X O + + @ $ = = f <XvXcXcX5.Y 1.`.(.oXoX(.e.R R 0.q.q.q.0.Q =.f.#.-.(.2...0 0 A gX'.d G H A M 3.I.p.+.e Q.].                                                                                                                              ",
"          X + X . . X X O + + + # = $ s =XvXcXcX5.R w..XoX+X0XOXoXd.q.0.! Y V p t C G G [ 1.{ P 9 0 A zX!.d L H A S #.Q :.@.k 8.4.                                                                                                                              ",
"            + + X X X O + + + + # $ $ 8 =XvXcXcX{.g.+XyX8Xy.0XrXlX`.V < 4 4 : : z } H M J G { P 7 7 G zXQ.d L H x M B y K 1.A [ Q                                                                                                                               ",
"            + + X X X + + + + + # $ $ 8 *XvXcXcX8Xd.s.OX8Xx.8XyXI. XQ 9 M C G M :.3.G m G M ..P 3 3 L zXf.k L H k M 2 9 0 t k @.r.                                                                                                                              ",
"            + + O o o + + + + @ # $ $ 7 *XvXxXvXyXj.B [ (.x.d.{.g.p..X1.[ P C E E } L G / G { K 3 3 [ cX7.n L H k M 2 z 9 * k C U                                                                                                                               ",
"            + + X o o + + + + + # $ $ 6 #XCXcXcX8Xz.T [ L.k.k.h.(.g.yXK.G | H [ P [ 1.P S M { S 3 3 +.vX4.m L H k M 2 9 2 7 k n Z                                                                                                                               ",
"            . X X o o + + + + + # $ = 6 @XCXcXcX8Xj.@.;.I.OXuX(.5.f.g.+.5.`.L.+.#.@.4.&.$.Q.K.m 7 3 ;.cX@.m L D k M s - : x m N U                                                                                                                               ",
"            . X X o o o + + + + @ $ = 6 @XCXvXvX{.d.@.;.| [.XXL.+.+.[ [ P K c k U =.=.(.}.XX!.m 7 q M.vX..m L A f G z = > A M P Q                                                                                                                               ",
"            . . . X X o o + + + # $ $ 5 ).CX5X5X5.B K +.K +.p.} G q 1 9 t n J C U 7.*.E $.f.4.m m P ~.cX..S L A s ;.H - > A N P U                                                                                                                               ",
"            . . . . X X o o + + @ $ $ > ).VX[.:X8.t d | 0.0.:.J d 7 1 0 t n I. XK *.h.Z N U ..d F F ).xXP S L A d P N 7 5 A N U Q                                                                                                                               ",
"            . . . . . X o o + + + # $ > P.VX'.:X4.$ k } /.^.oXy.0.e 1 8 7 0 p.wXW E h.Q Q P ..d L ( `.zXL S L A L ..P 9 6 A K =.                                                                                                                                ",
"            . . . . . X X o o + + # $ ; P.VX:X2X6.; J M M ;. X(.tXP 1 s q q C .X#.P f.....L ..t L :.'.eXK S L k m @.P d 7 A T r.                                                                                                                                ",
"            . . . . . X X X o + + # $ - L.VX4X5XQ.S / m d A G / '.g.q m m M / ~.#.[ [ P :...@.d ( ( #XqXS S L k k K 1 1 k G K $.                                                                                                                                ",
"            . . . X X X X X X + + # $ = m.VXzX3X).L L F N G m d k ! w.P L S P :.( { +.@.:.@.:.d ( L #X5XN S H f k P M N n t 0 0                                                                                                                                 ",
"            . . X X X X X X X o + @ # = m.hX5X,X2X( P K F P K L P s.g...( [ 8.K.6.6.4...@.~.6.t m m *X3Xm S S f q m d A ..K.q 7                                                                                                                                 ",
"            . X X X X X X X X o + + # $ >.gXxXvXgX6...O.....` ..L O.` 6.M.7.8.O.O.6.=X*XL.M.6.e 0 q :X,Xn S S f s _ S.A.A./.i d                                                                                                                                 ",
"              . X X X X X X X o + + @ $ ;.gXvXMX:X~.6...O.O.` ,.,.4.7.,.O.` ` ..@.6.aXkXhXaXK.q 0 e :X;Xk S A s _ E.%X#XB._ n N                                                                                                                                 ",
"              . . X X X X X X o + + @ # | gXvXMX:X1.4.#.@.4.8.4.:.....@.@.,.O.@.@.6.aXhXhXkX).q q d 1X;Xd S A g _ Z.F.fXB.) P Q                                                                                                                                 ",
"              . . X X X X X o o + + @ # { gXvXZX#X@.4.&.4.O.@.,.@.,.O.O.@.4.7.8.@.6.aXhXhXhXL.0 0 d 2X:Xd S m g | G.G.).V.P T #.                                                                                                                                ",
"              . X X X X X X o o + + @ # ) sXvXZX].,.&.@.O.O.O.O.4.8.8.4.O.,.A.7.O.M.aXhXaX=X2.q q m 4X].t S k s <.D.2X,X/.U T &.                                                                                                                                ",
"              X o o X X X o o + + + + @ / sXvXZX#X` #.@.,.4.@.,.O.@.Q.4.O.,.4.6.@.6.*X`.4...S t t S 5X'.e S k d w.(.6XtXXXT ..=.                                                                                                                                ",
"              X o o X X o o o + + + + + ^ sXvXZX].#.@.O.O.7.7.4.#.#.8.A.Q.7.,.@.O.&.&.T N d d d q m sX(.q A f d r.r.].yX%XT #.                                                                                                                                  ",
"              . o + X X X o o o + + + + H aXvXvX,X<.&.4.,.@.7.8.@.,.7.r.4.O.@.=.&.T m d t d d d k A sX!.q A f d 7.A.`.*XD.' $.                                                                                                                                  ",
"              . X X X X X X o o + + + + D aXvXvXrX}.<.#.,.O.5.A.r.4.@.O.&.-.-.T p q t d d d d q 0 H zXQ.q m s d Q.).jX<XS.P &.                                                                                                                                  ",
"              . X X X X X X o o + + + + A aXvXvX,X^.4.#.5.,.5.,.#.O.&.-.$.U t q 7 1 q t d d d t q L zX7.q m s k :X2XSXdXA.P #.                                                                                                                                  ",
"              . X X X X X X o X + + + + x <XvXvX:X&.4.&.4.O.#.@.&.&.T B 0 q d n q - q t d d t d q ( zX4.q m g A sX'.=X'.#.N m                                                                                                                                   ",
"              . . X X X X X X o + + + + k <XvXvX;X,.O.#.#.$.-.$.Z t 0 0 h m M m q g t t t t t d w [ xX@.e m g ) *X4...U d d d                                                                                                                                   ",
"              . . . . X X X X X + + + + f <XvXvX;X` #.$.&.$.Z t 0 q d m S M m e 1 d e t t t d d w ..xX..d m q ;.2.m d d d d m                                                                                                                                   ",
"              . . . . X X X X X + + + + s =XvXCX;XX.$.Q B t 7 0 d m m N m t 3 < 0 t t t t d t d q :.cX..d m d S m d d d h K                                                                                                                                     ",
"                . . . X X X X o + + + @ g =XvXCX;XZ n w 0 0 0 d m m m d 0 3 3 0 t t t t t w w w q 2.vX( q k d d t t d m                                                                                                                                         ",
"                . . X X X X o + + + $ $ 8 =XvXCX:Xw 0 q q 0 0 q d e 3 1 3 0 0 q q q w w t w w w q M.xX` 1 : d t t n L                                                                                                                                           ",
"                . . X X X o + + + $ $ $ 8 *XxXCX:Xt q q q q w 7 < < y 0 0 0 q w q q t t t q q d @.2XzXP < - t d N                                                                                                                                               ",
"                . X X X o + + $ $ * - = 8 #XxXvX:Xt 0 q q q w 0 3 0 0 0 0 t N t q t q q q q L ].cXcX:XN 3 1 n U                                                                                                                                                 ",
"                . . X + @ $ * * - - - - 8 #XxXvX;Xt q q q q q 0 q q 0 t S @.( t q q q 0 n Q.eXvX5X4...    M                                                                                                                                                     ",
"                . X + $ - - - - - : - - 9 @XxXvX;Xt 0 q 0 0 0 0 0 0 t ..4.:.:.n q 0 t @.,XvXcX'.K q                                                                                                                                                             ",
"                @ $ - - : : : : : : : - 7 @XxXvX;Xt 0 0 0 0 0 0 q 0 q L 6...n q q K ].cXvX,X@.t t d                                                                                                                                                             ",
"                - - : : > > : : : 1 > : 7 ).bXvX;Xt 0 q 0 0 0 0 q 0 m ..N t 0 n Q.eXvXeX!.N t t m                                                                                                                                                               ",
"                < : : > > > > 1 1 1 1 1 7 ).bXvX2Xd 0 q 0 0 q q q q t t n N @.2XvXvX:X..t t t K                                                                                                                                                                 ",
"                  : > > : > 1 1 1 1 1 1 7 ).bXvX2Xn 0 0 0 0 q q q q 0 q P XXcXvX5XM.m t w m                                                                                                                                                                     ",
"                    > : > 1 1 1 1 1 1 1 7 P.bXvX2Xn 0 0 0 q q q q 0 n Q.eXvXzX].P t t d S                                                                                                                                                                       ",
"                      1 1 1 1 1 1 1 1 1 7 L.bXvX2Xn 0 0 q 0 q q t @.,XvXvX2X4.n t w n                                                                                                                                                                           ",
"                        1 1 1 1 1 1 1 1 7 M.gXvX4Xn 0 0 0 0 0 K ].cXvXzX'.K t t d N                                                                                                                                                                             ",
"                          1 1 1 1 1 1 1 7 M.gXvX5Xm 0 0 0 n Q.eXvXxX;X..n t q n                                                                                                                                                                                 ",
"                            1 1 1 1 1 1 3 M.gXvX5XN 0 t @.,XvXvX5XQ.N t d d N                                                                                                                                                                                   ",
"                            7 1 1 1 1 1 2 2.gXvX5XN K }.cXvXxX*XP d t q n                                                                                                                                                                                       ",
"                              6 1 1 1 1 2 2.sXzX5X[.9XvXvX4X7.n t t t N                                                                                                                                                                                         ",
"                                7 1 1 1 2 >.sXzXzXvXvXzX'.K t t 0 n                                                                                                                                                                                             ",
"                                  6 1 6 6 ;.sXbXbXvX;X..t t t 0 n                                                                                                                                                                                               ",
"                                    6 6 6 ;.sXvX5XQ.N w q 0 t                                                                                                                                                                                                   ",
"                                      7 6 H 1X:XP 0 t 0 7 d                                                                                                                                                                                                     ",
"                                        7 1 L t 0 0 0 0                                                                                                                                                                                                         ",
"                                        6 - 7 0 0 7 n                                                                                                                                                                                                           ",
"                                          q 0 7 0 N                                                                                                                                                                                                             ",
"                                            0 t                                                                                                                                                                                                                 ",
"                                                                                                                                                                                                                                                                "
};
