/* XPM */
static char *aim_front_left[] = {
/* columns rows colors chars-per-pixel */
"128 128 229 2 ",
"   c #FF00FF",
".  c #060604",
"X  c #0B0806",
"o  c #0D0B0A",
"O  c #090706",
"+  c #120E0C",
"@  c #14110E",
"#  c #1B130C",
"$  c #120F10",
"%  c #161211",
"&  c #191513",
"*  c #1C1815",
"=  c #1E1A19",
"-  c #23160E",
";  c #23190E",
":  c #281A0E",
">  c #251A12",
",  c #2A1D13",
"<  c #231D1A",
"1  c #2B1E1A",
"2  c #341D13",
"3  c #361E0F",
"4  c #2E2215",
"5  c #26211D",
"6  c #2B231C",
"7  c #332214",
"8  c #3D2515",
"9  c #33251B",
"0  c #3B2419",
"q  c #36291D",
"w  c #3B2B1C",
"e  c #3A2917",
"r  c #3F301F",
"t  c #2B2522",
"y  c #272321",
"u  c #362922",
"i  c #3B2D23",
"p  c #362B28",
"a  c #3E3122",
"s  c #3A322D",
"d  c #422917",
"f  c #44261A",
"g  c #442A1B",
"h  c #4A2C1D",
"j  c #442717",
"k  c #47311E",
"l  c #50311F",
"z  c #4A2E22",
"x  c #433424",
"c  c #4C3423",
"v  c #4A3926",
"b  c #43362A",
"n  c #4C362A",
"m  c #453929",
"M  c #4B3B2B",
"N  c #463827",
"B  c #533423",
"V  c #553925",
"C  c #593B27",
"Z  c #543C2A",
"A  c #5A3C2B",
"S  c #583729",
"D  c #473D35",
"F  c #533529",
"G  c #643F2D",
"H  c #4D402D",
"J  c #5A432D",
"K  c #55422C",
"L  c #5C4434",
"P  c #5D4A35",
"I  c #5A4939",
"U  c #4C433F",
"Y  c #62422E",
"T  c #764C29",
"R  c #7D542E",
"E  c #634533",
"W  c #6A4633",
"Q  c #624B35",
"!  c #6B4A36",
"~  c #644D3C",
"^  c #6C4C3A",
"/  c #664639",
"(  c #744C33",
")  c #734E3B",
"_  c #7E4F39",
"`  c #66523C",
"'  c #6C533B",
"]  c #74513E",
"[  c #7C533B",
"{  c #795137",
"}  c #524947",
"|  c #5F544A",
" . c #4E4642",
".. c #6B5341",
"X. c #685648",
"o. c #745442",
"O. c #7B5542",
"+. c #7D5945",
"@. c #725D4B",
"#. c #785B47",
"$. c #675D55",
"%. c #754D40",
"&. c #79634C",
"*. c #7E6A55",
"=. c #786656",
"-. c #6F665F",
";. c #7B716B",
":. c #82563D",
">. c #83593D",
",. c #815A33",
"<. c #AA713E",
"1. c #825B44",
"2. c #8A5C42",
"3. c #835C49",
"4. c #8A5C48",
"5. c #905F46",
"6. c #8D6145",
"7. c #85624D",
"8. c #8C624C",
"9. c #876D4E",
"0. c #936546",
"q. c #93654A",
"w. c #98684C",
"e. c #836D5C",
"r. c #896952",
"t. c #936853",
"y. c #9A6D54",
"u. c #976E59",
"i. c #87725B",
"p. c #9D735A",
"a. c #977659",
"s. c #96704E",
"d. c #A26C52",
"f. c #A27255",
"g. c #AC7A5D",
"h. c #AA7557",
"j. c #B27C5A",
"k. c #A4704E",
"l. c #8D7965",
"z. c #8A7666",
"x. c #957B66",
"c. c #897C73",
"v. c #816F60",
"b. c #A97C64",
"n. c #D47C60",
"m. c #C8694F",
"M. c #BA835F",
"N. c #97826A",
"B. c #9B8977",
"V. c #9D8C7D",
"C. c #958473",
"Z. c #8D837B",
"A. c #A8866C",
"S. c #BB8565",
"D. c #B88468",
"F. c #A28D7B",
"G. c #A48D78",
"H. c #B98971",
"J. c #B29279",
"K. c #AA9377",
"L. c #BCA27F",
"P. c #C38A67",
"I. c #CB9373",
"U. c #C79776",
"Y. c #CD9173",
"T. c #D1AD73",
"R. c #988C82",
"E. c #A59384",
"W. c #AD9C8C",
"Q. c #AB9886",
"!. c #B89C87",
"~. c #A89C91",
"^. c #B7A28E",
"/. c #AEA296",
"(. c #B3A392",
"). c #B9A595",
"_. c #B5A99C",
"`. c #BBAC9C",
"'. c #B5A799",
"]. c #BAADA1",
"[. c #BEB1A6",
"{. c #C4A488",
"}. c #C4AE9A",
"|. c #C3A993",
" X c #C7B29C",
".X c #CAB39D",
"XX c #CCB699",
"oX c #D3AB8D",
"OX c #C3B4A4",
"+X c #CAB5A3",
"@X c #CBB8A5",
"#X c #C4B6A9",
"$X c #C5B9AC",
"%X c #CBBCAD",
"&X c #CAB7A8",
"*X c #D4BDA5",
"=X c #D3BEAB",
"-X c #DABDA8",
";X c #CBBEB1",
":X c #E2BFA7",
">X c #C89C85",
",X c #D7C1AB",
"<X c #D9C1A9",
"1X c #DDC5AE",
"2X c #DBC4AD",
"3X c #D9C1A6",
"4X c #CEC2B4",
"5X c #D3C4B6",
"6X c #DDC6B1",
"7X c #DEC9B3",
"8X c #D4C6B9",
"9X c #D6C9BB",
"0X c #DBCBBD",
"qX c #D9C7B8",
"wX c #E2CBB4",
"eX c #E3CEBA",
"rX c #E6D1BB",
"tX c #E9D3BC",
"yX c #DCCEC1",
"uX c #DED1C3",
"iX c #E0CFC0",
"pX c #E3D4C5",
"aX c #E4D6C8",
"sX c #E6D9CB",
"dX c #EADBCB",
"fX c #EAD8C6",
"gX c #ECDED1",
"hX c #EEE0D3",
"jX c #F2E4D6",
/* pixels */
"                                                                                                                                                                                                                                                                ",
"                                                                                                                                                                                                                                                                ",
"                                                                                                                                                                                                                                                                ",
"                                                                                                                                                                                                                                                                ",
"                                                                                                                                                                                                                                                                ",
"                                                                                                                                                                                                                                                                ",
"                                                                                                                                                                                                                                                                ",
"                                                                                                                                                                                                                                                                ",
"                                                                                                                                                                                                                                                                ",
"                                                                                                                                                                                                                                                                ",
"                                                                                                                                                                                                                                                                ",
"                                                                                                                                                                                                                                                                ",
"                                                                                                                                                                                                                                                                ",
"                                                                                                                                                                                                                                                                ",
"                                                                                                                                                                                                                                                                ",
"                                                                                                                                                                                                                                                                ",
"                                                                                                                                                                                                                                                                ",
"                                                                                                                                                                                                                                                                ",
"                                                                                                                                                                                                                                                                ",
"                                                                                                                                                                                                                                                                ",
"                                                                                                                                                                                                                                                                ",
"                                                                                                                                                                                                                                                                ",
"                                                                                    &.` K x a m H P *.                                                                                                                                                          ",
"                                                                                  P x w 4 4 4 4 4 4 x X.                                                                                                                                                        ",
"                                                                                ` x 9 4 , , , , , ; , x *.K.                                                                                                                                                    ",
"                                                                                x 7 , , , , , , ; # 4 w P N.                                                                                                                                                    ",
"                                                                                4 ; ; ; ; - , , , 4 c Y L N.                                                                                                                                                    ",
"                                                                                4 # # # ; , - , g Y { 6.7.                                                                                                                                                      ",
"                                                                                4 # + ; w C A A ! 1.6.1.'                                                                                                                                                       ",
"                                                                                9 # # , E :.E c z A [ Z L                                                                                                                                                       ",
"                                                                                4 , # 4 [ 2.W S B W 6.V '                                                                                                                                                       ",
"                                                                                i 0 0 w ( w.d.5.2.w.d.w.q.                                                                                                                                                      ",
"                                                                                P g S Y ( 2.q.w.d.q.2.u.w.                                                                                                                                                      ",
"                                                                                K 7 G :.[ :.>.q.d.q.W ) 8.                                                                                                                                                      ",
"                                                                                  a : Y [ :.:.6.q._ W W                                                                                                                                                         ",
"                                                                                    a Y [ :.:.:.:.:._ [                                                                                                                                                         ",
"                                                                                      O.:.[ [ [ :.q.q.8.                                                                                                                                                        ",
"                                                                                    G.i.1.[ [ [ [ [ [ 1.                                                                                                                                                        ",
"                                                                            XXXX XXX}.^.p.2.[ ( ( ( ( [ :.J.<X*X*X                                                                                                                                              ",
"                                                                        <X<X<X,X@XXX=X@X|.J.u.:.( ( ( [ q.{.*X*X3X<X3X                                                                                                                                          ",
"                                                                      *X<X6X<X<X<X*X,X=X}.XXXX!.A.x.x.A.|.XXXX<X<X<X<X<X                                                                                                                                        ",
"                                                                      <X6X,X<X<X<X<X<X<X<XXXXX,X=X@X@XXX}.XX*X<X<X<X<X<X<X*X                                                                                                                                    ",
"                                                                      <X6X6X=X<X6X<X6X7X<X<X*XXX<X<X*X*X<X<X6X6X6XwXwXwX<X<X                                                                                                                                    ",
"                                                                    *X<X<X6X=X,X<X<X6XwXwX6XwX*XXX6XwXwXwXwXwXwXwXwXwXwX<X7X<X                                                                                                                                  ",
"                                                                    ,X6X6X=X<X=X=X6X<XwXwXwXwXwX*XXX6XwXwXwXwXwXwXwXrXwX7X7X7X                                                                                                                                  ",
"                                                                    ,X7XwXwX,X@X}.*X,X6XeXeX<X*X6XXX|.<XrXrXrXwXeX,X<XwXwXwXwX<X                                                                                                                                ",
"                                                                  *X6XeXrXwX7X XE.Q.}.@X7XrXXXT.{.L.A.J.>XoX:XtXtX XB.XXwXtXtX<X                                                                                                                                ",
"                                                                  ,XeXtXtXrX7X).X.| =.C.E.`.{.T.T.I.I.I.Y.n.m.!.W.l.v &.G.!.|. XXX                                                                                                                              ",
"                                                                  <XrXtXtXeX6XV.6 6 t u x t.I.I.I.I.I.I.Y.Y.1.v n c r v K Z K Q *.9.9.i.a.a.A.                                                                                                                  ",
"                                                                  rXfXfXfXeX=X=.* 5 6 n p.I.D.h.h.h.h.h.f.h.D.8.n 4 4 4 x N a i c Z K P Q ' #.&.9.@...X.~ ~ P J                                                                                                 ",
"                                                                G.!.|..X-XwXOXD # 9 o.D.D.b.w.q.6.q.u.f.8.W ) y.t.n b b m D D s u 7 4 9 4 v u.p.u.t.Q L P ` ` ` ~ ' ! Q Q Q P P J K                                                                             ",
"                                                                5.h.P.P.S.b.e.i A y.D.b.u.w.5.[ W ! ! 1.) W E @.e.z.l.v.=.V.).).A.u.#.I n L H.I.D.oXp.5.Z w w w k n J J J P ~ ' ' ' ' ' ' ] a.N.                                                                ",
"                                                                w.j.P.P.S.j.f.h.S.D.b.u.8.1.^ z u I L ! { <.!.E.E.W.W.(.  z.x.H.I.Y.U.{.x.b.u.) W t.O.O.o.q   6               x x v Z Z J P ' '                                                                 ",
"                                                                0.h.j.M.P.P.P.P.S.b.p.8.O.^ n b D } X.R T s.G.G.W.=XOX(.    7.b.H.U.U.A.#.#.O.W Z Z n A ~                               4 w w x                                                                 ",
"                                                                0.k.j.S.S.D.D.h.f.q.1.] o.P I X.X.} @.,.9.l.l.B.Q.(.OX(.    7.y.b.H.A.7...P ~                                               n                                                                   ",
"                                                                6.w.f.f.f.f.u.8.O.) ] =.=.@.@.&.l.$.=.e.i.l.l.l.l.l.W.).      r.u.u.&...~ ~                                                                                                                     ",
"                                                                2.0.0.q.8.1.O.) ! o.e.=.@.@.&.v.G.V.l.i.i.l.x.x.l.z.N.G.        #.#...~ ~                                                                                                                       ",
"                                                                0.6.2.:.] ! E W o.l.v.@.&.*.E.].`.5X).V.B.W.E.x.i.e.l.C.          ' ~ ..                                                                                                                        ",
"                                                                2.5.:.) E Y E ^ z.e.@.&.*.G.5X0X&XpX0XeX0X0X0X@XQ.C.N.N.(.                                                                                                                                      ",
"                                                                ! W W Y E E       *.=.=.Q.%X0XpX%XeXpXfXfXpXpXiX0X@XB.z.W.                                                                                                                                      ",
"                                                                  A A             e.x.).6X0XpXfX5X0XpXpXfXfXpXpX0X5XW.c.V.%X                                                                                                                                    ",
"                                                                                    %XpXeX0XeXpX0X0XpX0X0XpXfXfXpX0X%XW.C.(.                                                                                                                                    ",
"                                                                                    6X0X6XqXpXfXpX0XfXpX0X0XiXpXpX0X;X$XE.C.                                                                                                                                    ",
"                                                                                    qXiXpXfXpXpXpX0XpXpXiX0X5X5X0X9X$X%X`.E.                                                                                                                                    ",
"                                                                                    %XfXpXpXaXaXaX0XpXpXyX5X%XOX].$X%X$X5X$X                                                                                                                                    ",
"                                                                                  @XQ.%XsX0XpXpXpXyXyXuXpX0X9X9X4X$X$X8XuX5XW.                                                                                                                                  ",
"                                                                                  7X8XW.%XpX8X;X5X9XyXuXaXsXfXuX5X;XyXsX8X0X%X                                                                                                                                  ",
"                                                                                  `.pXpXOX%XsX0XOX_.$X0XsXfXaX9XuXfXgX8X4X8X$X$X                                                                                                                                ",
"                                                                                  (.5XpXfX0X8XhXgX5X_.W.].0XfXhXjXgX9X$X4X4XOX$X                                                                                                                                ",
"                                                                                  (.%X0XyXpXuXuXfXhXaX;X_.~.].9XyX;X$X$X4X4X%X4X                                                                                                                                ",
"                                                                                  `.OX9X4X].'.[.5XfXjXhXuX8X$X].$X8X8X9X9X5X9X;X                                                                                                                                ",
"                                                                                  `.OX$XpXaX8X].~.'.;X0XyXyX9X;X[.[.;X5X0XyXuX4X`.                                                                                                                              ",
"                                                                                  OXOX$X5XuXpXpX5X_./.'._._.].`._././.].$X;X9X8XOX                                                                                                                              ",
"                                                                                =X0X%X5X0XuXuXuXaXuX;X].[.;X8XyXyX0X8X5X4X8X0X0X$X                                                                                                                              ",
"                                                                                `.5XyX5X8XuXaXpXuXpXpX9X4X;X;X8X0X0X0XuXpXpXuX8X`.E.                                                                                                                            ",
"                                                                                p D -.(.0XpXfXgXgXgXgXfXfXaXuXyX9X9X8X[.~.c.$.U s s                                                                                                                             ",
"                                                                                * % % u  .| $.;.c.Z.R.R.R.Z.;.-.$. .s y = * * * < y                                                                                                                             ",
"                                                                                * % * * * * % * * * + X X O . . o o # % * * * * * 6                                                                                                                             ",
"                                                                                * % * * * * * * * * * # o o X . o o + # * * * * * 5                                                                                                                             ",
"                                                                                * # * * * * * * * % * # + o o . o o + # % % * % % <                                                                                                                             ",
"                                                                                * # % * * % % * * % % # + + o . X o o + % * * % % *                                                                                                                             ",
"                                                                                * # # * % % % % % % % # + + X . o o o + # % % % % *                                                                                                                             ",
"                                                                                * + % % % # % % % % % # + + O . o o o o % * % % % * 5                                                                                                                           ",
"                                                                                = + % % # % % % % % % % + o o O o o o + $ % % % % % <                                                                                                                           ",
"                                                                                = % # # # % % % % % % % o o   o o o o o $ % % % % % <                                                                                                                           ",
"                                                                                = % # # # % % % % $ % # o o     o o o + o $ % % % % *                                                                                                                           ",
"                                                                                < % % # # # % % % % # # o o     o o o + + o % % % * * y                                                                                                                         ",
"                                                                                5 % % # # % % % + # # # + +     + o o o o + + % % % * y                                                                                                                         ",
"                                                                                  % # + % % % # + + + % +         o o + + # # % % % * <                                                                                                                         ",
"                                                                                  % # + + + # + + + + + o         o o o + + # % % % * <                                                                                                                         ",
"                                                                                  % # # # # # # + + + + o         o o o + + # # % % * * y                                                                                                                       ",
"                                                                                  % % # # # + + + + + +           + X o o + + # # % * * 6                                                                                                                       ",
"                                                                                  * % % # + + + + + + +           * o o o + + + # # * ,                                                                                                                         ",
"                                                                                6 * % # # + + $ + + + #             + + + + + # * , 9                                                                                                                           ",
"                                                                                y * % % % % % % % $ * 1                 0 0 3 0 f f z Z                                                                                                                         ",
"                                                                                  < * * * # # * , 0 z                     g f f h z B Z                                                                                                                         ",
"                                                                                        8 3 3 f z A B                     h h g g B A ^                                                                                                                         ",
"                                                                                        g 8 j f l B h                       k c A G W 3.#.                                                                                                                      ",
"                                                                                      J h j j h h g                         c A ) 1.8.r.O.                                                                                                                      ",
"                                                                                      A l h f h g 8                         A ^ O.8.t.t.O.'                                                                                                                     ",
"                                                                                    Q C B h g f 8 g                         ! O.1.3.r.t.O.^                                                                                                                     ",
"                                                                                    J V V B h 0 g k                         ^ 7.7.3.3.8.O.Q                                                                                                                     ",
"                                                                                    A A A Z c g g                           E O.r.7.3.1.) E                                                                                                                     ",
"                                                                                    C C Z Z c g g                             ! 3.8.1.O.) E                                                                                                                     ",
"                                                                                    B B B B g 0 g                             A ] 3.O.O.] E                                                                                                                     ",
"                                                                                    k g h g 8 0 w                             V E O.O.O.] E                                                                                                                     ",
"                                                                                    g j j j 8 7                                 V ^ o.O.] E                                                                                                                     ",
"                                                                                    g 8 8 8 8 7                                 c E ) O.] E                                                                                                                     ",
"                                                                                    g 8 g 8 7 7                                   Z ) ] ] L                                                                                                                     ",
"                                                                                    g j g 8 3                                     c ^ ] ] E                                                                                                                     ",
"                                                                                      8 g 8 7                                     c ! [ o./                                                                                                                     ",
"                                                                                      8 g g 8                                       E O.3./                                                                                                                     ",
"                                                                                      - g g ,                                       A O.3.^                                                                                                                     ",
"                                                                                    # X + + X                                       C [ 5.)                                                                                                                     ",
"                                                                                    # # 1 * +                                       c E %.n                                                                                                                     ",
"                                                                                    , 7 i w 4                                         # * o *                                                                                                                   ",
"                                                                                  q , 9 w w 9                                         + + , 1 <                                                                                                                 ",
"                                                                                  w 4 u x q ,                                         # , q i u p                                                                                                               ",
"                                                                                  a q u a q q                                       q , - w w > 1                                                                                                               ",
"                                                                                x a b b m x x                                         4 , 9 9 , , p                                                                                                             ",
"                                                                                x x n n n x x                                         , , 1 i 9 4 i b                                                                                                           ",
"                                                                                x w x n H v x                                           , q x x w x m                                                                                                           ",
"                                                                                i e w w w k w                                           , 6 x x x x m i                                                                                                         ",
"                                                                                9 9 i b D x i                                             9 9 x x x b i                                                                                                         ",
"                                                                                  , , 6 p t 6                                             1 1 9 a x 9 u                                                                                                         ",
"                                                                                                                                            9 7 w c 9 u                                                                                                         ",
"                                                                                                                                              9 u x i 6                                                                                                         ",
"                                                                                                                                                  <                                                                                                             "
};
