/* XPM */
static char *aim_right[] = {
/* columns rows colors chars-per-pixel */
"128 128 216 2 ",
"   c #FF00FF",
".  c #060505",
"X  c #080706",
"o  c #0A0806",
"O  c #090708",
"+  c #0D0B0A",
"@  c #120E0C",
"#  c #190F0B",
"$  c #140C07",
"%  c #13100E",
"&  c #1D130C",
"*  c #161007",
"=  c #151211",
"-  c #1C1513",
";  c #1C1916",
":  c #1E1A18",
">  c #21160E",
",  c #23190F",
"<  c #2F1F0F",
"1  c #211611",
"2  c #251B12",
"3  c #2B1E14",
"4  c #2B1E19",
"5  c #261B18",
"6  c #321F14",
"7  c #2D2116",
"8  c #2D221B",
"9  c #26221E",
"0  c #332114",
"q  c #392416",
"w  c #32251B",
"e  c #3A261B",
"r  c #34291D",
"t  c #3C2A1D",
"y  c #34210F",
"u  c #322620",
"i  c #342A22",
"p  c #3A2D22",
"a  c #3E3226",
"s  c #3D322A",
"d  c #432C1D",
"f  c #442A1E",
"g  c #4C361F",
"h  c #44311E",
"j  c #452E21",
"k  c #492E22",
"l  c #443323",
"z  c #4C3424",
"x  c #4D3823",
"c  c #44362A",
"v  c #4D3529",
"b  c #45392C",
"n  c #4B3A2B",
"m  c #523626",
"M  c #543927",
"N  c #543B2A",
"B  c #5B3D2C",
"V  c #553729",
"C  c #4B3D32",
"Z  c #433B35",
"A  c #513E32",
"S  c #5E412F",
"D  c #55422F",
"F  c #4D4134",
"G  c #534434",
"H  c #5D4234",
"J  c #5A493A",
"K  c #63422F",
"L  c #644533",
"P  c #674932",
"I  c #6D4A35",
"U  c #644B3B",
"Y  c #6D4C3A",
"T  c #694736",
"R  c #724B36",
"E  c #724D3A",
"W  c #784D39",
"Q  c #74513C",
"!  c #7C543E",
"~  c #5C4D43",
"^  c #6B5544",
"/  c #6E5C49",
"(  c #675745",
")  c #7B5642",
"_  c #725E4B",
"`  c #775845",
"'  c #745E50",
"]  c #72624E",
"[  c #756452",
"{  c #776856",
"}  c #796A55",
"|  c #7B6C5A",
" . c #766655",
".. c #7F705A",
"X. c #6F655B",
"o. c #7F7366",
"O. c #7E6F60",
"+. c #82533E",
"@. c #855C45",
"#. c #8B5E46",
"$. c #855F4B",
"%. c #875A46",
"&. c #8B6147",
"*. c #8D634A",
"=. c #87624A",
"-. c #92664C",
";. c #976A4D",
":. c #8A6755",
">. c #876A58",
",. c #946B53",
"<. c #9B6D54",
"1. c #996F59",
"2. c #83735E",
"3. c #9E715A",
"4. c #94705D",
"5. c #A47456",
"6. c #A4745A",
"7. c #A97559",
"8. c #AB7A5D",
"9. c #B07A5D",
"0. c #A06E53",
"q. c #847463",
"w. c #897764",
"e. c #897964",
"r. c #8C7C6B",
"t. c #867B6F",
"y. c #907F6B",
"u. c #877C73",
"i. c #A87D66",
"p. c #B17E62",
"a. c #92826D",
"s. c #8E8377",
"d. c #938472",
"f. c #9B8C7B",
"g. c #958779",
"h. c #9E907E",
"j. c #A7816B",
"k. c #B48161",
"l. c #BB8564",
"z. c #B9856C",
"x. c #A78775",
"c. c #B68C76",
"v. c #AA937E",
"b. c #C28A6A",
"n. c #C08866",
"m. c #CB916F",
"M. c #C7916E",
"N. c #C68A72",
"B. c #CC9373",
"V. c #CB9377",
"C. c #DA9E7C",
"Z. c #D49A78",
"A. c #E3A47F",
"S. c #998D85",
"D. c #9D9387",
"F. c #A39281",
"G. c #A69A8C",
"H. c #AB9B8C",
"J. c #A69688",
"K. c #B39C8B",
"L. c #A99D92",
"P. c #A28F81",
"I. c #ACA092",
"U. c #B3A393",
"Y. c #B5A99B",
"T. c #BDAC9D",
"R. c #B6A697",
"E. c #B8A18E",
"W. c #B9AEA2",
"Q. c #B5AAA0",
"!. c #BEB1A5",
"~. c #C79C87",
"^. c #CDA28A",
"/. c #D0A58E",
"(. c #DCA482",
"). c #C2AB99",
"_. c #D8B096",
"`. c #E3AB88",
"'. c #E7A985",
"]. c #EBB291",
"[. c #C4B2A2",
"{. c #C2B6AA",
"}. c #CDBCAD",
"|. c #CAB7A6",
" X c #D2BEAD",
".X c #D5BBA7",
"XX c #CABEB3",
"oX c #D1BFB3",
"OX c #E1BDA9",
"+X c #CEC2B4",
"@X c #D5C3B4",
"#X c #D9C6B6",
"$X c #D2C5B9",
"%X c #D9C7B9",
"&X c #D5C9BB",
"*X c #DCCABA",
"=X c #E1CDBD",
"-X c #DBCFC1",
";X c #DDD1C5",
":X c #E0CEC1",
">X c #E4D3C6",
",X c #E2D6C9",
"<X c #ECDBCD",
"1X c #E7D9CC",
"2X c #EEDCD1",
"3X c #F1DFD2",
"4X c #F3E2D5",
"5X c #F6E6DA",
"6X c #F9E7DB",
"7X c #FBEADE",
"8X c #FAEBDF",
"9X c #F7EADF",
"0X c #ECE1D4",
"qX c #FDEDE1",
"wX c #FBEDE1",
"eX c #FDF0E3",
/* pixels */
"                                                                                                                                                                                                                                                                ",
"                                                                                                                                                                                                                                                                ",
"                                                                                                                                                                                                                                                                ",
"                                                                                                                                                                                                                                                                ",
"                                                                                                                                                                                                                                                                ",
"                                                                                                                                                                                                                                                                ",
"                                                                                                                                                                                                                                                                ",
"                                                                                                                                                                                                                                                                ",
"                                                                                                                                                                                                                                                                ",
"                                                                                                                                                                                                                                                                ",
"                                                                                                                                                                                                                                                                ",
"                                                                                                                                                                                                                                                                ",
"                                                                                                                                                                                                                                                                ",
"                                                                                                                                                                                                                                                                ",
"                                                                                                                                                                                                                                                                ",
"                                                                                                                                                                                                                                                                ",
"                                                                                                                                                                                                                                                                ",
"                                                                                                                                                                                                                                                                ",
"                                                                                                                                                                                                                                                                ",
"                                                                                                                                                                                                                                                                ",
"                                                                                                                                                                                                                                                                ",
"                                                                                                                                                                                                                                                                ",
"                                                                                / J                                                                                                                                                                             ",
"                                                                              G i q q t p n G _                                                                                                                                                                 ",
"                                                                          ( C 8 8 2 3 7 7 7 q l J                                                                                                                                                               ",
"                                                                          c r 2 2 2 2 2 & & 2 3 t /                                                                                                                                                             ",
"                                                                        l 3 3 2 & & 2 & & & & & , c                                                                                                                                                             ",
"                                                                      l 7 & & 2 3 2 & - > > & & & 7 (                                                                                                                                                           ",
"                                                                      t 3 & & , 2 & - 1 3 2 & 3 q 7 J                                                                                                                                                           ",
"                                                                      l 3 & & , 2 > > > 2 > 2 l I P                                                                                                                                                             ",
"                                                                        7 & & & & , & , q 6 2 B *.P                                                                                                                                                             ",
"                                                                        p & & & & > & > f j j B *.I                                                                                                                                                             ",
"                                                                        G 2 * , 2 & & > f V W ! -.-.                                                                                                                                                            ",
"                                                                        G , & & 2 & > 3 k +.@.&.*.@.                                                                                                                                                            ",
"                                                                        ( 7 2 & & $ * 3 B W *.;.@.! !                                                                                                                                                           ",
"                                                                          l 2 & 2 & 3 z ! @.-.-.@.W                                                                                                                                                             ",
"                                                                          7 > 7 m z K I @.@.@.@.! !                                                                                                                                                             ",
"                                                                            0 K &.*.;.@.@.@.! R Q                                                                                                                                                               ",
"                                                                              )..X_.B.7.@.! R I R                                                                                                                                                               ",
"                                                                            *X<X4X4XOXz.-.! R I                                                                                                                                                                 ",
"                                                                          *X<X4X5X7X7X.X6.!                                                                                                                                                                     ",
"                                                                          <X4X5XqXqXeXqX.X,.                                                                                                                                                                    ",
"                                                                        =X>X>X4XqXqXqX7X3X*X                                                                                                                                                                    ",
"                                                                      .X#X%X4XqXqXqXqX6X<X*X                                                                                                                                                                    ",
"                                                                      |.#X<X7XqXqXqX7X4X>X@X X                                                                                                                                                                  ",
"                                                                       X:X<X3X5X7X7X6X4X>XoX%XE.                                                                                                                                                                ",
"                                                                      @X:X#X>X5X6X6X5X3X:X}.*X}.                                                                                                                                                                ",
"                                                                      *XR.).<X4X5X5X4X2X*X[.}.*X X                                                                                                                                                              ",
"                                                                      %XP.T.<X4X4X4X4X<X:XT.).%X#X                                                                                                                                                              ",
"                                                                      *XF.T.<X3X4X4X4X2X>XR.R.@X#X X@X                                                                                                                                                          ",
"                                                                      T.U.T.>X<X3X4X4X4X1X[.U.}.*X#X*X#X                  n                                                                                                                                     ",
"                                                                      | w.H.>X<X3X4X5X4X<X|.K.[.*X@X X[.|.  `.(.      B D l n n n x n B B B x ) N.N.$.x x l l h l l g g z z x x x g g g z x                                                                     ",
"                                                                      _ / d.=X<X4X5X5X4X<X[.x.F.K.J.F.K._.].`.Z.B.b.@.x l q 0 p p 8 2 2 2 2 2 q z.V.p.W j 3 3 3 0 0 0 6 < 3 0 0 0 y 0 0 3 3                                                                     ",
"                                                                      / / w.*X4X7XqX9X5X4XR.G F C c C j.].(.b.8.8.7.*.W q j l C C C A c q 6 v Y 3.@.) W                                                                                                         ",
"                                                                      ] / 2.@X=X|.K.x.j.v.d.s i i p :.`.C.8.*.-.-.-.L L :.^.^././.^.c.) H T 4.6.@.B m                                                                                                           ",
"                                                                      ] / [ j.z.M.B.B.m.k.Y i i A j.].Z.<.Y L T L W ` _ x./.~.c.j.4.^ L                                                                                                                         ",
"                                                                        _ / ,.l.B.Z.C.C.M.Y H :.B.'.Z.6.Y Y L B ^ j.c.j.i.>.' ^ U                                                                                                                               ",
"                                                                        / ^ =.9.b.B.Z.Z.l.n.'.'.'.Z.p.) L $.:.:.>.:.' ^ U H                                                                                                                                     ",
"                                                                        ] / ` 7.l.b.m.B.l.C.A.Z.B.k.*.U / U U U J H                                                                                                                                             ",
"                                                                        { / ^ <.l.b.b.l.l.m.b.k.5.@.U ~ /                                                                                                                                                       ",
"                                                                          / ^ -.9.l.p.5.5.5.;.*.Q U / / / {                                                                                                                                                     ",
"                                                                           .^ ` 0.9.7.<.;.*.! P U  .| O.| O.                                                                                                                                                    ",
"                                                                          { ] Q @.6.p.6.&.I H U | q.q.q.q.q.                                                                                                                                                    ",
"                                                                          2.] Y R *.6.<.Y B J  .q.w.r.r.r.q.q.                                                                                                                                                  ",
"                                                                            { / B B L T H J  .2.q.r.r.y.d.d.r.                                                                                                                                                  ",
"                                                                            | | _ B m U ^  .| q.r.r.a.f.H.I.G.                                                                                                                                                  ",
"                                                                            { { {  .]  . .{ | q.r.a.F.U.{.!.Y.                                                                                                                                                  ",
"                                                                               .] ] _ { | { | q.q.d.T.&X%X!.L.                                                                                                                                                  ",
"                                                                              {  . . . .{ | 2.q.d.H.XX%XXX{.G.                                                                                                                                                  ",
"                                                                              2.{ { { { | | 2.d.T.&X%XXXQ.R.G.                                                                                                                                                  ",
"                                                                              r.2...| | | | | r.R.%X,X%X{.S.s.                                                                                                                                                  ",
"                                                                              y.w.2.2.2.q.r.f.Y.!.W.+X1X;X!.g.                                                                                                                                                  ",
"                                                                              a.r...| | | r.Y.,X5X0X;X%X%X!.J.                                                                                                                                                  ",
"                                                                            v.d.q.....2.q.h.%X,X,X;X+X!.Y.G.L.                                                                                                                                                  ",
"                                                                            U.F.a.r.w.q.d.T.-X&X&X{.Y.Y.W.D.D.                                                                                                                                                  ",
"                                                                            [.R.f.r.r.d.J.{.@X;X+X&X%X{.Y.I.g.                                                                                                                                                  ",
"                                                                            [.[.H.f.h.U.*X1X&X>X<X;X2X,X&XW.g.                                                                                                                                                  ",
"                                                                            }.&X+XU.G.Y.}.&X%X{.!.{.W.{.%X{.I.                                                                                                                                                  ",
"                                                                            s.s.S.u.t.X.Z i 9 ; : : - : Z o.s.                                                                                                                                                  ",
"                                                                              o o % = % o $ % o $ = o o = : 9                                                                                                                                                   ",
"                                                                              X o o o $ % $ % @ $ % = = - -                                                                                                                                                     ",
"                                                                              X o o o o $ $ o o o o $ = = ;                                                                                                                                                     ",
"                                                                                o o o o o o o o o o $ = = -                                                                                                                                                     ",
"                                                                                % o o o o o o o o o o $ = -                                                                                                                                                     ",
"                                                                                % o o o o X o o o o o $ % =                                                                                                                                                     ",
"                                                                                  o . o . X o X o o o $ % %                                                                                                                                                     ",
"                                                                                  X o o . X o . O o o % $ %                                                                                                                                                     ",
"                                                                                  o o . . o o X o o o o $ $                                                                                                                                                     ",
"                                                                                  - o . X o o O o o o o $ =                                                                                                                                                     ",
"                                                                                    o . o o o X o o o o $ $                                                                                                                                                     ",
"                                                                                    o o o o O O o o o o o $                                                                                                                                                     ",
"                                                                                    X o o o X O o o o o o $                                                                                                                                                     ",
"                                                                                    X o o X X O o o o o o $                                                                                                                                                     ",
"                                                                                    o o o X . O o o o o o ;                                                                                                                                                     ",
"                                                                                    % o X X o o o o o o o                                                                                                                                                       ",
"                                                                                    $ X . o o o $ $ o o $                                                                                                                                                       ",
"                                                                                    # o o o o o $ $ $ o $                                                                                                                                                       ",
"                                                                                    Q v q 1 & % % $ o o $                                                                                                                                                       ",
"                                                                                    <.,.$.B f q 0 q t q p                                                                                                                                                       ",
"                                                                                  6.p.6.*.L z f f m B B n                                                                                                                                                       ",
"                                                                                  8.k.6.@.P z f f z z v v                                                                                                                                                       ",
"                                                                                <.8.p.3.@.) m t l z z z z                                                                                                                                                       ",
"                                                                              *.3.p.8.3.<.=.B q f f j l z                                                                                                                                                       ",
"                                                                              &.5.6.6.3.,.) B q q f f f l                                                                                                                                                       ",
"                                                                              @.<.<.<.,.$.L   q q t f f h                                                                                                                                                       ",
"                                                                            W @.-.-.*.@.Q B     0 q t f j                                                                                                                                                       ",
"                                                                            I ! #.#.@.! L z     0 q q f j                                                                                                                                                       ",
"                                                                            I ! @.@.! Y B f     0 q f j k                                                                                                                                                       ",
"                                                                            K Q ) ! Y B j       6 q f j z                                                                                                                                                       ",
"                                                                            L Y W I H z f       q q f z q #                                                                                                                                                     ",
"                                                                            K T L H m l         - 1 2 2 o X & 7                                                                                                                                                 ",
"                                                                          n B K S B z t         $ X . . . O $ 2 p c a l                                                                                                                                         ",
"                                                                          z B B B m j         & * $ o o o $ $ - 8 p p r t                                                                                                                                       ",
"                                                                          z m m B v j         & # $ $ o $ $ $ & 1 3 3 3 q                                                                                                                                       ",
"                                                                          z z z z z p         & # $ o X X o o $ 1 2 2                                                                                                                                           ",
"                                                                          z z f k j             $ $ $                                                                                                                                                           ",
"                                                                          m z f k j                                                                                                                                                                             ",
"                                                                        - 8 j f q 2                                                                                                                                                                             ",
"                                                                        $ o $ o o o -                                                                                                                                                                           ",
"                                                                      0 $ o o o o - 5 t t                                                                                                                                                                       ",
"                                                                      q 4 $ o o $ 8 q q 8                                                                                                                                                                       ",
"                                                                      3 8 u - $ - 8 q p p p c                                                                                                                                                                   ",
"                                                                    u 4 8 8 4 8 5 u s c a a c n C                                                                                                                                                               ",
"                                                                    a q 3 3 3 8 q Z F c l c c G F c                                                                                                                                                             ",
"                                                                    r i r 7 3 4 8 p C C c c C c p a G                                                                                                                                                           ",
"                                                                        r p i q 2 5 q c G C Z s c s                                                                                                                                                             ",
"                                                                                i i r q q r i i i 8                                                                                                                                                             ",
"                                                                                      r i i u 8                                                                                                                                                                 "
};
