/* XPM */
static char *back_left1[] = {
/* columns rows colors chars-per-pixel */
"128 128 238 2 ",
"   c #FF00FF",
".  c #050504",
"X  c #080706",
"o  c #0A0906",
"O  c #070608",
"+  c #080709",
"@  c #0C0B0A",
"#  c #110E0C",
"$  c #120C07",
"%  c #14110D",
"&  c #1C140D",
"*  c #140F11",
"=  c #1C1511",
"-  c #181413",
";  c #0F0C10",
":  c #21160E",
">  c #24190E",
",  c #291C0F",
"<  c #241B13",
"1  c #2A1E13",
"2  c #251B16",
"3  c #2D2116",
"4  c #2C231B",
"5  c #27211C",
"6  c #322416",
"7  c #32251A",
"8  c #35291C",
"9  c #3B2C1D",
"0  c #3B2718",
"q  c #3E301F",
"w  c #1F1E20",
"e  c #2C2725",
"r  c #372D24",
"t  c #3E3124",
"y  c #3A332C",
"u  c #3E3733",
"i  c #442F1E",
"p  c #41311E",
"a  c #432D22",
"s  c #423323",
"d  c #4A3423",
"f  c #4D3E2C",
"g  c #473728",
"h  c #553C26",
"j  c #553C2C",
"k  c #5A3E2B",
"l  c #54372D",
"z  c #463E33",
"x  c #583E32",
"c  c #522E2B",
"v  c #643E31",
"b  c #5E412D",
"n  c #52412F",
"m  c #5B4133",
"M  c #584837",
"N  c #4E4435",
"B  c #62432E",
"V  c #65492F",
"C  c #634532",
"Z  c #6B4433",
"A  c #6B4B35",
"S  c #6C4C39",
"D  c #654A37",
"F  c #714C35",
"G  c #754E3D",
"H  c #6E513B",
"J  c #73523C",
"K  c #7A543C",
"L  c #79553A",
"P  c #3F3943",
"I  c #473A46",
"U  c #5E5552",
"Y  c #675746",
"T  c #765441",
"R  c #7C5A42",
"E  c #775749",
"W  c #6A5E51",
"Q  c #775757",
"!  c #724F53",
"~  c #6D6154",
"^  c #766555",
"/  c #7C6B55",
"(  c #7D6C5A",
")  c #786557",
"_  c #7F705C",
"`  c #775B62",
"'  c #746866",
"]  c #7E7262",
"[  c #786977",
"{  c #7A7176",
"}  c #585062",
"|  c #82583D",
" . c #814E3C",
".. c #85603F",
"X. c #835D44",
"o. c #845D4B",
"O. c #895B42",
"+. c #895B56",
"@. c #844C47",
"#. c #8C6244",
"$. c #85614D",
"%. c #8B634B",
"&. c #8F684F",
"*. c #94664C",
"=. c #936A4C",
"-. c #9A6C4E",
";. c #936648",
":. c #8C6451",
">. c #87675A",
",. c #946B53",
"<. c #9A6A59",
"1. c #84725A",
"2. c #88755C",
"3. c #9C715C",
"4. c #9D7154",
"5. c #A36B56",
"6. c #A3765B",
"7. c #AC7C5C",
"8. c #A37557",
"9. c #B37A5C",
"0. c #805D60",
"q. c #8B6966",
"w. c #936964",
"e. c #877968",
"r. c #9D766A",
"t. c #967567",
"y. c #857879",
"u. c #917F77",
"i. c #A47B6D",
"p. c #A67964",
"a. c #A97F72",
"s. c #A36B68",
"d. c #968978",
"f. c #9E907F",
"g. c #AD8068",
"h. c #B48263",
"j. c #BC8B6C",
"k. c #B88667",
"l. c #A78879",
"z. c #BE8C72",
"x. c #B48674",
"c. c #A6907D",
"v. c #B8957B",
"b. c #AF805D",
"n. c #C28D6A",
"m. c #C58968",
"M. c #C5926D",
"N. c #C49473",
"B. c #CE9972",
"V. c #C99573",
"C. c #D19973",
"Z. c #C28F71",
"A. c #8C7E96",
"S. c #8A7E98",
"D. c #8F7B89",
"F. c #978B86",
"G. c #9D9186",
"H. c #8E8196",
"J. c #92859B",
"K. c #9B8B9A",
"L. c #958592",
"P. c #9D929A",
"I. c #A29584",
"U. c #A69B8B",
"Y. c #A89989",
"T. c #A48C97",
"R. c #A79999",
"E. c #B69B90",
"W. c #ADA18E",
"Q. c #ADA296",
"!. c #B3A595",
"~. c #BBAC9B",
"^. c #B5A998",
"/. c #B5A48F",
"(. c #998CA3",
"). c #9D92A7",
"_. c #A595A3",
"`. c #A69AA3",
"'. c #AC9BA4",
"]. c #A296AB",
"[. c #AB9DA9",
"{. c #A59BAD",
"}. c #A79DB1",
"|. c #AEA2AB",
" X c #ADA2A3",
".X c #B3A5AC",
"XX c #BBABAD",
"oX c #B8A7A4",
"OX c #BEB2A2",
"+X c #B5AAB3",
"@X c #BDAEB2",
"#X c #B5A9B6",
"$X c #BEB1B8",
"%X c #AEA3B5",
"&X c #C4A78E",
"*X c #C3B2A3",
"=X c #C3B3AC",
"-X c #CBBAAC",
";X c #C7B8A9",
":X c #D3BFAC",
">X c #D9BEA5",
",X c #C4B3B3",
"<X c #CCBBB3",
"1X c #C4B5B9",
"2X c #CCBCBB",
"3X c #C8B8B7",
"4X c #CCB9B4",
"5X c #CEC1AE",
"6X c #CEC0BF",
"7X c #D3C3B4",
"8X c #D9C6B3",
"9X c #DCCAB5",
"0X c #D4C2BA",
"qX c #D9C6BB",
"wX c #DCCBBC",
"eX c #D5C2AE",
"rX c #E0CDBB",
"tX c #E1CFB7",
"yX c #E4D2BB",
"uX c #E8D4BB",
"iX c #BEB2C1",
"pX c #C7BBC4",
"aX c #DCCBC1",
"sX c #D3C5CA",
"dX c #CDC2CC",
"fX c #E0CFC3",
"gX c #E5D4C4",
"hX c #EAD7C4",
"jX c #ECDAC5",
"kX c #ECDBCA",
"lX c #E7D6C9",
"zX c #F1DECB",
"xX c #F1DDC7",
"cX c #EFE0CE",
"vX c #F3E2CD",
"bX c #F5E4D1",
"nX c #F9E7D2",
"mX c #F9EAD5",
/* pixels */
"                                                                                                                                                                                                                                                                ",
"                                                                                                                                                                                                                                                                ",
"                                                                                                                                                                                                                                                                ",
"                                                                                                                                                                                                                                                                ",
"                                                                                                                                                                                                                                                                ",
"                                                                                                                                                                                                                                                                ",
"                                                                                                                                                                                                                                                                ",
"                                                                                                                                                                                                                                                                ",
"                                                                                                                                                                                                                                                                ",
"                                                                                                                                                                                                                                                                ",
"                                                                                                                                                                                                                                                                ",
"                                                                                                                                                                                                                                                                ",
"                                                                                                                                                                                                                                                                ",
"                                                                                                                                                                                                                                                                ",
"                                                                                                                                                                                                                                                                ",
"                                                                                                                                                                                                                                                                ",
"                                                                                                                                                                                                                                                                ",
"                                                                                                                                                                                                                                                                ",
"                                                                                                                                                                                                                                                                ",
"                                                                                                                                                                                                                                                                ",
"                                                                                                                                                                                                                                                                ",
"                                                                                                                                                                                                                                                                ",
"                                                                                                                                Y M M M Y                                                                                                                       ",
"                                                                                                                          M M g 8 3 7 3 7 g M                                                                                                                   ",
"                                                                                                                        M q 6 3 8 3 3 3 3 3 s M                                                                                                                 ",
"                                                                                                                      D 9 9 7 < 1 1 < < 3 7 3 9 q                                                                                                               ",
"                                                                                                                    / s p 7 < < > < 1 1 < 3 1 2 r                                                                                                               ",
"                                                                                                                      d J p < < 3 1 < < < < < & 7                                                                                                               ",
"                                                                                                                      R ..d < 3 1 < < < & < < & 3                                                                                                               ",
"                                                                                                                      =.#.J 8 > 1 > = = & > < < 7                                                                                                               ",
"                                                                                                                      H | #.p > a d 3 < < < < < 3                                                                                                               ",
"                                                                                                                        A #.d d Z Z p < < & & < 3                                                                                                               ",
"                                                                                                                        X.#.J #.O. .v 6 > = = = 8                                                                                                               ",
"                                                                                                                        X.#.#.-.*.K Z 1 < > & < 3                                                                                                               ",
"                                                                                                                      X.K | #.=.O.K X.k 9 0 < < < g                                                                                                             ",
"                                                                                                                        A K X.#.#.#.-.4.*.| Z d s                                                                                                               ",
"                                                                                                                          K K K L | -.9.N.&X&Xv.&X                                                                                                              ",
"                                                                                                                          K F C B X.v.>XuXjXjXhXyXrXeX                                                                                                          ",
"                                                                                                                            B S t.>XvXvXvXvXzXxXhXyXrX8X:X                                                                                                      ",
"                                                                                                                              >XxXnXnXnXnXnXvXvXzXhXyXrX8X8X                                                                                                    ",
"                                                                                                                            jXvXmXmXvXnXnXnXvXvXvXkXjXyXqX9X8X                                                                                                  ",
"                                                                                                                          tXxXvXmXmXmXnXnXvXzXvXhXkXkXhXqXqXqX:X                                                                                                ",
"                                                                                                                          uXvXvXvXvXnXnXnXkXzXvXhXkXkXhXrXqXqX8X-X                                                                                              ",
"                                                                                                                          jXvXvXvXjXqXkXnXkXvXvXhXkXhXhXfXqXqXqX-X=X                                                                                            ",
"                                                                                                                        9XjXvXnXvXvXhXrXnXkXvXhXfXhXhXhXfXqXqXqX-X=X                                                                                            ",
"                                                                                                                        9XjXvXnXvXzXzXrXkXkXkXrXqXhXfXfXfXqX0X0X=XXX=X                                                                                          ",
"                                                                                                                        tXjXvXvXvXzXkX9X7XhXhXqX0XaXfXaXfX0X<X0X=X X X                                                                                          ",
"                                                                                                                        yXjXvXvXvXkXlX7X<XaXqX<X<XqXfXaXfX0X3X0X=X'.R.                                                                                          ",
"                                                                                                                        tXjXvXvXzXkXhX<X7X7X-X<X0XqXaX2XfX2XXX3XXXR.K.                                                                                          ",
"                                                                                                                        9XjXvXvXzXkXaX-X7X X=X4X0XqXqX<XhX3X.X3X.XK.R.3X                                                                                        ",
"                                                                                                                        9XjXvXvXkXlXaX=XR.Y.<X<XqXqX0X<XhX3X.X3X'.L.'.3X                                                                                        ",
"                                                                                                                        yXzXnXvXkXhX0XOXu.!.<X7XaXqX<X0XlX3X.X3X_.D.R.1X3X                                                                                      ",
"                                                                                                                        yXvXnXzXkXaX=XY.d.-X=X<X0XqX4XfXhXXXXX3XT.D.L.1X=X                                                                                      ",
"                                                                                                                        hXnXnXkXfX0X Xu.!.-X=X7XqX0X<XjXaX'.XX@XK.D.u.E.l.                                                                                      ",
"                                                                                                                        vXmXnXkXaX<XG.d.=X;X<XqX0X<X7XkX3X'.XXXXJ.{ Q a.a.r.                                                                                    ",
"                                                                                                                      I.c.E.-XaXlX3Xy.G.;X~.;X<X0X4XqXvX3X_..X|.J.[ Q i.a.i.                                                                                    ",
"                                                                                                                      J A F J >.l.R.) G.OXR.!.;X<X-XhXkX.XK.@X_.A.` Q a.x.g.                                                                                    ",
"                                                                                                                      h.-.*.4.3.o.) ^ d.^.!.*X-X-X-XjXlX_._.3XK.A.Q Q i.x.x.3.                                                                                  ",
"                                                                                                                      B.C.B.C.Z.p.>.^ I.OX~.;X-X-X7XcX0XK.@X3XJ.A.  E t.x.x.w.                                                                                  ",
"                                                                                                                    B.C.B.V.V.h.3.1.1.c.!.~.~.;X;XhXcX@XK.1X$XJ.A.  E t.x.i.+.                                                                                  ",
"                                                                                                                  C.C.M.n.n.j.6.>.1.d.;X!.-XhX9X;XkXlX'._.6X|.J.A.  >.r.i.t.Q                                                                                   ",
"                                                                                                              B.V.M.j.k.k.m.k.3.>.( c.-X-XjXqX~.8XvXaX'.{.sX_.J.A.  >.i.i.q.Q                                                                                   ",
"                                                                                                            M.M.j.7.7.9.9.9.5.:.^ ( U.qXkXqX~.:XkXkX3X{..X3XJ.J.A.  >.i.i.q.Q                                                                                   ",
"                                                                                                        N.M.j.b.8.-.-.*. .Z v E ^ e.*XjX8X;X7XjXkXhX$X'.@X1XJ.(.A.  >.i.r.q.                                                                                    ",
"                                                                                                    N.M.n.h.7.=.X.K F B j l   ^ / c.hXhX7XqXjXkXkXaX+X_.3X%XJ.).J.  >.r.t.`                                                                                     ",
"                                                                                                N.n.n.j.7.-.X.J A k j j       ^ W e.U.qXhXkXkXhXhX0X|.`.6X].(.].(.  >.r.q.Q                                                                                     ",
"                                                                                        C.C.V.n.j.h.7.4.X.F B b j j m         Y Y ^ e.W.8XhXcXhXqXXX`..X3X(.).].(.E q.t.q.!                                                                                     ",
"                                                                                    k.m.m.n.k.h.h.6.o.S B k j j               ^ / !.~.f.I.~.9XkX<X`.`.@X1X(.].}.].E w.t.`                                                                                       ",
"                                                                                  5.5.9.9.h.7.-.%.S B k j                 e.2./ 2.W.qXqX7X7XhXaXR..X_.1X%X(.{.].J.Q t.w.`                                                                                       ",
"                                                                                  K O.*.8.6.4.J k j                     c.2.2./ d.~.5X5X7XkXwX^. X|.{.1X{.].).).(.Q w.q.Q                                                                                       ",
"                                                                                  T Z K *.*.R C                     !./.e.2.2.( Y.^.W.;XU.d.f.R. X`..X$X].}.%XsXsXq.q.0.                                                                                        ",
"                                                                                    G Z G G m                   e 3 e.t.2./ / e.!.5XY.Y.-XG.e.G.R. X+X+X{.%XpXsXpXD.>.Q                                                                                         ",
"                                                                                      Z C x                   3 = % Y 2.2./ ( f.OX;X;XU.W.OXU.F.G.R.+X.X%X$XpXpXdXT.w.Q                                                                                         ",
"                                                                                                          r 5 - # @ z / / ( e.U.!.~.OX~.U.W.W.F.F.P.|.+X+X+XpXsXpXT.s.w.                                                                                        ",
"                                                                                                      y 3 < = @ @ o < ^ _ e.I.W.W.W.!.!.^.Q.Q.Q.Q. X|.|.{.+X1X+X$XL.+.+.                                                                                        ",
"                                                                                                    e 2 = % @ @ @ o o y e.d.I.I.G.I.Y.Y.U.U.R.R.R.R.R.).`.|.).+X$X_.E Q                                                                                         ",
"                                                                                                  5 = & % @ @ @ o o o @ N G.I.f.d.d.d.d.d.d.F.F.F.F.L.H.H.H.+XpXiX].w.+.                                                                                        ",
"                                                                                                D < % # @ o @ + X o o @ @ u ] e.] _ ] ] ] e.e.y.y.y.{ { H.1XpX{.S.[ +.<.                                                                                        ",
"                                                                                                T < @ @ @ o o o X . . . . . = z Y ~ ~ W ~ ~ ) ' ' ' y.P.`.H.[ } I c @.s.                                                                                        ",
"                                                                                                T a o @ o o o X X . . . . . . . % 3 N Y Y W W ~ ' { [ } P e - ; 2 c                                                                                             ",
"                                                                                                A B 1 o X X X . . . . . . . . . . . . % 2 y u u y w - @ . . . @                                                                                                 ",
"                                                                                                A A k & o o X . . . . . . . . . . . . . . . . . . . . . . . +                                                                                                   ",
"                                                                                                H F F p # o o o X . . . . . . . . . . . . . . . . . . . O O @                                                                                                   ",
"                                                                                                J K X.F 0 $ o o o o X X o @ #     @ . . . . . . . . . . O +                                                                                                     ",
"                                                                                                R =.4.#.B 6 & o o o @ %           # . . . . . . . . . O O @                                                                                                     ",
"                                                                                                X.6.h.6.R j 9 2 % %               % . . . . . . . . . O @                                                                                                       ",
"                                                                                                X.8.7.7.=.S g                     % X . . . . . . . . O @                                                                                                       ",
"                                                                                                R ,.8.6.,.T x                     - o . . . . . . . + + *                                                                                                       ",
"                                                                                                H #.=.=.%.T x                     * o . . . . . X @ @ @                                                                                                         ",
"                                                                                                V K #.%.X.G m                     % X . . . o @ @ @ @ #                                                                                                         ",
"                                                                                                m A R X.R S j                     = @ X @ @ @ @ @ @ @                                                                                                           ",
"                                                                                                n b J R T C j                       * @ @ @ @ @ @ @ @                                                                                                           ",
"                                                                                                j h A J S m                           7 % @ @ @ @ @ @                                                                                                           ",
"                                                                                                M d b S V j                           k C 3 # @ @ @                                                                                                             ",
"                                                                                                  d h C C g                           S ,.,.T a 3 3                                                                                                             ",
"                                                                                                  d k C C g                           S %.4.3.o.o.E                                                                                                             ",
"                                                                                                  d h C C d                           C K *.,.:.3.3.                                                                                                            ",
"                                                                                                  d h B b d                             C %.3.p.z.x.                                                                                                            ",
"                                                                                                  d h B k j                             b X.6.z.N.z.3.                                                                                                          ",
"                                                                                                r < h H D j                             h K 6.z.N.z.t.                                                                                                          ",
"                                                                                              s < # % = = &                               J 7.z.N.z.t.$.                                                                                                        ",
"                                                                                              7 # @ o o < 8                               J 6.j.N.j.p.$.                                                                                                        ",
"                                                                                        f n g > & # % < s s 9                             J 6.j.z.j.p.$.                                                                                                        ",
"                                                                                      f s g 9 1 , > 1 1 6 t 7 t                           J 3.k.z.j.p.$.                                                                                                        ",
"                                                                                      p 9 9 6 1 > & & , , 6 r t                           V ,.h.z.k.p.E                                                                                                         ",
"                                                                                      9 6 3 1 < 1 > > < 1 7 t g                             X.p.k.k.t.E                                                                                                         ",
"                                                                                          8 7 7 7 7 3 3 6 8                                 J ,.7.6.3.T                                                                                                         ",
"                                                                                                                                            V o.,.,.:.T                                                                                                         ",
"                                                                                                                                            C X.%.:.:.J                                                                                                         ",
"                                                                                                                                            k X.&.,.:.S                                                                                                         ",
"                                                                                                                                              K ,.,.%.V                                                                                                         ",
"                                                                                                                                              S %.,.$.C                                                                                                         ",
"                                                                                                                                              C %.=.o.S                                                                                                         ",
"                                                                                                                                              b %.%.o.S                                                                                                         ",
"                                                                                                                                              C X.%.%.G                                                                                                         ",
"                                                                                                                                              S X.%.%.J                                                                                                         ",
"                                                                                                                                              S %.%.%.E                                                                                                         ",
"                                                                                                                                          f 3 3 S X.%.R                                                                                                         ",
"                                                                                                                                  f M z t 7 % @ % < 7 <                                                                                                         ",
"                                                                                                                                f f M g 2 < @ @ @ @ @ #                                                                                                         ",
"                                                                                                                                p p s r > = @ @ @ @ @ @                                                                                                         ",
"                                                                                                                                6 6 6 1 1 < % # @ @ % < 1                                                                                                       ",
"                                                                                                                                  1 , > > > 1 1 3 1 7 1 1                                                                                                       ",
"                                                                                                                                      > & & & & 1 3 7 8 6 6                                                                                                     ",
"                                                                                                                                            & & > > < 1 1 3                                                                                                     ",
"                                                                                                                                                > > 1 1 7 r                                                                                                     ",
"                                                                                                                                                  , 3 8 8 3                                                                                                     ",
"                                                                                                                                                      3 1                                                                                                       "
};
