/* XPM */
static char *front_right2[] = {
/* columns rows colors chars-per-pixel */
"128 128 244 2 ",
"   c #FF00FF",
".  c #050505",
"X  c #080706",
"o  c #0E0C0B",
"O  c #0B0907",
"+  c #120E0C",
"@  c #1B0F08",
"#  c #14110E",
"$  c #19130D",
"%  c #151211",
"&  c #1A1513",
"*  c #1E1915",
"=  c #1F1A1B",
"-  c #23150D",
";  c #25190E",
":  c #2B1A0E",
">  c #321E0F",
",  c #231B15",
"<  c #2D1D13",
"1  c #231E19",
"2  c #241A13",
"3  c #311E13",
"4  c #2E2014",
"5  c #2C231D",
"6  c #332314",
"7  c #33251A",
"8  c #3A261B",
"9  c #3C2A1B",
"0  c #37271A",
"q  c #32210F",
"w  c #2B2421",
"e  c #3D2E23",
"r  c #352622",
"t  c #3D3126",
"y  c #3E3731",
"u  c #432D1E",
"i  c #482B17",
"p  c #48321D",
"a  c #513118",
"s  c #422E22",
"d  c #443223",
"f  c #4B3523",
"g  c #4B3926",
"h  c #4B3A2A",
"j  c #47362A",
"k  c #543624",
"l  c #573A28",
"z  c #473B33",
"x  c #503E30",
"c  c #633C2B",
"v  c #653D27",
"b  c #6F3E2F",
"n  c #57432C",
"m  c #4B423B",
"M  c #574535",
"N  c #65422D",
"B  c #6C462F",
"V  c #73462E",
"C  c #6C4533",
"Z  c #6E4B33",
"A  c #674636",
"S  c #734532",
"D  c #754C34",
"F  c #7B4D35",
"G  c #7B4D3A",
"H  c #754838",
"J  c #7B513C",
"K  c #7A5036",
"L  c #4F4641",
"P  c #7C5741",
"I  c #6A5E5E",
"U  c #7C706C",
"Y  c #736665",
"T  c #70635E",
"R  c #844A39",
"E  c #83543D",
"W  c #8B533C",
"Q  c #875639",
"!  c #91583C",
"~  c #DC5831",
"^  c #D97437",
"/  c #E24C32",
"(  c #845542",
")  c #835B44",
"_  c #8C5C44",
"`  c #8C5D49",
"'  c #8E5545",
"]  c #925D44",
"[  c #975A48",
"{  c #985749",
"}  c #8D634C",
"|  c #8B6448",
" . c #946145",
".. c #996245",
"X. c #94624C",
"o. c #9A664D",
"O. c #9C694E",
"+. c #866954",
"@. c #9A6451",
"#. c #9C6B53",
"$. c #996A57",
"%. c #93775B",
"&. c #8C7259",
"*. c #AB644D",
"=. c #A46B4D",
"-. c #A5694B",
";. c #A36D54",
":. c #AA6953",
">. c #AA7155",
",. c #AC745B",
"<. c #AD785B",
"1. c #A57159",
"2. c #B47454",
"3. c #B2755E",
"4. c #B47A5C",
"5. c #BC7C5C",
"6. c #BC7559",
"7. c #B66E54",
"8. c #947D6C",
"9. c #967C62",
"0. c #8C7A74",
"q. c #877975",
"w. c #8C746A",
"e. c #A97963",
"r. c #B47D63",
"t. c #BB7C63",
"y. c #B97968",
"u. c #C27D5B",
"i. c #C37559",
"p. c #DF6C55",
"a. c #C37D62",
"s. c #E35840",
"d. c #D5913F",
"f. c #9C846B",
"g. c #9A877A",
"h. c #A1866C",
"j. c #BA8265",
"k. c #BA8469",
"l. c #A38D7D",
"z. c #A68976",
"x. c #B99377",
"c. c #BEA578",
"v. c #C5815D",
"b. c #CB875D",
"n. c #D7934D",
"m. c #E59A4C",
"M. c #DDAA55",
"N. c #E4A953",
"B. c #C48465",
"V. c #CA8366",
"C. c #CA8469",
"Z. c #CD8A6B",
"A. c #C98869",
"S. c #D28569",
"D. c #D38B6C",
"F. c #DA8B6D",
"G. c #D38768",
"H. c #D5926D",
"J. c #CB8E73",
"K. c #D48E72",
"L. c #DA8D70",
"P. c #DC9373",
"I. c #DD9B7B",
"U. c #D79578",
"Y. c #CC9378",
"T. c #E19574",
"R. c #E29A79",
"E. c #E38C70",
"W. c #D4B367",
"Q. c #D1AF72",
"!. c #E8BD63",
"~. c #E8C16D",
"^. c #867C87",
"/. c #9C8B85",
"(. c #9F928B",
"). c #A38D80",
"_. c #A49382",
"`. c #AB9585",
"'. c #AD9B8A",
"]. c #A7958A",
"[. c #B59C86",
"{. c #AC9E96",
"}. c #B39D93",
"|. c #B7A28E",
" X c #B6A293",
".X c #BAA693",
"XX c #BDAB9B",
"oX c #B9A798",
"OX c #AFA19A",
"+X c #BDACA3",
"@X c #ADA3A3",
"#X c #968FA2",
"$X c #E09F80",
"%X c #C4A78B",
"&X c #D8A189",
"*X c #C3AC95",
"=X c #C3AD9C",
"-X c #C5A792",
";X c #C6B19C",
":X c #CDB59D",
">X c #C7B090",
",X c #D4B78F",
"<X c #E8AE93",
"1X c #C3AFA1",
"2X c #C5B4A3",
"3X c #CBB5A5",
"4X c #CDB8A6",
"5X c #CCB6A8",
"6X c #CDBBAB",
"7X c #C5B5AA",
"8X c #D4BBA4",
"9X c #D3BCAC",
"0X c #D7BCA6",
"qX c #CCBCB1",
"wX c #D3BEB1",
"eX c #E7BAA4",
"rX c #C09F8D",
"tX c #DBC2AC",
"yX c #D6C1AC",
"uX c #D4C3B3",
"iX c #DCC4B4",
"pX c #DAC6B9",
"aX c #DCCABA",
"sX c #D9C7B6",
"dX c #DFD0BF",
"fX c #E3CAB4",
"gX c #E3CCBC",
"hX c #E9CEBC",
"jX c #E0C7B5",
"kX c #EBD1BE",
"lX c #E3D1BD",
"zX c #E6C09B",
"xX c #E5D2C2",
"cX c #EBD4C3",
"vX c #EDD9C9",
"bX c #EBD8C8",
"nX c #F1D7C5",
"mX c #F2D9C6",
"MX c #F4DBCA",
"NX c #F9DECB",
"BX c #E7D4C6",
"VX c #F4E2D2",
"CX c #FDE4D2",
"ZX c #FBE2CF",
/* pixels */
"                                                                                                                                                                                                                                                                ",
"                                                                                                                                                                                                                                                                ",
"                                                                                                                                                                                                                                                                ",
"                                                                                                                                                                                                                                                                ",
"                                                                                                                                                                                                                                                                ",
"                                                                                                                                                                                                                                                                ",
"                                                                                                                                                                                                                                                                ",
"                                                                                                                                                                                                                                                                ",
"                                                                                                                                                                                                                                                                ",
"                                                                                                                                                                                                                                                                ",
"                                                                                                                                                                                                                                                                ",
"                                                                                                                                                                                                                                                                ",
"                                                                                                                                                                                                                                                                ",
"                                                                                                                                                                                                                                                                ",
"                                                                                                                                                                                                                                                                ",
"                                                                                                                                                                                                                                                                ",
"                                                                                                                                                                                                                                                                ",
"                                                                                                                                                                                                                                                                ",
"                                                                                                                                                                                                                                                                ",
"                                                                                                                                                                                                                                                                ",
"                                                                                                                                                                                                                                                                ",
"                                                                                                                                                                                                                                                                ",
"                                                                                                                                        n h g g g                                                                                                               ",
"                                                                                                                                  d 6 < 6 6 < 6 6 9 g                                                                                                           ",
"                                                                                                                                9 6 6 6 q q < < : < 6 k                                                                                                         ",
"                                                                                                                              0 < u i l l a 6 < : < < 0                                                                                                         ",
"                                                                                                                            g ; k V Q -...A 0 ; - ; - ; 9                                                                                                       ",
"                                                                                                                            9 6 ! 2.5.D.G._ 0 - - - , < 9                                                                                                       ",
"                                                                                                                            d C =._ E =.C.u.k ; < : : - 0                                                                                                       ",
"                                                                                                                            f E F a k D 4.H._ 6 < v c < <                                                                                                       ",
"                                                                                                                              k ] V l =.H.T.:.k D W { 0 4                                                                                                       ",
"                                                                                                                              N B.Z.*.u.F.D.2.=.6.*.{ < ; n                                                                                                     ",
"                                                                                                                              B.P.D.i.u.v.u.6.5.u.i.v @ : h                                                                                                     ",
"                                                                                                                              >.] -.i.u.u.u.v.5.:.( 0 @ e                                                                                                       ",
"                                                                                                                                G ] 2.v.u.v.u.>.-.( u - x                                                                                                       ",
"                                                                                                                                S b ! 6.5.6.=...-.:.B - 9                                                                                                       ",
"                                                                                                                                  W 2.2.-...W ] 2.u. .u                                                                                                         ",
"                                                                                                                                  ..=...W W W ] 2.u.6. .                                                                                                        ",
"                                                                                                                                    F F R R W -.2.u.v.v.Z.                                                                                                      ",
"                                                                                                                                        F F ] -.2.u.b.H.eXnXkXhX                                                                                                ",
"                                                                                                                                          V ! -.2.v.D.eXMXMXNXnXnXkX                                                                                            ",
"                                                                                                                                        | V Q -.2.Z.eXNXMXMXNXZXCXMXcX                                                                                          ",
"                                                                                                                                    f.%.+.D E <.&XhXMXnXnXMXNXCXCXCXMXnXcX                                                                                      ",
"                                                                                                                                [.f.9.%.%.h.-XiXcXhXhXcXnXMXMXNXCXCXCXMXgX3X                                                                                    ",
"                                                                                                                              0X*Xf.9.%.9.[.8X0XiXjXcXnXMXMXcXhXMXMXMXMXcX0X                                                                                    ",
"                                                                                                                            tXtX%Xh.9.9.[.:X8XiXgXkXnXMXMXnXcXjXgXgXnXMXMXiX                                                                                    ",
"                                                                                                                            tXiX%X[.h.x.8XjXjXgXcXnXnXnXnXnXcXpX0XgXcXnXbXgX3X                                                                                  ",
"                                                                                                                            0XjX8X8X:XtXtXjXhXkXnXnXnXnXnXcXhXwX0XiXgXcXcXgXiX                                                                                  ",
"                                                                                                                          *X8XjX0XjXjXhXtXtXkXcXnXnXnXnXnXkXgX0X0X0XiXgXcXgXiX                                                                                  ",
"                                                                                                                          :X*XiX:XjXjXiXiXtXkXbXnXcXnXMXcXgXiXwX5X0X0XiXcXgXiX                                                                                  ",
"                                                                                                                        8XtX*XtX;XtX8XQ.Q.c.&X&XeXcXnXcXcXjXiX5X1X3X0XiXcXbXgX                                                                                  ",
"                                                                                                                        8X8X*XiX:X8X,X!.!.M.^ / p.cXnXcXcXiXiX1X X*X4XiXgXcXgXiX                                                                                ",
"                                                                                                                        :X0X*XiX:X3XQ.m.m.n.~ s.<XMXMXcXgXwXwX X].oX3XiXgXcXgXiX                                                                                ",
"                                                                                                                      8X0X8X*XiX:X*XW.~.N.n.p.E.cXcXcXcXgX0X3X].).}.3XuXgXcXbXaX                                                                                ",
"                                                                                                                      tX8X|.z.yX8X%XW.!.N.^ ~ eXcXcXbXbXiX0X*X`.g.).1XwXgXcXcXgX                                                                                ",
"                                                                                                                    x.8X8XXXz.8XtX>XW.N.m.~ E.lXcXxXgXgXiX0X3X}.8.8.XX0XgXbXMXcXiX                                                                              ",
"                                                                                                                  4.j.k.x.z.+.|.jX,X~.Q.m.^ zXlXgXaXgXiX0X0XpX3X`.w. X0XxXgX0X[.z.                                                                              ",
"                                                                                                                  5.j.j.e.X.C 9.8X0X@X{.n.W.gXgXiXiXaXiX0XiXiX3X0X).8.l.e.$.@.{ X.                                                                              ",
"                                                                                                              D.D.A.r.<.#.)   &.h.{.#X[.n.tXgXgXiXiXaXwX0X5X1X0XgX0X+.) ( _ X.o.>.                                                                              ",
"                                                                                                          H.P.I.P.K.j.;.` P     z.0.^.x.,XiXiXuXiXgXaX0X*X*X3XwXgXiX8.@.` { ;.t.5.                                                                              ",
"                                                                                                    H.U.I.R.R.I.U.J.j.#.)       `.`.'.;X0X0X5X0XaXgXuX0X2X1X3XuXgXiXg.  X.;.C.P.u.;.                                                                            ",
"                                                                                            $XI.I.R.I.$X&XI.Y.J.A.r.;.)         tXtXtX8X3X4X0XaXgXuX0X2X3X5X0XiXgXiX).  X.<.Z.P.B.o.                                                                            ",
"                                                                              6.a.C.K.U.U.U.U.J.Y.Y.U.U.Y.J.k.<.#.| )           *X;X*X'._.*X5XuXiX3X3X*X3X0X0XiXgXiXg.  ` ;.D.P.C.o.                                                                            ",
"                                                                            F.{ R b R @.@.@.X.#.e.r.r.e.$.#.} ) P               ;X0X.Xg.g.'.`. X3X3X0XiXiX0X0XwXgXiXz.    r.P.T.G.:.                                                                            ",
"                                                                            7.R S S V S S ( G J ( ) ) P P                       8..X`.`. X*X*X*X3X0X0X0X0X0X0XpXgXpX).    Z.T.T.G.>.                                                                            ",
"                                                                            R { R W R F F (                                     8.z.z..X*X2X*X*X5X0X5X3X5X0X0XgXcXpX).    Z.T.T.Z.>.                                                                            ",
"                                                                              W ' R R G                                         `.g.}.*X*XXXXX3X0X3X3X5X5X0XiXbXbXaXg.    Z.P.P.Z.;.                                                                            ",
"                                                                                W                                               g._.XX*X.XXX2X5X5X5X0X0X0X0XgXbXbX5X0.    D.T.P.C.;.                                                                            ",
"                                                                                                                              g._.XX*X X.XXX2X3X5X3X5X0XwXpXbXVXcX}.0.    D.T.P.B.#.                                                                            ",
"                                                                                                                              g.XX3X X'.|.XX2X5X3X2X2X0XpXbXVXbX*X/.0.  j.D.T.P.B.#.                                                                            ",
"                                                                                                                            ;Xf.8.'.5X5X*XXXXX2X2X2X2X0XbXVXbX+X/.0.Y   r.D.T.P.t.$.                                                                            ",
"                                                                                                                            yX3X|.f._.yXiXuX2X2X5XuXaXbXVXbXOX/./.0.    5.K.T.U.r.                                                                              ",
"                                                                                                                          iXiXlXbX4X|. XXXXXXX2XuXdXbXbXwX}.].].].g.    j.P.T.K.<.                                                                              ",
"                                                                                                                        m uXcXuXbXbX0X2X2X2X2X5XaXlXgX7XoXXX5XqX7X0.    B.P.R.Z.1.                                                                              ",
"                                                                                                                      5 , 0.VXXX'.aXlXaXsXuXuX5X5X5XuXaXbXbXpX+X0.I     A.U.P.A.$.                                                                              ",
"                                                                                                                    w 1 * L bXaX)._.5X5X7X2X2X2XXXXX2XuXaXuXqXOXU T     Z.U.P.y.                                                                                ",
"                                                                                                                  5 1 1 , 5 }.MXaX_.'.aXiX5X6X5XqXuX5XuXpXaXqX}.U       K.T.K.r.                                                                                ",
"                                                                                                                5 1 * & * & y XXVXbX'.'.uXlXdXbXdXaXuX5XwXpXqXOXq.    A.P.U.K.y.                                                                                ",
"                                                                                                              5 , * * & & & % w (.VXbX X'.2XaXuXuXuXuXuXuXuXqXOXq.    C.L.P.K.y.                                                                                ",
"                                                                                                            w 1 , * & & & & & o * U bXVX5X X7XaXsXuXaXaXpXpX7X(.U     B.S.S.a.                                                                                  ",
"                                                                                                          5 1 , * * * & & & % o # & m }.bXbXuXuXuXuXuXuXuXpX+X/.q.  C.D.F.C.3.                                                                                  ",
"                                                                                                        5 1 * * & & & & % % % + o % % & m g.1XuXxXbXdXaXaXuX}.0.q.k.S.F.D.C.t.                                                                                  ",
"                                                                                                      5 , * * & % # # # # + % o o % & & + # w m T g.OXqXaXpX].q.w.5.F.F.S.C.t.                                                                                  ",
"                                                                                                    7 , * * & & & & % + + o o o o % & & # # # + + # * w y L z z $.*.S.F.S.a.r.                                                                                  ",
"                                                                                                  4.#.n 5 & & % # + + + o o o . O # % % % + + # + + # o o o . , ,.*.S.S.a.6.3.                                                                                  ",
"                                                                                                >.D.P.G.4.A 0 & # + o o o o X . . # # % % + + + + + + # + o O r 6.*.i.7.7.:.@.                                                                                  ",
"                                                                                                *.C.C.B.D.A.#.A s 2 + o X . . . X + # % # + + + + o + + + o o   y.:.7.*.*.[ {                                                                                   ",
"                                                                                                ] :.a.a.a.3.>.>.X.N < o o X . . # + # # + + + + + o o o o + %     :.:.:.*.[ '                                                                                   ",
"                                                                                                W -.:.4.3.;.;.@.J u + o + o o     + # + + + + o o o o o o + =     R R { {                                                                                       ",
"                                                                                                F [ -.;.;.o.X.E N + X . O +       # + + o o o o o o o o o #       H                                                                                             ",
"                                                                                                S W ..o.o._ F         o O         + + + o o o o o o o o o %                                                                                                     ",
"                                                                                                v E _ ] ] E Z                     + + + + o o o o o o + o %                                                                                                     ",
"                                                                                                v E _ X.X.o._                     + + + + o o o o o o # + #                                                                                                     ",
"                                                                                                D _ o.;.<.4.;.                    + + + o o o o o o o # # #                                                                                                     ",
"                                                                                                F X.=.<.j.j.<.}                   + + + + + o o o o + % # $                                                                                                     ",
"                                                                                              N F  .o.<.j.k.<.}                   + + + # + + o o o + % &                                                                                                       ",
"                                                                                              N K  .o.<.j.k.1.}                   # + + + # + o + + + # *                                                                                                       ",
"                                                                                              C K  .X.>.r.j.1.}                   $ + + + # % # # + + % 1                                                                                                       ",
"                                                                                                D ]  .#.<.<.#.                    $ + + # # % % # % % & 5                                                                                                       ",
"                                                                                                D _ ] o.#.#.`                         & # & - < 0 s h N P                                                                                                       ",
"                                                                                                V E _ | X.} J                               a c G E _ { o.                                                                                                      ",
"                                                                                                B E Q ) _ ) D                                 l S E ] ;.<.o.                                                                                                    ",
"                                                                                                N E _ ) ) J Z                                 a v { ,.3.<.o.                                                                                                    ",
"                                                                                                v F _ _ ) D                                   a S ;.<.<.<.#.                                                                                                    ",
"                                                                                                v D _ X.) Z                                   l G o.;.;.<.X.                                                                                                    ",
"                                                                                                N J ` @.` Z                                   l G X.@.#.;.X.                                                                                                    ",
"                                                                                                C ( o.@._ Z                                   k D _ { @.@.`                                                                                                     ",
"                                                                                                D ] ;.#._ Z                                   a C E _ ` X.(                                                                                                     ",
"                                                                                                F ..>.>.X.Z                                   a c J E E ( D                                                                                                     ",
"                                                                                                0 l J P Z f                                   i c G J G D N                                                                                                     ",
"                                                                                                # + # # # %                                   i l G J G C                                                                                                       ",
"                                                                                              , # # # # o &                                   i k H G H l                                                                                                       ",
"                                                                                            0 , # # + o + <                                   u k A H C k                                                                                                       ",
"                                                                                          f 9 0 , # + # < 0 9                                   l C H c f                                                                                                       ",
"                                                                                        4 9 9 j 0 , ; 6 0 3 6                                 k l C H g                                                                                                         ",
"                                                                                      d 9 t m n 0 6 6 > > > 9                                 c N S N h                                                                                                         ",
"                                                                                M n n p g h j t 6 : : : : 0 9                                 C C C c A                                                                                                         ",
"                                                                              n A n g f f s 0 < < : : 6 9 9                                 2 u C c N e                                                                                                         ",
"                                                                            n g k g f f d 0 6 6 6 9                                       0 5 5 & & % & 9                                                                                                       ",
"                                                                            n k g h s s 6 6 6 9                                         u u 0 j , o % 0 0                                                                                                       ",
"                                                                                f p u 9 9                                               < 9 h z < , < 4 0                                                                                                       ",
"                                                                                                                                      s e z M z < 0 6 4 7                                                                                                       ",
"                                                                                                                                    d s h M z j e 7 6 7 e                                                                                                       ",
"                                                                                                                                  d d d d h h s 0 0 e t                                                                                                         ",
"                                                                                                                                p u s d d d d d r e                                                                                                             ",
"                                                                                                                                p 9 u h n g d e e                                                                                                               ",
"                                                                                                                                d d d h h u e t                                                                                                                 ",
"                                                                                                                                  e d j e                                                                                                                       "
};
