/* XPM */
static char *front1[] = {
/* columns rows colors chars-per-pixel */
"128 128 240 2 ",
"   c #FF00FF",
".  c #060504",
"X  c #090605",
"o  c #0C0907",
"O  c #0D0A09",
"+  c #120E0B",
"@  c #150C09",
"#  c #15100D",
"$  c #19140E",
"%  c #161311",
"&  c #1B1513",
"*  c #1E1916",
"=  c #1E1A18",
"-  c #140F10",
";  c #28190F",
":  c #3C1A0E",
">  c #211B16",
",  c #2B1D13",
"<  c #221C1A",
"1  c #271914",
"2  c #371F13",
"3  c #28201C",
"4  c #26201D",
"5  c #342215",
"6  c #34241B",
"7  c #3A271A",
"8  c #3C2A1C",
"9  c #392516",
"0  c #291F20",
"q  c #3D2D24",
"w  c #322A24",
"e  c #342C28",
"r  c #442513",
"t  c #4A2B16",
"y  c #432D1C",
"u  c #4B2C1B",
"i  c #442716",
"p  c #542D1C",
"a  c #46321E",
"s  c #54321E",
"d  c #59351F",
"f  c #44240F",
"g  c #422C22",
"h  c #453323",
"j  c #4B3423",
"k  c #4C3A29",
"l  c #4A3627",
"z  c #543322",
"x  c #5A3523",
"c  c #5C3B25",
"v  c #523D2B",
"b  c #573A27",
"n  c #503629",
"m  c #643E29",
"M  c #683D2B",
"N  c #663826",
"B  c #59432C",
"V  c #5A4533",
"C  c #564436",
"Z  c #4C423A",
"A  c #6B422C",
"S  c #63432D",
"D  c #72452D",
"F  c #71482D",
"G  c #664332",
"H  c #684835",
"J  c #744631",
"K  c #754A33",
"L  c #7C4C33",
"P  c #7C4E39",
"I  c #774836",
"U  c #7E5135",
"Y  c #7D533B",
"T  c #75513C",
"R  c #6B543C",
"E  c #564B44",
"W  c #7D5341",
"Q  c #725C4B",
"!  c #695C56",
"~  c #6E5744",
"^  c #79624F",
"/  c #77655C",
"(  c #7C6B63",
")  c #7C6B65",
"_  c #BB3A23",
"`  c #C53E23",
"'  c #854D3A",
"]  c #834E35",
"[  c #845335",
"{  c #83533B",
"}  c #8A543C",
"|  c #8B593C",
" . c #91543C",
".. c #BD7011",
"X. c #CC4519",
"o. c #CF5434",
"O. c #E45E2C",
"+. c #8B5343",
"@. c #865A43",
"#. c #8C5B43",
"$. c #895948",
"%. c #935D44",
"&. c #925A4A",
"*. c #995946",
"=. c #924F41",
"-. c #A05D4A",
";. c #84664C",
":. c #94634D",
">. c #9B644C",
",. c #9B664B",
"<. c #856D57",
"1. c #9D6651",
"2. c #9D6953",
"3. c #966954",
"4. c #887159",
"5. c #9D705D",
"6. c #A4654B",
"7. c #A9684D",
"8. c #A36B53",
"9. c #AA6D54",
"0. c #A66A56",
"q. c #B36E57",
"w. c #AD735A",
"e. c #A67159",
"r. c #B4745C",
"t. c #BA735A",
"y. c #B57657",
"u. c #B1704D",
"i. c #836F61",
"p. c #887569",
"a. c #8A7667",
"s. c #947D6A",
"d. c #977A66",
"f. c #8B7B73",
"g. c #927E73",
"h. c #B97A63",
"j. c #A47862",
"k. c #C4785A",
"l. c #D66D56",
"z. c #C47861",
"x. c #DB5A42",
"c. c #CC8739",
"v. c #D98719",
"b. c #9B826D",
"n. c #97816C",
"m. c #9B8473",
"M. c #9D8874",
"N. c #9E8A7A",
"B. c #978377",
"V. c #8D8076",
"C. c #BE8468",
"Z. c #A18672",
"A. c #A38A74",
"S. c #A38D7C",
"D. c #AA8F7D",
"F. c #A6927D",
"G. c #AA927E",
"H. c #AF8E73",
"J. c #B4995D",
"K. c #CE904B",
"L. c #F39C4D",
"P. c #DBAD57",
"I. c #F2B45C",
"U. c #EDAC57",
"Y. c #CB856A",
"T. c #D48D72",
"R. c #E18D73",
"E. c #E99C7A",
"W. c #D6B973",
"Q. c #EFB364",
"!. c #E8CA71",
"~. c #F4CE70",
"^. c #827D95",
"/. c #9A8C85",
"(. c #9C8E88",
"). c #9E9089",
"_. c #9E9191",
"`. c #A18F83",
"'. c #A69284",
"]. c #AB9583",
"[. c #A4938A",
"{. c #AD9888",
"}. c #B39A86",
"|. c #B29D8D",
" X c #B99C88",
".X c #AC9B92",
"XX c #B79D91",
"oX c #BBA18C",
"OX c #B5A18D",
"+X c #B4A294",
"@X c #BBA592",
"#X c #BDA996",
"$X c #BBA89B",
"%X c #9B97B2",
"&X c #A39EB1",
"*X c #BBABA2",
"=X c #B8AEAF",
"-X c #C3AD9B",
";X c #C6AB97",
":X c #CAB199",
">X c #CFAF90",
",X c #EBAE8A",
"<X c #C2AEA1",
"1X c #C4B2A4",
"2X c #CBB4A3",
"3X c #CDBBAB",
"4X c #C8B6A8",
"5X c #D3BCAB",
"6X c #D2BAA5",
"7X c #CDBDB2",
"8X c #D3BEB1",
"9X c #E2AA99",
"0X c #E2C29C",
"qX c #DBC1AE",
"wX c #D6C0AF",
"eX c #D4C2B2",
"rX c #DBC5B4",
"tX c #D6C5BA",
"yX c #DCC9BB",
"uX c #DCC8B6",
"iX c #E1C6B4",
"pX c #E4CCBC",
"aX c #E9CEBD",
"sX c #E4CAB7",
"dX c #ECD1BE",
"fX c #F3D4BB",
"gX c #EBC7AD",
"hX c #DCCCC1",
"jX c #E5D2C2",
"kX c #ECD3C2",
"lX c #ECD8CA",
"zX c #F1D6C3",
"xX c #F4D9C4",
"cX c #F4DBCB",
"vX c #F5DBCA",
"bX c #F2DFD1",
"nX c #E9CFC0",
"mX c #F8E0CF",
"MX c #FAE2D2",
"NX c #FAE6D7",
/* pixels */
"                                                                                                                                                                                                                                                                ",
"                                                                                                                                                                                                                                                                ",
"                                                                                                                                                                                                                                                                ",
"                                                                                                                                                                                                                                                                ",
"                                                                                                                                                                                                                                                                ",
"                                                                                                                                                                                                                                                                ",
"                                                                                                                                                                                                                                                                ",
"                                                                                                                                                                                                                                                                ",
"                                                                                                                                                                                                                                                                ",
"                                                                                                                                                                                                                                                                ",
"                                                                                                                                                                                                                                                                ",
"                                                                                                                                                                                                                                                                ",
"                                                                                                                                                                                                                                                                ",
"                                                                                                                                                                                                                                                                ",
"                                                                                                                                                                                                                                                                ",
"                                                                                                                                                                                                                                                                ",
"                                                                                                                                                                                                                                                                ",
"                                                                                                                                                                                                                                                                ",
"                                                                                                                                                                                                                                                                ",
"                                                                                                                                                                                                                                                                ",
"                                                                                                                                                                                                                                                                ",
"                                                                                                                                                                                                                                                                ",
"                                                                                                                        B j a B                                                                                                                                 ",
"                                                                                                                    S b v j 7 6 7 k R                                                                                                                           ",
"                                                                                                                  b y j j a 5 , , 7 v H                                                                                                                         ",
"                                                                                                                b 7 5 y 7 7 6 , , 7 y j v                                                                                                                       ",
"                                                                                                              v 7 ; 7 g h 8 7 7 z a 7 7 j                                                                                                                       ",
"                                                                                                                ; ; 7 5 5 7 j A | z y 6 7 b                                                                                                                     ",
"                                                                                                                ; 5 u 2 i A %.y.y.[ m 5 ; y                                                                                                                     ",
"                                                                                                              H , u F t S ,.k.T.Y.7.] i ,                                                                                                                       ",
"                                                                                                              j ; m c 5 i J 6.| H H J u 5                                                                                                                       ",
"                                                                                                              j 9 [ D u a A 7.M 7 j A j ; h                                                                                                                     ",
"                                                                                                                t | u.] D 6.R.| M H [ m s                                                                                                                       ",
"                                                                                                                d ] u.k.y.Y.R.t.u.6.%.J J                                                                                                                       ",
"                                                                                                                S J | y.k.u.r.y.k.6.@.'                                                                                                                         ",
"                                                                                                                  G [ 7.u.A M ,.9.%.@.                                                                                                                          ",
"                                                                                                                    U | D N N J %.@.:.                                                                                                                          ",
"                                                                                                                    Y L | L M I | :.                                                                                                                            ",
"                                                                                                              :Xb.;.F Y ,.6.| | @.U 4.Z.                                                                                                                        ",
"                                                                                                        fXzXaX;XZ.;.D D J J P { { L d.b.Z. X                                                                                                                    ",
"                                                                                                    fXfXxXxXzX2XoXd.L D D J P { [ @.d.b.}.5XfXaX                                                                                                                ",
"                                                                                                  fXxXxXxXzXzXkXsXoX{ D D J L { { d.d.G.6XkXvXvXkX                                                                                                              ",
"                                                                                                gXdXxXxXxXzXsXkXvX5Xd.Y J J L @.d.m.Z. XpXvXvXmXvXxX                                                                                                            ",
"                                                                                                ;X6XiXaXzXxXiX2X5XrX}.b.d.d.d.Z.Z.D.G.:XkXzXvXmXMXvXpX                                                                                                          ",
"                                                                                                Z.].-XqXpXxXzXpX:X@X].s.s.b.m.Z.D.].oXsXcXkXxXvXMXvXvX                                                                                                          ",
"                                                                                                b.m.;X5XqXzXzXkXaX-X].m.s.s.b.S.G.}.qXcXvXkXvXvXvXvXvXkX                                                                                                        ",
"                                                                                              Z.n.4.].5X6XdXzXdXdXiX;XG.Z.b.Z.S.].6XcXkXkXkXvXvXlXzXvXpX                                                                                                        ",
"                                                                                              Z.s.<.a.:X:XsXzXzXkXaXqX@X].Z.Z.G.:XkXvXkXkXkXvXkXaXzXvXpXkX                                                                                                      ",
"                                                                                              Z.s.4.^ OX:X5XzXkXkXkXpX2X@X X}.;XaXvXkXaXkXkXkXsXkXvXvXkXvX                                                                                                      ",
"                                                                                              b.s.a.Q n.-X:XdXkXaX>X:XoXoX5XrXdXvXkXaXnXkXjXpXrXnXvXvXvXvX                                                                                                      ",
"                                                                                              M.s.i.Q ^ @X-XsXdXrXW.!.W.J.H.>XqXaXnXpXnXkXpX8X2XpXvXMXMXmX                                                                                                      ",
"                                                                                              Z.m.i.Q ~ ].#XqXpX6X!.L.L.P.K.o.o.x.T.pXkXpXpX<XXX5XkXvXMXvX                                                                                                      ",
"                                                                                              d.M.a.^   G.oX2XiX:X!.I.I.U.c.X.o.O.,XjXkXjXrXXX[.5XkXMXNXMXkX                                                                                                    ",
"                                                                                            F A T T T     ].-XrX>X!.~.L.U.P.o.o.l.iXjXjXuX1XS.g..XuXvXfXgX9X                                                                                                    ",
"                                                                                            F A A J       b.#XwX>X~.I.I.I.K.` _ z.uXkXuX2X|.N.  m.;X9X,X,XE.                                                                                                    ",
"                                                                                            L J J J       4.].5XW.~.U.~.Q.O.X.o. X-X2X@X+X].B.    j.T.,XR.E.E.                                                                                                  ",
"                                                                                            | | Y {       ;.b.-X:X6X3X=X0Xv...K.].S.|.S.N.N.g.    3.C.Y.=.k.E.T.                                                                                                ",
"                                                                                            | ,.%.@.      <.<.G.1X%X&X%XW.v.c. XN.N.].S.p./ / (     e.h.N  .E.,X                                                                                                ",
"                                                                                            [ ,.8.:.      ;.4.m.'.^.&X=XI.K.G.S.M.].S.m.p./ ! (     3.2.x *.R.t.h.                                                                                              ",
"                                                                                            [ ,.8.1.      ;.4.M.]..X_.$X0XsX1X@X#X].m.g.( ( ( (       5.m ' *.%.R.Y.                                                                                            ",
"                                                                                            U %.8.:.      4.;.F.@X#X-X-X3XrXpXrX5X|.i./ / / ( )       3.W M ' T.h.1.                                                                                            ",
"                                                                                            L %.1.,.      Z.<.<.B.p.B.'.|.].'.'.m.<./ / p.B.f.p.        5.q.*.&.+.&.                                                                                            ",
"                                                                                            U %.8.2.      -Xn.4.].$XS.g.s.g.g.p.i.( f./.[.)./././.      C.w.&.&.+.&.                                                                                            ",
"                                                                                            U %.9.2.      5XF.n.d.rXkX2X|.|.|.|.`./.`.`.'.[.).)./.      h.*.:.&.+.&.                                                                                            ",
"                                                                                              %.9.2.      rX}.G.b.F.pXvXkXrX5X2X+X[.[.[.[..X$X.X).        &.+.&.&.                                                                                              ",
"                                                                                              | 9.        kX#XS.F.M.|.5XuXrX3X-X1X4X1X<X$X.X)././.                                                                                                              ",
"                                                                                              | 9.        rXkX-X'.N.n.].$X5XuXjXlXjX8X1X*X4X4X).).                                                                                                              ",
"                                                                                              ' 6.8.      M.rXjXeX3X#X|.|.|.+X1X4X$X1X7XeXuXuX*X                                                                                                                ",
"                                                                                              ] 6.r.      OXF.3X5X1X$X+X+X$X1X7XeXtXtXtXhXhX7X*X                                                                                                                ",
"                                                                                              { u.z.      3X#X].-X3XeXrXtXeXeX7XuXuXjXlXlXjXhX7X                                                                                                                ",
"                                                                                              | 7.t.r.    #XeXeX1X+X+X3X3X4XeXjXlXvXMXbXbXlXhXtX                                                                                                                ",
"                                                                                              | *.*.9.    OX.X-XeX2X$X+X1XuXlXmXlX4XV./ f.*XhXtX                                                                                                                ",
"                                                                                              L *.| ,.    #X1X'.+X$X<X5XjXvXkX[.E 0 = < < e ! [.                                                                                                                ",
"                                                                                                '  .*.  G.#XeXeX-X1XeXjXvX7X! < > < < < < < % 4                                                                                                                 ",
"                                                                                                I +.+.  a.@XuXkXjXuX3X.X( w $ < < * = * < < = <                                                                                                                 ",
"                                                                                                        , q E E Z q 0 * # + * < < = = * * < = <                                                                                                                 ",
"                                                                                                        > % $ $ % % % % O O * 4 < < * * * = = <                                                                                                                 ",
"                                                                                                          $ % % * % % # . O 3 3 < * * * * * < 0                                                                                                                 ",
"                                                                                                          % $ % % % # O . + 3 < > = = * * % %                                                                                                                   ",
"                                                                                                          % $ % % # + o X # > < < < = * * % %                                                                                                                   ",
"                                                                                                          % # % % + O . . # < < > * * = * % <                                                                                                                   ",
"                                                                                                          % # # # + o X X % < < * * * * * <                                                                                                                     ",
"                                                                                                          % # # + O X X o > < = * * * * % <                                                                                                                     ",
"                                                                                                            # # % + O X O > < * > < = = =                                                                                                                       ",
"                                                                                                            + + + O X X X % > * * < < = <                                                                                                                       ",
"                                                                                                            # + + O X X o > 6 q w < < < <                                                                                                                       ",
"                                                                                                            $ + + O X X + c ' h.h.$.l < 3                                                                                                                       ",
"                                                                                                            $ + + O X . + J ' 7.z.q.:.H q                                                                                                                       ",
"                                                                                                            $ + + O X X o x J | 7.7.6.:.H                                                                                                                       ",
"                                                                                                            $ + + + X . . y A L -.7.6.1.                                                                                                                        ",
"                                                                                                            $ + + + X X X 2 M J *.6.6.1.3.                                                                                                                      ",
"                                                                                                              $ # + O @ , u m I  .*.8.e.5.                                                                                                                      ",
"                                                                                                                5 i u s c z m { | ,.r.r.e.                                                                                                                      ",
"                                                                                                                  p p x x u A @.7.e.C.r.e.3.                                                                                                                    ",
"                                                                                                                  t r i i a J :.w.h.C.e.2.:.                                                                                                                    ",
"                                                                                                                  f : : i z { @.8.h.h.e.2.:.                                                                                                                    ",
"                                                                                                                  i : i u c @.@.,.r.h.e.1.&.                                                                                                                    ",
"                                                                                                                  u p z c m @.@.:.w.r.8.:.@.                                                                                                                    ",
"                                                                                                                  t s x c c { @.@.8.e.,.@.W                                                                                                                     ",
"                                                                                                                  u u z x z J @.@.,.e.:.@.T                                                                                                                     ",
"                                                                                                                    u s x z H | @.,.e.,.W                                                                                                                       ",
"                                                                                                                    i t s p m { @.2.e.:.I                                                                                                                       ",
"                                                                                                                    i i s u x { @.2.8.&.H                                                                                                                       ",
"                                                                                                                      i u u s Y %.1.2.@.G                                                                                                                       ",
"                                                                                                                      i u u c J :.1.:.W                                                                                                                         ",
"                                                                                                                        i d m J ,.,.:.P                                                                                                                         ",
"                                                                                                                        i M A P 1.1.@.P                                                                                                                         ",
"                                                                                                                          S A { 8.8.@.                                                                                                                          ",
"                                                                                                                          c A @.9.8.@.                                                                                                                          ",
"                                                                                                                            z %.r.8.I                                                                                                                           ",
"                                                                                                                            g *.r.1.G                                                                                                                           ",
"                                                                                                                            G 9.t.1.G                                                                                                                           ",
"                                                                                                                            6 H :.W g                                                                                                                           ",
"                                                                                                                          , % - % % %                                                                                                                           ",
"                                                                                                                          , > < * % %                                                                                                                           ",
"                                                                                                                        7 6 5 g h , >                                                                                                                           ",
"                                                                                                                      h h 7 j v v 7 6 q                                                                                                                         ",
"                                                                                                                      h v j j j v g 6 h                                                                                                                         ",
"                                                                                                                    y 7 j 7 6 k 7 7 6 k                                                                                                                         ",
"                                                                                                                    q 7 7 7 k Z 6 6 q k                                                                                                                         ",
"                                                                                                                      k C v V C h g k h                                                                                                                         ",
"                                                                                                                        k B V v k k k h                                                                                                                         ",
"                                                                                                                        k B V B v v j                                                                                                                           ",
"                                                                                                                        h v j j v v h                                                                                                                           ",
"                                                                                                                        y j v k j j j                                                                                                                           ",
"                                                                                                                        y c V k a y h                                                                                                                           ",
"                                                                                                                        h B B V j a                                                                                                                             ",
"                                                                                                                          V H                                                                                                                                   "
};
