/* XPM */
static char *front_right1[] = {
/* columns rows colors chars-per-pixel */
"128 128 236 2 ",
"   c #FF00FF",
".  c #080707",
"X  c #0B0907",
"o  c #0D0B0A",
"O  c #080708",
"+  c #110E0C",
"@  c #100C06",
"#  c #14100D",
"$  c #1A130D",
"%  c #120F11",
"&  c #151211",
"*  c #1A1413",
"=  c #1E1916",
"-  c #1E1918",
";  c #0E0E11",
":  c #24160E",
">  c #27190F",
",  c #221511",
"<  c #241A13",
"1  c #2C1D13",
"2  c #221D19",
"3  c #2A1D1A",
"4  c #321E14",
"5  c #2F2014",
"6  c #2D2219",
"7  c #27211A",
"8  c #332215",
"9  c #3A2414",
"0  c #35241A",
"q  c #3A251A",
"w  c #3C2A1D",
"e  c #37291A",
"r  c #3B2B22",
"t  c #342B24",
"y  c #312927",
"u  c #432C1C",
"i  c #4D2C19",
"p  c #402719",
"a  c #44311D",
"s  c #4D3215",
"d  c #53331F",
"f  c #532F1F",
"g  c #422D23",
"h  c #443224",
"j  c #4A3524",
"k  c #4B3629",
"l  c #4C3A2B",
"z  c #483729",
"x  c #543322",
"c  c #5C3A26",
"v  c #523C2C",
"b  c #593826",
"n  c #4A3D36",
"m  c #583D31",
"M  c #633D29",
"N  c #673C28",
"B  c #6A3E2E",
"V  c #55402E",
"C  c #564536",
"Z  c #65422C",
"A  c #6C432D",
"S  c #6E492F",
"D  c #73432E",
"F  c #79492D",
"G  c #6B4532",
"H  c #6E4C3A",
"J  c #694735",
"K  c #734532",
"L  c #744A33",
"P  c #794B36",
"I  c #744D3A",
"U  c #7B4C3A",
"Y  c #69513D",
"T  c #7D523D",
"R  c #73503D",
"E  c #7D5342",
"W  c #765342",
"Q  c #695A50",
"!  c #796557",
"~  c #635853",
"^  c #834E3A",
"/  c #874D36",
"(  c #83533D",
")  c #8A543A",
"_  c #945B3D",
"`  c #B07238",
"'  c #A05733",
"]  c #835542",
"[  c #8B5643",
"{  c #845944",
"}  c #8A5A45",
"|  c #865C4A",
" . c #8D5D4A",
".. c #935D44",
"X. c #925E49",
"o. c #965B45",
"O. c #A65D48",
"+. c #8D614D",
"@. c #8B6047",
"#. c #9D6345",
"$. c #94634D",
"%. c #9C654D",
"&. c #98654A",
"*. c #9B6553",
"=. c #9C6A53",
"-. c #966956",
";. c #8E6F5D",
":. c #A26544",
">. c #A7684C",
",. c #A46C55",
"<. c #AC6E52",
"1. c #A76B55",
"2. c #A47159",
"3. c #AC745C",
"4. c #AC7257",
"5. c #B47454",
"6. c #B4755B",
"7. c #B57A5C",
"8. c #BB7B5C",
"9. c #BB7658",
"0. c #AE724E",
"q. c #8D776A",
"w. c #937E73",
"e. c #937869",
"r. c #A97962",
"t. c #B47C63",
"y. c #BB7C63",
"u. c #BA7A65",
"i. c #C1765B",
"p. c #C87D64",
"a. c #B8914D",
"s. c #BDA255",
"d. c #9D856F",
"f. c #968374",
"g. c #998577",
"h. c #998679",
"j. c #9D8A7B",
"k. c #9B8977",
"l. c #BC8265",
"z. c #BC836A",
"x. c #BB846B",
"c. c #A28D7D",
"v. c #A28B76",
"b. c #A6927E",
"n. c #BD9377",
"m. c #C68C55",
"M. c #CA8563",
"N. c #C3856B",
"B. c #C88768",
"V. c #D58A69",
"C. c #D9956D",
"Z. c #CC8D73",
"A. c #C58871",
"S. c #D78E71",
"D. c #C59578",
"F. c #D79576",
"G. c #CD906D",
"H. c #E29D7C",
"J. c #E69A78",
"K. c #F19B7C",
"L. c #D5A874",
"P. c #EDA57D",
"I. c #E5A27D",
"U. c #F3A57C",
"Y. c #9C8C83",
"T. c #968A86",
"R. c #9D918B",
"E. c #A28D83",
"W. c #A59283",
"Q. c #A99386",
"!. c #A6958B",
"~. c #AB958A",
"^. c #AC998C",
"/. c #AF9885",
"(. c #B29C8C",
"). c #B49A87",
"_. c #A59992",
"`. c #AE9C92",
"'. c #A09590",
"]. c #B39F91",
"[. c #B4A18E",
"{. c #B4A294",
"}. c #BAA593",
"|. c #B2A49B",
" X c #BCA89B",
".X c #BCACA2",
"XX c #B6A9A1",
"oX c #BEB1A6",
"OX c #C49983",
"+X c #EF9C81",
"@X c #C4AD9C",
"#X c #C4AA96",
"$X c #C5AA95",
"%X c #ECA682",
"&X c #F5A582",
"*X c #F4AB84",
"=X c #F7AD88",
"-X c #FAB18B",
";X c #F7B088",
":X c #F6BB99",
">X c #E4B598",
",X c #C5B3A4",
"<X c #CCB5A3",
"1X c #C3B5AC",
"2X c #CCBAAC",
"3X c #CCB7A9",
"4X c #D3B9A7",
"5X c #D3BCAC",
"6X c #D8BAA6",
"7X c #CCBDB2",
"8X c #CEB9AC",
"9X c #D7C0AD",
"0X c #D3C1B5",
"qX c #DBC3B4",
"wX c #D6C4BA",
"eX c #DCC6B9",
"rX c #DDCABC",
"tX c #DEC9B4",
"yX c #CFC0B4",
"uX c #E3CBBC",
"iX c #E5CBB9",
"pX c #EBD1BE",
"aX c #EAC2A9",
"sX c #DCCCC2",
"dX c #E3CEC2",
"fX c #E5D3C5",
"gX c #EBD4C4",
"hX c #EBD6C9",
"jX c #E7D5C8",
"kX c #F4DCCC",
"lX c #F1D8C8",
"zX c #F7DFD0",
"xX c #FBE3D4",
"cX c #FEE7D8",
"vX c #FEE8D9",
"bX c #F7E0D2",
/* pixels */
"                                                                                                                                                                                                                                                                ",
"                                                                                                                                                                                                                                                                ",
"                                                                                                                                                                                                                                                                ",
"                                                                                                                                                                                                                                                                ",
"                                                                                                                                                                                                                                                                ",
"                                                                                                                                                                                                                                                                ",
"                                                                                                                                                                                                                                                                ",
"                                                                                                                                                                                                                                                                ",
"                                                                                                                                                                                                                                                                ",
"                                                                                                                                                                                                                                                                ",
"                                                                                                                                                                                                                                                                ",
"                                                                                                                                                                                                                                                                ",
"                                                                                                                                                                                                                                                                ",
"                                                                                                                                                                                                                                                                ",
"                                                                                                                                                                                                                                                                ",
"                                                                                                                                                                                                                                                                ",
"                                                                                                                                                                                                                                                                ",
"                                                                                                                                                                                                                                                                ",
"                                                                                                                                                                                                                                                                ",
"                                                                                                                                                                                                                                                                ",
"                                                                                                                                                                                                                                                                ",
"                                                                                                                                                                                                                                                                ",
"                                                                                                                                    v h h l Y                                                                                                                   ",
"                                                                                                                            v w 0 0 8 8 8 8 w v                                                                                                                 ",
"                                                                                                                          l w 1 1 0 0 8 8 q 0 q h                                                                                                               ",
"                                                                                                                        z 8 8 9 w q u 8 8 8 0 0 0 h                                                                                                             ",
"                                                                                                                      v 1 : 9 s d I m h 1 1 1 < > 8 l                                                                                                           ",
"                                                                                                                      j : 9 N F _ #.] v : , , , : 1 a                                                                                                           ",
"                                                                                                                      h w N _ >.M.B.8.A > , < < 1 1 j                                                                                                           ",
"                                                                                                                      h v ) #.} #.8.M.#.q < < 4 1 : r                                                                                                           ",
"                                                                                                                        m U b p d L 6.8.G > 9 B B 4 r                                                                                                           ",
"                                                                                                                          x U f b #.V.S.} j ^ / ) 8 8 C                                                                                                         ",
"                                                                                                                          T B.#._ i.V.M.>.#.6.O.) 1 8                                                                                                           ",
"                                                                                                                          S.J.p.0.0.5.5.5.8.i.i.x $ l                                                                                                           ",
"                                                                                                                          4.>.>.>.>.>.4.8.6.>.[ q , v                                                                                                           ",
"                                                                                                                            N ) >.>.>.5.8.<.#.[ N : q                                                                                                           ",
"                                                                                                                            G N F >.>.4.>.#.#.>.) c Y                                                                                                           ",
"                                                                                                                              D _ #.:._ ) ) :.9.9.:.D.pXjX                                                                                                      ",
"                                                                                                                              ) #.../ / / / :.9.M.V.aXkXkXkXkXlX                                                                                                ",
"                                                                                                                                S L L D F / :.9.M.>XpXkXbXbXbXkXkX                                                                                              ",
"                                                                                                                                      A D / #.5.F.iXuXkXbXbXbXbXkXjX                                                                                            ",
"                                                                                                                                        A L _ l.6XqXpXbXkXbXbXbXbXuXuX                                                                                          ",
"                                                                                                                                        G A r.4X,X4XjXkXbXvXvXbXkXuXuXkX                                                                                        ",
"                                                                                                                                          ;.@X@X,XuXjXkXbXvXcXbXkXuXqXkX                                                                                        ",
"                                                                                                                                          v.[.#X9XuXpXkXbXbXkXbXbXqXuXzX                                                                                        ",
"                                                                                                                                          d.(.,XqXuXuXjXbXzXbXbXjX4XuXjX                                                                                        ",
"                                                                                                                                          /.}.4XqXuX4XpXbXbXcXbXwX4XuXwX,X                                                                                      ",
"                                                                                                                                          /.#X4XqXuX4XkXbXbXvXjXuX5XjX,X}.                                                                                      ",
"                                                                                                                                          (.,X,X4XqXqXbXbXbXbXlXjXqXjX XE.                                                                                      ",
"                                                                                                                                        }.}.,X,X4XrXjXbXbXbXbXzXuXwXjX!.E.                                                                                      ",
"                                                                                                                                        b.d.).4X,XqXjXbXvXbXbXkXuXjXqXE.Y.                                                                                      ",
"                                                                                                                                        s.0.' OX@X9XjXbXbXvXvXbXdXjX,XY.Y.                                                                                      ",
"                                                                                                                                        a.` O.$X(.,X>X:X:X:XaXgXjXwX!.Y.W.                                                                                      ",
"                                                                                                                                        s.` &./.b.OXI.-X-X*XI.D.(.5X!.Y.^.                                                                                      ",
"                                                                                                                                        s.a.) q.v.D.P.=X=X&XC.N.| w.!.W.!.                                                                                      ",
"                                                                                                                                        s.a.) e.k.n.P.=X*XJ.G.7.;.q.h.Y.].3X                                                                                    ",
"                                                                                                                                        m.m.' r.D.I.U.U.J.C.N.2.h.E.E.E.^.,X                                                                                    ",
"                                                                                                                                        L.L.C.P.*X*XP.J.C.B.7.;.E.W.W.!.`.0X                                                                                    ",
"                                                                                                                                    P.*X*X-X;X*X%XI.C.B.N.8.,.e.W.Q.Q.!.XXdX                                                                                    ",
"                                                                                          +X+X&X&X&X&X&XU.U.          *X*X*X*X*X=X-X-X-X;X*X%XH.F.G.N.N.M.8.=.h.Q.Q.!.`.3XfX                                                                                    ",
"                                                                                      S.S.p.9.i.p.K.&XU.U.U.U.U.&X*X=X-X-X-X-X-X;X=X*X%XH.C.G.l.l.7.7.l.p.<.=.E.Q.!.!.{.wXfX                                                                                    ",
"                                                                                    u.O.  :.M.J.J.S.V.J.J.J.H.P.&X*X-X-X-X=X%X%XI.F.F.A.l.3.,.%.#.#.#.$.( U e.W.Q.!.(. XsXjX                                                                                    ",
"                                                                                          o.8.6.>.>.p.S.S.S.H.H.H.H.H.F.F.A.z.t.3.2.=.$. .] T T I I H H W ;.v.Q.!.(.{.,XdXjX                                                                                    ",
"                                                                                          B K ,.u.B.p.V.S.S.S.Z.N.3.*.| { E E E W R I I I H H Y ! q.q.q.w.g.v.Q.(. X3XwXdXjX                                                                                    ",
"                                                                                            U 4.2.,.O.i.B.N.3.*.] E I                 ;.b.d.v.b.W.h.w.w.q.q.w.j.].0XfXfXfXjX                                                                                    ",
"                                                                                              U *.A.u.>.*.{ E E                         tX4X<X}.j.f.f.f.f.f.g.g.E.3XjXfXfXjX                                                                                    ",
"                                                                                                $.o.[                                   #X9X}.j.g.v.W.g.h.j.j.v.].0XrXsXfXjXjX                                                                                  ",
"                                                                                                                                        /.}.(.^.}.@X(.g.f.h.h.h.W.7XwX0XwX0XsX                                                                                  ",
"                                                                                                                                      [.b.k.{.,X3X3X{.g.f.v.E.W.!.{.XX|.!.!.1X                                                                                  ",
"                                                                                                                                        }.W.v.^.^.{.[.j.k.j.W.W.!._.Y.Y.`.{.oX                                                                                  ",
"                                                                                                                                          ,X4X0XrXrX{.f.f.f.W.^.|.1X|.XX7XsX0X                                                                                  ",
"                                                                                                                                          b.,X3XrXwX{.j.g.f.Y.`.3XsXsX7XXXXX`.                                                                                  ",
"                                                                                                                                        v.W.{.0XjXuX}.W.W.j.j.!.0XsXwXwX1X_.R.                                                                                  ",
"                                                                                                                                        k.q.Y.,XfX,XW.b.W.W.^.{.7XrXsXwX7X|.R.                                                                                  ",
"                                                                                                                                        C t 2 2 C j.[.W.W.W.^.XXyX7X0X7X1X_.                                                                                    ",
"                                                                                                                                        7 = & + X < Q W.[.Q.^.oX7X7X7X1XXX'.                                                                                    ",
"                                                                                                                                      6 = * + o o o o t ! ^. XXX7XyX1XXX_.Y.                                                                                    ",
"                                                                                                                                    7 * # o o o o o o o + n `.1XXXXXXX_.Y.T.                                                                                    ",
"                                                                                                                                  2 * # o o o o o o o o + + t Y.1X|.R.T.T.                                                                                      ",
"                                                                                                                                2 & + o X X o o o o o + + # % 7 ~ T.R.T.T.                                                                                      ",
"                                                                                                                            t < # o o o o X o o o o o o + + + + + 7 n !                                                                                         ",
"                                                                                                                            < # o o o o X X o o o o o o o o + + & & -                                                                                           ",
"                                                                                                                        t = # + o O o o o o X o o o o o o o o & & -                                                                                             ",
"                                                                                                                      7 $ + X X o o o o o o o o o o o o o + + % &                                                                                               ",
"                                                                                                                    6 $ + X X X o o o o o o o o o o o o + o o &                                                                                                 ",
"                                                                                                                  < # @ X X X o o o o o o o o o o o o o o X #                                                                                                   ",
"                                                                                                                  q + X o X X o o o o o o o o o o o o o o o &                                                                                                   ",
"                                                                                                                U U q o o + o o o o o o o o o o o O o o o o *                                                                                                   ",
"                                                                                                                D ^ [ g + o + o o o o o o o X . o o o X o o =                                                                                                   ",
"                                                                                                                D ^ } $.J < + o o o o o o o o o o o . X o o                                                                                                     ",
"                                                                                                                B ^ ..#.3.| g * + + + + o o o o o X X X o #                                                                                                     ",
"                                                                                                                D ) ..,.t.t.,.m 2 & + o o o o o O O o o o &                                                                                                     ",
"                                                                                                                A ^ ..<.u.l.6.T     2 * + + o O O O X o o *                                                                                                     ",
"                                                                                                                A ^ ,.7.l.N.t. .        * + O O O O X o o -                                                                                                     ",
"                                                                                                                G ..6.N.Z.A.N.,.        + o O O O o X X +                                                                                                       ",
"                                                                                                                L #.u.N.Z.F.A.3.        + o $ 1 g m J z t                                                                                                       ",
"                                                                                                                ( ,.u.N.F.F.A.3.@.        p N A K { $. .{                                                                                                       ",
"                                                                                                                { ,.6.z.Z.Z.N.3.+.        d B K K {  . .{                                                                                                       ",
"                                                                                                                } ,.3.t.N.Z.z.3.+.          b K K ( } [ {                                                                                                       ",
"                                                                                                                [ #.3.t.l.z.u.,.]           i N G U {  .| |                                                                                                     ",
"                                                                                                              L [ *.2.3.t.t.t.#.T             i N L {  .$.$.                                                                                                    ",
"                                                                                                              S ( #.,.,.3.r.,.}               i b L ( $.2.2.$.                                                                                                  ",
"                                                                                                              A ( X.#.=.,.2.$.T               u x L { =.t.t.=.                                                                                                  ",
"                                                                                                              A ( ..$.$.=.*.} I                 d L { =.z.x.r.$.                                                                                                ",
"                                                                                                              Z ( X.X.$.$. .T J                 i A T #.l.Z.t.=.                                                                                                ",
"                                                                                                              Z ( X.X.} } { L                   i N I } 3.z.z.=.                                                                                                ",
"                                                                                                              N (  . .] T I J                     c L T *.r.t.=.                                                                                                ",
"                                                                                                              N (  . .{ T H G                     x G I $.=.2.+.                                                                                                ",
"                                                                                                              Z T } } T I G                         N G ] =.=.+.                                                                                                ",
"                                                                                                              Z ( } } I G Z                         x Z I +.-.+.E                                                                                               ",
"                                                                                                            c A [ } E I J                             N G ] -.+.T                                                                                               ",
"                                                                                                            c L  .} I I Z                             d G T +.+.T                                                                                               ",
"                                                                                                            A U } E I L V                             u N U  .$.E                                                                                               ",
"                                                                                                            L T { U I J                                 c T  .$.]                                                                                               ",
"                                                                                                          L ( ( T T I G                                 b { $.*. .                                                                                              ",
"                                                                                                          T ..( ( ] ] R                                 d { *.2.$.E                                                                                             ",
"                                                                                                        * 0 J T =.3.=.W                                   T ,.3.=.J                                                                                             ",
"                                                                                                    1 1 # + # < r v g 0                                   q z z r * =                                                                                           ",
"                                                                                                    1 8 < # # + + + $ u                                   o o # # & *                                                                                           ",
"                                                                                                    w 8 0 * # # o $ 8 w 0                             j 1 + + # & % & 1                                                                                         ",
"                                                                                                    8 w 0 3 & # < w w 8 0                             h 0 , + o ; % 1 9                                                                                         ",
"                                                                                                    q 5 1 6 3 0 0 0 8 8 8                         h r 0 1 < & ; & 6 q 8                                                                                         ",
"                                                                                      j j       h l w l h r w 0 1 1 0 0 w                   V V l h r 0 6 < < 6 0 w 0 1 r                                                                                       ",
"                                                                                    l j j     l z v l C C h 6 1 1 8 8                     v C V l z z r z 0 5 5 1 1 1 r r                                                                                       ",
"                                                                                  w w h l l l l z v     r 0 5 1 8                         j v l h l v w 8 1 1 < 1 0 r r w                                                                                       ",
"                                                                                  h r q l v Q Q C l     0 0                               l j j z h w 8 5 8                                                                                                     ",
"                                                                                  a u p a j l V z h     a                                 l a r w 0 8 5                                                                                                         ",
"                                                                                      u 9 8 8 8 e                                                                                                                                                               "
};
