/* XPM */
static char *front2[] = {
/* columns rows colors chars-per-pixel */
"128 128 237 2 ",
"   c #FF00FF",
".  c #0E0B09",
"X  c #0D0A07",
"o  c #120E0C",
"O  c #15110E",
"+  c #1B130E",
"@  c #161211",
"#  c #1A1513",
"$  c #1E1916",
"%  c #1D1919",
"&  c #22150C",
"*  c #26170C",
"=  c #221A15",
"-  c #2C1E12",
";  c #231D1A",
":  c #251711",
">  c #311D12",
",  c #26201D",
"<  c #2A221D",
"1  c #2E2112",
"2  c #332315",
"3  c #3A271A",
"4  c #3C2B1B",
"5  c #392516",
"6  c #2D2724",
"7  c #3B2B22",
"8  c #302824",
"9  c #3E3126",
"0  c #422D1C",
"q  c #46291A",
"w  c #44301E",
"e  c #4E331F",
"r  c #54311E",
"t  c #432D21",
"y  c #492F24",
"u  c #443223",
"i  c #493524",
"p  c #4D3926",
"a  c #4E3B2A",
"s  c #473529",
"d  c #533323",
"f  c #523E2C",
"g  c #5B3C2A",
"h  c #5A3924",
"j  c #633F2B",
"k  c #663A27",
"l  c #723B2E",
"z  c #5C432C",
"x  c #55412B",
"c  c #4D423B",
"v  c #594531",
"b  c #594633",
"n  c #65412B",
"m  c #6B432D",
"M  c #694429",
"N  c #6C4532",
"B  c #684935",
"V  c #734433",
"C  c #744A34",
"Z  c #7C4D35",
"A  c #754D3A",
"S  c #7D4D3B",
"D  c #7C4334",
"F  c #695139",
"G  c #7D533C",
"H  c #785138",
"J  c #72482F",
"K  c #584F4B",
"L  c #6A5440",
"P  c #7C5341",
"I  c #735946",
"U  c #70564B",
"Y  c #786355",
"T  c #776C66",
"R  c #6E646C",
"E  c #834D37",
"W  c #825237",
"Q  c #84543B",
"!  c #89553C",
"~  c #85593E",
"^  c #8B5A3D",
"/  c #885536",
"(  c #94563E",
")  c #E2553A",
"_  c #EE5232",
"`  c #F26A2F",
"'  c #E6602F",
"]  c #835641",
"[  c #855944",
"{  c #8A5B45",
"}  c #8D5E49",
"|  c #885745",
" . c #955D43",
".. c #955B49",
"X. c #8E634B",
"o. c #93634B",
"O. c #9C634B",
"+. c #996449",
"@. c #9C6B52",
"#. c #996955",
"$. c #99715C",
"%. c #856D5B",
"&. c #A2644C",
"*. c #A56B4D",
"=. c #AA6A4B",
"-. c #A36653",
";. c #A46B54",
":. c #AB6C53",
">. c #A96A57",
",. c #B56C55",
"<. c #A57155",
"1. c #AB7356",
"2. c #AC755A",
"3. c #A9745A",
"4. c #B1755C",
"5. c #B37B5C",
"6. c #BA7659",
"7. c #8A7667",
"8. c #937E6B",
"9. c #977A66",
"0. c #8C7B72",
"q. c #927E74",
"w. c #806C63",
"e. c #B47C61",
"r. c #BC7E63",
"t. c #B77964",
"y. c #A97C67",
"u. c #A55E48",
"i. c #C4775A",
"p. c #D16956",
"a. c #E96D56",
"s. c #C97C64",
"d. c #E75B43",
"f. c #D88F2F",
"g. c #E79233",
"h. c #E39316",
"j. c #99806B",
"k. c #958174",
"l. c #9C8575",
"z. c #9D897C",
"x. c #9A867A",
"c. c #A48A76",
"v. c #A38B7B",
"b. c #A68977",
"n. c #AB937C",
"m. c #B68A6F",
"M. c #F1914C",
"N. c #ECA959",
"B. c #F7B85F",
"V. c #F3A757",
"C. c #CC866B",
"Z. c #CD896B",
"A. c #C68368",
"S. c #D2876A",
"D. c #D68B71",
"F. c #D28D6F",
"G. c #E79678",
"H. c #F28D7B",
"J. c #D4B767",
"K. c #D3B979",
"L. c #CAAA74",
"P. c #F4B963",
"I. c #F1B774",
"U. c #C6805F",
"Y. c #F6C974",
"T. c #F1CD71",
"R. c #7E798C",
"E. c #9D8A83",
"W. c #A28E83",
"Q. c #A48F88",
"!. c #A59183",
"~. c #AB9484",
"^. c #A5938A",
"/. c #A9968C",
"(. c #AD998C",
"). c #B49D8C",
"_. c #B69B88",
"`. c #AD9B93",
"'. c #AB9790",
"]. c #B29D93",
"[. c #BAA28C",
"{. c #B5A195",
"}. c #BBA493",
"|. c #BBA69B",
" X c #BDAA9D",
".X c #B6A597",
"XX c #908FAD",
"oX c #BBABA1",
"OX c #B9AEAE",
"+X c #CE9986",
"@X c #C5AB88",
"#X c #C3AD9C",
"$X c #C5AB99",
"%X c #CAB09F",
"&X c #CAB59D",
"*X c #CEB495",
"=X c #EBAE8D",
"-X c #C2ADA1",
";X c #C0AFAB",
":X c #C5B1A5",
">X c #CBB4A5",
",X c #C5B5AA",
"<X c #CAB5A9",
"1X c #CBB9AC",
"2X c #C9B9AA",
"3X c #D4BCAC",
"4X c #D8B4A6",
"5X c #CCBCB1",
"6X c #C7BDB7",
"7X c #D2BFB2",
"8X c #E59481",
"9X c #DDC3AB",
"0X c #D3C2B4",
"qX c #DBC4B4",
"wX c #DAC9BC",
"eX c #D8C6B9",
"rX c #CFC0B5",
"tX c #E3CBBB",
"yX c #E9CDBB",
"uX c #E4CAB6",
"iX c #ECD2BE",
"pX c #E5D1B8",
"aX c #F2CDBA",
"sX c #F2C285",
"dX c #DECEC1",
"fX c #EACFC0",
"gX c #E4D2C3",
"hX c #ECD4C3",
"jX c #EFD9C9",
"kX c #E9D7C9",
"lX c #F1D6C5",
"zX c #F2D9C4",
"xX c #F4DBCA",
"cX c #F9DECB",
"vX c #EDDCD0",
"bX c #F9E1CE",
"nX c #FAE3D3",
/* pixels */
"                                                                                                                                                                                                                                                                ",
"                                                                                                                                                                                                                                                                ",
"                                                                                                                                                                                                                                                                ",
"                                                                                                                                                                                                                                                                ",
"                                                                                                                                                                                                                                                                ",
"                                                                                                                                                                                                                                                                ",
"                                                                                                                                                                                                                                                                ",
"                                                                                                                                                                                                                                                                ",
"                                                                                                                                                                                                                                                                ",
"                                                                                                                                                                                                                                                                ",
"                                                                                                                                                                                                                                                                ",
"                                                                                                                                                                                                                                                                ",
"                                                                                                                                                                                                                                                                ",
"                                                                                                                                                                                                                                                                ",
"                                                                                                                                                                                                                                                                ",
"                                                                                                                                                                                                                                                                ",
"                                                                                                                                                                                                                                                                ",
"                                                                                                                                                                                                                                                                ",
"                                                                                                                                                                                                                                                                ",
"                                                                                                                                                                                                                                                                ",
"                                                                                                                                                                                                                                                                ",
"                                                                                                                                                                                                                                                                ",
"                                                                                                                                x p v v                                                                                                                         ",
"                                                                                                                            z f p 0 5 5 4 f F                                                                                                                   ",
"                                                                                                                          z p f p 4 - - - 4 p z                                                                                                                 ",
"                                                                                                                        x 0 w 0 4 5 5 * 1 4 4 w e                                                                                                               ",
"                                                                                                                      z 0 1 4 u 4 4 3 0 f 0 3 5 0                                                                                                               ",
"                                                                                                                      w - - 4 4 3 3 q M ! r d 5 - 0                                                                                                             ",
"                                                                                                                      5 & 5 5 > 5 d Q 1.6./ M 3 *                                                                                                               ",
"                                                                                                                      4 & 0 q 5 h  .U.G.S.=.^ e -                                                                                                               ",
"                                                                                                                      s & h k q M +.6.&.G C N h * u                                                                                                             ",
"                                                                                                                      4 & M h 5 3 M  .M 3 t j M > 0                                                                                                             ",
"                                                                                                                      4 5 / M d h D S.! k M W Q h P                                                                                                             ",
"                                                                                                                      p q ^ &./ E &.G.6.,.=.=.! V                                                                                                               ",
"                                                                                                                        r Z =.6.i.6.D.i.S.i.+.Q !                                                                                                               ",
"                                                                                                                        j Z ^ =.i.^ Q  .6.*.^ |                                                                                                                 ",
"                                                                                                                        f n Q +.:.C k M &.o.~                                                                                                                   ",
"                                                                                                                            ~ ^ Z k k k Z ^ |                                                                                                                   ",
"                                                                                                                          %.G ^ Q  .E Q Q Q [                                                                                                                   ",
"                                                                                                                      _.j.I J Q | &. .| [ Q Q b.b.                                                                                                              ",
"                                                                                                                iXhXyX$X_.9.Z Z Q Z C Z G Q Q b.c.n.@X9X                                                                                                        ",
"                                                                                                            zXzXxXxXzXuX3X[.X.W Z Z Z S Q Q X.n.c.).9XzXzX                                                                                                      ",
"                                                                                                        9XzXxXbXbXxXlXzXhX>Xc.Q Z Z Z S S ] b.n.n.#XuXxXcXzXyX                                                                                                  ",
"                                                                                                        pXhXxXbXbXxXhXlXxXuX).$.G C C Z [ 9.n.c.).3XiXxXcXcXlXuX                                                                                                ",
"                                                                                                        cXxXxXxXbXzXhXhXfXhX%Xv.j.9.$.9.v.v.c.~.}.uXxXxXxXzXlXuX                                                                                                ",
"                                                                                                      iXxXbXxXxXbXxXlXlXuXuX3X~.b.l.l.v.c.c.v.~.>XlXxXlXhXuXuXqX                                                                                                ",
"                                                                                                      zXxXxXxXxXbXxXzXxXxXyXqX}.v.l.l.l.l.v.!.}.uXxXxXhXfX3XqX>X3X                                                                                              ",
"                                                                                                    pXzXiXuXuXhXxXxXxXxXlXfXuX%X~.c.l.l.v.v.).3XlXxXhXlXqX3X<X-X2X                                                                                              ",
"                                                                                                    lXbXxXhX3X3XhXxXxXxXhXhXqX3X).v.c.c.v.~.%XhXxXhXyXhX<X3X|.|.<X                                                                                              ",
"                                                                                                    zXzXxXhXqX>XqXhXjXhXhXhXhXuX%X_.v.v.~.$XuXxXlXuXhXuX-X<X].|.-X>X                                                                                            ",
"                                                                                                  iXbXxXlXuX3X$X3XuXhXhXhXhXuXuXqX}._.).$XqXhXhXuXuXxX3X|.oXW.].-X>X                                                                                            ",
"                                                                                                  bXbXbXxXqX}.).%XqXhXjXhXhX@XK.@Xn.n._.>XhXhXhXuXkXgX-X{./.z.`.:X:X                                                                                            ",
"                                                                                                zXzX=XaXjXqX).v.}.>XuXhXhXuX@XT.T.T.J.L.i.p.S.+XuXxX0X.X].z.z.].:X:X                                                                                            ",
"                                                                                              =X=XC.( 4XwX|.v.l.).#XqXhXhXuXK.N.M.T.M.N._ _ ) ) fXgX:X`.E.7.k.].-X:X>X                                                                                          ",
"                                                                                            F.=XG.( D +X>X~.  l.n.}.>XuXjXqXK.T.B.P.P.N.) ) ) 8XjX7X|.'.x.T q.].|.<X2X                                                                                          ",
"                                                                                          Z.&.6.G. .| C.y.      l.~.}.3XgX>XJ.T.N.V.T.M.a.d.a.aXuX:X]./.  w.q.].:X7X2X                                                                                          ",
"                                                                                          1.F.+...| o.y.$.      l.v.).#X2X[.J.N.P.B.Y.` _ _ H.jX2X|.`.^.    %.l.n.b.$.                                                                                          ",
"                                                                                        5.^ ;.C...Q $.$.      8.k.~.).#X3X@XT.P.Y.Y.Y.` ` g.aXqX:X|./.E.    P P ] | }                                                                                           ",
"                                                                                         .&.E Q &.r.$.        8.8.l.z.~.:X&XpXOX6XOXP.h.g.sXuX<X<XoXW.z.      G ] | |                                                                                           ",
"                                                                                        &.E ] Q | >.$.        9.8.v.v.l.z./.OXXXXXOXg.f.I.hX<X<X|.`.E.z.      A S | o.o.                                                                                        ",
"                                                                                        +.Q V C S -.          7.7.l.~.n.l.7.R R.R.L.f.=XtX<X-X{.].'.E.        P | 1.t.1.                                                                                        ",
"                                                                                        A C V S [             %.7.7.v.!.).|.{./.`.4XuXuX#X{.(.`.|.Q.W.        o.e.Z.Z.4.                                                                                        ",
"                                                                                          F F L               7.7.7.8.{.2XuXhXjXxXhX2X].(./.`.|.'.W.W.        $.e.Z.C.4.                                                                                        ",
"                                                                                                              ~.l.j.8.7.7.k.(.|.}.~.z.k.z.^.(.(./.W.W.        $.e.Z.Z.4.                                                                                        ",
"                                                                                                              l.#X#X).!.~./.!.k.7.k.0.0.7.k.k.E./.^.W.          2.C.Z.4.                                                                                        ",
"                                                                                                            c.n.}.3X3X2X>X{.z.!.(.!.z.W./.~./.|.'.!.!.          <.C.Z.4.                                                                                        ",
"                                                                                                            l.v.v.!.~.!.z.z.!././.!.{.:X0X0X0X|./.!.(.          @.A.Z.2.                                                                                        ",
"                                                                                                            #X}.!.(.}.|.(.W.v.W.!.].{.{..X>X-X/.^./.{.          @.A.Z.4.                                                                                        ",
"                                                                                                          }.qXqX0X0X>X2XqX7X>X-X|.|.-X:X<X|.^./.].{.#X          @.m.Z.e.                                                                                        ",
"                                                                                                          n.>XgXwXwX0X:X2X5XwXgXgXwXwXeX,X/.^.`.|.<XeX            t.Z.2.                                                                                        ",
"                                                                                                          #XqXtXjXhXgX0X0X2X|..XoX{.`.`.`.`..X,X0XwX              t.Z.<.                                                                                        ",
"                                                                                                          Y c c U ^.0XdX5X5XwXwX5X5X2X,X,X0XwXwX5X2X              t.Z.2.                                                                                        ",
"                                                                                                        < = = = = = K 2XvX0X,X0XdXgXkXwXrX,X,XoXoXoX              C.Z.2.                                                                                        ",
"                                                                                                        = , < , , = $ c ,XnXdXoXoX,X0XdXgXeX0XwX0X|.              C.C.;.                                                                                        ",
"                                                                                                        < 6 < , , = = % 8 T 5XkXrXoXoX,XwXkXkXdX7X:X              Z.s.-.                                                                                        ",
"                                                                                                        8 6 = = = , , = $ O 8 T 5XgX0X,X:X5XdXwX0X.X            F.G.S.-.                                                                                        ",
"                                                                                                        < = = = = % = , = @ O $ 8 T 2XvXkXwX0X0X2X{.            F.D.s.;.                                                                                        ",
"                                                                                                        $ = = = = = = = = @ . @ O @ 8 T 2XvXkXeX2X:X            C.s.s.:.                                                                                        ",
"                                                                                                        < = = = = = = , , $ . @ $ O o O 6 K 0.E.x.x.            s.i.s.:.                                                                                        ",
"                                                                                                          = = = = = = = , $ . O @ @ O o o @ $ = = =             s.,.s.O.                                                                                        ",
"                                                                                                          = = = = = = = % @ . o @ @ @ O o . @ $ $ =             4.! 6.-.                                                                                        ",
"                                                                                                          = = = = = = = = @ X . @ $ @ O O O O $ $ =             S l :.}                                                                                         ",
"                                                                                                          < = = = = = = = $ $ . O $ O @ O O O $ $ =               ..-.                                                                                          ",
"                                                                                                          8 = < 7 7 < = = = O . O $ @ @ @ o o O $                 O.                                                                                            ",
"                                                                                                          9 7 | Z.F.;.P 7   . . O $ @ O @ @ @ O $                                                                                                               ",
"                                                                                                          f Q s.G.G.s.6.P   . . O $ $ O o o @ @ $                                                                                                               ",
"                                                                                                          H | ,.S.S.:.4.}   . . o $ O O o o @ @ %                                                                                                               ",
"                                                                                                        I H Q =.i.,.-.4.o.  . . o O O O O O O @ =                                                                                                               ",
"                                                                                                        I G Q u.,.&.;.@.    X . o O O O O O O @                                                                                                                 ",
"                                                                                                          Q  .&.:.+.+.|   + X o o O O O O O O $                                                                                                                 ",
"                                                                                                          Q  .&.&. .o.P   O X o O O @ O @ O O $                                                                                                                 ",
"                                                                                                        ~  .+.+... .| H   X . . o O O @ @ @ $ $                                                                                                                 ",
"                                                                                                        ~ +.*.+.&.+.[     . . . o o O $ $ $ $ =                                                                                                                 ",
"                                                                                                        Q =.6.6.2.@.[     o o . o o O $ $ $ $ 6                                                                                                                 ",
"                                                                                                      C Q *.t.t.5.<.o.      = + o o O O O $ $                                                                                                                   ",
"                                                                                                      C Q *.5.5.2.2.;.        d q q q 0 t 8                                                                                                                     ",
"                                                                                                      C ^ :.5.5.1.2.2.        g r k l D N                                                                                                                       ",
"                                                                                                      N ! *.5.5.<.5.2.        h h h k V M                                                                                                                       ",
"                                                                                                      M ! *.5.2.2.e.<.        h j j k V C                                                                                                                       ",
"                                                                                                      n Q *.5.1.5.e.@.        n N S S ] ]                                                                                                                       ",
"                                                                                                      k W *.5.2.2.2.X.      N C C } @.O.P                                                                                                                       ",
"                                                                                                      k W *.5.2.2.;.[       C G [ o.<.o.A                                                                                                                       ",
"                                                                                                      n W *.5.1.<.o.F       C o.o.o.O.| N                                                                                                                       ",
"                                                                                                      z Q *.5.1.<.|         C } o.} } ] N                                                                                                                       ",
"                                                                                                      n Q 1.1.<.<.[         C | } | | A g                                                                                                                       ",
"                                                                                                        Q ;.1.@.@.]         N [ | | | C                                                                                                                         ",
"                                                                                                        W ;.1.@.o.G         n ] | | ] n                                                                                                                         ",
"                                                                                                        Q 1.1.;.o.          g ] | [ A                                                                                                                           ",
"                                                                                                        Q 1.4.<.o.          h Q } [ N                                                                                                                           ",
"                                                                                                        Z 1.t.4.o.          n | o.S h                                                                                                                           ",
"                                                                                                        C 1.t.e.}           C } } N                                                                                                                             ",
"                                                                                                        C 1.C.t.|           G +.| j                                                                                                                             ",
"                                                                                                        0 n P F p         n ! -.Q                                                                                                                               ",
"                                                                                                        $ @ $ $ $         C +.;.V                                                                                                                               ",
"                                                                                                        $ @ $ $ $         = g A y                                                                                                                               ",
"                                                                                                        = $ $ @ $         + : + &                                                                                                                               ",
"                                                                                                        3 s s = $       & - s 5 >                                                                                                                               ",
"                                                                                                      4 0 g z 4 =       & 4 p u 3                                                                                                                               ",
"                                                                                                      4 u p f 3 :       5 4 t 4 3 7                                                                                                                             ",
"                                                                                                    w 0 p f p - -       5 1 9 - 5 u                                                                                                                             ",
"                                                                                                    u 4 u a s 7         4 u u 4 4 p                                                                                                                             ",
"                                                                                                  f p p p a x f         4 p p w u p p                                                                                                                           ",
"                                                                                                  v v v v v v f         4 p p w p u p                                                                                                                           ",
"                                                                                                a x B B b v f p           4 u u t t u                                                                                                                           ",
"                                                                                                u u p z b x p p           3 f a u t u                                                                                                                           ",
"                                                                                                u f p x F z p t           4 p v a 9                                                                                                                             ",
"                                                                                                9 a F L B z p               u c s                                                                                                                               ",
"                                                                                                    b L F                                                                                                                                                       "
};
