/* XPM */
static char *left2[] = {
/* columns rows colors chars-per-pixel */
"128 128 228 2 ",
"   c #FF00FF",
".  c #070605",
"X  c #080706",
"o  c #0A0906",
"O  c #0C0B0A",
"+  c #120E0C",
"@  c #16120E",
"#  c #1B120D",
"$  c #120F10",
"%  c #141111",
"&  c #1B1512",
"*  c #1D1918",
"=  c #23150D",
"-  c #25190E",
";  c #2A1A0E",
":  c #29170D",
">  c #221612",
",  c #241A13",
"<  c #2B1D13",
"1  c #251D1B",
"2  c #321F15",
"3  c #331F1A",
"4  c #28170B",
"5  c #2E2115",
"6  c #2E221A",
"7  c #26201A",
"8  c #332315",
"9  c #3C2415",
"0  c #34241A",
"q  c #3A261A",
"w  c #3B2A1D",
"e  c #372919",
"r  c #3C2B22",
"t  c #372823",
"y  c #3E3021",
"u  c #3F3028",
"i  c #332B28",
"p  c #432D1C",
"a  c #462A1A",
"s  c #4F341D",
"d  c #51341D",
"f  c #422E24",
"g  c #472F24",
"h  c #423224",
"j  c #4B3124",
"k  c #44342B",
"l  c #4C3B2B",
"z  c #4F322C",
"x  c #533423",
"c  c #593424",
"v  c #5C3B26",
"b  c #533D2C",
"n  c #5C3B2B",
"m  c #583927",
"M  c #473B36",
"N  c #55352D",
"B  c #643D2C",
"V  c #653D29",
"C  c #633D32",
"Z  c #753F30",
"A  c #4B433E",
"S  c #594333",
"D  c #57442F",
"F  c #64422C",
"G  c #6A422C",
"H  c #6D482D",
"J  c #75492E",
"K  c #6B4433",
"L  c #694936",
"P  c #734535",
"I  c #734A34",
"U  c #7B4D33",
"Y  c #754C39",
"T  c #7C4D3C",
"R  c #7F4636",
"E  c #75533D",
"W  c #7C533C",
"Q  c #6A503B",
"!  c #685445",
"~  c #7B5A46",
"^  c #774D44",
"/  c #77644D",
"(  c #7A6856",
")  c #6F6357",
"_  c #864E39",
"`  c #83533B",
"'  c #89583B",
"]  c #915D3D",
"[  c #855642",
"{  c #8B5442",
"}  c #855A45",
"|  c #8B5B45",
" . c #8B5D49",
".. c #855D4A",
"X. c #935C42",
"o. c #915E49",
"O. c #975A47",
"+. c #8A5F50",
"@. c #8B624A",
"#. c #8E644A",
"$. c #93624C",
"%. c #9B644D",
"&. c #966345",
"*. c #836D5B",
"=. c #8D6553",
"-. c #9E6B54",
";. c #986A58",
":. c #88725D",
">. c #95745D",
",. c #A5694B",
"<. c #A36D53",
"1. c #AB6E52",
"2. c #A66A58",
"3. c #A4735B",
"4. c #AC745B",
"5. c #AB7458",
"6. c #B47555",
"7. c #B3755B",
"8. c #B47A5B",
"9. c #BB7B5C",
"0. c #B77859",
"q. c #B46E52",
"w. c #8B7464",
"e. c #8C7A65",
"r. c #897563",
"t. c #957868",
"y. c #9A7C70",
"u. c #A97A65",
"i. c #B37B63",
"p. c #BB7C63",
"a. c #B37967",
"s. c #C17E5B",
"d. c #C47E61",
"f. c #93816C",
"g. c #9E8A7B",
"h. c #9A8475",
"j. c #AB836B",
"k. c #BC8264",
"l. c #BC856B",
"z. c #BB866B",
"x. c #A28D7C",
"c. c #A98C77",
"v. c #B58974",
"b. c #A4927D",
"n. c #AB937F",
"m. c #B5927A",
"M. c #C98563",
"N. c #C3856A",
"B. c #C5896B",
"V. c #CB8C6B",
"C. c #C68665",
"Z. c #D38C6A",
"A. c #D48B67",
"S. c #D4926D",
"D. c #DC946D",
"F. c #CB8772",
"G. c #D18E73",
"H. c #D49373",
"J. c #DA9473",
"K. c #DF9C79",
"L. c #D99578",
"P. c #CA9576",
"I. c #E49A72",
"U. c #9A8D84",
"Y. c #968A86",
"T. c #9E918A",
"R. c #A48E82",
"E. c #A59282",
"W. c #AA9684",
"Q. c #AC9985",
"!. c #A5958B",
"~. c #AB9A8C",
"^. c #A9988E",
"/. c #B29D8D",
"(. c #AC9C92",
"). c #A39691",
"_. c #B29E94",
"`. c #B4A18E",
"'. c #B9A28B",
"]. c #AFA197",
"[. c #B4A394",
"{. c #B9A595",
"}. c #BCAA95",
"|. c #B4A49B",
" X c #BDAA9B",
".X c #B8A79C",
"XX c #BCACA2",
"oX c #B7AAA1",
"OX c #BDB1A9",
"+X c #BEB1A4",
"@X c #C29680",
"#X c #C1AD9C",
"$X c #C2B09E",
"%X c #E6B598",
"&X c #C1ADA4",
"*X c #C5B2A5",
"=X c #C9B5A4",
"-X c #C3B5AB",
";X c #C9B5AB",
":X c #CDB9AC",
">X c #C7B8AB",
",X c #D2BDAD",
"<X c #D7B9AB",
"1X c #CBBCB2",
"2X c #C8B9B1",
"3X c #D2BEB3",
"4X c #D7C1AD",
"5X c #CEC2B9",
"6X c #D9C4B4",
"7X c #DDC9BD",
"8X c #D4C4B9",
"9X c #E3CCBD",
"0X c #E6D0BF",
"qX c #DBCBC0",
"wX c #DCD0C4",
"eX c #E3CFC2",
"rX c #E5D2C5",
"tX c #EAD3C4",
"yX c #EAD6C9",
"uX c #EEDACB",
"iX c #E7D5C8",
"pX c #F2DBCD",
"aX c #F1D2C0",
"sX c #F4DED1",
"dX c #F5E1D2",
"fX c #FAE3D5",
"gX c #FCE6D9",
"hX c #FEE9DB",
/* pixels */
"                                                                                                                                                                                                                                                                ",
"                                                                                                                                                                                                                                                                ",
"                                                                                                                                                                                                                                                                ",
"                                                                                                                                                                                                                                                                ",
"                                                                                                                                                                                                                                                                ",
"                                                                                                                                                                                                                                                                ",
"                                                                                                                                                                                                                                                                ",
"                                                                                                                                                                                                                                                                ",
"                                                                                                                                                                                                                                                                ",
"                                                                                                                                                                                                                                                                ",
"                                                                                                                                                                                                                                                                ",
"                                                                                                                                                                                                                                                                ",
"                                                                                                                                                                                                                                                                ",
"                                                                                                                                                                                                                                                                ",
"                                                                                                                                                                                                                                                                ",
"                                                                                                                                                                                                                                                                ",
"                                                                                                                                                                                                                                                                ",
"                                                                                                                                                                                                                                                                ",
"                                                                                                                                                                                                                                                                ",
"                                                                                                                                                                                                                                                                ",
"                                                                                                                                                                                                                                                                ",
"                                                                                                                                                                                                                                                                ",
"                                                                                                                                  l k b !                                                                                                                       ",
"                                                                                                                            l r 0 < 5 5 8 h l                                                                                                                   ",
"                                                                                                                          w w < < < 8 5 < 8 8 h                                                                                                                 ",
"                                                                                                                      l 0 0 w 8 8 5 < < , < < 8 l                                                                                                               ",
"                                                                                                                    D 8 8 q < - : - < 6 6 < < ; q                                                                                                               ",
"                                                                                                                    p ; p m 8 - < 5 8 , 0 , - - < h                                                                                                             ",
"                                                                                                                    p d U U q < 5 < q , , # - - ; e                                                                                                             ",
"                                                                                                                    j U ,.X.v 5 - 9 Z c < , # : 5 y                                                                                                             ",
"                                                                                                                    b F W &.X.j 8 B _ P 8 , # : - r                                                                                                             ",
"                                                                                                                      p d ] 6.I o.1._ _ w , : , , y                                                                                                             ",
"                                                                                                                      F G ,.9.1.M.d.q.[ f , # # 0                                                                                                               ",
"                                                                                                                      ` U &.q.6.M.9.] X.K < : # 8 D                                                                                                             ",
"                                                                                                                      6.X.' ,.9.M.9.,.7.<.B p ; < k                                                                                                             ",
"                                                                                                                      ` _ ' &.6.6.6.9.M.Z.8.&.U 9 0                                                                                                             ",
"                                                                                                                        F ` &.&.&.X.,.s.D.D.D.C.5.                                                                                                              ",
"                                                                                                                          J ' ` U _ ] 6.Z.I.I.%XaXpXtX                                                                                                          ",
"                                                                                                                          ` U J J J _ ,.M.D.%XpXfXfXpXtX                                                                                                        ",
"                                                                                                                          I G G G G U ' 0.%XfXfXhXgXfXfXpX                                                                                                      ",
"                                                                                                                                    G U P.fXhXhXhXhXgXfXdXtX                                                                                                    ",
"                                                                                                                                      =.tXhXhXhXgXfXfXgXfXtX9X                                                                                                  ",
"                                                                                                                                      4XdXfXgXgXfXpXtXsXfXiXtX9X                                                                                                ",
"                                                                                                                                      9XpXfXfXgXhXfXpXtXpXsXtX9X                                                                                                ",
"                                                                                                                                      ,XuXfXfXfXfXfXfXpXrXsXiXtX6X                                                                                              ",
"                                                                                                                                    #X X0XdXfXfXfXfXdXpX9XeXtXtX3X                                                                                              ",
"                                                                                                                                     X~.6XpXfXfXfXfXsXpX7X X3XeX:X                                                                                              ",
"                                                                                                                                    =X/.=XuXdXsXsXsXsXuX7X&X8X6X=X:X                                                                                            ",
"                                                                                                                                    #X_.{.tXdXdXpXpXpXrX:X:X8X=X=X:X                                                                                            ",
"                                                                                                                                    `.E.Q.0XdXdXpXpXpXtX;X;X;X.XXX;X                                                                                            ",
"                                                                                                                                  }.~.y.g.6XpXdXsXpXpXtX3X;XXX_..X;X                                                                                            ",
"                                                                                                                                  }.[.r.e.,XpXdXpXpXpXuX6X_.!._.[.1X                                                                                            ",
"                                                                                                                                  {.#Xe.( =XuXdXsXpXuXuX7X_.R.|.|.8X                                                                                            ",
"                                                                                                                                  [.=XQ./ }.uXsXdXdXpXuXrX_.^.[..X7X                                                                                            ",
"                                                                                                                                  /.#X=Xe.`.uXdXdXfXdXsXrX=XXX X&XeX                                                                                            ",
"                                                                                                                                  Q.[.=XQ.{.dXgXdXdXsXuXiX3XXX&X=XrX                                                                                            ",
"                                                                                                                                  Q.~.[.h.^./.x.c.u.u.v.@X/.XX&X;XiX                                                                                            ",
"                                                                                                                                  Q./.~.x.*.K K T %.k.H.V.v.|.XX3XiX                                                                                            ",
"                                                                                                                                E.Q.`.[.~.~ L I <.H.K.K.S.j.[.&XqXiX:X                                                                                          ",
"                                                                                                                                b.Q./.[.R.*.L ` B.J.K.K.S.v.&X-XrXrX                                                                                            ",
"                                                                                                                                x.E.#X/.E.*.Q $.V.J.J.J.S.z.=X8XuX8X                                                                                            ",
"                                                                                                                                h.E. X#Xx.r.~ =.V.J.J.H.Z.z.,XiXdX-X                                                                                            ",
"                                                                                                                                f.E.E.E.~.h./ =.C.J.Z.Z.Z.N.<XdXrX(.                                                                                            ",
"                                                                                                                                r.g. X{.Q.g.*.;.C.Z.V.A.Z.d.<XdX=XU.                                                                                            ",
"                                                                                                                                *.r. X X~.~.:.5.S.S.S.D.A.,.=X7X!.Y.                                                                                            ",
"                                                                                                                                *.( g.~.[.#X>.k.S.S.S.Z.q.+.;X|.Y.Y.                                                                                            ",
"                                                                                                                                / / e./.=X X>.C.S.S.Z.d.O.r.|.U.Y.U.                                                                                            ",
"                                                                                                                                / ( e. X,XQ.3.C.S.V.M.6. .h.^.!.T.U.                                                                                            ",
"                                                                                                                                  b.b.$X{.Q.4.C.V.V.p.%.=.!.(.!.T.Y.                                                                                            ",
"                                                                                                                                  4X=Xb.E.n.8.C.V.B.8.$.y.!.(.).T.Y.                                                                                            ",
"                                                                                                                                  Q.f.r.r.t.8.B.V.B.3.=.U.^.[.oX).T.                                                                                            ",
"                                                                                                                              i.u.'.=X/./.j.8.B.B.k.-.r.!.(.|.OX|.T.                                                                                            ",
"                                                                                                                            2.2.>.e./.=X,Xz.8.B.B.4.=.g.(.~.|.5X8X|.                                                                                            ",
"                                                                                                                          %.T C y.f.e.b.c.4.k.N.k.-.w.~.(.(.XXqXwX>X                                                                                            ",
"                                                                                                                        [ c 3 k `.[.`.=Xm.7.k.z.4.=.h.!.!.(.|.2X8X1X                                                                                            ",
"                                                                                                                        x < , )  Xb.y.Q.z.9.N.k.-.w.U.T.T.T.!.XX8X5X                                                                                            ",
"                                                                                                                        , & * g.}.b.~.n.8.k.N.u.>.g.!.!.(.(.].XXOX-X                                                                                            ",
"                                                                                                                    6 , @ @ 1 ~.}.#X[.j.8.k.k.-.t.!.!.^.(.(.].>X5XOX                                                                                            ",
"                                                                                                                  7 & @ + + & U.Q.Q.h.3.p.N.i.>.R.!.~.(.(.(.[.OX1XXX                                                                                            ",
"                                                                                                              6 1 & @ + + + O ) }.W.c.7.N.V.u.y.!.!.!.~.(.(.|.OX2XoX                                                                                            ",
"                                                                                                            6 * & & + O O + O i {.E.u.9.G.z.t.E.!.!.~.(.(.[.oX-X2X                                                                                              ",
"                                                                                                          <.b & @ + O O O O O + ! Q.-.1.N.a.h.!.!.~.(.(.(..X+X-X-X                                                                                              ",
"                                                                                                        1.1.8.Y 1 + O o o o O O & ! ,.1.i.a.R.~.~.~.(.[.[.+X1X5X5X                                                                                              ",
"                                                                                                        X.%.4.4.~ w + O o O O O & ` 1.9.F.a.R.(.|. XXX X+X-X-X1X8X                                                                                              ",
"                                                                                                        U %.<.-.$.W x # O O X O f ,.1.p.L.a.k i M A A A M u A                                                                                                   ",
"                                                                                                        K [ %.<.$.I v 9 @ O o # T 1.1.7.F.-.+ X . . . . O $                                                                                                     ",
"                                                                                                        F Y $.%.[ c a     O o < X.,.1.0.F.^ O O o o O O O *                                                                                                     ",
"                                                                                                        S K [  .W n x       o < U O.,.2.p.z . o O o o O O 1                                                                                                     ",
"                                                                                                          F } <.4.-.W       O 2 P _ _ _ ,.t X o O O O O @                                                                                                       ",
"                                                                                                          G &.i.z.z.-.E       < V O.[ O.O.^ + X O O O O %                                                                                                       ",
"                                                                                                          F  .i.B.z.3.~       # < P P T n 3 o X O O O O %                                                                                                       ",
"                                                                                                          v } 4.l.z.3...      @ + # , # + X X X O O O O %                                                                                                       ",
"                                                                                                          n W 4.z.z.3...      & + O O o O X X . O O O O &                                                                                                       ",
"                                                                                                          b L -.i.i.-.~         + O O O O X X X O O O + *                                                                                                       ",
"                                                                                                          m F  .3.3.=.E         + + O O o X X X X O + +                                                                                                         ",
"                                                                                                            m W $.=.~ Y         + + O o X X X X X O % %                                                                                                         ",
"                                                                                                            s L } ..E L         + + + O X X o o o o $ &                                                                                                         ",
"                                                                                                            s K } @.E L         & + + O O o X O O O O *                                                                                                         ",
"                                                                                                            d F ~ @.E             & + O o o o O O O O &                                                                                                         ",
"                                                                                                            x K } @.I                 # + o o O O + + &                                                                                                         ",
"                                                                                                            v I } ..Y                   s p < , , 1 k L                                                                                                         ",
"                                                                                                            H ` @. .E                     B G P  .-.i.3.                                                                                                        ",
"                                                                                                            n  .$.@.W                     x G ` %.N.V.i.-.                                                                                                      ",
"                                                                                                            & r K Y n                     x V ' %.N.G.p.-.                                                                                                      ",
"                                                                                                        8 @ O O O + +                       G X.<.p.H.B.<.                                                                                                      ",
"                                                                                                      < : @ O O O O +                       G  .<.7.B.V.4.$.                                                                                                    ",
"                                                                                            b D D l w : # # O $ # , < 2                     V [ -.4.N.N.4.o.                                                                                                    ",
"                                                                                          b p p p p 8 8 ; < < w f k w q                     c U o.3.p.p.4.o.                                                                                                    ",
"                                                                                            w 8 8 8 < ; ; : : ; 8 h w q                     x I  .%.7.4.<.o.                                                                                                    ",
"                                                                                              w 8 8 8 ; ; , # : : 2 q w                     s B T  .<.<.%. .                                                                                                    ",
"                                                                                                                                              c K ` %.%.%. .                                                                                                    ",
"                                                                                                                                              x n P  .o.o.[                                                                                                     ",
"                                                                                                                                              j c B Y [  .[                                                                                                     ",
"                                                                                                                                                d V G T [ [                                                                                                     ",
"                                                                                                                                                p v F P W T                                                                                                     ",
"                                                                                                                                                9 v F K Y Y                                                                                                     ",
"                                                                                                                                                  x B K Y Y                                                                                                     ",
"                                                                                                                                                  j C K K Y n                                                                                                   ",
"                                                                                                                                                  p n K P I S                                                                                                   ",
"                                                                                                                                              8 : 9 n K Y T ^                                                                                                   ",
"                                                                                                                                            w < : , j Y %.-.-.                                                                                                  ",
"                                                                                                                                          5 2 2 < + + 0 n S z                                                                                                   ",
"                                                                                                                                  w       < < < : & O O O % 6 p                                                                                                 ",
"                                                                                                                                  0 r h w e 0 5 < < , , 6 r l f f                                                                                               ",
"                                                                                                                                r q w w w w h k r r r 3 r u D f r                                                                                               ",
"                                                                                                                                  w q w p h l h t t 6 < < 0 w 8 h                                                                                               ",
"                                                                                                                                          0 w r t i 0 0 0 0 w y h                                                                                               ",
"                                                                                                                                                    h f h y h h                                                                                                 "
};
