/* XPM */
static char *shoot_back_right[] = {
/* columns rows colors chars-per-pixel */
"128 128 203 2 ",
"   c #FF00FF",
".  c #060504",
"X  c #090706",
"o  c #0A0807",
"O  c #0C0A09",
"+  c #110E0C",
"@  c #15110E",
"#  c #1C140E",
"$  c #151213",
"%  c #1A1414",
"&  c #1B1718",
"*  c #130F12",
"=  c #211712",
"-  c #241A13",
";  c #291E16",
":  c #231B1B",
">  c #2A1F19",
",  c #221719",
"<  c #2C1C12",
"1  c #2D2016",
"2  c #2D221B",
"3  c #32251C",
"4  c #36291D",
"5  c #3B2B1E",
"6  c #342617",
"7  c #2E2420",
"8  c #332722",
"9  c #352A22",
"0  c #3B2D23",
"q  c #3C2E29",
"w  c #3E3024",
"e  c #3D312A",
"r  c #37312C",
"t  c #3D3632",
"y  c #432C1E",
"u  c #45311C",
"i  c #442E22",
"p  c #433224",
"a  c #4B3224",
"s  c #42352C",
"d  c #4B3529",
"f  c #4B3B2C",
"g  c #4A3826",
"h  c #533625",
"j  c #553925",
"k  c #543B2B",
"l  c #5B3D2C",
"z  c #553828",
"x  c #4C3E33",
"c  c #463C35",
"v  c #593B30",
"b  c #603D2B",
"n  c #5F412E",
"m  c #54412F",
"M  c #4A423A",
"N  c #534334",
"B  c #5C4334",
"V  c #5A4A3C",
"C  c #594937",
"Z  c #62412C",
"A  c #644433",
"S  c #694633",
"D  c #6B4936",
"F  c #6B4B3A",
"G  c #634B39",
"H  c #734D3A",
"J  c #774F3A",
"K  c #6A523E",
"L  c #63513C",
"P  c #76513C",
"I  c #7B543D",
"U  c #5E554D",
"Y  c #635343",
"T  c #6A5646",
"R  c #6D5C4C",
"E  c #6B5849",
"W  c #7C5542",
"Q  c #765945",
"!  c #71614F",
"~  c #78624A",
"^  c #746352",
"/  c #7A6754",
"(  c #7B6A56",
")  c #7D6C5B",
"_  c #756658",
"`  c #7F7162",
"'  c #982616",
"]  c #FF0D00",
"[  c #FF1801",
"{  c #E3240B",
"}  c #FF2400",
"|  c #FE2C02",
" . c #FF3300",
".. c #FF3800",
"X. c #81563F",
"o. c #845944",
"O. c #8C5D47",
"+. c #8E5E49",
"@. c #825845",
"#. c #8C6146",
"$. c #8C624B",
"%. c #93644C",
"&. c #9A6C4F",
"*. c #836E59",
"=. c #896A54",
"-. c #966A52",
";. c #9C6C53",
":. c #966552",
">. c #82705C",
",. c #887358",
"<. c #9C7357",
"1. c #A16F54",
"2. c #A37155",
"3. c #AA765B",
"4. c #AD7A5C",
"5. c #A37258",
"6. c #B27D5F",
"7. c #847464",
"8. c #897763",
"9. c #8B7964",
"0. c #8B7C6B",
"q. c #867767",
"w. c #907F6B",
"e. c #997766",
"r. c #877769",
"t. c #AC7A62",
"y. c #A97964",
"u. c #B57E64",
"i. c #B3805E",
"p. c #8E806D",
"a. c #92816D",
"s. c #8F8171",
"d. c #938473",
"f. c #968876",
"g. c #9A8977",
"h. c #9B8B7B",
"j. c #978777",
"k. c #9E907C",
"l. c #B68163",
"z. c #BB8669",
"x. c #A18D7B",
"c. c #A78372",
"v. c #A5937E",
"b. c #B7937D",
"n. c #C38C6D",
"m. c #C28B71",
"M. c #CA967A",
"N. c #D49978",
"B. c #CC926D",
"V. c #D7A07E",
"C. c #E1A27D",
"Z. c #9D8F81",
"A. c #9F9283",
"S. c #A39382",
"D. c #A99986",
"F. c #AC9C8C",
"G. c #A79787",
"H. c #B09E8A",
"J. c #AC9F91",
"K. c #B5A494",
"L. c #BCAC9C",
"P. c #B8A695",
"I. c #AEA190",
"U. c #BFAFA0",
"Y. c #CAAB94",
"T. c #E9AB8A",
"R. c #E9B291",
"E. c #C2B2A4",
"W. c #C8B6A9",
"Q. c #C7B9AB",
"!. c #CCBCAD",
"~. c #CAB7A6",
"^. c #D2BFAD",
"/. c #CEBDB0",
"(. c #D1BEB2",
"). c #C1AFA0",
"_. c #D4C2AF",
"`. c #CFC1B3",
"'. c #D3C2B4",
"]. c #D5C4B9",
"[. c #D9C7BA",
"{. c #DBCBBC",
"}. c #D7C7B7",
"|. c #E3CEBC",
" X c #E5C0A9",
".X c #DDCDC1",
"XX c #DED1C4",
"oX c #E0CFC1",
"OX c #E3D2C4",
"+X c #E5D5C9",
"@X c #E7D9CC",
"#X c #EBDACD",
"$X c #E8D6C9",
"%X c #EEDDD2",
"&X c #F0DED1",
"*X c #EEE1D5",
"=X c #F3E1D5",
"-X c #F6E5DA",
";X c #F8E7DB",
":X c #FAE9DE",
">X c #FBECE2",
",X c #F6E9E0",
"<X c #FEF1E7",
/* pixels */
"                                                                                                                                                                                                                                                                ",
"                                                                                                                                                                                                                                                                ",
"                                                                                                                                                                                                                                                                ",
"                                                                                                                                                                                                                                                                ",
"                                                                                                                                                                                                                                                                ",
"                                                                                                                                                                                                                                                                ",
"                                                                                                                                                                                                                                                                ",
"                                                                                                                                                                                                                                                                ",
"                                                                                                                                                                                                                                                                ",
"                                                                                                                                                                                                                                                                ",
"                                                                                                                                                                                                                                                                ",
"                                                                                                                                                                                                                                                                ",
"                                                                                                                                                                                                                                                                ",
"                                                                                                                                                                                                                                                                ",
"                                                                                                                                                                                                                                                                ",
"                                                                                                                                                                                                                                                                ",
"                                                                                                                                                                                                                                                                ",
"                                                                                                                                                                                                                                                                ",
"                                                                                                                                                                                                                                                                ",
"                                                                                                                                                                                                                                                                ",
"                                                                                                                                                                                                                                                                ",
"                                                                                                                                                                                                                                                                ",
"                                                                                                *./ R                                                                                                                                                           ",
"                                                                                              C w s f C T =.                                                                                                                                                    ",
"                                                                                          *.V 0 3 2 3 0 d N K R                                                                                                                                                 ",
"                                                                                        ,.T x x f 0 w 3 9 0 w g ~                                                                                                                                               ",
"                                                                                        L N e x x x 3 3 3 2 2 2 N *.                                                                                                                                            ",
"                                                                                      C f 4 ; 3 > e q 9 9 2 - 2 0 K                                                                                                                                             ",
"                                                                                    m 0 4 ; - 9 ; 9 s 0 2 2 > 2 0                                                                                                                                               ",
"                                                                                    C 3 - = 1 9 0 0 s 3 2 ; 2 2 w                                                                                                                                               ",
"                                                                                      1 = # 1 3 3 9 0 - - 2 9 4 p                                                                                                                                               ",
"                                                                                      3 = # - ; - ; - # 2 ; d 5 p                                                                                                                                               ",
"                                                                                      0 - # - - # ; ; - ; - i y a                                                                                                                                               ",
"                                                                                      C ; # ; # # = 2 3 2 > a l C                                                                                                                                               ",
"                                                                                      L 1 # # % 2 = - 3 > 0 k H I                                                                                                                                               ",
"                                                                                        p - # 2 0 - - - = 3 l I I                                                                                                                                               ",
"                                                                                        Y 3 - 3 3 3 3 - 2 a H I W                                                                                                                                               ",
"                                                                                          4 ; 2 y S n a l H I I                                                                                                                                                 ",
"                                                                                          f 5 y S 1.#.X.I I I I                                                                                                                                                 ",
"                                                                                              Q b. XY.5.%.I H P                                                                                                                                                 ",
"                                                                                          oX~.[.-X>X>X|.b.=.P                                                                                                                                                   ",
"                                                                                        {.$X=X;X:X>X>X<X:X$X$X                                                                                                                                                  ",
"                                                                                      ^.|.$X=X;X:X>X>X>X<X<X<X>X:X                                                                                                                                              ",
"                                                                                      {.$X$X&X=X=X;X:X>X>X,X>X>X>X-X                                                                                                                                            ",
"                                                                                    |.OXOX$X$X$X$X=X-X-X$X$X-X:X:X-X$X                                                                                                                                          ",
"                                                                                    |.OXOXOXOX$X$X$XOXW.oX-X:X:X;X=XOX                                                                                                                                          ",
"                                                                                  _.{.{.[.{.oX$XOXOX/..X=X-X:X;X-X=XOX                                                                                                                                          ",
"                                                                                  ^.}.'.'.}.{.$XoX{./.OX%X-X;X-X=X%XOX                                                                                                                                          ",
"                                                                                  ~.^.!.!.^.{.%XoX/./.'.{.#XOX$X%X$XOX                                                                                                                                          ",
"                                                                                  ).~.L.~._.[.=X$X'.W.K.!./.(.OX#X$XOX'.                                                                                                                                        ",
"                                                                                  P.K.H.L.!.K.'.$X(.W.F.E.P.'..XOXOXOX{.                                                                                                                                        ",
"                                                                                  H.v.j.D.L.d.8.L.!.W.!.E.K.'.[..X.XOX{.                                                                                                                                        ",
"                                                                                  F.S.a.w.j.0.) >.E.E.!.S.F.!.]..X.XOXOX                N                                                                                                                       ",
"                                                                                  x.x.9.9.( ) / R 0.Q.K.) h.E.'.[.{.OX$X      T.R.V.<.G f f k                               ] ] ]                                                                               ",
"                                                                                  x.h.w.7.*.( ^ ^ R j.r.^ d.L.'.'.{.OX$XP.s N M.R.n.%.Z 3 4 5 4 5 C u.o.p p g             ] [ } } [                                                                             ",
"                                                                                  v.j.0.( ( ^ ^ ^ R R R Y 7.J.W.'..X$X%X'.x 0 M.T.-.H F N N 0 2 1 k y.W i i 6 5 5 u u u ' { |  . .}                                                                             ",
"                                                                                  v.F.7.( ^ ^ ^ ^ ^ R V N ^ S.).[.$X%X%X].E @.R.N.P l Q c.e.W k F -.W F :.              ' { | .. .|                                                                             ",
"                                                                                    ).d.) / ^ ^ ^ ^ R Y x V j.E.].(.P.e.W K Y.T.u.A k C                                     |  . .                                                                              ",
"                                                                                    K.L.>.( ^ ! ^ ^ R Y N N 7.x.c.t.4.;.&.l.T.N.2.                                                                                                                              ",
"                                                                                    h.`.a.) ^ ^ ^ ! R Y V x C o.;.3.l.l.l.n.C.B.&.                                                                                                                              ",
"                                                                                    9./.F.) ^ ^ ^ ^ R R R f f P %.5.4.6.6.6.B.6.#.                                                                                                                              ",
"                                                                                    >.L.!.9.( ^ ^ R R R T f d A o.;.3.6.4.2.4.#.                                                                                                                                ",
"                                                                                      S.'.S.*.^ ^ ^ ^ ^ Y N N l J %.2.3.1.#.o.D                                                                                                                                 ",
"                                                                                      j.!.L.a.>.( ^ ) ) Y Y N k S @.%.1.%.X.H A                                                                                                                                 ",
"                                                                                      9.U./.D.d.9.9.d.) ^ R N N Z S X.%.%.@.A                                                                                                                                   ",
"                                                                                      ( S.'.E.D.v.D.h.7.7.^ Y V C l S I +.I                                                                                                                                     ",
"                                                                                        8.E.'.L.L.K.Z.h.) ^ R Y Y l z b b F                                                                                                                                     ",
"                                                                                        ( D.`.'.W.S.S.0._ ^ ^ ^ ! R C l T w.                                                                                                                                    ",
"                                                                                        ^ 0.!.`.S.7.7.) ) ) ) ) ( ) ^ ) 0.d.                                                                                                                                    ",
"                                                                                          ( j.d.7.7.7.) 7.7.7.>.) ) ) 7.0.d.                                                                                                                                    ",
"                                                                                          R ^ 7.7.` 7.d.d.h.d.7.>.) ` 7.7.d.                                                                                                                                    ",
"                                                                                        ) ^ ^ 7.8.7.0.Z.Z.Z.G.d.7.` ` 7.0.d.f.                                                                                                                                  ",
"                                                                                        9.8.>.) _ ) j.F.G.A.s.h.a.0.7.7.` 7.0.                                                                                                                                  ",
"                                                                                        9.9.8.>.9.L.@X*X*X%X{.S.d.0.0.p.p.0.0.                                                                                                                                  ",
"                                                                                        a.w.9.a.P.{.@X$X$X@X.XL.k.d.p.a.d.d.d.                                                                                                                                  ",
"                                                                                        d.S.S.F.E.OX$X$X@XXXQ.J.d.0.a.d.d.d.d.                                                                                                                                  ",
"                                                                                          D.G.F.!.XX$XXX{.].XXXXI.0.q.p.d.s.0.                                                                                                                                  ",
"                                                                                          d.I.D.L.{.$XXXXX$X.XXX{.F.0.7.s.s.s.                                                                                                                                  ",
"                                                                                          9.p.d.L.{.$X$X.X{.XX{.'.!.F.0.0.d.h.                                                                                                                                  ",
"                                                                                          ) 0.F.L.XX@X$XOX{.`.`./.Q.U.K.S.h.A.h.                                                                                                                                ",
"                                                                                            h.F.L.{..X.X$X.X/.E.L.A.` U M e 9 t                                                                                                                                 ",
"                                                                                            9 9 r t r t M M M M M : o . . o O +                                                                                                                                 ",
"                                                                                            O . . . . . . . . O O O O O O O O +                                                                                                                                 ",
"                                                                                              . . . . . . . O O O O O + O O O +                                                                                                                                 ",
"                                                                                              o . . . . . . O O O O + + O O O +                                                                                                                                 ",
"                                                                                              + . . . . . O O o O O + O . O O +                                                                                                                                 ",
"                                                                                              + . . . . O O O O O + O . . O O +                                                                                                                                 ",
"                                                                                                o . . . . . o . O O . . o o O +                                                                                                                                 ",
"                                                                                                o . . . . . . . O o . . o . O +                                                                                                                                 ",
"                                                                                                O . . . o . . O . . . O O . o +                                                                                                                                 ",
"                                                                                                + . . . . o O o . . O O o O O +                                                                                                                                 ",
"                                                                                                + . . . O + o . . o O O O O O @                                                                                                                                 ",
"                                                                                                  . . . O O . o O O O O O O O @                                                                                                                                 ",
"                                                                                                  . . . O o . O O o O o O O + @                                                                                                                                 ",
"                                                                                                  - o o + . O O o O O . O + + +                                                                                                                                 ",
"                                                                                                  l y 1 O O O . o O . . O + + @                                                                                                                                 ",
"                                                                                                Z l h y + O O O + . . o + + + $                                                                                                                                 ",
"                                                                                                b l h y + + + + O . O + $ $ $ %                                                                                                                                 ",
"                                                                                                Z l h a 5 # O O . + + @ % &                                                                                                                                     ",
"                                                                                              Z Z l h h P W C d d p 4                                                                                                                                           ",
"                                                                                              l Z l h j $.3.t.y.;.S y                                                                                                                                           ",
"                                                                                              j l l a A t.z.m.m.;.l                                                                                                                                             ",
"                                                                                              j j h a W z.m.M.n.$.k                                                                                                                                             ",
"                                                                                                h a h ;.z.n.B.l.o.A                                                                                                                                             ",
"                                                                                                a y A t.z.n.n.4.$.F                                                                                                                                             ",
"                                                                                                u y W t.l.n.z.2.$.F                                                                                                                                             ",
"                                                                                                y a $.3.6.l.6.-.o.n                                                                                                                                             ",
"                                                                                                y l -.2.3.3.2.$.H k                                                                                                                                             ",
"                                                                                                y A %.;.;.;.:.@.D                                                                                                                                               ",
"                                                                                                i A o.%.%.%.+.P l                                                                                                                                               ",
"                                                                                                k S o.o.+.+.o.D i -                                                                                                                                             ",
"                                                                                                0 A X.o.o.o.J l 3 #                                                                                                                                             ",
"                                                                                                ; k X.@.W I A d -                                                                                                                                               ",
"                                                                                              6 1 k P I I D l i                                                                                                                                                 ",
"                                                                                              6 3 k H H H A a 5                                                                                                                                                 ",
"                                                                                              4 4 k D H D l p                                                                                                                                                   ",
"                                                                                              4 5 l S S A z 0                                                                                                                                                   ",
"                                                                                                  A S n k a                                                                                                                                                     ",
"                                                                                                  S A k a 0                                                                                                                                                     ",
"                                                                                                A D A z i 5                                                                                                                                                     ",
"                                                                                                F A v d 0 3                                                                                                                                                     ",
"                                                                                                A A v i , % -                                                                                                                                                   ",
"                                                                                                : > : $ * % 3 0 w x N N                                                                                                                                         ",
"                                                                                                % $ $ $ $ % 8 0 s x N N c                                                                                                                                       ",
"                                                                                              2 % & $ $ $ : : 7 e x x s s                                                                                                                                       ",
"                                                                                              0 8 & % $ % : : 9 s s s 0 0                                                                                                                                       ",
"                                                                                            w 0 q 8 9 8 7 2 9 e w e e 9 9                                                                                                                                       ",
"                                                                                            0 4 8 9 9 2 2 2 7 8 9 9 9 9                                                                                                                                         "
};
