/* XPM */
static char *shoot_front_right[] = {
/* columns rows colors chars-per-pixel */
"128 128 221 2 ",
"   c #FF00FF",
".  c #050404",
"X  c #090607",
"o  c #0A0807",
"O  c #080708",
"+  c #0D0B0B",
"@  c #110E0D",
"#  c #180E0C",
"$  c #14100E",
"%  c #1C130C",
"&  c #160F11",
"*  c #151211",
"=  c #1B1513",
"-  c #1D1915",
";  c #1E1A18",
":  c #21150D",
">  c #241A0E",
",  c #2A1E0F",
"<  c #331E0F",
"1  c #211611",
"2  c #241A14",
"3  c #2A1E14",
"4  c #241D19",
"5  c #2A1E19",
"6  c #331E15",
"7  c #2C2116",
"8  c #2D231B",
"9  c #25211A",
"0  c #332516",
"q  c #33251C",
"w  c #3D2619",
"e  c #34291D",
"r  c #3C2C1C",
"t  c #3B2516",
"y  c #3F311D",
"u  c #35230F",
"i  c #2C2725",
"p  c #3B2C21",
"a  c #352923",
"s  c #3E3124",
"d  c #38312A",
"f  c #393531",
"g  c #422B1C",
"h  c #40241B",
"j  c #44321E",
"k  c #452E23",
"l  c #422F29",
"z  c #433324",
"x  c #4B3224",
"c  c #44352A",
"v  c #46392B",
"b  c #4D3C2C",
"n  c #4B352B",
"m  c #513624",
"M  c #553B2B",
"N  c #593E2D",
"B  c #523927",
"V  c #543D31",
"C  c #5B3E31",
"Z  c #643622",
"A  c #5C422E",
"S  c #55402E",
"D  c #5C4332",
"F  c #5A4737",
"G  c #4F4233",
"H  c #61412F",
"J  c #634534",
"K  c #6A4534",
"L  c #644A35",
"P  c #6A4936",
"I  c #66493B",
"U  c #6C4C3B",
"Y  c #664739",
"T  c #714E3B",
"R  c #7A4D3C",
"E  c #734936",
"W  c #68503B",
"Q  c #75523D",
"!  c #79533D",
"~  c #58514B",
"^  c #6D4E40",
"/  c #714E41",
"(  c #6E5243",
")  c #6B5846",
"_  c #735342",
"`  c #7B5442",
"'  c #7D5A44",
"]  c #7C5B4A",
"[  c #735A4A",
"{  c #7A5D50",
"}  c #74614C",
"|  c #796757",
" . c #69615C",
".. c #776C64",
"X. c #7D7267",
"o. c #AB2B12",
"O. c #FF2400",
"+. c #FF2D00",
"@. c #F82F0B",
"#. c #FF3301",
"$. c #FF3C00",
"%. c #F83908",
"&. c #E23213",
"*. c #81543C",
"=. c #B4422A",
"-. c #FE4302",
";. c #845A45",
":. c #8B5C44",
">. c #845D49",
",. c #865745",
"<. c #935747",
"1. c #8C624C",
"2. c #87614A",
"3. c #94664B",
"4. c #9B664C",
"5. c #9C6C4E",
"6. c #946145",
"7. c #8D6552",
"8. c #866756",
"9. c #936A54",
"0. c #9C6C53",
"q. c #946D5A",
"w. c #996E5A",
"e. c #916651",
"r. c #87725C",
"t. c #9C725D",
"y. c #997056",
"u. c #A16E52",
"i. c #A4755D",
"p. c #A67559",
"a. c #837364",
"s. c #8B7964",
"d. c #8B7B6D",
"f. c #857769",
"g. c #927D6C",
"h. c #9E7460",
"j. c #867A73",
"k. c #997F71",
"l. c #806F62",
"z. c #A37761",
"x. c #A47963",
"c. c #AB7C64",
"v. c #B17C61",
"b. c #95826C",
"n. c #8C8076",
"m. c #938375",
"M. c #9B8B7B",
"N. c #97887B",
"B. c #A9816C",
"V. c #B58469",
"C. c #B88366",
"Z. c #A68B79",
"A. c #BC9074",
"S. c #C38C6E",
"D. c #C99275",
"F. c #D59A7A",
"G. c #C88F70",
"H. c #D7A17F",
"J. c #988C84",
"K. c #9C9187",
"L. c #A18E81",
"P. c #A39284",
"I. c #A3958A",
"U. c #A59A8C",
"Y. c #AA9A8B",
"T. c #A99585",
"R. c #B09D8E",
"E. c #B79A86",
"W. c #AB9D92",
"Q. c #A59A92",
"!. c #B19F92",
"~. c #ADA196",
"^. c #B3A394",
"/. c #B4A599",
"(. c #BCAB9D",
"). c #B7A799",
"_. c #B2A08D",
"`. c #BBAEA3",
"'. c #BEB1A4",
"]. c #DDA584",
"[. c #D7A182",
"{. c #C3AC96",
"}. c #CBB59A",
"|. c #C0A088",
" X c #E2A987",
".X c #C1AEA1",
"XX c #C3B2A4",
"oX c #C3B5A9",
"OX c #C5B9AC",
"+X c #CBBBAD",
"@X c #C9B6A7",
"#X c #D3BDA9",
"$X c #CBBEB1",
"%X c #D2BFB1",
"&X c #D9C2AB",
"*X c #CEC1B5",
"=X c #D3C3B5",
"-X c #DAC5B4",
";X c #DEC8B4",
":X c #D3C6B9",
">X c #DAC6B9",
",X c #D7C9BB",
"<X c #DACBBD",
"1X c #E2CDBC",
"2X c #E3CCB5",
"3X c #E6D1BE",
"4X c #DCCEC1",
"5X c #DFD1C4",
"6X c #E2CEC1",
"7X c #E4D3C5",
"8X c #E8D3C2",
"9X c #EBD5C4",
"0X c #EED8C6",
"qX c #E4D5C8",
"wX c #EAD7C9",
"eX c #EBDACC",
"rX c #E6D8CA",
"tX c #F1DDCB",
"yX c #ECDED1",
"uX c #F5E3D6",
"iX c #F3E0CE",
/* pixels */
"                                                                                                                                                                                                                                                                ",
"                                                                                                                                                                                                                                                                ",
"                                                                                                                                                                                                                                                                ",
"                                                                                                                                                                                                                                                                ",
"                                                                                                                                                                                                                                                                ",
"                                                                                                                                                                                                                                                                ",
"                                                                                                                                                                                                                                                                ",
"                                                                                                                                                                                                                                                                ",
"                                                                                                                                                                                                                                                                ",
"                                                                                                                                                                                                                                                                ",
"                                                                                                                                                                                                                                                                ",
"                                                                                                                                                                                                                                                                ",
"                                                                                                                                                                                                                                                                ",
"                                                                                                                                                                                                                                                                ",
"                                                                                                                                                                                                                                                                ",
"                                                                                                                                                                                                                                                                ",
"                                                                                                                                                                                                                                                                ",
"                                                                                                                                                                                                                                                                ",
"                                                                                                                                                                                                                                                                ",
"                                                                                                                                                                                                                                                                ",
"                                                                                                                                                                                                                                                                ",
"                                                                                                                                                                                                                                                                ",
"                                                                                                                                                            r.} } ) S                                                                                           ",
"                                                                                                                                                          | s q 3 7 7 0 z                                                                                       ",
"                                                                                                                                                      [ G q 1 % $ : : : > s                                                                                     ",
"                                                                                                                                                    F 3 g J B > % % % % > 3 s                                                                                   ",
"                                                                                                                                                  ^ 3 m 6.3.;.N r 1 > % % : r                                                                                   ",
"                                                                                                                                                  p w :.5.5.u.w.` 7 % q 3 % , j                                                                                 ",
"                                                                                                                                                  q N 3.! ! 2.u.5.r 3 P R 6 % r                                                                                 ",
"                                                                                                                                                  e ! P g N :.p.u.J E :.<.h # z                                                                                 ",
"                                                                                                                                                  b T ` H E 5.i.u.3.w.4.:.0 % 0 L                                                                               ",
"                                                                                                                                                    z 3.4.6.u.u.u.u.u.:.R r % 0                                                                                 ",
"                                                                                                                                                    T w.4.4.u.u.u.u.5.4.4.P : r                                                                                 ",
"                                                                                                                                                      R R :.u.u.u.5.4.i.A.Z.8.g.}.&X                                                                            ",
"                                                                                                                                                      P P R 3.w.6.3.|.1X7X7X3X2X&X#X}.                                                                          ",
"                                                                                                                                                        P :.3.:.3.{.7X7X7X7X7X1X;X&X#X                                                                          ",
"                                                                                                                                                        ` ;.*.*.E.1X7X7X7X1X1X7X;X-X&X}.                                                                        ",
"                                                                                                                                                          P P B.-X7X0X7X7X3X1X7X;X&X&X@X                                                                        ",
"                                                                                                                                                              %X7X0X7X7X7X3X1X1X1X;X;X#X{.                                                                      ",
"                                                                                                                                                            -X1X7X0X6X7X7X1X-X>X6X3X;X#X{.                                                                      ",
"                                                                                                                                                            1X7X0X7X7XwX7X1X%X>X%XT.k.Z._.                                                                      ",
"                                                                                                                                                          -X1X0XtX1XwX7X6X=XXX%Xm.a.T.).Z.                                                                      ",
"                                                                                                                                                          1X0XtX7X1XeX7X-X(.(.Y.m.R.XXL.M.                                                                      ",
"                                                            O.O.O.                                                                                      1X0XtXtX1X7X7X>X.XM.U.L.XX=X).R.T.b.                                                                    ",
"                                                          O.+.#.#.+.                                                                                    7XtXiXeX;X7X<XXXM.f.L.).!.L.M.M.g.                                                                      ",
"                                                        O.+.$.$.$.#.@.                                            | | } } } } } ) b M F               7XtXuXuX1X-X1X%XY.f.d./.).).^.^.I.d.                                                                      ",
"                                                        O.#.$.-.-.%.&.=.*.W W W L F F F F F F F F F L A A F F S S S b b b b b b v p p p 8 q c 9.w.:.Z.%X7XuXuX>X-X-X).m.f.^.XXXXXX(.R.M.f.                                                                      ",
"                                                        O.#.$.-.-.%.&.o.Z j j y y z z r r r e e r M H ! 2.3.9.9.i.x._ r 3 8 8 7 8 8 3 1 1 1 : k E P x.c.7.k.{.=X>XXXM.| I.=X%X@X(.^.Y.m.f.                                                                      ",
"                                                          +.#.$.#.+.O.            b           r V _ i.S.c.3.5.i.C.D.[.A.y.] V         7 1 > k ` ,.w.D.F.v.R P g.(.W.f.l.XX+XXX.X(.^.Y.d.f.                                                                      ",
"                                                            +.+.+.                              2.w.2.! P A H J J ! y.S.H. X X X X    ]   F ` R ` v.F.F.D.c.2.` { f.| R.+X%X-X+X.X(.m.f.f.                                                                      ",
"                                                                                                      N N N M S S A J ! 9.V.D.]. X X X].].F.G.C.C.F.F.D.C.V.i.>.P [ L.<X1X%X+X%X@XM...d.g.                                                                      ",
"                                                                                                                      L J ! 9.V.D.[.].].]. X XF.F.D.S.C.v.i.>./ _ g.=X<X>X<X%X.XI.f.d.M.                                                                        ",
"                                                                                                                          L L ! 2.t.i.c.V.V.V.V.V.v.v.i.i.e._ _ I.-X6X6X<X=X@X^.m.d.Y.M.                                                                        ",
"                                                                                                                              F F J J P T ! ' ;.2.w.w.w.3.` _ R.7X7X7X6X>X%XXXJ.g.Y.^.b.                                                                        ",
"                                                                                                                                  F F N N J T ` 2.3.3.;.! Y T.7X7X7X4X>X=X@XU.M.Y.XXY.f.                                                                        ",
"                                                                                                                                        F J J ! ,.,.,.T J g.7XwX7X7X6X<X=X^.I./.+X^.n.                                                                          ",
"                                                                                                                                            T.r.P J P P 8.>XeXwX7X7X7X>X(.W.@X:X/.M.|                                                                           ",
"                                                                                                                                            XXM.| [ [ | @XeXeXwX7X6X=X.X(.<X<XW.I.f.|                                                                           ",
"                                                                                                                                            f.r.| | 8.(.wXeXwX7X<X%XoX+X<X=XU.I.N.|                                                                             ",
"                                                                                                                                            f.r.8.d.(.7XeXeX7X7X6X6X7X7X=XU.Y.^.X...                                                                            ",
"                                                                                                                                            g.b.M.+X7XeXeX7X7XrX7X6X<X+XU.U.`.g...                                                                              ",
"                                                                                                                                          f.T.:X7XeXeXeXwX7X7X6X<X=X+XY.~.+XW...X.                                                                              ",
"                                                                                                                                          M.^.+X:X7XeXeX7X7X<X=X=X%X(.(.=XoXf...f.                                                                              ",
"                                                                                                                                          ^.(.=X=X=X7X7X6X7X7X7X=X`.(.$X>XK.X.f.                                                                                ",
"                                                                                                                                          XX+X=XrX7X7X7X7X5X<X=XoXXX:XrX(.f.f.f.                                                                                ",
"                                                                                                                                          _.<X=X7XrXrXrX5X<X*X+X+X,XeXoXf.d.M.                                                                                  ",
"                                                                                                                                          @X<X7X5X7X<X,X:X:X:X:X<XeX=Xn.m.`.I.                                                                                  ",
"                                                                                                                                          +X<XrX5X4X<X:X=X:X,X<XeX,XN.U.,X+Xf.                                                                                  ",
"                                                                                                                                          *X=X<X4X5X7X4X<X,X4XyX4XW.oXrXrXU.M.                                                                                  ",
"                                                                                                                                        ).OX=X<X4X7X5X,X<XeXyXrXXX*X:X$XOXJ.Q.                                                                                  ",
"                                                                                                                                        '.,X,X<X5X7X4X5XrXrX:X`.`.`./.$XW.U.N.X.                                                                                ",
"                                                                                                                                        =X<X,X<X4X7X4X5X<XOX/.Q.W./.OX$XK.Q.J.f.                                                                                ",
"                                                                                                                                        ,X<X<X5X5X<X,X:XOX'.oXOXoX$X*X~.Q.Q.K.j.                                                                                ",
"                                                                                                                                      (.7X7X,X,X<X:X=X:X*XOXOX'.'.oX~.K.Q.J.j.n.                                                                                ",
"                                                                                                                                      d ..oXyXeX<X*X$X*X=X$XoX`./.W.U.K.n...X.                                                                                  ",
"                                                                                                                                      ; = i  .`.7X4X:XOX'.'.`./.~.U.K.n.....~                                                                                   ",
"                                                                                                                                    9 ; * = $ 4 ~ J.oX*X$X'./.U.K.J.n.X...~ *                                                                                   ",
"                                                                                                                                    1 * * * @ @ + $ i ~ j.K.Q.U.K.J.j. .f + o                                                                                   ",
"                                                                                                                                    = $ $ @ @ @ $ + + + @ ; i i d f i = . .                                                                                     ",
"                                                                                                                                  9 * $ @ @ @ @ $ + + + + + O + + O O O . +                                                                                     ",
"                                                                                                                                  ; * + @ @ + + @ + + + + + + + + + + O X                                                                                       ",
"                                                                                                                                  ; * @ @ @ @ + @ @ + + + + + O + o o . +                                                                                       ",
"                                                                                                                                  * * @ @ @ + + @ + + + + + + . + o . .                                                                                         ",
"                                                                                                                                  * @ @ + + + + + + + + + + + O . . . X                                                                                         ",
"                                                                                                                                4 * @ @ @ + + + @ @ + + + + + + + . . +                                                                                         ",
"                                                                                                                                1 $ @ @ @ + + + @ @ + + + + + + . . . @                                                                                         ",
"                                                                                                                                ; @ @ @ @ + + + + + + + + + + X . . . +                                                                                         ",
"                                                                                                                                = @ @ @ + + + + + @ + + + + + . . . . +                                                                                         ",
"                                                                                                                                * @ @ + + + + + + @ + + + + . . . . .                                                                                           ",
"                                                                                                                              9 $ @ @ + + + + + + + + + + + . . . . X                                                                                           ",
"                                                                                                                              4 * @ @ + + + + + + + + + + . . . . . +                                                                                           ",
"                                                                                                                              ; * $ $ + + + + + + + + + + . . . . . o                                                                                           ",
"                                                                                                                              = = * $ + + + + + + + + + : : @ o X X @                                                                                           ",
"                                                                                                                              ; * * @ + + + @ + + + + @ 6 w g k k z b                                                                                           ",
"                                                                                                                              p 1 = $ $ @ @ + + + + + 1 t w g x M F Y (                                                                                         ",
"                                                                                                                              N g q 1 $ @ @ + + + + +   g w w k M ^ 2.q.                                                                                        ",
"                                                                                                                              J m m x r 3 % $ @ @ @ *     t w g M ] q.z.q.                                                                                      ",
"                                                                                                                              Y P N B M x p q               t w M ] q.z.h.2.                                                                                    ",
"                                                                                                                              ! 2.2.P H N x p               g t m _ q.x.z.9._                                                                                   ",
"                                                                                                                              ' e.i.t.7.' F k                 g x P 9.x.x.q.]                                                                                   ",
"                                                                                                                              ' 2.i.c.B.B.9.C                 g x L 2.h.x.t.>.P                                                                                 ",
"                                                                                                                              ' 2.w.z.c.c.t._                   g M ] q.h.t.7.P                                                                                 ",
"                                                                                                                              ` 2.9.i.c.z.w.` M                 g x P 2.q.w.7.(                                                                                 ",
"                                                                                                                              ! >.e.w.z.w.7._ M                   r M _ 2.9.2.^ M                                                                               ",
"                                                                                                                              T ` 2.9.t.7.>.P B                   t z J _ ] [ P V                                                                               ",
"                                                                                                                              P ! ;.2.e.>._ J x                     t B L _ _ ^ V                                                                               ",
"                                                                                                                              P P _ >.>.! P N                       u r C P ( P F                                                                               ",
"                                                                                                                              P P P ` ! P P M                         6 x Y ^ ( F z                                                                             ",
"                                                                                                                              L J P P P P J x                           0 M P _ Y B                                                                             ",
"                                                                                                                              J J J Y Y J C k                           < k Y _ Y V                                                                             ",
"                                                                                                                              M F J J J F M g                           6 w C ( P F                                                                             ",
"                                                                                                                              M F F J J A x                               g M P ^ Y B                                                                           ",
"                                                                                                                              m A N N N M g                               x C Y P Y F                                                                           ",
"                                                                                                                              B A N N N M g                               r F P ! ^ ^                                                                           ",
"                                                                                                                              M F N N N M r                           r q = = p M V l =                                                                         ",
"                                                                                                                              C C M N N B                   s v v c s 5 1 $ o + o + + +                                                                         ",
"                                                                                                                              C N M N N B                 s e r p p e 1 # @ + + + + + + =                                                                       ",
"                                                                                                                            q M F N N N k                 e 7 3 0 q 8 1 % % + + O + @ % =                                                                       ",
"                                                                                                                      c p q * 1 z J P P M                     1 1 1 = = 1 1 1 = 5 5 3 5 % 4                                                                     ",
"                                                                                                                      c q 3 $ @ @ 1 p c l                         1 = @ @ @ # # 1 3 8 5 1 1                                                                     ",
"                                                                                                              c v v c s e 8 $ @ @ + + + @                                 @ @ @ @ = = 1 : 1                                                                     ",
"                                                                                                          z c c v z p q 3 1 % @ + + + * 8 p                                       = 1 3 7 5                                                                     ",
"                                                                                                          p p z z z p q 7 1 > = * ; 4 a p 8                                               ;                                                                     ",
"                                                                                                          e e r p p s s c e 8 q 5 q q a a q                                                                                                                     ",
"                                                                                                          e q q p z c c p 0 3 1 1 1 1 8 8 5 p                                                                                                                   ",
"                                                                                                            8 7 8 8 8 8 3 > 1 1 1 1 1 3 1 8 i                                                                                                                   ",
"                                                                                                                7 8 8 8 8 q q 8 8 8 7 7 8 e i                                                                                                                   ",
"                                                                                                                                  e e e 8 8                                                                                                                     "
};
