/* XPM */
static char *still_back[] = {
/* columns rows colors chars-per-pixel */
"128 128 231 2 ",
"   c #FF00FF",
".  c #060605",
"X  c #0A0A07",
"o  c #0C0B09",
"O  c #080706",
"+  c #110F0C",
"@  c #190F0A",
"#  c #13110E",
"$  c #1C140D",
"%  c #1F180E",
"&  c #141211",
"*  c #1A1512",
"=  c #1B1815",
"-  c #1C1918",
";  c #21160E",
":  c #23190E",
">  c #2A1A0E",
",  c #251B11",
"<  c #2A1D12",
"1  c #251E1A",
"2  c #331B13",
"3  c #2C2114",
"4  c #2C2119",
"5  c #27241F",
"6  c #332415",
"7  c #33251A",
"8  c #3C271B",
"9  c #36291B",
"0  c #3B2B1C",
"q  c #382815",
"w  c #3E311E",
"e  c #2E2A24",
"r  c #352C26",
"t  c #3E3223",
"y  c #383231",
"u  c #422E1D",
"i  c #4A2F1D",
"p  c #56261A",
"a  c #41301E",
"s  c #4C301C",
"d  c #54371F",
"f  c #432C23",
"g  c #4A2E27",
"h  c #433423",
"j  c #4A3727",
"k  c #543625",
"l  c #5A3A25",
"z  c #5C3D2A",
"x  c #593521",
"c  c #593E31",
"v  c #623D26",
"b  c #763D30",
"n  c #534639",
"m  c #64412E",
"M  c #6B452C",
"N  c #69482E",
"B  c #664534",
"V  c #6D4934",
"C  c #694836",
"Z  c #744C35",
"A  c #7A4E33",
"S  c #744D3B",
"D  c #774738",
"F  c #7C5235",
"G  c #77513E",
"H  c #7C523C",
"J  c #714928",
"K  c #5A5249",
"L  c #765343",
"P  c #7B5443",
"I  c #7D5648",
"U  c #79644C",
"Y  c #6B645B",
"T  c #83543C",
"R  c #8A563D",
"E  c #85593D",
"W  c #845738",
"Q  c #8C533D",
"!  c #884E42",
"~  c #855642",
"^  c #835944",
"/  c #8B5C44",
"(  c #845B49",
")  c #8B5D4A",
"_  c #8A5143",
"`  c #915E44",
"'  c #965848",
"]  c #994F44",
"[  c #A65E4F",
"{  c #8C614D",
"}  c #876249",
"|  c #946246",
" . c #9C6447",
".. c #95654A",
"X. c #9A654B",
"o. c #9D6A4B",
"O. c #8E6452",
"+. c #846953",
"@. c #956654",
"#. c #966A53",
"$. c #9B6C54",
"%. c #9A6555",
"&. c #85715B",
"*. c #99745A",
"=. c #A36C4E",
"-. c #A3654B",
";. c #A46D53",
":. c #A86C53",
">. c #A66857",
",. c #AB7355",
"<. c #A3735A",
"1. c #AB755C",
"2. c #A67459",
"3. c #B17757",
"4. c #B37759",
"5. c #B47B5D",
"6. c #B97C5D",
"7. c #B87656",
"8. c #B96D5F",
"9. c #8C7763",
"0. c #897A67",
"q. c #957966",
"w. c #937F70",
"e. c #B47D61",
"r. c #BA7F60",
"t. c #AA7361",
"y. c #BC815F",
"u. c #99826A",
"i. c #96816C",
"p. c #8C8076",
"a. c #9D8B7C",
"s. c #998877",
"d. c #8C806F",
"f. c #BC8365",
"g. c #BD846A",
"h. c #BD886A",
"j. c #B68164",
"k. c #A38D7B",
"l. c #A38974",
"z. c #A4937D",
"x. c #A9927D",
"c. c #B88F77",
"v. c #C38565",
"b. c #C1876B",
"n. c #C58A6C",
"m. c #CA8C6C",
"M. c #C48D71",
"N. c #C98F75",
"B. c #CD9272",
"V. c #C09377",
"C. c #D19374",
"Z. c #9E9081",
"A. c #A49383",
"S. c #AA9B85",
"D. c #A6958A",
"F. c #AC9C8A",
"G. c #A79786",
"H. c #B49E8C",
"J. c #AC9F91",
"K. c #AB9688",
"L. c #B4A18D",
"P. c #BAA38D",
"I. c #B4A493",
"U. c #BAA594",
"Y. c #B5A896",
"T. c #BCA996",
"R. c #BCAB9B",
"E. c #B5A69A",
"W. c #BDB19E",
"Q. c #BCADA0",
"!. c #BEB2A0",
"~. c #CBA689",
"^. c #C1AD93",
"/. c #C2AE9E",
"(. c #C8AA90",
"). c #C5B29C",
"_. c #CCB39E",
"`. c #C9B59A",
"'. c #DAB498",
"]. c #D2AC97",
"[. c #C4B4A3",
"{. c #CAB6A3",
"}. c #C4B9A6",
"|. c #CCB9A5",
" X c #C4B6A8",
".X c #CCBCAA",
"XX c #C9B8AA",
"oX c #D3BEAB",
"OX c #D7BEA6",
"+X c #CDBFB1",
"@X c #CDC1AE",
"#X c #D6C1A7",
"$X c #D6C1AD",
"%X c #DAC3AD",
"&X c #DCC5A9",
"*X c #CFC2B2",
"=X c #D5C3B1",
"-X c #DBC5B3",
";X c #DDC9B5",
":X c #DCCDBA",
">X c #D7C9B7",
",X c #DED0BE",
"<X c #E2CCB5",
"1X c #E2CEBA",
"2X c #E4D2BD",
"3X c #EAD4BD",
"4X c #E9D0B7",
"5X c #F1D9BE",
"6X c #E1CAAF",
"7X c #DFD2C0",
"8X c #E3D5C2",
"9X c #ECD5C1",
"0X c #E6D9C4",
"qX c #ECD9C4",
"wX c #EBDCC9",
"eX c #E7D7C8",
"rX c #F1D9C2",
"tX c #F2DAC5",
"yX c #F5DDC6",
"uX c #F2DBC5",
"iX c #F6DEC8",
"pX c #F5DEC9",
"aX c #F9DFC9",
"sX c #F6DCC5",
"dX c #F7E0CA",
"fX c #F6E0CB",
"gX c #F9E2CB",
"hX c #F9E1CA",
"jX c #F9E3CB",
"kX c #F8E1C7",
"lX c #EEE0CC",
/* pixels */
"                                                                                                                                                                                                                                                                ",
"                                                                                                                                                                                                                                                                ",
"                                                                                                                                                                                                                                                                ",
"                                                                                                                                                                                                                                                                ",
"                                                                                                                                                                                                                                                                ",
"                                                                                                                                                                                                                                                                ",
"                                                                                                                                                                                                                                                                ",
"                                                                                                                                                                                                                                                                ",
"                                                                                                                                                                                                                                                                ",
"                                                                                                                                                                                                                                                                ",
"                                                                                                                                                                                                                                                                ",
"                                                                                                                                                                                                                                                                ",
"                                                                                                                                                                                                                                                                ",
"                                                                                                                                                                                                                                                                ",
"                                                                                                                                                                                                                                                                ",
"                                                                                                                                                                                                                                                                ",
"                                                                                                                                                                                                                                                                ",
"                                                                                                                                                                                                                                                                ",
"                                                                                                                                                                                                                                                                ",
"                                                                                                                                                                                                                                                                ",
"                                                                                                                                                                                                                                                                ",
"                                                                                                                                                                                                                                                                ",
"                                                                                                                            h w 9 h                                                                                                                             ",
"                                                                                                                      h 0 7 4 3 , 3 7 a                                                                                                                         ",
"                                                                                                                    a q < , 3 < < 3 3 q h                                                                                                                       ",
"                                                                                                                    q 7 3 4 3 < 3 4 < < q 9                                                                                                                     ",
"                                                                                                                  0 3 < , , < , , , , , 3 9                                                                                                                     ",
"                                                                                                                  q , % % , 3 < ; % , , ; <                                                                                                                     ",
"                                                                                                                  h : : , , , , < ; , ; ; 7                                                                                                                     ",
"                                                                                                                  q % , , % @ : , , , , : h                                                                                                                     ",
"                                                                                                                  q % % % % ; , % % % , % 7                                                                                                                     ",
"                                                                                                                  0 > , : % : % % % % % ; 7                                                                                                                     ",
"                                                                                                                    q % # % % @ % % % * < h                                                                                                                     ",
"                                                                                                                    8 ; % % % % , % @ : q j                                                                                                                     ",
"                                                                                                                      0 ; ; % , < < % , h B                                                                                                                     ",
"                                                                                                                      N d i q q s M 0 7 j                                                                                                                       ",
"                                                                                                                      F F R A A W -.F                                                                                                                           ",
"                                                                                                                      (.~.'.'.'.'.'.~.%X                                                                                                                        ",
"                                                                                                                    3XyXyXpXpXpXpXyXyX3X1X<X                                                                                                                    ",
"                                                                                                                3X5XyXyXyXiXpXpXdXyXyXyXyX3X4X<X                                                                                                                ",
"                                                                                                          3X5XyXyXkXhXhXhXhXhXhXdXdXaXiXyXyXyX3X3X<X%X                                                                                                          ",
"                                                                                                        5XyXyXhXhXhXhXhXhXhXhXhXyXpXhXaXaXaXyXyXyXrX<X<X                                                                                                        ",
"                                                                                                      yXdXyXyXhXhXhXhXhXhXhXhXyXyXaXhXaXaXpXyXyXyXyX3X3X3X#X                                                                                                    ",
"                                                                                                    OXqXhXyX9XdXpXpXhXhXhXhXdXyXpXpXpXpXaXyXyXyXyXpX9XyX9XOX                                                                                                    ",
"                                                                                                    &XyXdXyX3XyXyXyXpXpXpXpXyXqXyXyXyXpXpXyX9X9XyXpXyXyX3X<X                                                                                                    ",
"                                                                                                    6X3XdXyX3XyXyXyXyXyXyXyXqX9XyXqX9XyXpXyX9X9XyXyX9XpX;X1X                                                                                                    ",
"                                                                                                  #X<X%XpX9X3X9XyXyX3XqXyXyX9X9X9X9X3XyXpX9X9X9X9XyX1X9X;X;X                                                                                                    ",
"                                                                                                  #X<X_.<X3X<X3XyX3X3XqXyXqX3X9X9X2X2XqXyX1X2X3X3X9X#X;X;X;X#X                                                                                                  ",
"                                                                                                  #X<X_._.3X%X1X3X1X3XqX3X9X2X3X9X1X1X9X9X;X1X3X1X1X{.OXoX1X#X                                                                                                  ",
"                                                                                                ^.#X<X#XP.1X;X<X;X<X3X9X3X2X2X2X1X1X1X1X9X;X;X2X1XoXE.XXOX1X=X                                                                                                  ",
"                                                                                                ^.OX<X;XH.OX1X;X;X<X3X3X1X1X2X2X1X1X1X1X1X=X#X;X1X{.U./.1X1X;X                                                                                                  ",
"                                                                                                ^.OX<X<XP.k.).;X;X1X3X<X;X;X1X1X;X1X2X2X1X=X#X;X1X{./.1X9X1X;X.X                                                                                                ",
"                                                                                                ^.%X;X<X{.9.k.#X;X2X2X%X#X%X;X2X<X1X2X2X;X=X=X;X1XE.R.{.OX;X;X#X                                                                                                ",
"                                                                                              _.|.#X;X;X;Xw.a.%X1X2X1XOX|.OX;X;X<X1X2X2X;X.X=X;X;XF.a./.=X;X1XOX                                                                                                ",
"                                                                                              #X;X<X1X;X.Xw.a.1X9X2X;XOXOXOX%X;X1X1X1X1X;XOX;X;XOXF.A./.=X1X8X=X                                                                                                ",
"                                                                                                P._.;X;X.Xw.i.).1X1X;X#XOXOXOX;X1X1X1X1X;XOX;X;X{.F.w.I.OXOX].c.                                                                                                ",
"                                                                                                ..6.M.c.l.  9.l.{.;X;XOXOXOXOX;X1X1X1X;X;X=X1X;X/.P.+.q.V.B.m.1.                                                                                                ",
"                                                                                                o.6.n.h.#.  +.q.S.).#XOXOX|.OX;X1X1X1X;X;X=X;X.XT.    #.h.B.m.4.                                                                                                ",
"                                                                                                o.y.m.h.$.  +.&.u.P.OXOXOX{..X;X1X1X1X;X=X;X;X/.I.    #.j.m.m.6.                                                                                                ",
"                                                                                                o.v.m.h.*.  +.u.k.).%X;X#X#X;X1X2X2X1X;X#X.XR.A.A.    #.j.m.m.6.                                                                                                ",
"                                                                                                =.v.m.h.<.  U k.^.).=X;X;X;X;X1X;X;X;X;XOXF.a.a.a.      j.m.m.7.X.                                                                                              ",
"                                                                                                 .6.v.j.<.  +.l.^.).OX;X;X;X1X1X;X;X;X;XOXL.A.Z.a.      e.j.4.X./                                                                                               ",
"                                                                                                T R :.1.    *.q.T.)..X;X;X;X2X1X;X;X;XOX{.{.H.k.k.a.    1.e.=.R T                                                                                               ",
"                                                                                                A A ..#.    P.u.U.|..X=X;X2X2X2X;X;X#X{.R.{..XP.k.s.    <.1.=.` F                                                                                               ",
"                                                                                                A R / ..    |.x.H..X.X;X2X2X2X2X1X=X.XW.I.F.R./.H.a.    <.<.;.) L                                                                                               ",
"                                                                                                Z / ..#.    T.x.x.|.=X8XqX8X8X2X;X.X}.R.J.D.D.E..X{.    <.1.<.)                                                                                                 ",
"                                                                                                Z / #.#.    {.#XG.|.2XwXqX8X2X;X{.T.I.D.D.D.F.R.XX.X    <.1.#.~                                                                                                 ",
"                                                                                                Z / { {     T.2X{.;XwX8X2X=X{.I.F.A.D.F.F.I.E.{.{..X    #.<...P                                                                                                 ",
"                                                                                                V ~ { +.  P.R.|.#X{.{.R.I.G.Z.a.a.a.Z.F.Q. X{.XX XQ.    O.#.{ P                                                                                                 ",
"                                                                                                V F ( ~   0.I.P.F.A.s.s.a.Z.A.F.I.!..X;X;X7XwX8X>XR.    O.#.( L                                                                                                 ",
"                                                                                                N G ~ I   i.S.#XI.S.I.}.;X8X8X0XwXlXwX0X8XwXwX8X,X+X    O.#.( L                                                                                                 ",
"                                                                                                B G ~ P   ).P..X0X2XqXwXwXwXwXwXwXwX8X;X7X8X8X7X;X.XQ.  O.@.(                                                                                                   ",
"                                                                                                B S P G   x.).S.>X;X,X8X0X0X0XwXwX,X;X8X8X8X8X7X;X*X X9.{ @.I                                                                                                   ",
"                                                                                                  S P F   U 0.k.#X2X2X2X8X0XqX0X,X,X8X8X8X8X,X;X;X=XXXl./ ) I                                                                                                   ",
"                                                                                                  S ~ )   9.&.&.x.>X;X;X;X;X;X=X@X.X>X,X7X,X,X,X;X=X+XP.) ~ I                                                                                                   ",
"                                                                                                  X.:.;.#.a.x.F.F.Y..X@X@XXX{.W.!.*X=X=X>X,X8X8X8X;X+XI.%.%.                                                                                                    ",
"                                                                                                  >.-.>.<.l.x.A.F.Y.!.}.}.W.W.}.@X.X@X=X>X8XwXeX>XE.Y r _ 8.                                                                                                    ",
"                                                                                                  ) D b ) x.F.S.S.I.Y.W.!.}.@X=X;X,X8X;X*XE.p.K y - & = g ' t.                                                                                                  ",
"                                                                                                  _ b p C k.A.S.F.L.Y.}.@X>X,X;X.XJ.0.K e * o o o o & - 8 D @.                                                                                                  ",
"                                                                                                  _ T p 2 K w.a.F.L.Y.I.D.p.Y n 5 + O O o o o + # & & & g ! %.                                                                                                  ",
"                                                                                                  [ ] b 2 # = 5 e e e 1 & o O O O O o o o o + + # & & & f _ >.                                                                                                  ",
"                                                                                                    ] ] f + o o o o o o o o o O O O o o o o o # # & & & f >.                                                                                                    ",
"                                                                                                        < + o o o o o o o O O O O O O o o o o o # & & # 4                                                                                                       ",
"                                                                                                        # + o o o o o o o o o O O O O O o o o o # # + # *                                                                                                       ",
"                                                                                                        # o o o o o o o o o o o O O O o o o o o o o + + *                                                                                                       ",
"                                                                                                        # o o o o o o o o o o o O O o O o o o o o o o + *                                                                                                       ",
"                                                                                                        # o o o o o o o o o o o o O O O o o o o o o o + =                                                                                                       ",
"                                                                                                          o o o o o o o o o o +   O o o o o o o o o o o *                                                                                                       ",
"                                                                                                          o o o o o o o o o o     O o o o o o o o o o o *                                                                                                       ",
"                                                                                                          o o o o o o o o o o     o o o o o o o o o o # &                                                                                                       ",
"                                                                                                          o o o o o o o o o o     o o o o o o o o o o + *                                                                                                       ",
"                                                                                                          o o o o o o o o o +     + o o o o o o o o o + *                                                                                                       ",
"                                                                                                          o o o o o o o o o #       o o o o o o o o + + &                                                                                                       ",
"                                                                                                          + o o o o o o o +         o o o o o o o + + + # 1                                                                                                     ",
"                                                                                                        % o o o o o o o o +         o o o o o o + + + + # 1                                                                                                     ",
"                                                                                                          # + + + + + o o +         , # + o o + & % % *                                                                                                         ",
"                                                                                                            , % % * * * 1 4         m V B z C C c                                                                                                               ",
"                                                                                                              Z ~ { P P F             / >.1.b.g.@.                                                                                                              ",
"                                                                                                            ..,.g.N.g.1.)             / e.g.B.B.e.o.                                                                                                            ",
"                                                                                                            o.6.g.M.g.t.{             E 6.n.C.C.v.=.                                                                                                            ",
"                                                                                                            =.6.j.n.b.1.              ~ 1.n.C.C.m.,.                                                                                                            ",
"                                                                                                          E =.6.j.n.b.1.              ~ <.n.B.C.m.,.                                                                                                            ",
"                                                                                                          W o.6.b.M.g.1.              E ;.j.n.C.m.3.E                                                                                                           ",
"                                                                                                          A  .4.j.b.j.1.              T o.j.n.B.m.,.E                                                                                                           ",
"                                                                                                          J R ,.6.j.6.#.              F X.6.n.m.n.:.E                                                                                                           ",
"                                                                                                          M R =.,.6.1...              F | ,.j.j.r.=.T                                                                                                           ",
"                                                                                                          v T | ;.;.;.)                 / ,.3.3.3.=.T                                                                                                           ",
"                                                                                                          l A ` X.o...F                 F X.,.,.=. .F                                                                                                           ",
"                                                                                                          x Z / ....~ B                 M / o.;.=.` S                                                                                                           ",
"                                                                                                            M E ` / F m                 v E ..=.o./                                                                                                             ",
"                                                                                                            m T / ~ S B                 k F / X.| T                                                                                                             ",
"                                                                                                            l F / ~ S                   k Z / | ` F                                                                                                             ",
"                                                                                                            d F ~ T V                     Z E | / Z                                                                                                             ",
"                                                                                                              Z / ~ V                     M / ..~ m                                                                                                             ",
"                                                                                                              M / ~ B                     m / | F k                                                                                                             ",
"                                                                                                              v ~ ~ B                     z / | S                                                                                                               ",
"                                                                                                            : s T F z                     l ` o.m 9                                                                                                             ",
"                                                                                                          q : i / ~ m                     k | X.l 0 0                                                                                                           ",
"                                                                                                          0 % k -.X.c                     < B V < : 0                                                                                                           ",
"                                                                                                          7 % 4 ) S 1 ,                   + + # # # 9                                                                                                           ",
"                                                                                                          q q < 7 , < 9                   & + # # # 7 0                                                                                                         ",
"                                                                                                          7 q u k q q 7                   , % = % 3 9 0                                                                                                         ",
"                                                                                                          r q 0 0 q 9                     > > f q q 0                                                                                                           ",
"                                                                                                          9 < 8 u 0 0                     < q f q q 0                                                                                                           ",
"                                                                                                            9 w r 0 u                     < q u 0 7                                                                                                             ",
"                                                                                                            0 h j t 0                     0 0 u 0 0                                                                                                             ",
"                                                                                                                                          q a h j h                                                                                                             ",
"                                                                                                                                            0 t r                                                                                                               "
};
