/* XPM */
static char *still_back_right[] = {
/* columns rows colors chars-per-pixel */
"128 128 219 2 ",
"   c #FF00FF",
".  c #050504",
"X  c #0A0907",
"o  c #0E0D0B",
"O  c #0A0708",
"+  c #120E0C",
"@  c #150C07",
"#  c #13110E",
"$  c #1C130C",
"%  c #1F190F",
"&  c #141312",
"*  c #191614",
"=  c #1B1915",
"-  c #1E1B1A",
";  c #21160E",
":  c #241A0E",
">  c #2A1D0F",
",  c #201906",
"<  c #231712",
"1  c #241B12",
"2  c #2C1D13",
"3  c #211D1B",
"4  c #2C1E19",
"5  c #311C13",
"6  c #2E2114",
"7  c #2E231A",
"8  c #332315",
"9  c #3A2416",
"0  c #35241A",
"q  c #3B241B",
"w  c #352A1D",
"e  c #3A2A1C",
"r  c #372916",
"t  c #3C2C23",
"y  c #372921",
"u  c #3E3224",
"i  c #312D2A",
"p  c #432A1B",
"a  c #492C1D",
"s  c #40271B",
"d  c #4A311F",
"f  c #462D22",
"g  c #492E22",
"h  c #413325",
"j  c #4D3223",
"k  c #43332B",
"l  c #4D3928",
"z  c #533523",
"x  c #5B3A26",
"c  c #5D3B2B",
"v  c #55372B",
"b  c #503F36",
"n  c #633E2B",
"m  c #643D32",
"M  c #564433",
"N  c #514435",
"B  c #63412E",
"V  c #6B442D",
"C  c #654332",
"Z  c #6B4533",
"A  c #6C4A34",
"S  c #684D3D",
"D  c #734B34",
"F  c #7B4E36",
"G  c #744C3A",
"H  c #7B4D3A",
"J  c #734736",
"K  c #6F513D",
"L  c #75523C",
"P  c #7B523B",
"I  c #785036",
"U  c #71452C",
"Y  c #534B47",
"T  c #684E43",
"R  c #7C4E41",
"E  c #6A5748",
"W  c #745241",
"Q  c #7C5443",
"!  c #6A5B52",
"~  c #796757",
"^  c #796D60",
"/  c #7B736A",
"(  c #82533C",
")  c #89563C",
"_  c #824E36",
"`  c #835541",
"'  c #865B44",
"]  c #8C5C44",
"[  c #865A49",
"{  c #8C5E4B",
"}  c #8A5744",
"|  c #935D44",
" . c #935E4E",
".. c #975D51",
"X. c #8E614B",
"o. c #896148",
"O. c #946146",
"+. c #93634B",
"@. c #9B654B",
"#. c #9C694D",
"$. c #9A6346",
"%. c #8B6854",
"&. c #996654",
"*. c #9D6A53",
"=. c #956450",
"-. c #96745E",
";. c #A3654B",
":. c #A36D4E",
">. c #AB6C4D",
",. c #B0704D",
"<. c #A36C53",
"1. c #A46D5C",
"2. c #A96C56",
"3. c #A57055",
"4. c #AD7254",
"5. c #A67159",
"6. c #AB745B",
"7. c #AE785B",
"8. c #B37554",
"9. c #BB7553",
"0. c #B3795C",
"q. c #B87A5A",
"w. c #AD724F",
"e. c #857464",
"r. c #8D7D6C",
"t. c #8B7565",
"y. c #9C7B64",
"u. c #9D7D69",
"i. c #927B68",
"p. c #877C73",
"a. c #AE7862",
"s. c #B27463",
"d. c #BA7B6B",
"f. c #C37E5C",
"g. c #C07755",
"h. c #948373",
"j. c #9A8B75",
"k. c #9D8D7C",
"l. c #968577",
"z. c #8F8375",
"x. c #A28E7C",
"c. c #A3927D",
"v. c #BA8464",
"b. c #C5815E",
"n. c #C28364",
"m. c #CB8464",
"M. c #CD8A6A",
"N. c #CA8868",
"B. c #D08F6E",
"V. c #C88875",
"C. c #C79676",
"Z. c #9A8C82",
"A. c #9D9184",
"S. c #A39481",
"D. c #A99685",
"F. c #AB9A85",
"G. c #AC9C8A",
"H. c #A79884",
"J. c #B29E87",
"K. c #B99D87",
"L. c #AE9F90",
"P. c #B3A28D",
"I. c #B4A087",
"U. c #B5A592",
"Y. c #B9A594",
"T. c #BBA995",
"R. c #BDAC9A",
"E. c #B6A994",
"W. c #BFB19C",
"Q. c #BFB0A2",
"!. c #CC9D84",
"~. c #C2AE96",
"^. c #C0AD9B",
"/. c #C3B19D",
"(. c #CCB49C",
"). c #CFB99F",
"_. c #C8A58F",
"`. c #C6B3A2",
"'. c #C9B6A4",
"]. c #CBBBA6",
"[. c #CDBBAB",
"{. c #C7B8A9",
"}. c #D3BCA4",
"|. c #D2BEAB",
" X c #DEBBA5",
".X c #D1BFB0",
"XX c #CDC0AD",
"oX c #D6C1AD",
"OX c #DAC2AB",
"+X c #CFC1B2",
"@X c #D4C4B3",
"#X c #DAC6B5",
"$X c #DCCAB6",
"%X c #D7C9BB",
"&X c #DCCCBB",
"*X c #D7C8B8",
"=X c #DFD0BE",
"-X c #E3CDBC",
";X c #E2CCB5",
":X c #E3D1BE",
">X c #EAD3BD",
",X c #DED1C1",
"<X c #E3D3C2",
"1X c #EAD5C4",
"2X c #E6D9C6",
"3X c #EFD8C5",
"4X c #ECD8C6",
"5X c #ECDACB",
"6X c #EED7C8",
"7X c #F1DAC9",
"8X c #F5DECD",
"9X c #F2DCCC",
"0X c #F0D9C5",
"qX c #F6E0CF",
"wX c #F8E2CF",
"eX c #EFE0D0",
"rX c #F4E1D1",
"tX c #F9E3D2",
"yX c #FAE5D4",
/* pixels */
"                                                                                                                                                                                                                                                                ",
"                                                                                                                                                                                                                                                                ",
"                                                                                                                                                                                                                                                                ",
"                                                                                                                                                                                                                                                                ",
"                                                                                                                                                                                                                                                                ",
"                                                                                                                                                                                                                                                                ",
"                                                                                                                                                                                                                                                                ",
"                                                                                                                                                                                                                                                                ",
"                                                                                                                                                                                                                                                                ",
"                                                                                                                                                                                                                                                                ",
"                                                                                                                                                                                                                                                                ",
"                                                                                                                                                                                                                                                                ",
"                                                                                                                                                                                                                                                                ",
"                                                                                                                                                                                                                                                                ",
"                                                                                                                                                                                                                                                                ",
"                                                                                                                                                                                                                                                                ",
"                                                                                                                                                                                                                                                                ",
"                                                                                                                                                                                                                                                                ",
"                                                                                                                                                                                                                                                                ",
"                                                                                                                                                                                                                                                                ",
"                                                                                                                                                                                                                                                                ",
"                                                                                                                                                                                                                                                                ",
"                                                                                                                          w 6 8 r r                                                                                                                             ",
"                                                                                                                    M w : 1 1 : : : 8 l                                                                                                                         ",
"                                                                                                                    r > % : 1 : : : > 8 M                                                                                                                       ",
"                                                                                                                  l 2 : : : % ; % % % ; 8 l                                                                                                                     ",
"                                                                                                                  r 1 1 1 % % % % % % % 2 8                                                                                                                     ",
"                                                                                                                d 2 % 1 1 < 1 % @ @ % : j f                                                                                                                     ",
"                                                                                                                r ; % % 1 ; % % % % % > Z K                                                                                                                     ",
"                                                                                                                r ; % % % % % % % > > > A                                                                                                                       ",
"                                                                                                                  % @ @ % % % % ; 9 j p A                                                                                                                       ",
"                                                                                                                  1 @ @ % : ; % % q Z D P                                                                                                                       ",
"                                                                                                                  1 # % # % % % ; p H ( H                                                                                                                       ",
"                                                                                                                  M 1 % % % % % 2 c ( ( P                                                                                                                       ",
"                                                                                                                  M 2 % 2 p 2 9 n H ( P P                                                                                                                       ",
"                                                                                                                    2 2 V $.F U ( F F D I                                                                                                                       ",
"                                                                                                                      L :.C.!.v.>.F V V D                                                                                                                       ",
"                                                                                                                      (. X-X3X>X XK.u.y.                                                                                                                        ",
"                                                                                                                    OX;X>X3X7X8XwXyXyXwX8X                                                                                                                      ",
"                                                                                                                  }.OX:X3X7X8XwXyXyXrXyX8X3X                                                                                                                    ",
"                                                                                                                ).}.$X>X3X3X8XwX8X1X8X3X6X8X3X                                                                                                                  ",
"                                                                                                              (.}.OX;X3X3X3X8XwX3X8X8X3XyXrX<X                                                                                                                  ",
"                                                                                                            ~.}.}.}.-X3X3X3X7X3X3XyX8XyXyX8X-X                                                                                                                  ",
"                                                                                                            ~.}.(.|.-X3X<X3X3X#X6X8X8XqXqX8X<X                                                                                                                  ",
"                                                                                                            /.}./.OX$X:X-X:X<X3X-X3X8XqX8X8X<X                                                                                                                  ",
"                                                                                                          I.~.(.~.|.#XOX-X#X#X-X$X3X8X8X8X8X<X                                                                                                                  ",
"                                                                                                          I.T./.~.'.|.[.$XOX^.'.#X3X8X8X8X8X:X                                                                                                                  ",
"                                                                                                          J.T./.^.[.'.'.@XOXY.Y.#X3X8X8X8XwX<X                                                                                                                  ",
"                                                                                                          J.T./.~.@XT.'.'.OX`.R.@X3X5X8X8X8X3X                                                                                                                  ",
"                                                                                                          J.T./.T.$XY.R.^.|.|.R.|.<X5X5X8X8X3X                                                                                                                  ",
"                                                                                                          J.^./.T.:X/.Y.U.'.'.U.'.-X3X3X8X8X3X                                                                                                                  ",
"                                                                                                          F.^.`.U.<X[.U.Y.`.'.h.^.-X3X8XrXyX8X                                                                                                                  ",
"                                                                                                          F.T.'.I.:X#XU.Y.^.#Xx.T.<X5X3X-X|.Y.Y.                                                                                                                ",
"                                                                                                          F.T.'.I.$X<X^.T.Y.@XY.D._.!.V.5.` W                                                                                                                   ",
"                                                                                                          I.T./.G.@X<X[.Y.U.'.`.-.0.N.B.n.$.Q                                                                                                                   ",
"                                                                                                          I.T.R.F.|.3X$XR.T.R.`.y.8.m.B.b.8.o.                                                                                                                  ",
"                                                                                                          F.T.R.F.R.5X#X'.U.R.Y.a.4.m.m.f.8.#.                                                                                                                  ",
"                                                                                                          G.U.R.F.F.5X$XU.G.G.D.u.>.b.m.q.8.:.                                                                                                                  ",
"                                                                                                          G.R./.G.x.<X5X^.D.k.h.u.:.f.f.8.8.:.                                                                                                                  ",
"                                                                                                          x.W.R.I.j.[.rX$XU.k.r.t.$.9.9.>.,.:.                                                                                                                  ",
"                                                                                                          i.T.R.U.c.I.5X8X@XU.l.t.( ;.g.9.9.w.                                                                                                                  ",
"                                                                                                          %.E.R.I.F.c..XrXrX<XY.r.G _ >.9.9.8.:.                                                                                                                ",
"                                                                                                            U.R.I.I.F.G.{.3XrX3X`.o.F | 2.8.8.#.                                                                                                                ",
"                                                                                                            U.U.I.I.H.S.Z.G.R.[.`.%.F } :.8.8.#.                                                                                                                ",
"                                                                                                            U.U.U.G.k.l.l.h.h.h.h.~ L } #.4.4.#.                                                                                                                ",
"                                                                                                            I.I.k.z.e.e.r.h.D.R.`.e.K } $.5.6.&.                                                                                                                ",
"                                                                                                            r.h.~ ! ! r.A.L.{.*X%Xx.E Q $.5.0.<.                                                                                                                ",
"                                                                                                            ~ ~ ! e.E.@X$X$X%X+X[.G.E K o.#.6.<.X.                                                                                                              ",
"                                                                                                            ~ r.G.R.XX=X2X5X5X<X@XQ.^ S Q $.5.<.=.                                                                                                              ",
"                                                                                                            j.R./.[.$X<X2X2X<X<X<X,XG.T K } &.<.O.                                                                                                              ",
"                                                                                                            E.W./.[.$X<X<X=X%X@X@X%X{.e.S Q O.&.=.                                                                                                              ",
"                                                                                                            I.R.T.[.$X:X<X2X<X<X,X%X@XG.! W X.&.=.                                                                                                              ",
"                                                                                                            c.F.I.[.*X=X<X<X<X,X$X$X<X+Xr.T [ &.*.=.                                                                                                            ",
"                                                                                                            h.j.S.[.$X$X=X<X<X<X<X<X,X$XR.~ W &.1.&.                                                                                                            ",
"                                                                                                            h.k.S.[.:X<X<X<X<X<X<X<X,X<X$Xk.T [ 1.1.                                                                                                            ",
"                                                                                                            h.F.I.XX=X3X5X5X5X5X5XeXrXeX5X{.~ Q 5.6.                                                                                                            ",
"                                                                                                            e.^ N u N Y ! ^ / p.p.p.z.Z.A.A.! Q s.&.                                                                                                            ",
"                                                                                                              o . o o o o o o & & & & & & # @ R V.s.{                                                                                                           ",
"                                                                                                              o . o o o o & & & & & & & & & o v V.d.{                                                                                                           ",
"                                                                                                              o . X o o o o & & & & & & & & o < 1.d. .                                                                                                          ",
"                                                                                                              o . . o o o o # & & & & & & & & @ G s.}                                                                                                           ",
"                                                                                                              @ . . o o o o @ # # & & & & & & @ m <.R                                                                                                           ",
"                                                                                                              * . . o o o o @ # # # & & & & & 7 &...`                                                                                                           ",
"                                                                                                                o . . o o o o o # # & # & & w Z H G                                                                                                             ",
"                                                                                                                o . . o o o o o # # & & & & - y                                                                                                                 ",
"                                                                                                                @ . . o o o o o @ # & # & & & &                                                                                                                 ",
"                                                                                                                @ . . X o o o o o # o o & & * -                                                                                                                 ",
"                                                                                                                # . . X o o o o o o o # & * * 3                                                                                                                 ",
"                                                                                                                # O . . o o o o o o # & & * - -                                                                                                                 ",
"                                                                                                                # o . . o o o o o o # # & * - 3                                                                                                                 ",
"                                                                                                                # o . . o o o o o o # & & * =                                                                                                                   ",
"                                                                                                                & o . . o o o o o @ # & & * =                                                                                                                   ",
"                                                                                                                t * X . X o o o o # # # & = =                                                                                                                   ",
"                                                                                                                { G s 2 < @ o o @ @ # & & * =                                                                                                                   ",
"                                                                                                              ' &.6.P p 5 @ o @ @ @ @ & & * =                                                                                                                   ",
"                                                                                                              ' <.a.{ a 5 1 o o # # @ # # * 3                                                                                                                   ",
"                                                                                                              } 5.a.[ g 9 z r 2 * # # # % = 3                                                                                                                   ",
"                                                                                                            P $.5.6.Q j p   ` ` C v t 7 1 1                                                                                                                     ",
"                                                                                                            I } 5.&.G v d O.5.0.&.O.L c                                                                                                                         ",
"                                                                                                            D } &.' A v   #.6.n.N.&.L C                                                                                                                         ",
"                                                                                                            Z ` { G C j A #.8.N.B.7.P A                                                                                                                         ",
"                                                                                                            V G H V c g P $.8.M.M.0.X.A                                                                                                                         ",
"                                                                                                            c Z c z j g P $.8.N.M.0.&.L                                                                                                                         ",
"                                                                                                            c n z d f j ( $.8.n.n.6.&.G                                                                                                                         ",
"                                                                                                            c c z j p z ( $.4.q.q.<.O.D                                                                                                                         ",
"                                                                                                            x x z j q z _ | ;.8.0.<.}                                                                                                                           ",
"                                                                                                            z z z a w d F | ;.2.4.$.`                                                                                                                           ",
"                                                                                                            z c z a q z D } $.<.<.$.F                                                                                                                           ",
"                                                                                                              c z a p j J ) $.$.$.' A                                                                                                                           ",
"                                                                                                              c z j f g J } | $.| P                                                                                                                             ",
"                                                                                                              m a z c f n ( | O.} A                                                                                                                             ",
"                                                                                                            G G c c l 2 n ( | } ` C                                                                                                                             ",
"                                                                                                            8 w 4 * X * x P } ` P V                                                                                                                             ",
"                                                                                                          r 6 1 @ @ o < c H } ( G c                                                                                                                             ",
"                                                                                                          8 8 6 ; @ @ < n H ( P A                                                                                                                               ",
"                                                                                                          w r 2 % X O 2 V P H D n                                                                                                                               ",
"                                                                                                          t r : % @   z A P G Z c                                                                                                                               ",
"                                                                                                            7 ,       m G P P Z j                                                                                                                               ",
"                                                                                                                      t c Z c w %                                                                                                                               ",
"                                                                                                                      # # # # o o %                                                                                                                             ",
"                                                                                                                      # # @ @ @ @ 1 w                                                                                                                           ",
"                                                                                                                    8 1 # o o @ # ; 2                                                                                                                           ",
"                                                                                                                    5 r w 1 = # * ; %                                                                                                                           ",
"                                                                                                                    8 r u t k y y                                                                                                                               ",
"                                                                                                                    8 w t k k t t                                                                                                                               ",
"                                                                                                                  u r w q w w w 7                                                                                                                               ",
"                                                                                                                  w h h h t                                                                                                                                     ",
"                                                                                                                    y u k                                                                                                                                       "
};
