/* XPM */
static char *still_right[] = {
/* columns rows colors chars-per-pixel */
"128 128 223 2 ",
"   c #FF00FF",
".  c #0A0907",
"X  c #0D0C0B",
"o  c #160E05",
"O  c #110E0D",
"+  c #1C0F0A",
"@  c #180D06",
"#  c #13100E",
"$  c #1C120A",
"%  c #191106",
"&  c #141211",
"*  c #1A1412",
"=  c #1D1815",
"-  c #1E1818",
";  c #22160C",
":  c #26190E",
">  c #291B0C",
",  c #27160C",
"<  c #251A14",
"1  c #2C1C13",
"2  c #251D1B",
"3  c #2C1F1A",
"4  c #321E16",
"5  c #3B1F15",
"6  c #2D2114",
"7  c #2D211B",
"8  c #342415",
"9  c #3C2416",
"0  c #34241A",
"q  c #3B251A",
"w  c #3D2B1D",
"e  c #362816",
"r  c #2A2523",
"t  c #3E2D22",
"y  c #352E27",
"u  c #462D1B",
"i  c #46311E",
"p  c #55341D",
"a  c #412E25",
"s  c #492E26",
"d  c #552D23",
"f  c #443325",
"g  c #4B3424",
"h  c #463329",
"j  c #4B352A",
"k  c #4C3B2C",
"l  c #4B3927",
"z  c #523422",
"x  c #593523",
"c  c #5C3926",
"v  c #53342B",
"b  c #513E2D",
"n  c #5A3A2D",
"m  c #573829",
"M  c #4D3C33",
"N  c #463A34",
"B  c #513D32",
"V  c #633D2B",
"C  c #673E2A",
"Z  c #6A3E32",
"A  c #53412C",
"S  c #544232",
"D  c #5A4937",
"F  c #49423D",
"G  c #64412D",
"H  c #6A432E",
"J  c #654232",
"K  c #6C4433",
"L  c #6D4A33",
"P  c #674D3A",
"I  c #734733",
"U  c #734A34",
"Y  c #794C34",
"T  c #754B39",
"R  c #794E3A",
"E  c #7D473D",
"W  c #6D533C",
"Q  c #7B5035",
"!  c #74513A",
"~  c #7D513C",
"^  c #775037",
"/  c #71402C",
"(  c #5A4C44",
")  c #6A5643",
"_  c #735F49",
"`  c #775944",
"'  c #685B54",
"]  c #7C614A",
"[  c #6F655E",
"{  c #7A6752",
"}  c #7D6952",
"|  c #776654",
" . c #7E7268",
".. c #834B3D",
"X. c #815136",
"o. c #82523C",
"O. c #89563D",
"+. c #8A593E",
"@. c #91583F",
"#. c #864D41",
"$. c #845642",
"%. c #855943",
"&. c #8B5B43",
"*. c #8C5A45",
"=. c #945D43",
"-. c #945D4A",
";. c #9A5F48",
":. c #8C624B",
">. c #946146",
",. c #9B6245",
"<. c #95644B",
"1. c #9D654B",
"2. c #9F694C",
"3. c #826D57",
"4. c #9B6750",
"5. c #85725E",
"6. c #88735C",
"7. c #98755E",
"8. c #A1674B",
"9. c #A56A4A",
"0. c #A96C4B",
"q. c #A06647",
"w. c #A36551",
"e. c #A56C52",
"r. c #A96B54",
"t. c #A56B59",
"y. c #B16E5A",
"u. c #AC7255",
"i. c #AD735A",
"p. c #A6735A",
"a. c #B57452",
"s. c #B97453",
"d. c #B4755C",
"f. c #B47A5D",
"g. c #BD7D5D",
"h. c #BE7854",
"j. c #AD704F",
"k. c #8A7461",
"l. c #8A7866",
"z. c #967A67",
"x. c #8B6D60",
"c. c #A97862",
"v. c #BA7C61",
"b. c #B47960",
"n. c #C37A57",
"m. c #C07B58",
"M. c #C27C69",
"N. c #C17E67",
"B. c #97846D",
"V. c #9D8B79",
"C. c #9A8675",
"Z. c #B88367",
"A. c #A38E7B",
"S. c #AC8C7D",
"D. c #A7917C",
"F. c #BA927D",
"G. c #C5815D",
"H. c #CA835E",
"J. c #CA8562",
"K. c #CE8865",
"L. c #C48362",
"P. c #D18965",
"I. c #D48C6A",
"U. c #C6957C",
"Y. c #D49371",
"T. c #9C8E86",
"R. c #9D8F88",
"E. c #A79687",
"W. c #B69885",
"Q. c #AE9C92",
"!. c #A49790",
"~. c #B49E95",
"^. c #B6A28F",
"/. c #B5A295",
"(. c #B5A399",
"). c #B9A59B",
"_. c #BDA99E",
"`. c #BBA497",
"'. c #AFA199",
"]. c #BDACA2",
"[. c #BFB0A8",
"{. c #C2AC9C",
"}. c #C8A998",
"|. c #C6B29E",
" X c #CBB39D",
".X c #D8AB90",
"XX c #C2AEA2",
"oX c #C4B1A4",
"OX c #CBB4A5",
"+X c #C5B5AA",
"@X c #CAB5AA",
"#X c #CEBAAC",
"$X c #CFBBA7",
"%X c #D1BCAC",
"&X c #D5B9A5",
"*X c #CCBCB3",
"=X c #D3BDB1",
"-X c #E7BFA7",
";X c #DBC3AE",
":X c #D4C1AF",
">X c #D4C2B5",
",X c #DBC4B4",
"<X c #D5C5BA",
"1X c #DCC7B9",
"2X c #DDCABC",
"3X c #E2CCBC",
"4X c #E2C9B3",
"5X c #E1D0BE",
"6X c #DDCEC2",
"7X c #E3CEC0",
"8X c #E5D2C4",
"9X c #ECD4C4",
"0X c #ECD7C9",
"qX c #EED9CA",
"wX c #EAD6C8",
"eX c #F6DECE",
"rX c #F3DCCC",
"tX c #F2D8C7",
"yX c #F5DFD1",
"uX c #F9E2D2",
"iX c #FBE5D5",
"pX c #F7E1D2",
"aX c #F7E0CF",
/* pixels */
"                                                                                                                                                                                                                                                                ",
"                                                                                                                                                                                                                                                                ",
"                                                                                                                                                                                                                                                                ",
"                                                                                                                                                                                                                                                                ",
"                                                                                                                                                                                                                                                                ",
"                                                                                                                                                                                                                                                                ",
"                                                                                                                                                                                                                                                                ",
"                                                                                                                                                                                                                                                                ",
"                                                                                                                                                                                                                                                                ",
"                                                                                                                                                                                                                                                                ",
"                                                                                                                                                                                                                                                                ",
"                                                                                                                                                                                                                                                                ",
"                                                                                                                                                                                                                                                                ",
"                                                                                                                                                                                                                                                                ",
"                                                                                                                                                                                                                                                                ",
"                                                                                                                                                                                                                                                                ",
"                                                                                                                                                                                                                                                                ",
"                                                                                                                                                                                                                                                                ",
"                                                                                                                                                                                                                                                                ",
"                                                                                                                                                                                                                                                                ",
"                                                                                                                                                                                                                                                                ",
"                                                                                                                                                                                                                                                                ",
"                                                                                                                            e e e 0 w f                                                                                                                         ",
"                                                                                                                        e 6 > ; ; ; 1 1 1 f                                                                                                                     ",
"                                                                                                                    A e > : 1 ; $ $ : 1 ; : w                                                                                                                   ",
"                                                                                                                    e > ; $ $ % $ $ ; 9 i 4 1 S                                                                                                                 ",
"                                                                                                                  i 6 : $ $ % % $ ; 1 m ^ x 0 D                                                                                                                 ",
"                                                                                                                  u 6 ; ; $ o % $ $ e ^ 9.X.g                                                                                                                   ",
"                                                                                                                  i : + $ $ o % , + 0 >.9.L z                                                                                                                   ",
"                                                                                                                    : $ $ $ $ 4 d 5 9 X.0.I G                                                                                                                   ",
"                                                                                                                    ; $ o $ o 9 x V o.O.0.;.O.e.                                                                                                                ",
"                                                                                                                    : ; $ $ o , / ..8.9.q.=.=.2.                                                                                                                ",
"                                                                                                                    : $ $ + $ 1 C @.9.0.8.=.O.I                                                                                                                 ",
"                                                                                                                      1 $ o + 9 o.=.9.9.2.>.~                                                                                                                   ",
"                                                                                                                      f $ $ > x 9.0.,.=.=.=.o.                                                                                                                  ",
"                                                                                                                      1 @ 9 p X.a.0.=.o.o.o.O.                                                                                                                  ",
"                                                                                                                      e g ^ ,.h.n.9.+.Y I I I                                                                                                                   ",
"                                                                                                                         X&X.XY.G.9.O.Y I                                                                                                                       ",
"                                                                                                                      4X9XrXrXtX-Xf.O.~                                                                                                                         ",
"                                                                                                                    ;X9XrXpXiXiXiX&X<.                                                                                                                          ",
"                                                                                                                  &X4X,X3X9XiXiXiXrX X                                                                                                                          ",
"                                                                                                                  ;X;X,X9XiXiXiXrX9X,X                                                                                                                          ",
"                                                                                                                  ,X,XtXiXiXiXiXrX3X%X3X                                                                                                                        ",
"                                                                                                                ;X&X3XaXiXiXiXrX9X,X#X3X                                                                                                                        ",
"                                                                                                                ,XOX;XrXrXrXrXrX7X=X@X1X,X                                                                                                                      ",
"                                                                                                                ;XOX,XrXrXrXrXrX3X@X{.,X,X                                                                                                                      ",
"                                                                                                                 XQ.,XrXrXrXrXrX3XXX_.=XOX#X                                                                                                                    ",
"                                                                                                                ^.D.,XrXrXrXrXrX3X_._.@XXX#X                                                                                                                    ",
"                                                                                                                W.D.;XtXrXrXrXrX2X_.@XoXoX%X                                                                                                                    ",
"                                                                                                                D.V.,X9XrXrXrXrX,X_.=XoX#X%XoX                                                                                                                  ",
"                                                                                                                E.E.,X9X9XrXrXrX%X~.=X]._././.                                                                                                                  ",
"                                                                                                                A.{.,XqXrXiXiXrX>X~.@X(.Q.Q.@X                                                                                                                  ",
"                                                                                                                z.|.3X9X9X,X,X3X=XXXXX_./.XX,X                                                                                                                  ",
"                                                                                                                k.D.U.U.Z.>.%.%.x.XXXX]._.=X1X                                                                                                                  ",
"                                                                                                                B.7.u.P.Y.L.8.~ k._.oX].XX,X,XQ.                                                                                                                ",
"                                                                                                                B.z.u.K.I.I.J.<.z._.oX@X#X9X2X!.                                                                                                                ",
"                                                                                                                B.z.j.J.P.P.J.e.B.(.oX].1XrX#XQ.                                                                                                                ",
"                                                                                                                k.3.9.G.K.P.J.p.C./.@X=XqXqXXX(.                                                                                                                ",
"                                                                                                                } ] 9.h.G.P.J.c.V._.=X7XrX8X(.Q.                                                                                                                ",
"                                                                                                                } ` 0.s.a.G.J.c.A.`.,X0X0X2XE.Q./.                                                                                                              ",
"                                                                                                                  ] ,.n.n.m.H.Z.S.XX8XrXrX>X_.>XoX                                                                                                              ",
"                                                                                                                  6.%.s.H.H.J.L.F.%XrXrXqX@X=X3X+X                                                                                                              ",
"                                                                                                                  } ! =.s.H.K.G.U.9XrXrX8X@X8X2X#X                                                                                                              ",
"                                                                                                                  _ W Y 9.g.J.g.Z.rXrXrX2X>X0X3XoX                                                                                                              ",
"                                                                                                                  _ ] L =.a.g.g.i.=XyXqX2X0XrX,X(.                                                                                                              ",
"                                                                                                                  } 3.! o.e.g.v.u.}.0XrXrXpX7X_._.                                                                                                              ",
"                                                                                                                  5.3.W R 2.f.Z.u.W.=X8X9X1XoX].+X                                                                                                              ",
"                                                                                                                  5.} ` L %.u.f.u.7.E._.].Q.].+X+X                                                                                                              ",
"                                                                                                                  B.k.] W ~ 2.f.i.c._.(.(.(.'.[.>X                                                                                                              ",
"                                                                                                                  ^.A.} ` L %.i.f.p.{.+X+X2X+X+X<X                                                                                                              ",
"                                                                                                                  |.E.k._ P ~ e.b.i.}.wX+X].<X2X8X                                                                                                              ",
"                                                                                                                |.%X|.V.5.) P %.i.i.Z.8X0X+X].6X8X                                                                                                              ",
"                                                                                                                |.%X:X^.B.| P ~ e.d.i.OX8X6X+X].>X                                                                                                              ",
"                                                                                                                $X:X,X#XE.l.) P 4.f.i.W.<X2X6X1X+X                                                                                                              ",
"                                                                                                              %X,X,X>X2XoXV.k.P $.d.v.c.*X<X<X*X                                                                                                                ",
"                                                                                                              oX#X2X3X5X2XoXV.| J e.N.i.{.>X*X!.T.                                                                                                              ",
"                                                                                                                y ( l.Q.#X2X>XE.) -.d.2.S.*X[.R.!.                                                                                                              ",
"                                                                                                                % . % - r F [  .( *.r.w.c.%X[.R.T.                                                                                                              ",
"                                                                                                                % % & & & % % X < t.M.y.r.z.[ N                                                                                                                 ",
"                                                                                                                $ % % & & & & % * t.M.y.r.%.3 %                                                                                                                 ",
"                                                                                                                * o o & & & & % o ` M.d.r.w.j &                                                                                                                 ",
"                                                                                                                  o X & & & & # X m y.w.w.;.n &                                                                                                                 ",
"                                                                                                                  & X % & & & o X 9 -.....E m r                                                                                                                 ",
"                                                                                                                  & X X & & o X X s #.#.#...m                                                                                                                   ",
"                                                                                                                  - X X & # X X o u d Z Z m 0                                                                                                                   ",
"                                                                                                                    o o # # X X X o o * * o -                                                                                                                   ",
"                                                                                                                    o o X X # # X X . . X o 2                                                                                                                   ",
"                                                                                                                    # o X X # # % X X X X o 2                                                                                                                   ",
"                                                                                                                    & o o o X # # X X X X & 2                                                                                                                   ",
"                                                                                                                    * o o o o # # # X X X & 2                                                                                                                   ",
"                                                                                                                      o o X o & & # X X X & 2                                                                                                                   ",
"                                                                                                                      & o o o % & # o & & & -                                                                                                                   ",
"                                                                                                                      * o o o % & & & & & *                                                                                                                     ",
"                                                                                                                      * o o X % & & % & * 2                                                                                                                     ",
"                                                                                                                        o o % % & & & & *                                                                                                                       ",
"                                                                                                                        o X o % & & & & *                                                                                                                       ",
"                                                                                                                        % o o % & & & * -                                                                                                                       ",
"                                                                                                                        0 * * * * & & * <                                                                                                                       ",
"                                                                                                                      G V c n n m m j                                                                                                                           ",
"                                                                                                                      ! I ^ %.$.R J J                                                                                                                           ",
"                                                                                                                      %.=.+.%.%.~ J                                                                                                                             ",
"                                                                                                                      ,.u.2.<.:.~ J                                                                                                                             ",
"                                                                                                                    X.2.d.f.4.:.~ L                                                                                                                             ",
"                                                                                                                    X.2.d.v.u.:.R H                                                                                                                             ",
"                                                                                                                    Y 2.u.d.i.<.T                                                                                                                               ",
"                                                                                                                    Y ,.r.u.e.>.I                                                                                                                               ",
"                                                                                                                    Y =.e.e.2.%.J                                                                                                                               ",
"                                                                                                                    I =.2.2.=.R V                                                                                                                               ",
"                                                                                                                    H *.<.-.$.I z                                                                                                                               ",
"                                                                                                                    H o.%.%.o.H                                                                                                                                 ",
"                                                                                                                  z H ~ $.o.R V                                                                                                                                 ",
"                                                                                                                  i G Y $.o.I n                                                                                                                                 ",
"                                                                                                                  u V I ~ o.J                                                                                                                                   ",
"                                                                                                                  u c I o.o.G                                                                                                                                   ",
"                                                                                                                  u c H I R G                                                                                                                                   ",
"                                                                                                                  u c G J T J                                                                                                                                   ",
"                                                                                                                  s V J J T V                                                                                                                                   ",
"                                                                                                                  < g J V m 0                                                                                                                                   ",
"                                                                                                                  X o $ $ o & 6                                                                                                                                 ",
"                                                                                                                4 # o % o o % 1 w                                                                                                                               ",
"                                                                                                                e < o o o % 2 e e w                                                                                                                             ",
"                                                                                                                4 e 1 * o * ( N w a f k                                                                                                                         ",
"                                                                                                              0 1 0 0 3 * 7 ' ' f t w l k A                                                                                                                     ",
"                                                                                                              f 0 0 0 1 e 0 M ( k f f k b S b                                                                                                                   ",
"                                                                                                              w t 0 3 1 1 e t M M h h g k k f k                                                                                                                 ",
"                                                                                                                w t t 0 e 1 1 w j S B B b f f k                                                                                                                 ",
"                                                                                                                          0 0 e 9 a k B h h f y                                                                                                                 ",
"                                                                                                                                        a a                                                                                                                     "
};
