/* XPM */
static char *sword_back_left[] = {
/* columns rows colors chars-per-pixel */
"128 128 213 2 ",
"   c #FF00FF",
".  c #050504",
"X  c #090706",
"o  c #0B0907",
"O  c #0C0B09",
"+  c #110E0B",
"@  c #150F07",
"#  c #13110D",
"$  c #1B140C",
"%  c #161411",
"&  c #1C1512",
"*  c #1C1913",
"=  c #1E1B19",
"-  c #130F10",
";  c #22160E",
":  c #241A0E",
">  c #2A1E0F",
",  c #221612",
"<  c #241B13",
"1  c #2A1D13",
"2  c #221C1A",
"3  c #2C2116",
"4  c #2E2319",
"5  c #27221E",
"6  c #312316",
"7  c #3A2515",
"8  c #32251A",
"9  c #35291B",
"0  c #3B2D1D",
"q  c #38271B",
"w  c #3D311D",
"e  c #2A200E",
"r  c #3A2D21",
"t  c #342F29",
"y  c #3E3021",
"u  c #36322F",
"i  c #442E1E",
"p  c #44321F",
"a  c #492E21",
"s  c #452F20",
"d  c #433424",
"f  c #4B3223",
"g  c #4B3B2C",
"h  c #473728",
"j  c #523625",
"k  c #553A2A",
"l  c #5C3C2B",
"z  c #543828",
"x  c #563E32",
"c  c #5C3F31",
"v  c #473F3A",
"b  c #613B2B",
"n  c #5D412C",
"m  c #524332",
"M  c #5C4232",
"N  c #5D4C39",
"B  c #49433C",
"V  c #63412E",
"C  c #68462F",
"Z  c #644432",
"A  c #6A4635",
"S  c #6C4A35",
"D  c #6B4B3A",
"F  c #654736",
"G  c #714D37",
"H  c #724E3A",
"J  c #794B37",
"K  c #75513B",
"L  c #7A533D",
"P  c #7A5539",
"I  c #6F523E",
"U  c #585149",
"Y  c #4D4640",
"T  c #685546",
"R  c #765341",
"E  c #7C5642",
"W  c #7E5A43",
"Q  c #765B46",
"!  c #655D54",
"~  c #74624D",
"^  c #756354",
"/  c #776A5C",
"(  c #6C635A",
")  c #786E65",
"_  c #7E766D",
"`  c #82573C",
"'  c #825641",
"]  c #845C44",
"[  c #8A5C46",
"{  c #855D49",
"}  c #885E48",
"|  c #8C624B",
" . c #886245",
".. c #92654C",
"X. c #946A4B",
"o. c #996D4C",
"O. c #856F5B",
"+. c #926551",
"@. c #956B53",
"#. c #9A6C54",
"$. c #9B6E59",
"%. c #9F705A",
"&. c #987259",
"*. c #A4745C",
"=. c #AA7A5D",
"-. c #A67658",
";. c #B07D5F",
":. c #837364",
">. c #86796A",
",. c #8A7C6C",
"<. c #867868",
"1. c #8D7E70",
"2. c #957E6F",
"3. c #AC7C64",
"4. c #A87660",
"5. c #B17F67",
"6. c #B2815D",
"7. c #90816F",
"8. c #8E8174",
"9. c #8F867C",
"0. c #938474",
"q. c #958779",
"w. c #968A7C",
"e. c #9B8C7C",
"r. c #988876",
"t. c #9E907E",
"y. c #B38162",
"u. c #B4836A",
"i. c #BC8A6E",
"p. c #BA8866",
"a. c #BC8971",
"s. c #B28F75",
"d. c #A1907D",
"f. c #AA856C",
"g. c #C18E6A",
"h. c #C08764",
"j. c #C18D76",
"k. c #CA967D",
"l. c #C69275",
"z. c #CD9872",
"x. c #9A8E81",
"c. c #9E9283",
"v. c #A18F80",
"b. c #A39484",
"n. c #A99685",
"m. c #A39789",
"M. c #A59A8B",
"N. c #AB9C8C",
"B. c #A89987",
"V. c #AC9E91",
"C. c #B09483",
"Z. c #AEA18F",
"A. c #B2A08E",
"S. c #ADA191",
"D. c #B2A494",
"F. c #B8A796",
"G. c #B4A798",
"H. c #B5A999",
"J. c #BBAC9C",
"K. c #B8A898",
"L. c #BFB09F",
"P. c #BAAEA0",
"I. c #BEB1A2",
"U. c #C1AE9E",
"Y. c #CBAF99",
"T. c #C0B09F",
"R. c #C0AFA0",
"E. c #C3B4A3",
"W. c #C9B6A6",
"Q. c #C6B9A7",
"!. c #C9B9A7",
"~. c #C2B7A8",
"^. c #C5B9AA",
"/. c #CBBCAC",
"(. c #C9B7A8",
"). c #D0BEAD",
"_. c #D7BCA5",
"`. c #CCBFB0",
"'. c #D0BFB1",
"]. c #CFC1AE",
"[. c #D2C1AD",
"{. c #D8C5AF",
"}. c #CEC2B3",
"|. c #D3C3B3",
" X c #D9C7B5",
".X c #DCC9B6",
"XX c #D6C7B9",
"oX c #D6C9BA",
"OX c #DCCCBB",
"+X c #D6C8B7",
"@X c #DFD0BF",
"#X c #E0CFBC",
"$X c #E5CAB3",
"%X c #E3D1BE",
"&X c #ECD3BD",
"*X c #DED1C2",
"=X c #E4D4C3",
"-X c #E9D6C4",
";X c #EBD9C6",
":X c #E5D9CA",
">X c #ECDBCB",
",X c #E3D7C7",
"<X c #F1DECD",
"1X c #ECDFD1",
"2X c #F2E0CE",
"3X c #F7E6D4",
"4X c #F4E3D2",
"5X c #F9E6D6",
"6X c #FAE8D7",
"7X c #F6E9DB",
"8X c #FAE9D9",
"9X c #FCEADA",
"0X c #F3E7D9",
/* pixels */
"                                                                                                                                                                                                                                                                ",
"                                                                                                                                                                                                                                                                ",
"                                                                                                                                                                                                                                                                ",
"                                                                                                                                                                                                                                                                ",
"                                                                                                                                                                                                                                                                ",
"                                                                                                                                                                                                                                                                ",
"                                                                                                                                                                                                                                                                ",
"                                                                                                                                                                                                                                                                ",
"                                                                                                                                                                                                                                                                ",
"                                                                                                                                                                                                                                                                ",
"                                                                                                                                                                                                                                                                ",
"                                                                                                                                                                                                                                                                ",
"                                                                                                                                                                                                                                                                ",
"                                                                                                                                                                                                                                                                ",
"                                                                                                                                                                                                                                                                ",
"                                                                                                                                                                                                                                                                ",
"                                                                                                                                                                                                                                                                ",
"                                                                                                                                                                                                                                                                ",
"                                                                                                                                                                                                                                                                ",
"                                                                                                                                                                                                                                                                ",
"                                                                                                                                                                                                                                                                ",
"                                                                                                                                                                                                                                                                ",
"                                                                                                                                            N ~ O.~                                                                                                             ",
"                                                                                                                                          g 0 9 8 9 y g m                                                                                                       ",
"                                                                                                                                      N 0 1 3 1 , 3 3 3 8 d                                                                                                     ",
"                                                                                                                                    ~ 9 , , , 3 3 1 , , 3 9 m                                                                                                   ",
"                                                                                                                                    ~ 3 , 4 3 , 3 3 , $ > , 9                                                                                                   ",
"                                                                                    0                                               m 1 4 3 , > , , , , $ $ 3                                                                                                   ",
"                                                                                      w                                             m 0 3 8 , , $ , , , $ $ 3                                                                                                   ",
"                                                                                      0                                             Q k 1 b q 1 , , , , & $ ,                                                                                                   ",
"                                                                                        0                                           Q n d J V 8 , , $ $ $ $ , d                                                                                                 ",
"                                                                                        9 0                                           S ] [ A 0 , , & $ & , ,                                                                                                   ",
"                                                                                          9                                            .X.` P i , , , , & $ 3 Q                                                                                                 ",
"                                                                                          0 0                                         ` X...-.E k d 6 , , , 0                                                                                                   ",
"                                                                                            0 w                                       ]  .X.-.y.=.#.S p 3 , 9                                                                                                   ",
"                                                                                              0                                       W P ` o.h.z.z.g.o.S 6 h                                                                                                   ",
"                                                                                              0 0                                       K  .s._.&X-X&X$XY.d.                                                                                                    ",
"                                                                                                0 d                                     _.-X4X4X4X4X4X4X2X>X%X                                                                                                  ",
"                                                                                                  0                               2X4X6X8X8X6X6X5X5X4X2X>X=X#X.X X                                                                                              ",
"                                                                                                  y w                         ;X4X8X8X6X8X5X6X5X5X5X4X4X<X>X;X-X%X%X                                                                                            ",
"                                                                                                    0 d                     .X>X8X8X8X8X5X5X6X5X5X5X4X2X<X<X<X>X>X;X=X.X                                                                                        ",
"                                                                                                      r                     #XOXOX4X8X4X5X8X4X4X4X4X2X<X>X>X;X;X;X-X=XOX                                                                                        ",
"                                                                                                      r y                 {.%X=X X X4X4X4XOXOX>X2X2X<X>X>X>X;X-X-X=X%X#X[.                                                                                      ",
"                                                                                                        0                  X#X=X=X/.>X4XW.).-X>X>X>X>X=X=X=X=X=X=X=X%X#X[.                                                                                      ",
"                                                                                                        w w               |..XOX#X).OX!.U.=X=X>X-X=X=X=X=X=X%X=X=X=X%X.X[.                                                                                      ",
"                                                                                                          0               |.|. X X(.N.n.|.OX-XOX|.#XOXOXOXOXOXOX%X%XOX).E.                                                                                      ",
"                                                                                                          0 0           |.|.).).[.J.<.N./.OXE.U. X|.|.|.OXOX|.|.OXOX|.!.F.                                                                                      ",
"                                                                                                            9           |././.W.E.b.:.V./.A.A.|.E./.!.|..X|.|.|. XOX/.E.B.                                                                                      ",
"                                                                                                            g 0 D #.    |./.E.E.D.w.1.K.v.b./.E.E./.E./.|.|.|.|.|.|.!.J.w.                                                                                      ",
"                                                                                                            X...-.y.  [.[.E.E.K.N.0.q.,.r.R.E.F././.E./.|./.)./.|.|.E.Z.w.                                                                                      ",
"                                                                                                            ] -.p.=.f././.U.F.N.w.:.^ / N.D.D.R.|.J.T.|.|./././.|.[.J.b.0.                                                                                      ",
"                                                                                                            P o.g.#.C.|./.J.N.b.0.^ ^ 0.0.n.J.R./.D.E.|././././.|./.D.b.                                                                                        ",
"                                                                                                            S X.g.=.J.XX'.K.b.q.,.T / 7.N.E.N.E.J.D./.OXE./././.|./.N.w.                                                                                        ",
"                                                                                                            F  .p.g.&.n.U.J.N.w.:.T 0.w.N.b.N./.A.J.XXXXJ.E.|.E.|.T.t.0.                                                                                        ",
"                                                                                                              | p.z.] V I O.2.0.T T V.D.b.v./.E.N./.=X/.J.E.`.J.|.H.0.,.                                                                                        ",
"                                                                                                              X.6.6.K C S S R Q x :.D.N.N.J.|.N.D. XOXJ.J./.J.E.|.S.,.                                                                                          ",
"                                                                                                                o.o.K P E P W D T w.N.N.T.|.J.n.E.OX|.D.L.J.N.`./.M.>.                                                                                          ",
"                                                                                                                L  .] ] E P W M 0.E.D.J.|./.b.D.|.OXJ.S.J.D.E.|.^.w.:.                                                                                          ",
"                                                                                                                S L ] P H E D M J.=X|.OX|.N.b./.OXQ.b.D.H.H.J.m.M.0.                                                                                            ",
"                                                                                                                  S G A S H F T E.>X=XOXD.b./.OX|.H.m.D.S.b.8.1.N.8.                                                                                            ",
"                                                                                                                    l b A   T ^ /.=XOXJ.b.E.|./.E.N.S.N.w.>.,.J.J.,.                                                                                            ",
"                                                                                                                              :./.OXJ.b.E./.E./.J.S.N.q.,.:.N.}.m.,.                                                                                            ",
"                                                                                                                              r./.R.N./.OXOXoX|.J.S.w.1.:.r./.^.w.,.                                                                                            ",
"                                                                                                                              N.J.D./.|.|.XXoXE.N.w.8.,.0.E.}.P.7.7.                                                                                            ",
"                                                                                                                              K.E.|.OXOX@X=X|.H.x.0.,.0.E.XX|.D.7.0.                                                                                            ",
"                                                                                                                            d.0.b.D.E././.|.E.b.0.,.w./.*X*XoXb.,.,.                                                                                            ",
"                                                                                                                            N.D.N.D.D.D.I.J.w.,.q.K.OX>X>X>XE.,.:.>.                                                                                            ",
"                                                                                                                            d.OX=XOX*XOXI.c.b.I.*X4X7X7X1XI.,.<.w.b.                                                                                            ",
"                                                                                                                          E.A.L.|.oX/.N.E.*X>X0X7X7X1X`.x.>.>.S.+X/.                                                                                            ",
"                                                                                                                          E.J.K.^.E.J.OX:X:X:X4X>X~.c.w.w.q.H.*X*XoX                                                                                            ",
"                                                                                                                          Q./.[./.oX=X=XoXXX,X^.c.m.I.~.K.}.=XOX*XoX                                                                                            ",
"                                                                                                                          /.|.N.0.c.S.J.|.*XK.b.E.oX}.H.}.,X`.OXOX|.E.                                                                                          ",
"                                                                                                                          D.b.w.S.J.E.|.*XI.J.|.XX}.I.}.*XP.}.|.oXoX/.                                                                                          ",
"                                                                                                                          D.J./.oX*X,XoXH.N.J.~.^.^./.}.M.K.^.}.|.|.}.                                                                                          ",
"                                                                                                                          /.|.oXOX|.I.V.M.H.^.I.J.H.V.w.m.^.}.}.|.OX|.                                                                                          ",
"                                                                                                                        E.].E.J.S.b.c.w.c.S.D.S.V.M.x.m.I.XXoXoX^.9.U                                                                                           ",
"                                                                                                                        J.Q./.E.I.D.S.D.S.M.M.M.M.c.V.~.oX`.m.! t + #                                                                                           ",
"                                                                                                                        E.J.D.J.E.I.S.m.c.c.c.M.M.S.P.S._ u % O O + %                                                                                           ",
"                                                                                                                        8.D.I.E.I.I.J.K.D.D.S.b.8./ Y 2 X . O O O # %                                                                                           ",
"                                                                                                                        & 5 v ! ) ) / ( ! U B t = + O . . . X o O O %                                                                                           ",
"                                                                                                                        % + O O O O O O O O o O O O o . . . . X o O %                                                                                           ",
"                                                                                                                        # + + O O O O O O O O O O o . . . . . . . o #                                                                                           ",
"                                                                                                                        # + O O O O O O O O O O O X . . . O . . . X +                                                                                           ",
"                                                                                                                        + O O O O O O O O O O O o . . . O O + # # O                                                                                             ",
"                                                                                                                      2 + O O O O O O O O O O o X . . . O % & % O O                                                                                             ",
"                                                                                                                      * O O O O O o o O O o o o X . . X O O O # % *                                                                                             ",
"                                                                                                                      $ O O O O O o o O O o o o . . . O O O O + % &                                                                                             ",
"                                                                                                                      # O O O o O o o o O o o O X . . O O O O O + #                                                                                             ",
"                                                                                                                      # o O O o O O o o o o o     . . o O O O + # +                                                                                             ",
"                                                                                                                      + o O O O O O O O O X O     X X o O O # # + %                                                                                             ",
"                                                                                                                      + o O O O O O O O O X         O O O O O O - &                                                                                             ",
"                                                                                                                      + o O O O O O O O o X         O O + O O O + &                                                                                             ",
"                                                                                                                    * + O O o o o O o o o o         # + + + + + &                                                                                               ",
"                                                                                                                    * + o o o o o o O O X +           k M x x D Q                                                                                               ",
"                                                                                                                    , # + O O O O O O O o             H +.$.%.5.3.&.                                                                                            ",
"                                                                                                                        & # + + + + + $               l E #.3.j.j.3.                                                                                            ",
"                                                                                                                          i i f z k f f                 A $.a.k.k.u.-.                                                                                          ",
"                                                                                                                          n ..3.u.3.| Z                 l +.u.k.k.a.=.                                                                                          ",
"                                                                                                                          K 3.i.u.3.#.R                   E 3.l.k.a.3.X.                                                                                        ",
"                                                                                                                          [ y.i.5.-.#.W                   K -.i.l.i.3.X.                                                                                        ",
"                                                                                                                        K | y.p.3.-.#.W                   H $.u.i.u.=.X.                                                                                        ",
"                                                                                                                        H ..=.;.=.-.#.E                   D +.3.u.u.=...P                                                                                       ",
"                                                                                                                        G ..-.-.-.-.#.E                     | 4.5.3.-...K                                                                                       ",
"                                                                                                                        K ..#.#.#.#.+.K                     W -.3.3.%.| G                                                                                       ",
"                                                                                                                        H [ ........[ S                     D +.%.-.#.} S                                                                                       ",
"                                                                                                                        S ' [ [ [ ] P Z                     l E | +.+.{ S                                                                                       ",
"                                                                                                                        l P ' ] ] P S k                     f A W | | ] Z                                                                                       ",
"                                                                                                                        f G P ' W K Z a                       Z E { { E Z                                                                                       ",
"                                                                                                                        i Z P P P G k                         k R ] { P M                                                                                       ",
"                                                                                                                        0 l G H K S f                         f H { { K l                                                                                       ",
"                                                                                                                          j S H G Z i                           A ] ] E c                                                                                       ",
"                                                                                                                          i V S S l 0                           n E ] E M                                                                                       ",
"                                                                                                                          0 l S S k 0                           z K ] W Z                                                                                       ",
"                                                                                                                          7 j S S j                             f S { { A                                                                                       ",
"                                                                                                                          7 a Z S j                             f Z E ] S                                                                                       ",
"                                                                                                                          7 i l S j                       h d 0 q Z P ..H                                                                                       ",
"                                                                                                                        4 1 a j Z z                     d g h 8 # 8 c D h                                                                                       ",
"                                                                                                                  0 d g 8 $ z l Z l                     r d 0 , O O + + +                                                                                       ",
"                                                                                                                d p d d & + 8 c P F                     8 8 8 , O O O O +                                                                                       ",
"                                                                                                              0 0 d 9 1 + O O # 4 2                       , 1 1 + o O O + ,                                                                                     ",
"                                                                                                              0 8 0 6 , + O O O O &                       ; $ > > ; $ , 1 3                                                                                     ",
"                                                                                                              9 0 6 3 3 $ $ $ , r 6                           @ $ > > 1 1 3 8                                                                                   ",
"                                                                                                              8 6 e > 1 , 3 6 0 i 6 8                           @ $ > 1 8 6 6                                                                                   ",
"                                                                                                                8 3 3 , , ; 1 6 r 8 8                             $ $ ; 1 6 8                                                                                   ",
"                                                                                                                  3 9 8 1 , 1 1 8 4 8                               > 1 8 9 0 9                                                                                 ",
"                                                                                                                      3 4 3 1 1 8 r r                                 1 4 8 1                                                                                   ",
"                                                                                                                          4 4 8 r r 4                                                                                                                           ",
"                                                                                                                              3                                                                                                                                 "
};
