/* XPM */
static char *sword_left[] = {
/* columns rows colors chars-per-pixel */
"128 128 219 2 ",
"   c #FF00FF",
".  c #050504",
"X  c #0A0907",
"o  c #090709",
"O  c #0D0C0B",
"+  c #080707",
"@  c #110E0D",
"#  c #150D07",
"$  c #13110E",
"%  c #1C130B",
"&  c #1B140A",
"*  c #120F11",
"=  c #151211",
"-  c #1A1513",
";  c #1E1A18",
":  c #21170E",
">  c #23190E",
",  c #221612",
"<  c #241A12",
"1  c #2A1E14",
"2  c #241D1A",
"3  c #2C1D18",
"4  c #351E16",
"5  c #2B2115",
"6  c #2D231A",
"7  c #24211D",
"8  c #322316",
"9  c #32251B",
"0  c #35291D",
"q  c #3B2B1D",
"w  c #382517",
"e  c #2A2622",
"r  c #3C2D21",
"t  c #362B27",
"y  c #3D3022",
"u  c #3D3833",
"i  c #452E1D",
"p  c #482C1F",
"a  c #462E22",
"s  c #423324",
"d  c #4C3223",
"f  c #443729",
"g  c #4D352A",
"h  c #463A2C",
"j  c #4A3C2C",
"k  c #533A27",
"l  c #563B2B",
"z  c #5B3D2C",
"x  c #523626",
"c  c #4B3E31",
"v  c #473D31",
"b  c #5A3E31",
"n  c #573D31",
"m  c #623E32",
"M  c #5E412F",
"N  c #4A433A",
"B  c #514434",
"V  c #5E4231",
"C  c #524639",
"Z  c #564A3C",
"A  c #564834",
"S  c #63432E",
"D  c #634434",
"F  c #6B4A36",
"G  c #6C4B3A",
"H  c #684536",
"J  c #734E3C",
"K  c #754B37",
"L  c #75523E",
"P  c #7A523D",
"I  c #7A5137",
"U  c #554D44",
"Y  c #5A534E",
"T  c #724F42",
"R  c #685544",
"E  c #755343",
"W  c #7B5544",
"Q  c #7C5945",
"!  c #725C4B",
"~  c #7C5A4A",
"^  c #755348",
"/  c #625A53",
"(  c #72624E",
")  c #7A6552",
"_  c #7E6C5B",
"`  c #7A6755",
"'  c #6E675F",
"]  c #7C6F63",
"[  c #7D736A",
"{  c #7C7064",
"}  c #81593F",
"|  c #85563C",
" . c #825B45",
".. c #845D4A",
"X. c #8A5E4A",
"o. c #885944",
"O. c #8C624C",
"+. c #886149",
"@. c #926346",
"#. c #93664C",
"$. c #9A6A4D",
"%. c #97674D",
"&. c #8B6452",
"*. c #856B5B",
"=. c #926653",
"-. c #946A53",
";. c #9C6D54",
":. c #9C6F59",
">. c #956B59",
",. c #82715D",
"<. c #9E715C",
"1. c #98715A",
"2. c #A37153",
"3. c #A5745B",
"4. c #A9755A",
"5. c #AB795C",
"6. c #A97355",
"7. c #B07D5D",
"8. c #82766C",
"9. c #86796B",
"0. c #8A7D6F",
"q. c #877564",
"w. c #917E6A",
"e. c #857B72",
"r. c #8A7E73",
"t. c #877F78",
"y. c #A37762",
"u. c #A67965",
"i. c #AD7C63",
"p. c #AA7C69",
"a. c #B27E65",
"s. c #8C8174",
"d. c #8B8278",
"f. c #948475",
"g. c #9A8A76",
"h. c #918579",
"j. c #94897D",
"k. c #9B8B7A",
"l. c #978877",
"z. c #91806D",
"x. c #AE8069",
"c. c #B58365",
"v. c #B3826A",
"b. c #BC8669",
"n. c #B58572",
"m. c #BC8D72",
"M. c #B09077",
"N. c #C18B6C",
"B. c #C28365",
"V. c #C8916F",
"C. c #C59272",
"Z. c #CC9474",
"A. c #CE9876",
"S. c #D49C7B",
"D. c #D89D7B",
"F. c #C08D73",
"G. c #DCA17E",
"H. c #9B8E82",
"J. c #968D83",
"K. c #9D9285",
"L. c #9E958A",
"P. c #A49384",
"I. c #A39689",
"U. c #AB9B8D",
"Y. c #A89888",
"T. c #B39C8A",
"R. c #A59C91",
"E. c #AE9F92",
"W. c #B29F91",
"Q. c #ADA194",
"!. c #B3A395",
"~. c #B4A69A",
"^. c #B4A99C",
"/. c #BBAB9D",
"(. c #BAA995",
"). c #B8A994",
"_. c #BCAEA1",
"`. c #B4AAA0",
"'. c #BDB1A4",
"]. c #CE9E80",
"[. c #C4AB95",
"{. c #C5A990",
"}. c #C0AFA2",
"|. c #C3B4A5",
" X c #C4B6AA",
".X c #C5B9AC",
"XX c #CBBBAD",
"oX c #C9B9A7",
"OX c #D1BFAE",
"+X c #CCBEB2",
"@X c #C7BCB0",
"#X c #D0BEB2",
"$X c #CEC1AF",
"%X c #D5C2AD",
"&X c #CDC2B4",
"*X c #D3C3B4",
"=X c #D9C5B5",
"-X c #D3C6BA",
";X c #D6CABC",
":X c #DACBBC",
">X c #D9C7B7",
",X c #E1CAB5",
"<X c #E5D1BE",
"1X c #DBCDC0",
"2X c #DDD2C4",
"3X c #E1CFC1",
"4X c #E3D2C4",
"5X c #E3D6C9",
"6X c #E9D7C9",
"7X c #E4D9CB",
"8X c #ECDBCD",
"9X c #ECD7C5",
"0X c #F1DECE",
"qX c #EBDDD1",
"wX c #E7DCD0",
"eX c #F1DFD0",
"rX c #F4E2D4",
"tX c #FAE8DA",
"yX c #EDE1D3",
/* pixels */
"                                                                                                                                                                                                                                                                ",
"                                                                                                                                                                                                                                                                ",
"                                                                                                                                                                                                                                                                ",
"                                                                                                                                                                                                                                                                ",
"                                                                                                                                                                                                                                                                ",
"                                                                                                                                                                                                                                                                ",
"                                                                                                                                                                                                                                                                ",
"                                                                                                                                                                                                                                                                ",
"                                                                                                                                                                                                                                                                ",
"                                                                                                                                                                                                                                                                ",
"                                                                                                                                                                                                                                                                ",
"                                                                                                                                                                                                                                                                ",
"                                                                                                                                                                                                                                                                ",
"                                                                                                                                                                                                                                                                ",
"                                                                                                                                                                                                                                                                ",
"                                                                                                                                                                                                                                                                ",
"                                                                                                                                                                                                                                                                ",
"                                                                                                                                                                                                                                                                ",
"                                                                                                                                                                                                                                                                ",
"                                                                                                                                                                                                                                                                ",
"                                                                                                                                                                                                                                                                ",
"                                                                                                                                                                                                                                                                ",
"                                                                          R                                                                                                                                                                                     ",
"                                                                          Z                                                                                                                                                                                     ",
"                                                                            Z                                                                                                                                                                                   ",
"                                                                            C U                                                                                                                                                                                 ",
"                                                                              C                                                                         ( R j s j Z                                                                                             ",
"                                                                              c B                                                                   ( h 0 9 1 1 5 0 s j                                                                                         ",
"                                                                                c B                                                               B 9 2 > 2 5 1 > 2 > 5 y                                                                                       ",
"                                                                                  h B                                                           R 9 0 9 > % % & > 2 > > 1 q                                                                                     ",
"                                                                                  h h                                                         w.h 9 z d s 5 2 > 2 > > > > 9                                                                                     ",
"                                                                                    h h                                                       _ 9 p I } L s 5 5 2 % > : % 6                                                                                     ",
"                                                                                      f h                                                     ( q S +.;.5.E 1 9 a 4 % > : r                                                                                     ",
"                                                                                        f j                                                     V l M o.5.Q q z I F : % : j                                                                                     ",
"                                                                                        h h                                                     ! l z #.5.+.L #.o. .9 # : h                                                                                     ",
"                                                                                          j j                                                     O.} $.2.;.4.4.%.H 1 % 1 B                                                                                     ",
"                                                                                            j j                                                   3.@.@.$.2.4.;.| J 1 % 5 C                                                                                     ",
"                                                                                              j B                                                 P o.#.#.2.2.2.6.2.J w > 0                                                                                     ",
"                                                                                              c j                                                 H J #.$.#.@.$.6.6.2.} q                                                                                       ",
"                                                                                                j j                                                 P +.#.| | @.5.b.].{.{.                                                                                      ",
"                                                                                                  j B                                               +.} I I 1.{.,X9X8X8X<X=X                                                                                    ",
"                                                                                                    j                                                 I P T.8XtXtXrXrX0X8X<X%X                                                                                  ",
"                                                                                                    j j                                                 =XrXtXtXtXrXrXeX0X9X,XoX                                                                                ",
"                                                                                                      h j                                               5XrXrXrXrXrXrX0X0X8X5X%X                                                                                ",
"                                                                                                      j j                                             OX8XrXrXrXwXrXeXeXrXrX:X*X[.                                                                              ",
"                                                                                                        j j                                           =XeXrXrXrXeX8X8XrXrX3XXX=X[.                                                                              ",
"                                                                                                          h j                                       %X:X8XrXrXrX8X6X5X8X>X[.XX*X/.T.                                                                            ",
"                                                                                                          j h                                       :X:X8X8XeX8X6X3X1X X X!.=XOX(.T.                                                                            ",
"                                                                                                            v h                                     =X5X8X8X0X8X5X*X}.!.W.}.oXXX!.P.                                                                            ",
"                                                                                                            c h                                   XX*X8X8X8X8X5X*X/.^.!.U.W.XX}.U.k.                                                                            ",
"                                                                                                              h c                                 *X5X0X6X8X6X:X/.U.U.J.P.XX_./.P.g.                                                                            ",
"                                                                                                              +.-.a.x.y.                          :X8XeX5X6X5XXXP.r.l.J.}. X/.!.P.g.                                                                            ",
"                                                                                                            +.i.b.B.Z.S.                          <X8X8X5X5X*X!.0.r.U.}.XX!.@XJ.U.g.                                                                            ",
"                                                                                                              O.4.b.N.Z.S.                      =X8XrX5X1X:X XK.q.P.}. X/.@X/.k.!.l.                                                                            ",
"                                                                                                              O.#.;.4.b.Z.S.].                  =XwXrX5X1X*XE.0.{ !.}./. X*Xl.!.!.g.                                                                            ",
"                                                                                                               . .X.O.$.7.V.G.S.C.m.            1.>.P.#X:X Xk.{ l. X_./.-XP.k.XXU.l.                                                                            ",
"                                                                                                                Q X. . .#.5.b.A.G.S.Z.m.        c.I H ~ P.!.r._ P._._.:X/.l.'.XXk.l.                                                                            ",
"                                                                                                                E G F n D ..;.c.Z.D.G.G.D.S.Z.C.Z.3.P P E ) _ q._.XX5X@Xk.U.:X^.l.k.                                                                            ",
"                                                                                                                      9 2   Q -.i.N.Z.S.G.G.D.Z.Z.N.i.<...~ ) k.-X8X1XU.U.XX:XP.k.l.                                                                            ",
"                                                                                                                              L  .;.5.c.N.C.V.N.b.b.a.-.~ _ q. XwX5X/.I./.*XXXl.l.                                                                              ",
"                                                                                                                                  G L  .#.:.5.c.c.i.;. .) q.W.8X7X XU./.XX:XI.l.h.                                                                              ",
"                                                                                                                                    V M D P #.3.5.;.W W *.U.5X8X*X!._.XX&X Xl.K.l.                                                                              ",
"                                                                                                                                        V D J  .X.W J ! l.1X5X*X/. X X~.-XU.K.h.9.                                                                              ",
"                                                                                                                                            G D m H T *. X:XXX_.XXXXU.XXXXU.s.[ 9.                                                                              ",
"                                                                                                                                            ` ! R ! ` P.@X XXX*X@XU./.;X_.j.{ r.9.                                                                              ",
"                                                                                                                                            ` ` ) ` w./. X*X*X*XE.Q.-X@XJ.{ 8.j.                                                                                ",
"                                                                                                                                            ,._ ` z.~. X*X*X*X/.!.@X1XQ.8.{ l.h.                                                                                ",
"                                                                                                                                            ,.,.l././.'.}.XX X!. X2X Xr.[ 9.J.r.                                                                                ",
"                                                                                                                                            q.k.'._.XX1X5X&X!. X7X&Xh.8.8.s.J.                                                                                  ",
"                                                                                                                                            P. X XXX2X7X&X'.&XwX'.s.0.l.I.^.Q.                                                                                  ",
"                                                                                                                                             X&X-X5X5X@X X;X7X~.K.'.&X;X7X-XK.                                                                                  ",
"                                                                                                                                          P. X;X5X;X@X X1X5X~.`.2X7X7XwX;Xj.9.                                                                                  ",
"                                                                                                                                          U.*X2X2X:X:XwX7X'.&X2X1X&X2X1XJ.9.0.0.                                                                                ",
"                                                                                                                                          ^.$X;X2X7XyX7X X X X'. X2X5XI.r.s.d.J.                                                                                ",
"                                                                                                                                          _.XX;X5X7X&XQ.I.Q._.&X7XwXI.e.K.K.L.^.                                                                                ",
"                                                                                                                                           X*X;X:X X~._.&X;X7X8X7X^.e.L.R.J.R.`.                                                                                ",
"                                                                                                                                         X&X*X;X&X@X-X2X5X7X5X-X XJ.I.L.t.e.`.'.                                                                                ",
"                                                                                                                                         X$X;X;X;X;X;X-X&X@X X^.L.L.L.d.[ J.R.e.                                                                                ",
"                                                                                                                                        $X:X:X*X-X1X;X-X@X`.R.K.s.e.r.e.e.' e                                                                                   ",
"                                                                                                                                        / _.:X;X&X X'.'.^.R.K.r.8.e.d.[ N @ +                                                                                   ",
"                                                                                                                                      6 - e / J._. X@X X^.Q.I.K.j.8.Y e + + O                                                                                   ",
"                                                                                                                                      2 - = $ = 7 u U / / U N u t ; O + + o                                                                                     ",
"                                                                                                                                      ; = = = = @ O O O O O O X O O O + + O                                                                                     ",
"                                                                                                                                      - = $ @ = O O O O O O O O O O + + +                                                                                       ",
"                                                                                                                                      - = $ @ = O O O O O O O O O O + + +                                                                                       ",
"                                                                                                                                    2 = = $ @ O O O O O O O O O O + + + O                                                                                       ",
"                                                                                                                                    2 = $ O O O @ O O O O O O O O + + + O                                                                                       ",
"                                                                                                                                    ; $ = O O O = O O O O O O O + + + + O                                                                                       ",
"                                                                                                                                    - $ @ O O O @ O O O O O O + + + + + O                                                                                       ",
"                                                                                                                                    - $ O O O O @ O O O O O O + + + + o                                                                                         ",
"                                                                                                                                    - @ O O O O * @ O O O X + + + + + O                                                                                         ",
"                                                                                                                                    - @ O O O O @ @ O O O X + + + + + O                                                                                         ",
"                                                                                                                                  6 = @ @ O O O O @ O O O O + + + + + O                                                                                         ",
"                                                                                                                                  7 = = @ O O O O O O O O 1 8 < % - 2 t                                                                                         ",
"                                                                                                                                  2 = * @ O O O O O O X @ p p a n E E &.                                                                                        ",
"                                                                                                                                  2 = * * @ O O O O + O     p p D ..&.y.1.                                                                                      ",
"                                                                                                                                    2 = = @ @ O O O O @     p p D &.u.n.y.                                                                                      ",
"                                                                                                                                    d w 3 2 - - - $ $         p V &.p.n.p.&.                                                                                    ",
"                                                                                                                                    k d x z D V g               l ..y.n.v.-.                                                                                    ",
"                                                                                                                                    D F W :.v.y...              l Q y.n.x.:.Q                                                                                   ",
"                                                                                                                                     .-.y.v.F.v.&.              k E <.x.p.<.Q                                                                                   ",
"                                                                                                                                    ..;.i.v.m.v.O.F               G >.y.i.<...                                                                                  ",
"                                                                                                                                     .;.y.v.b.i.O.F               M ..<.y.<...D                                                                                 ",
"                                                                                                                                    Q -.3.a.a.3...G               k L -.<.>.~ V                                                                                 ",
"                                                                                                                                    W O.:.i.3.:. .D                 D ~ &.&.W V                                                                                 ",
"                                                                                                                                    L X.;.3.;.#.W z                 l J Q ~ W V                                                                                 ",
"                                                                                                                                    G W -.-.O. .F k                 p D W ~ E M                                                                                 ",
"                                                                                                                                    F J X.O. .P D d                   z E ~ W V                                                                                 ",
"                                                                                                                                    D F W  .W L z                     d G ..Q V                                                                                 ",
"                                                                                                                                    S F J L L G l                     q D ~ W D                                                                                 ",
"                                                                                                                                    z D G G G D d                     w n W W G                                                                                 ",
"                                                                                                                                    z S D G G z p                       l T W T                                                                                 ",
"                                                                                                                                    l V D D D l                         D G E E n                                                                               ",
"                                                                                                                                    l M V D M g                       9 j J E ..D                                                                               ",
"                                                                                                                                    l z M D V d             j j j f 9 < @ 6 g g 6                                                                               ",
"                                                                                                                                    l z M D V s             r r s r 2 $ O O O O O                                                                               ",
"                                                                                                                                    l z M V l p             9 8 8 6 < @ o o O O O 2                                                                             ",
"                                                                                                                                    z z M V x                 1 2 < 2 : @ @ @ - 2 2                                                                             ",
"                                                                                                                              s t 2 s D F F l                   < % % % % 1 1 9 6 1 6                                                                           ",
"                                                                                                                            s 0 2 * @ 6 z D n                         # @ % : 1 9 1 1                                                                           ",
"                                                                                                                        j j j 9 2 @ @ O @ * *                             @ % : 1 1 9                                                                           ",
"                                                                                                                  h f j h s 9 1 2 O O O O * 2                                 1 9 9 5                                                                           ",
"                                                                                                                f r f h s q 1 < 2 $ @ $ - 6 s 9                                                                                                                 ",
"                                                                                                                r 9 r r r y r 0 5 6 1 9 0 0 0 0                                                                                                                 ",
"                                                                                                                0 9 9 r s s r 9 5 2 : 2 1 5 6 6 r                                                                                                               ",
"                                                                                                                  9 6 6 8 9 1 > 2 2 < > 2 1 2 9 y                                                                                                               ",
"                                                                                                                      6 6 9 9 6 0 6 6 5 1 5 9 0 9                                                                                                               ",
"                                                                                                                                      0 9 9 9                                                                                                                   "
};
