/* XPM */
static char *sword_back_right[] = {
/* columns rows colors chars-per-pixel */
"128 128 199 2 ",
"   c #FF00FF",
".  c #060604",
"X  c #090706",
"o  c #0B0907",
"O  c #0D0B0A",
"+  c #120B06",
"@  c #120E0C",
"#  c #190F09",
"$  c #14110E",
"%  c #1D140D",
"&  c #110F10",
"*  c #161311",
"=  c #1C1611",
"-  c #21160D",
";  c #24190E",
":  c #281C0F",
">  c #221610",
",  c #241A12",
"<  c #2A1E14",
"1  c #311F13",
"2  c #2C2114",
"3  c #2D2219",
"4  c #342315",
"5  c #33261A",
"6  c #3B261A",
"7  c #35291C",
"8  c #3C2B1C",
"9  c #3D2615",
"0  c #3B301F",
"q  c #3A2D21",
"w  c #312820",
"e  c #3F3224",
"r  c #292320",
"t  c #432B1C",
"y  c #482E1D",
"u  c #4B331F",
"i  c #45301F",
"p  c #452E22",
"a  c #482F20",
"s  c #423425",
"d  c #4C3222",
"f  c #45362A",
"g  c #46392A",
"h  c #4A3A2C",
"j  c #483B24",
"k  c #513525",
"l  c #553926",
"z  c #563B2A",
"x  c #5C3C2B",
"c  c #543728",
"v  c #603F2E",
"b  c #4F402D",
"n  c #55432F",
"m  c #554534",
"M  c #5D4131",
"N  c #5A4838",
"B  c #5E503C",
"V  c #63422D",
"C  c #644331",
"Z  c #6A4633",
"A  c #654935",
"S  c #6D4A34",
"D  c #694B39",
"F  c #724C35",
"G  c #754E3A",
"H  c #784E38",
"J  c #67513B",
"K  c #74513A",
"L  c #7C533C",
"P  c #5F4E44",
"I  c #6E5D4A",
"U  c #685747",
"Y  c #7B5542",
"T  c #785A47",
"R  c #6C5D52",
"E  c #71604E",
"W  c #736254",
"Q  c #75665A",
"!  c #7C6D5C",
"~  c #7A6955",
"^  c #7B6F64",
"/  c #7E7265",
"(  c #82543D",
")  c #835641",
"_  c #855B46",
"`  c #8B5C45",
"'  c #885E48",
"]  c #905F48",
"[  c #8C6145",
"{  c #8B624B",
"}  c #94654C",
"|  c #9A6B4D",
" . c #93694C",
".. c #9C6D52",
"X. c #936853",
"o. c #82715D",
"O. c #9F7252",
"+. c #816E5D",
"@. c #A57356",
"#. c #A5755B",
"$. c #AA775A",
"%. c #AC7B5B",
"&. c #847363",
"*. c #85766A",
"=. c #8B7C6B",
"-. c #887868",
";. c #917F6C",
":. c #877D71",
">. c #A47C65",
",. c #B17D60",
"<. c #92816E",
"1. c #8E8072",
"2. c #8D8379",
"3. c #938474",
"4. c #9B8A76",
"5. c #9C8B7C",
"6. c #948779",
"7. c #B48262",
"8. c #BA8463",
"9. c #BC8863",
"0. c #BC866A",
"q. c #B9886C",
"w. c #A08D7B",
"e. c #A3927D",
"r. c #BD9478",
"t. c #AE816B",
"y. c #CA926C",
"u. c #C58F6B",
"i. c #9D8F84",
"p. c #968C82",
"a. c #9E9388",
"s. c #A39384",
"d. c #AA9985",
"f. c #A2968A",
"g. c #A89788",
"h. c #AC9C8C",
"j. c #A6998A",
"k. c #B69C86",
"l. c #AC9D92",
"z. c #A79C91",
"x. c #B19F91",
"c. c #B2A28E",
"v. c #AEA092",
"b. c #B3A394",
"n. c #BAA695",
"m. c #BAA995",
"M. c #B3A699",
"N. c #BBAB9C",
"B. c #B6A799",
"V. c #BEAEA0",
"C. c #BFB1A3",
"Z. c #C3B19C",
"A. c #C7A590",
"S. c #E0B89D",
"D. c #C1AFA0",
"F. c #C4B4A4",
"G. c #CCBAA4",
"H. c #C9B7A8",
"J. c #C6B9AB",
"K. c #CCBBAC",
"L. c #C6B7A7",
"P. c #D4BDA7",
"I. c #CCBFB1",
"U. c #D1BFB0",
"Y. c #D5C1AB",
"T. c #CEC1B3",
"R. c #D4C3B4",
"E. c #D8C7B5",
"W. c #DCCAB6",
"Q. c #D5C7B9",
"!. c #D9C7B8",
"~. c #D5C8BA",
"^. c #DBCBBC",
"/. c #D6C8B7",
"(. c #DDD0BF",
"). c #E0CDBE",
"_. c #E8CCB8",
"`. c #DCCEC0",
"'. c #DED1C2",
"]. c #E1CEC1",
"[. c #E3D3C4",
"{. c #E9D6C5",
"}. c #E3D5C9",
"|. c #E7D9CA",
" X c #EBDACC",
".X c #E9D7C8",
"XX c #F0DECE",
"oX c #F0DCCB",
"OX c #EDDED1",
"+X c #F1DED0",
"@X c #EFE0D3",
"#X c #F5E2D3",
"$X c #F4E3D4",
"%X c #F9E7D7",
"&X c #F5E6D8",
"*X c #F9E7D8",
"=X c #FAE9DA",
"-X c #FBEBDD",
";X c #FDEEE1",
/* pixels */
"                                                                                                                                                                                                                                                                ",
"                                                                                                                                                                                                                                                                ",
"                                                                                                                                                                                                                                                                ",
"                                                                                                                                                                                                                                                                ",
"                                                                                                                                                                                                                                                                ",
"                                                                                                                                                                                                                                                                ",
"                                                                                                                                                                                                                                                                ",
"                                                                                                                                                                                                                                                                ",
"                                                                                                                                                                                                                                                                ",
"                                                                                                                                                                                                                                                                ",
"                                                                                                                                                                                                                                                                ",
"                                                                                                                                                                                                                                                                ",
"                                                                                                                                                                                                                                                                ",
"                                                                                                                                                                                                                                                                ",
"                                                                                                                                                                                                                                                                ",
"                                                                                                                                                                                                                                                                ",
"                                                                                                                                                                                                                                                                ",
"                                                                                                                                                                                                                                                                ",
"                                                                                                                                                                                                                                                                ",
"                                                                                                                                                                                                                                                                ",
"                                                                                                                                                                                                                                                                ",
"                                                                                                                                                                                                                                                                ",
"                                                                                                                U J                                                                                                                                             ",
"                                                                                                          m g q 5 7 s                                                                                                                                           ",
"                                                                                                        f 7 5 3 2 < < 7 s B                                                                                                                                     ",
"                                                                                                    h q < ; 7 3 3 < , 5 2 8 N                                                                                                                                   ",
"                                                                                                    s 2 % ; , 3 , , , 2 , 2 8 m                                                                                                                                 ",
"                                                                                                    7 , , , , 3 3 = , % % % 2 s J                                                                                                                               ",
"                                                                                                    7 , , , 2 2 , , , , , % % 2 j                                                                                                                               ",
"                                                                                                  U q ; ; , < < % , % , , % % ; 8                                 j                                                                                             ",
"                                                                                                  U 7 , % , % % - , ; < , % < ; 4                                 s                                                                                             ",
"                                                                                                  I 8 % % , , , , % < 4 % < i i s                                 s                                                                                             ",
"                                                                                                    m - , - < , = % 5 t < 4 V n                                 e                                                                                               ",
"                                                                                                    m 5 2 - , , , < 6 d k t Z                                   e                                                                                               ",
"                                                                                                    8 < , : , % = 5 k S S V K                                 s                                                                                                 ",
"                                                                                                    e 5 8 V 8 2 5 d S L F S G                                 0                                                                                                 ",
"                                                                                                      S ` $.L C C F L K F S S                               h s                                                                                                 ",
"                                                                                                      k.P.S.r.O.( H F F F F                                 s                                                                                                   ",
"                                                                                                  {.{.XX$X%X$X_.A.>._ F S                                   s                                                                                                   ",
"                                                                                                W.[.XX$X%X=X=X;X;X=X[.n.T                                 f                                                                                                     ",
"                                                                                              G.E.{.$X$X$X*X=X*X=X;X=X*X).                                s                                                                                                     ",
"                                                                                            Y.E.W..XXXXX$X$X%X=X$X$X$X$X$X X                            s s                                                                                                     ",
"                                                                                          P.Y.Y.W.{. X X XXX[..X X XXXXX X{.                            s                                                                                                       ",
"                                                                                          G.P.P.W.[. X[.).+X[.`.]..X X X X{.^.                          s                                                                                                       ",
"                                                                                          G.G.G.E.^.{.).E.[. X].[.[.[.[.[.[.^.                        h g                                                                                                       ",
"                                                                                        Z.G.G.F.G.^.E.[.E.K. X X].^.).[.[.].^.                        g                                                                                                         ",
"                                                                                        m.F.Z.Z.n.U.H.E.[.D.x.[.[.E.!.^.^.^.!.K.                      g                                                                                                         ",
"                                                                                        c.Z.N.N.n.c.E.n.^.^.s.h.^.U.E.E.E.E.E.K.                    h g                                                                                                         ",
"                                                                                        d.m.n.m.h.n.d.G.n.E.F.-.h.K.F.K.E.E.E.E.K.                  g                                                                                                           ",
"                                                                                        d.c.h.m.h.h.x.w.n.h.V.s.&.i.h.N.K.E.E.!.E.                  s                                                                                                           ",
"                                                                                        e.c.e.n.h.n.n.n.5.5.g.v.&.+.5.n.V.K.E.^.^.^.            { M f                                                                                                           ",
"                                                                                        e.x.4.h.h.h.g.n.N.g.6.5.*.Q *.s.B.F.K.E.^.[.          0.} M F _                                                                                                         ",
"                                                                                        e.c.4.g.n.x.h.h.h.n.h.6.=.W W &.s.V.K.^.|.^.r.    r.q.7.8.8.$.{                                                                                                         ",
"                                                                                        w.c.w.4.n.n.h.h.h.h.h.g.5.! U W =.h.K.`.K.>.7.    t.$.y.y.8.@.                                                                                                          ",
"                                                                                          c.h.<.h.n.n.h.h.g.s.s.h.6.W U Q 5.B.w.Y  .7.7.q.X.O.u.8.$.}                                                                                                           ",
"                                                                                          h.e.;.5.h.n.h.h.s.h.h.n.h.*.W U W T C F ..$.$.$.@.9.9.$..._                                                                                                           ",
"                                                                                          d.d.<.4.5.s.s.5.s.f.n.n.N.s.+.W U Z C S ` ..@.$.8.9.$.{ K                                                                                                             ",
"                                                                                          5.h.<.6.s.s.s.s.s.h.h.h.N.V.g.+.~ A C C L } | | | O. .J                                                                                                               ",
"                                                                                          ;.v.=.=.5.i.n.N.n.h.5.x.N.`.F.5.<.U z C Z L ` [ [ L J                                                                                                                 ",
"                                                                                          o.n.6.&.5.=.1.h.n.s.B.I.[.Q.I.[.E.&.N M v C G ) L Z                                                                                                                   ",
"                                                                                          ~ h.h.&.5.6.&.&.h.L.I.Q.E.K. X*X}.5.U P M x V S S                                                                                                                     ",
"                                                                                            5.F.=.6.F.s.-.=.5.N.E.E.@X*X X`.z.Q R   M x x                                                                                                                       ",
"                                                                                            =.L.h.&.n.E.F.F.^.[.`.[.^.[.`.^.F.*.Q                                                                                                                               ",
"                                                                                            o.m.J.=.6.J.'.[.K.n.h.h.B.H.E.^.I.i.^                                                                                                                               ",
"                                                                                              s.E.h.&.5.N.h.5.6.s.F.F.n.n.N.E.B.*.                                                                                                                              ",
"                                                                                              =.K.E.5.=.6.5.n.^.^.^.E.E.E.H.F.J.5.*.                                                                                                                            ",
"                                                                                              o.s.`.E.n.n.K.[.|.}.OX$X|.I.F.n.z.z.=.                                                                                                                            ",
"                                                                                                &.C.[.'.E.N.s.s.z.n.h.5.6.=.^ / :.:.                                                                                                                            ",
"                                                                                                  o.6.6.&.*.6.5.1.=.6.z.K.J.s.6.:.:.                                                                                                                            ",
"                                                                                                  W R ! f.T.'.`.~.E.Q.Q.J.I.~.J.z.6.                                                                                                                            ",
"                                                                                                I I ! N.[.|.|. XOX|.}.[.[.`.~.'.^.a.                                                                                                                            ",
"                                                                                                E ~ g.^.[.'.`.^.T.J.J.J.T.`.'.^.I.f.                                                                                                                            ",
"                                                                                                ! -.N.^.[.[.^.T.I.T.K.K.Q.^.Q.I.L.f.                                                                                                                            ",
"                                                                                                =.6.N./.^.^.'.'.'.~.~.`.'.`.T.T.F.v.                                                                                                                            ",
"                                                                                                  =.F.^.[.'.'.'.'.`.E.I.Q.^.^.I.C.B.                                                                                                                            ",
"                                                                                                  &.F.(.'.'.^.^.`.^.~.Q.Q.E.K.T.J.B.                                                                                                                            ",
"                                                                                                  ! F.[. X X|.|.|.[.'.`.`.^.Q.E.E.C.                                                                                                                            ",
"                                                                                                    n.N.N.B.z.z.z.a.p.i.f.f.a.i.2.^                                                                                                                             ",
"                                                                                                    r * $ $ @ @ O O * * * $ $ $ O $                                                                                                                             ",
"                                                                                                    $ O O O O O O & * $ $ $ @ $ O *                                                                                                                             ",
"                                                                                                      O O O O O O O & $ O O @ @ $ =                                                                                                                             ",
"                                                                                                      O X O O O O O @ O O O O O * =                                                                                                                             ",
"                                                                                                      O X O O O O O O O O O O O $ *                                                                                                                             ",
"                                                                                                        O O O O O O O O O O O O @ *                                                                                                                             ",
"                                                                                                        O O O O O O O X O O O O @ $                                                                                                                             ",
"                                                                                                        O O O . O O . O O X O O @ $                                                                                                                             ",
"                                                                                                          O . O O . . O O O O O @ $                                                                                                                             ",
"                                                                                                          O O O . . O O O O O O @ $                                                                                                                             ",
"                                                                                                          @ @ O . X O O O O O O @ @                                                                                                                             ",
"                                                                                                          % @ X X O O O . O O O @ @                                                                                                                             ",
"                                                                                                          , O X O O O . . O O O O $                                                                                                                             ",
"                                                                                                          = X X O O X . O O O O O $                                                                                                                             ",
"                                                                                                          @ X O O O X O O O O O O @                                                                                                                             ",
"                                                                                                          @ O O O X X O O O O @ @ @                                                                                                                             ",
"                                                                                                          = @ O X X O O O O @ @ @ $                                                                                                                             ",
"                                                                                                            @ O O O O O @ @ $ $ $ $                                                                                                                             ",
"                                                                                                            q = @ @ @ $ $ % $ $ =                                                                                                                               ",
"                                                                                                          X.X.' Y C p 6 6                                                                                                                                       ",
"                                                                                                          @.,.$...Y k t t                                                                                                                                       ",
"                                                                                                        @.,.0.0...S d t p                                                                                                                                       ",
"                                                                                                        @.7.0.,.{ S d 8 p                                                                                                                                       ",
"                                                                                                      ..$.8.8.@.{ Y l 8                                                                                                                                         ",
"                                                                                                      ..$.7.,...{ L d 8                                                                                                                                         ",
"                                                                                                    [ | @.$.@.} { S t 8                                                                                                                                         ",
"                                                                                                    ` } ....} ` Y z 8 8                                                                                                                                         ",
"                                                                                                    _ ] } } ` ( S t 8 t                                                                                                                                         ",
"                                                                                                  F ) ` ` ` L G x 9 8 t                                                                                                                                         ",
"                                                                                                  F ( ` ` ) G C d 9 t 8 @ % <                                                                                                                                   ",
"                                                                                                  S L ( ) G Z k 4 < > + . @ , 2 < ;                                                                                                                             ",
"                                                                                                  S G G G Z x t + . . . X + % , - -                                                                                                                             ",
"                                                                                                  Z G G Z x i 1 + O O O + + + @ @ #                                                                                                                             ",
"                                                                                                z V F Z x k t - # @ + O O X + + @                                                                                                                               ",
"                                                                                                l V Z V l a 4 # @ + X X O O                                                                                                                                     ",
"                                                                                                z V V x d t <   + +                                                                                                                                             ",
"                                                                                                x x l k y 8                                                                                                                                                     ",
"                                                                                                v x i y t                                                                                                                                                       ",
"                                                                                              x x k t t 6                                                                                                                                                       ",
"                                                                                              V x c y t 4                                                                                                                                                       ",
"                                                                                              5 t p < % @ >                                                                                                                                                     ",
"                                                                                            $ O O O O O @ < 3                                                                                                                                                   ",
"                                                                                            @ O O O O O % 5 q 8 s h h b                                                                                                                                         ",
"                                                                                          5 < $ O O O @ > , 5 8 s h n n g                                                                                                                                       ",
"                                                                                          5 7 3 < = * , , , 5 q s h h s e                                                                                                                                       ",
"                                                                                        8 2 5 7 5 3 5 3 7 e s e s s s 8 8                                                                                                                                       ",
"                                                                                        q < 2 5 3 < < < 5 e g f s q 5 5 5                                                                                                                                       ",
"                                                                                        g 5 2 < , , , < ; < 5 5 4 7 5 3                                                                                                                                         ",
"                                                                                        7 e 8 7 7 7 7 5 2 3 5 w w 5                                                                                                                                             ",
"                                                                                            7 7 7 7 7                                                                                                                                                           "
};
