/* XPM */
static char *sword_right[] = {
/* columns rows colors chars-per-pixel */
"128 128 223 2 ",
"   c #FF00FF",
".  c #050504",
"X  c #090706",
"o  c #0B0907",
"O  c #0D0B0A",
"+  c #090708",
"@  c #120E0C",
"#  c #100C07",
"$  c #14110E",
"%  c #1C130E",
"&  c #0F0F10",
"*  c #150F11",
"=  c #161210",
"-  c #1A1513",
";  c #1E1915",
":  c #1F1B19",
">  c #22160E",
",  c #271B0E",
"<  c #211612",
"1  c #241A13",
"2  c #2A1D14",
"3  c #231D1B",
"4  c #2C1E19",
"5  c #311F15",
"6  c #2D2115",
"7  c #2D221A",
"8  c #26201D",
"9  c #322415",
"0  c #33251B",
"q  c #3B251A",
"w  c #35291C",
"e  c #3A291A",
"r  c #2B2623",
"t  c #362A22",
"y  c #3A2C22",
"u  c #342926",
"i  c #3E3123",
"p  c #3C322B",
"a  c #3A3433",
"s  c #41261B",
"d  c #432A1C",
"f  c #472C1B",
"g  c #46311C",
"h  c #462D21",
"j  c #4A2E22",
"k  c #423425",
"l  c #4C3223",
"z  c #43352B",
"x  c #4B3B2B",
"c  c #493729",
"v  c #533523",
"b  c #553A25",
"n  c #54362A",
"m  c #553A2B",
"M  c #5B3D2C",
"N  c #5A3925",
"B  c #4D3E32",
"V  c #443832",
"C  c #5B3E31",
"Z  c #503F34",
"A  c #623C2C",
"S  c #623F31",
"D  c #5A422E",
"F  c #4E4134",
"G  c #554533",
"H  c #5D4332",
"J  c #5A4936",
"K  c #5C4A39",
"L  c #52453A",
"P  c #4F412E",
"I  c #62412E",
"U  c #634333",
"Y  c #6C4A35",
"T  c #654C3C",
"R  c #6A4C3B",
"E  c #694634",
"W  c #724D3A",
"Q  c #744B37",
"!  c #68513D",
"~  c #73513C",
"^  c #7C513C",
"/  c #574E45",
"(  c #6C5241",
")  c #6B5847",
"_  c #7A5645",
"`  c #735C4B",
"'  c #785746",
"]  c #6C5950",
"[  c #75624E",
"{  c #766451",
"}  c #796452",
"|  c #7D6955",
" . c #7E6C59",
".. c #7E675B",
"X. c #736860",
"o. c #82553D",
"O. c #825742",
"+. c #845A43",
"@. c #8B5C44",
"#. c #895D49",
"$. c #925F46",
"%. c #8B624B",
"&. c #8B6148",
"*. c #93644B",
"=. c #9C6A4E",
"-. c #96654A",
";. c #826E5B",
":. c #8D6750",
">. c #9C6C53",
",. c #976752",
"<. c #84715D",
"1. c #9B725A",
"2. c #A46D52",
"3. c #A47056",
"4. c #A3725B",
"5. c #A97759",
"6. c #B57B5D",
"7. c #A26B4F",
"8. c #857363",
"9. c #897664",
"0. c #8D7966",
"q. c #86796E",
"w. c #8C7C6B",
"e. c #85776B",
"r. c #927F6B",
"t. c #877B70",
"y. c #8C7E71",
"u. c #897769",
"i. c #B67C62",
"p. c #D35A40",
"a. c #D87655",
"s. c #C87E67",
"d. c #95816E",
"f. c #8E8174",
"g. c #928374",
"h. c #9D8D7C",
"j. c #968879",
"k. c #BA8364",
"l. c #B88668",
"z. c #A28E7E",
"x. c #A78A73",
"c. c #A8927C",
"v. c #AF8160",
"b. c #DE8352",
"n. c #E39858",
"m. c #C58D6D",
"M. c #C48968",
"N. c #CA926E",
"B. c #CB9475",
"V. c #D59A76",
"C. c #D59875",
"Z. c #D5926F",
"A. c #DDA27D",
"S. c #D8A777",
"D. c #DCB174",
"F. c #E3A57E",
"G. c #E6A87C",
"H. c #E4B672",
"J. c #998D81",
"K. c #968B80",
"L. c #9E9185",
"P. c #A99684",
"I. c #AB9B8B",
"U. c #A59587",
"Y. c #B29E8D",
"T. c #B29B83",
"R. c #AB9E93",
"E. c #B19F91",
"W. c #B6A18D",
"Q. c #AEA197",
"!. c #B4A495",
"~. c #BCAB9D",
"^. c #B8A899",
"/. c #BCAEA2",
"(. c #BEB1A5",
"). c #CD9C84",
"_. c #DCA382",
"`. c #C1AE9C",
"'. c #C3B19F",
"]. c #E2A781",
"[. c #E6AA84",
"{. c #EAAB86",
"}. c #EBAD89",
"|. c #E3AD8C",
" X c #EEB18C",
".X c #E1BC84",
"XX c #ECB493",
"oX c #C3AFA1",
"OX c #C4B3A4",
"+X c #CAB6A4",
"@X c #C4B5A9",
"#X c #C6B9AC",
"$X c #CBBBAC",
"%X c #CBB7A8",
"&X c #D4BCA9",
"*X c #CCBDB1",
"=X c #D2BFB1",
"-X c #D7C2AD",
";X c #CEC1B4",
":X c #D3C3B4",
">X c #DAC4B3",
",X c #D5C6B9",
"<X c #D7C8BB",
"1X c #DBCBBD",
"2X c #DAC7B9",
"3X c #E2CDBD",
"4X c #E0C4B4",
"5X c #E7CAAF",
"6X c #DBCCC1",
"7X c #DED1C3",
"8X c #E4D2C4",
"9X c #E9D5C6",
"0X c #E5D5CA",
"qX c #EAD7C9",
"wX c #ECDACC",
"eX c #ECD8C7",
"rX c #F0DDCE",
"tX c #F1DFD1",
"yX c #E1CFC0",
"uX c #F4E2D4",
"iX c #F9E7D9",
"pX c #FBEADD",
"aX c #F7E5D8",
/* pixels */
"                                                                                                                                                                                                                                                                ",
"                                                                                                                                                                                                                                                                ",
"                                                                                                                                                                                                                                                                ",
"                                                                                                                                                                                                                                                                ",
"                                                                                                                                                                                                                                                                ",
"                                                                                                                                                                                                                                                                ",
"                                                                                                                                                                                                                                                                ",
"                                                                                                                                                                                                                                                                ",
"                                                                                                                                                                                                                                                                ",
"                                                                                                                                                                                                                                                                ",
"                                                                                                                                                                                                                                                                ",
"                                                                                                                                                                                                                                                                ",
"                                                                                                                                                                                                                                                                ",
"                                                                                                                                                                                                                                                                ",
"                                                                                                                                                                                                                                                                ",
"                                                                                                                                                                                                                                                                ",
"                                                                                                                                                                                                                                                                ",
"                                                                                                                                                                                                                                                                ",
"                                                                                                                                                                                                                                                                ",
"                                                                                                                                                                                                                                                                ",
"                                                                                                                                                                                                                                                                ",
"                                                                                                                                                                                                                                                                ",
"                                                                                                      |                                                                         x                                                                               ",
"                                                                                                    K y w i c x K                                                               k                                                                               ",
"                                                                                                K G y y 9 2 7 9 w k B                                                         k                                                                                 ",
"                                                                                                y 9 9 y 9 7 7 7 7 9 9 k {                                                     i                                                                                 ",
"                                                                                              t 1 % 2 2 1 2 2 7 7 9 w w B 0.                                                c k                                                                                 ",
"                                                                                              7 1 1 < < % 1 < < 2 9 9 9 9 (                                                 i                                                                                   ",
"                                                                                              w 1 7 % % < 1 % 1 2 9 9 2 1 c                                               k i                                                                                   ",
"                                                                                              P 2 - % % % < 2 9 k h e 2 9 x |                                             i                                                                                     ",
"                                                                                              e < 1 1 7 1 2 9 k E O.E b b K                                             k k                                                                                     ",
"                                                                                              i 1 1 1 5 e 2 9 R 2.@.E l b                                             k i                                                                                       ",
"                                                                                                7 % % s f j n W 6.2.E b Q                                             k c                                                                                       ",
"                                                                                                w > % e A E @.O.3.6.=.Q -.                                          c k                                                                                         ",
"                                                                                                k 2 , 9 Q +.-.=.=.=.-.$.i.i.                                        x                                                                                           ",
"                                                                                                k , , d Q @.=.2.=.*.-.-.^                                         x x                                                                                           ",
"                                                                                                  9 g M ^ @.-.=.-.*.-.^ W                                         x                                                                                             ",
"                                                                                                    E ^ =.-.-.&.@.@.@.^                                         x x                                                                                             ",
"                                                                                              9XwX-Xx.3.6.7.@.@.O.o.@.&.                                        x                                                                                               ",
"                                                                                          eXrXuXiXuXwX&Xm.2.$.o.o.o.O.                                        P x                                                                                               ",
"                                                                                        3XrXuXpXpXpXtXwX4Xl.*.^                                               G                                                                                                 ",
"                                                                                      -X1XwXuXpXpXpXuXwX8X2Xx.O.                                            K G                                                                                                 ",
"                                                                                      +X3XwXuXuXpXpXiXrXqX3X=XY.                                            K G                                                                                                 ",
"                                                                                    `.^.+X8XwXuXuXiXaXrXqX9X1X%Xc.x.                                      K K                                                                                                   ",
"                                                                                    '.`.+X2X8XwXuXuXuXuX9X9X8X2XT.x.x.                                    K K                                                                                                   ",
"                                                                                    +X^.^.%X1X8XwXtXuXwX9X8X9X3X&Xc.x.                                    K                                                                                                     ",
"                                                                                    &XW.I.!.:X1X8X9XwXtXwX3X8X8X3X%XT.c.                                G G                                                                                                     ",
"                                                                                    Y.+X!.z.'.2X8XqXqXqXtXrX8X9X3X3X-XW.                          (     F F                                                                                                     ",
"                                                                                    r.z.+Xz.P.:XyX9XwXuXtXtXrXqX-X&X2X&X^.                        l.-.P G                                                                                                       ",
"                                                                                      <.j.P.r.~.1X8XwXuXaXiXaXtX5XD.S.B.&X                        }.Z.l.v.5.(                                                                                                   ",
"                                                                                      ;.| <.8.h.%X8X8XwXuXpXpXuX3XH.n.p.).                      [. XXX}.i.2.                                                                                                    ",
"                                                                                      <.<.} } 0.!.:XqXtXuX9X5XXX|..XH.a.B.-X                  [.{. X X_.s.>.                                                                                                    ",
"                                                                                      <.<.| ` { z.%X0X:X)._.}.}.{.A.H.a.s.-X                }.{.}.}.|._.i.#.                                                                                                    ",
"                                                                                        ;.<.} )  .~.z.%.k.V.A.[.{.F.S.b.a.2X          [.}.}. X X[._.).B.>.W                                                                                                     ",
"                                                                                        <.8.;.} ` } H W >.k.B.V.F.F.G.G.Z.XX|.[._.[.[.{.}.[.A.m.4.4.1.^ U                                                                                                       ",
"                                                                                        <.<.8. .| ` ( T W >.k.N.V.V.A.F.G.G.[.[.F.F.A.A.B.v.:.R U m k m                                                                                                         ",
"                                                                                        0.j.g.w.;.} } ! H W =.k.m.N.Z.V.V.V.V.N.m.l.v.1.#.( T T                                                                                                                 ",
"                                                                                          g.I.U.<.| ;.` K U W -.6.M.N.N.m.k.5.-.%._ ^ R ( R                                                                                                                     ",
"                                                                                          | <.h.0.<.;.} ` T U E @.3.6.M.6.>.O.E U H ( ( (                                                                                                                       ",
"                                                                                           .r.E.h.<.<.;.| ` ( T I ^ -.=.@.W U H T ` ( T                                                                                                                         ",
"                                                                                            U.!.w.h.Y.z.8.;.} ) R U A A U } w.P.` T T                                                                                                                           ",
"                                                                                            h.j.P.+X:X1X^.0.;.| } ` ( ` <.!.:X:X..                                                                                                                              ",
"                                                                                            h.h.`.%X+X*X1XoXd.<.;. . .8.8.y.~.*X                                                                                                                                ",
"                                                                                            U.Y.^.:X0X0X0X0X+Xd.8.<.8.8.w.u.h.%X%X                                                                                                                              ",
"                                                                                            P.+X+XoX:XwX0X=X~.U.0.8.8.8.w.w.w.~.:X                                                                                                                              ",
"                                                                                            ~.8X8X2X:X*X%X+X~.I.g.8.8.8.w.w.w.h.~.                                                                                                                              ",
"                                                                                              I.@X*X~.!.@X1X0X0X/.g.8.8.w.w.w.w.h.                                                                                                                              ",
"                                                                                                w.I.%X6X6X,X,X6X8X#Xh.w.w.w.w.q.y.                                                                                                                              ",
"                                                                                              P.Y.~././.(.<X0X6X;X(.I.j.w.y.g.w.e.                                                                                                                              ",
"                                                                                            +X:X1X8X0X0X6X@X~.+X(.^.U.f.q.e.f.g.q.                                                                                                                              ",
"                                                                                            !.I.!.#X,X6X0XwX0X6X*X+X%X(.L.f.t.y.g.                                                                                                                              ",
"                                                                                            +X+X%X%X1X8X6X1X6X1X*X@X#X;X(.I.j.t.q.                                                                                                                              ",
"                                                                                          '.=X:X1X6X1X,X,X,X1X1X;X^.J.L.(.@XQ.L.f.                                                                                                                              ",
"                                                                                          +X%X#X%X1X6X1X,X,X:X<X6X,X^.L.L.L.U.K.t.                                                                                                                              ",
"                                                                                          +X%X%X%X<X7X1X:X,X:X*X,X<X;XR.j.L.J.j.f.g.                                                                                                                            ",
"                                                                                        '.%X2X:X:X:X;X:X:X:X:X;X*X*X:X*XQ.K.I.^.U.h.                                                                                                                            ",
"                                                                                          / ] t.!.,X8X8X8X8X1X6X,X*X#X*X#X(.^./.~.e.                                                                                                                            ",
"                                                                                          % $ - 8 p / X.t.J.R./.#X*X*X#X#X(.Q.j.] r                                                                                                                             ",
"                                                                                          3 = = = $ @ @ @ $ - r u a V p r r : $ - 3 8                                                                                                                           ",
"                                                                                            $ $ = $ = = = = = - - - - @ . . . O = 3 3                                                                                                                           ",
"                                                                                            $ = $ @ $ @ @ = = = - - ; @ . . X O @ ; 3                                                                                                                           ",
"                                                                                            $ $ @ @ @ @ @ = = = - - - O . . O O @ - 3                                                                                                                           ",
"                                                                                            $ @ O O O O @ @ = = = - - O . . . O = ; 1                                                                                                                           ",
"                                                                                            @ O O O O O @ @ = $ $ = - O . . + O @ - : 8                                                                                                                         ",
"                                                                                            $ O O O O O O @ @ $ $ = = . . . X O O $ - 3                                                                                                                         ",
"                                                                                              O O O O O O @ @ @ @ = $ . . . X O O @ = 3                                                                                                                         ",
"                                                                                              O O O O O O @ @ @ @ = $ . . . . O O @ = ;                                                                                                                         ",
"                                                                                              @ O O O O O O O @ @ $ @ . . . O O O @ = ;                                                                                                                         ",
"                                                                                              = O . O O O O O O @ $ O . . . X O O @ $ -                                                                                                                         ",
"                                                                                              = O O O O O O O @ @ $ O . . . X X O O O =                                                                                                                         ",
"                                                                                              @ X O O O O O O @ O $ O . . O O + O O O = 3                                                                                                                       ",
"                                                                                              O X O O O O O O O O @ O . O @ O O O O @ ;                                                                                                                         ",
"                                                                                              O O O O O @ @ O @ @ @ X . @ - < 4 e e h c                                                                                                                         ",
"                                                                                              @ @ @ O O @ O O @ @ @         e j S M l l                                                                                                                         ",
"                                                                                              % @ O O @ @ @ @ @ @ *       l s l C M l l                                                                                                                         ",
"                                                                                              2 $ $ @ @ @ @ @ @ @ @       l j C U U m m                                                                                                                         ",
"                                                                                              W l 2 % % $ @ @ $ $ -       l U _ ^ E U H                                                                                                                         ",
"                                                                                            >.,.O.N f q 9 2 % - -         b _ %._ ^ E H                                                                                                                         ",
"                                                                                            3.>.O.A v l f s               H _ #.%._ R M                                                                                                                         ",
"                                                                                          >.3.>.@.Q v j d                 M ( _ _ ( U m                                                                                                                         ",
"                                                                                        ,.3.3.3.>.%.M s d                 l U W ^ R H b                                                                                                                         ",
"                                                                                        -.2.4.4.4.-.I s                     l U R U m                                                                                                                           ",
"                                                                                        %.>.>.>.,.O.M                       d M U C m                                                                                                                           ",
"                                                                                      ^ #.-.-.%.O.E g                       d m C M m                                                                                                                           ",
"                                                                                      Q @.#.#.O.W M f                       e c m M M                                                                                                                           ",
"                                                                                      W O.O._ W S l                         q l m U U                                                                                                                           ",
"                                                                                      E ^ ^ W U n d                         q l M E E                                                                                                                           ",
"                                                                                      I Q E U n j                             h M R W C                                                                                                                         ",
"                                                                                    n M I A M v d                             h U ^ W y w                                                                                                                       ",
"                                                                                    l m M b v j e                           1 < e c 4 @ 1 e                                                                                                                     ",
"                                                                                    j v v v v d                             7 % O O O $ 1 9 k x                                                                                                                 ",
"                                                                                    d l v v l e                           w 7 7 < @ @ % > 2 w k x k                                                                                                             ",
"                                                                                    d j v l d 9                           e 9 2 % 1 2 > 2 7 y k k k k                                                                                                           ",
"                                                                                    s d l l h                             w 9 2 $ @ @ % % > , 9 9 9 9 i                                                                                                         ",
"                                                                                    d d j l d                                       * @ @ % 1 2 2 7 7                                                                                                           ",
"                                                                                    4 e h d 5                                                                                                                                                                   ",
"                                                                                  = O @ % @ O                                                                                                                                                                   ",
"                                                                                9 $ & & O @ - 9                                                                                                                                                                 ",
"                                                                                9 - O O - t 7 e g                                                                                                                                                               ",
"                                                                                9 7 O $ 2 y t 7 7                                                                                                                                                               ",
"                                                                              i 9 7 1 > 2 w c x y i                                                                                                                                                             ",
"                                                                              i 7 7 9 7 2 y L L c k x                                                                                                                                                           ",
"                                                                              w w 7 7 w i c L / F B x G                                                                                                                                                         ",
"                                                                                w w 7 7 w k B F x B K G x                                                                                                                                                       ",
"                                                                                    w 2 7 k c c c V c y k                                                                                                                                                       ",
"                                                                                      w 9 9 p c p c V c B V                                                                                                                                                     ",
"                                                                                        w w t w w y p y r                                                                                                                                                       ",
"                                                                                            r 9 9 7                                                                                                                                                             "
};
