/* XPM */
static char *aim_back_right[] = {
/* columns rows colors chars-per-pixel */
"128 128 221 2 ",
"   c #FF00FF",
".  c #030304",
"X  c #070709",
"o  c #08070B",
"O  c #0A0A0D",
"+  c #080709",
"@  c #0E0D11",
"#  c #100F14",
"$  c #0D1017",
"%  c #121215",
"&  c #15141A",
"*  c #191719",
"=  c #1B1A1C",
"-  c #18181B",
";  c #130C0B",
":  c #2B1613",
">  c #2E1915",
",  c #251B19",
"<  c #331A16",
"1  c #341D19",
"2  c #3C1F18",
"3  c #381E17",
"4  c #28120F",
"5  c #1D231E",
"6  c #3D211A",
"7  c #36271E",
"8  c #2A211E",
"9  c #1D1C24",
"0  c #1E2829",
"q  c #232224",
"w  c #2A2422",
"e  c #23232C",
"r  c #2A292C",
"t  c #362B24",
"y  c #3A2C23",
"u  c #3C2D2B",
"i  c #352825",
"p  c #3C3126",
"a  c #262630",
"s  c #2B2B34",
"d  c #2E2E39",
"f  c #332F32",
"g  c #2F333B",
"h  c #33333C",
"j  c #393638",
"k  c #44221C",
"l  c #4A251E",
"z  c #4D2A22",
"x  c #472924",
"c  c #532C23",
"v  c #542E29",
"b  c #44352A",
"n  c #493B2D",
"m  c #48352A",
"M  c #5D342A",
"N  c #563329",
"B  c #493933",
"V  c #5A3A34",
"C  c #633A2F",
"Z  c #683A34",
"A  c #7B3D38",
"S  c #484038",
"D  c #514232",
"F  c #5D4D3C",
"G  c #564739",
"H  c #66483C",
"J  c #744538",
"K  c #62523E",
"L  c #363642",
"P  c #3A3A44",
"I  c #3E3E4A",
"U  c #383742",
"Y  c #344748",
"T  c #3B6E47",
"R  c #41414E",
"E  c #4C4A4C",
"W  c #484546",
"Q  c #544C48",
"!  c #5D5247",
"~  c #454552",
"^  c #4A4A55",
"/  c #4C4C5B",
"(  c #474957",
")  c #4E515E",
"_  c #5C595B",
"`  c #53535B",
"'  c #6C4D47",
"]  c #734C44",
"[  c #655443",
"{  c #6A5744",
"}  c #6B5945",
"|  c #6D5C4B",
" . c #62574C",
".. c #715E4C",
"X. c #77544A",
"o. c #685E56",
"O. c #7B5853",
"+. c #41764E",
"@. c #43684A",
"#. c #73614E",
"$. c #6E6257",
"%. c #756453",
"&. c #796755",
"*. c #7B6956",
"=. c #73655A",
"-. c #74685D",
";. c #7C6B5B",
":. c #78675A",
">. c #545564",
",. c #5A5A66",
"<. c #4F5160",
"1. c #5D6879",
"2. c #6A6667",
"3. c #7B6E63",
"4. c #766B66",
"5. c #7D736A",
"6. c #7D7065",
"7. c #656875",
"8. c #677479",
"9. c #7D7875",
"0. c #706F73",
"q. c #835C58",
"w. c #895449",
"e. c #8D615B",
"r. c #806E5B",
"t. c #866259",
"y. c #93655C",
"u. c #83715D",
"i. c #88735D",
"p. c #876B65",
"a. c #827263",
"s. c #8A7662",
"d. c #8D7963",
"f. c #84766B",
"g. c #88776D",
"h. c #957969",
"j. c #817973",
"k. c #8C7D73",
"l. c #867B7A",
"z. c #917875",
"x. c #956960",
"c. c #A76B62",
"v. c #A4756D",
"b. c #A77467",
"n. c #B07972",
"m. c #CC7F7D",
"M. c #478F67",
"N. c #9B846F",
"B. c #8A827B",
"V. c #928272",
"C. c #92837C",
"Z. c #9C8877",
"A. c #A78779",
"S. c #B6857B",
"D. c #A8917B",
"F. c #767A87",
"G. c #6F7C8D",
"H. c #7C8792",
"J. c #938C85",
"K. c #998A87",
"L. c #9B9692",
"P. c #8E8C8C",
"I. c #BA8C84",
"U. c #A59587",
"Y. c #BD928A",
"T. c #A49B97",
"R. c #B79898",
"E. c #AB8B83",
"W. c #81AE8C",
"Q. c #ABA59E",
"!. c #AAA097",
"~. c #B5A69A",
"^. c #939AA6",
"/. c #9AA2AB",
"(. c #AAA7A3",
"). c #B1ACA7",
"_. c #B5B1AC",
"`. c #B8B1A9",
"'. c #BCBAB5",
"]. c #BDBDBA",
"[. c #C6958B",
"{. c #D89C8E",
"}. c #CA9B91",
"|. c #C29A97",
" X c #D79E94",
".X c #C88F82",
"XX c #CDA19D",
"oX c #D4A59C",
"OX c #D7A097",
"+X c #E0A597",
"@X c #C8A8A4",
"#X c #D8ABA5",
"$X c #D9B6AC",
"%X c #C1BBB5",
"&X c #C1BEB9",
"*X c #E6ADA5",
"=X c #E9B4AB",
"-X c #E6BAB7",
";X c #C5C2BC",
":X c #C8C4BD",
">X c #DEC0BE",
",X c #F4C3BF",
"<X c #CDC9C4",
"1X c #C6C5C4",
"2X c #D1CECA",
"3X c #D0CCC6",
"4X c #D3D1CC",
"5X c #DCDBD5",
"6X c #D7D5D2",
"7X c #CDCAD0",
"8X c #EDC5C3",
"9X c #F4C9C7",
"0X c #E0DDD7",
"qX c #F7D0CF",
"wX c #DFE0D9",
"eX c #E3E3DD",
"rX c #EEEEE9",
"tX c #F0EFEB",
"yX c #F2F3EE",
"uX c #F5F5F1",
"iX c #FBF9F4",
/* pixels */
"                                                                                                                                                                                                                                                                ",
"                                                                                                                                                                                                                                                                ",
"                                                                                                                                                                                                                                                                ",
"                                                                                                                                                                                                                                                                ",
"                                                                                                                                                                                                                                                                ",
"                                                                                                                                                                                                                                                                ",
"                                                                                                                                                                                                                                                                ",
"                                                                                                                                                                                                                                                                ",
"                                                                                                                                                                                                                                                                ",
"                                                                                                                                                                                                                                                                ",
"                                                                                                                                                                                                                                                                ",
"                                                                                                                                                                                                                                                                ",
"                                                                                                                                                                                                                                                                ",
"                                                                                                                                                                                                                                                                ",
"                                                                                                                                                                                                                                                                ",
"                                                                                                                                                                                                                                                                ",
"                                                                                                                                                                                                                                                                ",
"                                                                                                                                                                                                                                                                ",
"                                                                                                                                                                                                                                                                ",
"                                                                                                                                                                                                                                                                ",
"                                                                                                                                                                                                                                                                ",
"                                                                                                                                                                                                                                                                ",
"                                                                                                                                                                                                                                                                ",
"                                                                                                      q = 9 g E                                                                                                                                                 ",
"                                                                                                  q @ @ O @ 9 d h P                                                                                                                                             ",
"                                                                                                  % O O @ * 9 e q f P                                                                                                                                           ",
"                                                                                                  O O O % 9 q d d g Q                                                                                                                                           ",
"                                                                                                = O O @ % = r j E ` k.                                                                                                                                          ",
"                                                                                                  % @ % * w f W 2.l.T.$X                                                                                                                                        ",
"                                                                                                  % % = w u B Q l.T.@X8X                                                                                                                                        ",
"                                                                                                  * , w i u B V n.@X>X8X                                                                                                                                        ",
"                                                                                                  , , i u u B Z m.-X8X-X                                                                                                                                        ",
"                                                                                                    8 u u u V A n.-X8XqX                                                                                                                                        ",
"                                                                                                    i u b b H w.c.=X8XqX                                                                                                                                        ",
"                                                                                                    B m V V ] n. X X=X,X                                                                                                                                        ",
"                                                                                                      J J J w.S.*X X+X=X                                                                                                                                        ",
"                                                                                                      K } } t.S.*X{.[.oX                                                                                                                                        ",
"                                                                                                    @.T +.+.M.W.$X[.A.                                                                                                                                          ",
"                                                                                                    w w q 5 0 Y 8.g.                                                                                                                                            ",
"                                                                                                  = % @ @ @ @ % * e h q q d d d ~                                                                                                                               ",
"                                                                                                9 % % @ # @ @ @ O O @ @ @ * 9 d I / ,.                      '                                                                                                   ",
"                                                                                                * % @ @ @ @ @ O O @ @ @ @ @ * d P ~ >.,.P                 ' q.                                                                                                  ",
"                                                                                              = % % @ @ @ @ @ O O @ @ @ @ @ * a L R / / R ,.7.|.=X8XqXqX-XY.p.p.O.                                                                                              ",
"                                                                                              * % % @ @ O O O O O O O O @ @ * e L R ~ ~ / ,.,.T.8X-X-X9X9X=Xh.q.q.                                                                                              ",
"                                                                                              * % @ O O O O O O O O O O @ O * e L I ~ ( ) >.>.R.8X-X-X=X=XY.O.'                                                                                                 ",
"                                                                                              % % @ @ @ O O O O O O @ @ @ @ 9 d L I ~ / ) / ,.R.|.R.@XoXoXO.V '                                                                                                 ",
"                                                                                              % % @ @ O O O O O O O O @ % * e h L P ~ / ) / ,.g.p.z.E.                                                                                                          ",
"                                                                                              = % @ @ O O O O O O O O O @ * d I L R ~ / >.<.>.                                                                                                                  ",
"                                                                                                % @ O O O O O O O + X O O % 9 I h h   P P I                                                                                                                     ",
"                                                                                                * # O O O O O O X X X X @ 9 d R R e                                                                                                                             ",
"                                                                                                = % O O O O O O X X X o # e d P I h                                                                                                                             ",
"                                                                                                  % O O O O O X X X o O * e h P I P                                                                                                                             ",
"                                                                                                  % O O O O O X X X X O * a h I h P                                                                                                                             ",
"                                                                                                  = @ O O O O O o o o O % e L I e R                                                                                                                             ",
"                                                                                                    @ O O O O o X X X X @ 0 L h e ~ >.                                                                                                                          ",
"                                                                                                    @ O O O X X X X X O @ e d d d ~ )                                                                                                                           ",
"                                                                                                    # @ O O X O O O O O # 9 9 e e / (                                                                                                                           ",
"                                                                                                    O O O O O O O o O O @ * 9 * d / ~                                                                                                                           ",
"                                                                                                    O O O X X O O O O O @ % * * R / I                                                                                                                           ",
"                                                                                                    O O O O O O O O O O @ % @ d ) R U                                                                                                                           ",
"                                                                                                    O O O O O O X o O O @ @ * P / P h                                                                                                                           ",
"                                                                                                  O O O @ @ O O X X O @ O @ d L / d d                                                                                                                           ",
"                                                                                                  O O @ @ O O O X X O O O q h h / e d                                                                                                                           ",
"                                                                                                  O X O O O X X X O O O * d d U ~ 9 d                                                                                                                           ",
"                                                                                                  % X O O O X O O O O @ 9 9 d I ~ 9 d ,.                                                                                                                        ",
"                                                                                                  % O O O O O O o O X * 9 9 e h L * d >.                                                                                                                        ",
"                                                                                                  % @ O O O O O O O O * * % * d * * L (                                                                                                                         ",
"                                                                                                  % @ O O @ @ @ @ O O X O O * * # e d I                                                                                                                         ",
"                                                                                                  % @ O O O O O O X o @ @ = 9 @ d L e (                                                                                                                         ",
"                                                                                                  @ O O O O O O O O @ @ * e * @ d L e (                                                                                                                         ",
"                                                                                                  i @ O O O O O O O O O 9 9 * * a a d )                                                                                                                         ",
"                                                                                                V.:.G , @ O + O O O + X @ @ * d P 2.0.9.                                                                                                                        ",
"                                                                                                -.*.%.%.! D u q = = = q j W =.).].4X<X4.                                                                                                                        ",
"                                                                                                  *...r.&.N.D.Z.N.V.Z.U.~.U.U.%X0X5X).4.                                                                                                                        ",
"                                                                                                  *...:...d.N.D.D.D.U.~.~.~.U.!.5XeXJ.f.                                                                                                                        ",
"                                                                                                  %.#.:.| :.:.s.h.N.U.U.U.~.K.Q.(.5X6.B.                                                                                                                        ",
"                                                                                                  &.%.&.} %.r.%.| &.V.U.J.j.V.<XL.`.g.K.                                                                                                                        ",
"                                                                                                  &.| #.[ | %...r.s.Z.K.k.k.V.3X<XL.(.2X                                                                                                                        ",
"                                                                                                  &.[ F D G | &.i.d.V.C.C.k.k.:X5X%X3XtX                                                                                                                        ",
"                                                                                                  %.[ H n n *.i.d.s.a.k.j.j.j.`.eX:X4XtX                                                                                                                        ",
"                                                                                                  %.| [ F n %.h.h.i.a.j.f.f.f.K.eX6X4XtX                                                                                                                        ",
"                                                                                                  %.#.| F n [ d.s.r.3.a.f.g.j.5.:X5X2XtX                                                                                                                        ",
"                                                                                                  %.#.| [ D G #.:.a.:.3.3.k.J.5.B.5XeXtXuX                                                                                                                      ",
"                                                                                                  %.&...K D b [ i.a.:.6.g.V.Q.Q.B.Q.0XtXiX                                                                                                                      ",
"                                                                                                  %.*.*.| D p F i.:.r.:.:.C.Q.'.)._.eXuXiX                                                                                                                      ",
"                                                                                                    | | | D p n :.:.o.$.a.U.Q.<X_._.wXtXuX                                                                                                                      ",
"                                                                                                    | | [ D p b &.| | i.:.`.T.:X1X'.eXtX                                                                                                                        ",
"                                                                                                    | { } F b u |  .:.d.%.T.%X&X4X<X6XuX                                                                                                                        ",
"                                                                                                    [ [ { F b 7 ! r.d.s.%.%.T.&X2X3X'.5X                                                                                                                        ",
"                                                                                                    ..| { F n 7 F i.i.r.:.%.5._.:X%X:X].                                                                                                                        ",
"                                                                                                    #...| F n i n *.%...:.=. .B.'.B.B.:X                                                                                                                        ",
"                                                                                                    ....{ F n u i ..%.%.%.3.o.$.:X'.9.5X                                                                                                                        ",
"                                                                                                    H { K G n u i | &.:.:.-.3. .j.4X(.eX                                                                                                                        ",
"                                                                                                    N C m z > ,     &.:.%.=.6.j.! T.1X].                                                                                                                        ",
"                                                                                                  c c M c k < b     #.:.&.=.k.Q.T.J.(.L.                                                                                                                        ",
"                                                                                                  c c N c 3 m v.    | %.$. .! 2.J.B.P.).                                                                                                                        ",
"                                                                                                  z c c l M S.      [ [ | =.=.-.4.9.L.                                                                                                                          ",
"                                                                                                  l z z M v.OX      H } | =.3.f.B.J.                                                                                                                            ",
"                                                                                                  k l l M n.{.      c Z H ' g.R.|.                                                                                                                              ",
"                                                                                                  6 k k M b.{.      c M C q.@X-X#X                                                                                                                              ",
"                                                                                                  3 6 6 c c.{.    x z N M e. X-X$X                                                                                                                              ",
"                                                                                                  < 3 < x y..X    k l c v O.[.#X#X                                                                                                                              ",
"                                                                                                  < < : < X.S.    6 k z c ] S.oXoX                                                                                                                              ",
"                                                                                                  > > 4 1 q.      6 k l z Z v.}.OX                                                                                                                              ",
"                                                                                                  1 > : m b.      1 6 k l M y.I. X                                                                                                                              ",
"                                                                                                  1 < 1 X.S.        1 k k v e.I.}.                                                                                                                              ",
"                                                                                                  1 < 6 x.[.        < 1 k v e.I.}.                                                                                                                              ",
"                                                                                                    < x v.OX        < < 6 z e.S.[.                                                                                                                              ",
"                                                                                                    < z n.A.        1 < 3 x O.S.}.                                                                                                                              ",
"                                                                                                    < x t.K.^.        < < 6 ' A.}.                                                                                                                              ",
"                                                                                                    < b K.1X/.        > < 1 ' S.}.                                                                                                                              ",
"                                                                                                    6 C.7XP.^.7.      > > 1 ' S.oX                                                                                                                              ",
"                                                                                                    g F.H.8.) $       i > < V v.XX                                                                                                                              ",
"                                                                                                    ) H.8.Y - g ,.F.  > > > m h.|.                                                                                                                              ",
"                                                                                                  % h G.g e 1.        : > : x t.p.                                                                                                                              ",
"                                                                                                  . X O 0 G.            : : 1 B l.                                                                                                                              ",
"                                                                                                  i = h G.              : : y z.6X                                                                                                                              ",
"                                                                                                  :.4.P.^.              : < E.iX7XF.                                                                                                                            ",
"                                                                                                                        : 6 @X2X( 9 @ . .                                                                                                                       ",
"                                                                                                                        + ; j q X O @ # @ O @                                                                                                                   ",
"                                                                                                                      % . . . . . O = d h r % * h                                                                                                               ",
"                                                                                                                      r O . . . . . W ,.2._ @ e ,.                                                                                                              ",
"                                                                                                                      O X . . . . * E _ _ W r _                                                                                                                 ",
"                                                                                                                      . . . . . o j j Q Q E _                                                                                                                   ",
"                                                                                                                      i * = w S _ 2.o._ !                                                                                                                       ",
"                                                                                                                      :.4.5.j.l.9.4.                                                                                                                            ",
"                                                                                                                        5.l.l.                                                                                                                                  ",
"                                                                                                                                                                                                                                                                "
};
