/* XPM */
static char *aim_front[] = {
/* columns rows colors chars-per-pixel */
"128 128 216 2 ",
"   c #FF00FF",
".  c #131315",
"X  c #161619",
"o  c #18171C",
"O  c #1A1A1D",
"+  c #17181C",
"@  c #0F0F11",
"#  c #221F1E",
"$  c #291E1C",
"%  c #1E1D21",
"&  c #201F23",
"*  c #1F2025",
"=  c #222225",
"-  c #2A2525",
";  c #25252A",
":  c #29262A",
">  c #2B2A2C",
",  c #262A2B",
"<  c #332D2D",
"1  c #3E2A24",
"2  c #233C2F",
"3  c #3A312F",
"4  c #2C2D33",
"5  c #322F33",
"6  c #2B3533",
"7  c #323235",
"8  c #393434",
"9  c #34343C",
"0  c #3C3C3D",
"q  c #3B3838",
"w  c #4C2D25",
"e  c #4C2F2A",
"r  c #442924",
"t  c #502E27",
"y  c #4B332D",
"u  c #47302C",
"i  c #54322C",
"p  c #5A352C",
"a  c #5C382F",
"s  c #523027",
"d  c #423332",
"f  c #4D3433",
"g  c #543632",
"h  c #593632",
"j  c #553935",
"k  c #5C3A34",
"l  c #523B39",
"z  c #5E3D3A",
"x  c #633C33",
"c  c #61392F",
"v  c #2F463A",
"b  c #47403B",
"n  c #57443C",
"m  c #64433B",
"M  c #664438",
"N  c #3B3B43",
"B  c #3F3F49",
"V  c #373740",
"C  c #3F4249",
"Z  c #345843",
"A  c #377657",
"S  c #43434C",
"D  c #4B4242",
"F  c #5A4947",
"G  c #5D534B",
"H  c #4A4B56",
"J  c #4D4E5A",
"K  c #464752",
"L  c #52525E",
"P  c #585659",
"I  c #4B5651",
"U  c #664B46",
"Y  c #6B524C",
"T  c #6A584D",
"R  c #7D5A4F",
"E  c #76574C",
"W  c #695B54",
"Q  c #785955",
"!  c #754F47",
"~  c #6E6156",
"^  c #7B645B",
"/  c #776456",
"(  c #555663",
")  c #595A66",
"_  c #5C5D6A",
"`  c #575964",
"'  c #615E68",
"]  c #61616E",
"[  c #696565",
"{  c #7E6862",
"}  c #7A716A",
"|  c #646572",
" . c #696A76",
".. c #6B6C7B",
"X. c #676875",
"o. c #6E707F",
"O. c #7B7672",
"+. c #70756B",
"@. c #56636F",
"#. c #845C53",
"$. c #8C5C53",
"%. c #875B55",
"&. c #965E57",
"*. c #87675A",
"=. c #95645B",
"-. c #9B6C5D",
";. c #98665A",
":. c #88735D",
">. c #A36C5D",
",. c #AC6F5F",
"<. c #856A65",
"1. c #966B63",
"2. c #8A7662",
"3. c #8E7965",
"4. c #867568",
"5. c #917D6B",
"6. c #99726B",
"7. c #8B7D72",
"8. c #847C78",
"9. c #987370",
"0. c #A36E64",
"q. c #A76D69",
"w. c #A27263",
"e. c #AD746A",
"r. c #B4766C",
"t. c #AB7A75",
"y. c #B77B76",
"u. c #BA6C66",
"i. c #C7736E",
"p. c #E17D7D",
"a. c #94806D",
"s. c #9B846E",
"d. c #8D837B",
"f. c #8E8076",
"g. c #958374",
"h. c #9B8673",
"j. c #9E8974",
"k. c #94867B",
"l. c #96897E",
"z. c #9C8B7C",
"x. c #998779",
"c. c #A28C75",
"v. c #A38E7B",
"b. c #AD827E",
"n. c #A6917A",
"m. c #AB947C",
"M. c #AF987E",
"N. c #A69076",
"B. c #BB827B",
"V. c #CB8279",
"C. c #747685",
"Z. c #797B8A",
"A. c #817B85",
"S. c #D57F80",
"D. c #7F808E",
"F. c #838387",
"G. c #958B82",
"H. c #9B8D82",
"J. c #958E89",
"K. c #9C9187",
"L. c #898893",
"P. c #9A9597",
"I. c #A68B84",
"U. c #BA8683",
"Y. c #A39283",
"T. c #A4968B",
"R. c #A9978A",
"E. c #B19981",
"W. c #B5918A",
"Q. c #A69D95",
"!. c #BF9997",
"~. c #ABA298",
"^. c #B3A79B",
"/. c #9899AC",
"(. c #B59EA4",
"). c #9FA1A7",
"_. c #ABA9A5",
"`. c #B4ABA2",
"'. c #B9AAA6",
"]. c #BCB1A7",
"[. c #B8B6BA",
"{. c #ACACB9",
"}. c #CB958E",
"|. c #D9A79B",
" X c #F4AD9C",
".X c #E6A79A",
"XX c #C5BDB3",
"oX c #CBB8B2",
"OX c #CEAFAA",
"+X c #E7AEA3",
"@X c #EAB1AE",
"#X c #EBBAB6",
"$X c #F5BCB5",
"%X c #EFB4AF",
"&X c #CCC5BB",
"*X c #C8C2B9",
"=X c #F7C3BC",
"-X c #9AA5C1",
";X c #BAB7C5",
":X c #CBC8C5",
">X c #D3CDC6",
",X c #DAD4CA",
"<X c #D8D3C9",
"1X c #DEDAD2",
"2X c #C6C4D4",
"3X c #FACCC6",
"4X c #E2DDD4",
"5X c #F9D2D1",
"6X c #E5E2D9",
"7X c #EBE7DD",
"8X c #D3D2E6",
"9X c #ECEAE2",
"0X c #F1EEE4",
"qX c #F5F3EB",
"wX c #F9F6ED",
"eX c #F8F8F1",
/* pixels */
"                                                                                                                                                                                                                                                                ",
"                                                                                                                                                                                                                                                                ",
"                                                                                                                                                                                                                                                                ",
"                                                                                                                                                                                                                                                                ",
"                                                                                                                                                                                                                                                                ",
"                                                                                                                                                                                                                                                                ",
"                                                                                                                                                                                                                                                                ",
"                                                                                                                                                                                                                                                                ",
"                                                                                                                                                                                                                                                                ",
"                                                                                                                                                                                                                                                                ",
"                                                                                                                                                                                                                                                                ",
"                                                                                                                                                                                                                                                                ",
"                                                                                                                                                                                                                                                                ",
"                                                                                                                                                                                                                                                                ",
"                                                                                                                                                                                                                                                                ",
"                                                                                                                                                                                                                                                                ",
"                                                                                                                                                                                                                                                                ",
"                                                                                                                                                                                                                                                                ",
"                                                                                                                                                                                                                                                                ",
"                                                                                                                                                                                                                                                                ",
"                                                                                                                                                                                                                                                                ",
"                                                                                                                                                                                                                                                                ",
"                                                                                                                                                                                                                                                                ",
"                                                                                                                                                                                                                                                                ",
"                                                                                                                          N 7 7 4 q                                                                                                                             ",
"                                                                                                                        7 ; : < < : q                                                                                                                           ",
"                                                                                                                      > 3 n R ;.1.U 8 0                                                                                                                         ",
"                                                                                                                      3 #.>.r.r.y.B.%.0                                                                                                                         ",
"                                                                                                                      n ;.>.e.e.t.t.t.F                                                                                                                         ",
"                                                                                                                      U R U #.0.Q Q 9.^                                                                                                                         ",
"                                                                                                                      E R U ! 0.#.Q t.6.                                                                                                                        ",
"                                                                                                                      =.-.;.&.e.y.y.U.t.                                                                                                                        ",
"                                                                                                                      $.w.0.$.;.q.y.}.t.                                                                                                                        ",
"                                                                                                                      *.0.;.$.&.1.t.U.b.                                                                                                                        ",
"                                                                                                                        ;.$.%.&.q.t.t.                                                                                                                          ",
"                                                                                                                        *.R ;.;.t.6.<.                                                                                                                          ",
"                                                                                                                          1.r.Q Y F {                                                                                                                           ",
"                                                                                                                          S.p.Q d ! 4.                                                                                                                          ",
"                                                                                                                      0 :.i.i.U.! %.+.v : 7 S 7 4 7 C                                                                                                           ",
"                                                                                                          > ; ; 7 q ; ; R u.i.|.F v A , % : : 4 N S q N                                                                                                         ",
"                                                                                                        : : ; : > : % d >.i.V.+XW.I Z 5 Y t.}.I.A.C.| B                                                                                                         ",
"                                                                                                      7 : : D <.6.^ Y =.>.V.%X#X=X|.T.}..X X X$XoXL.D.L                                                                                                         ",
"                                                                                                      > , D 6.e.w.w.w.w.;.r.}..X=X3XoX<X3X3X3X=X#X'.Z.|                                                                                                         ",
"                                                                                                      7 5 E 6.w.w.-.-.w.>.y.|.@X$X5XOX:X5X3X3X3X#X(.Z. .                                                                                                        ",
"                                                                                                      7 8 E =.1.-.-.-.0.;.;.r.%X%X5XOXoX$X%X$X#X|.W C.]                                                                                                         ",
"                                                                                                        > F ^ 1.=.*.R #.e.,.t.|.@X#XR.W.|.+XI.{ F ; ' L                                                                                                         ",
"                                                                                                        > - l Y *.R U d R ;.0.}.@XI.q d Y F & o X O )                                                                                                           ",
"                                                                                                          . X O < 3 - o - n T 6.!.F.; O O X X X X ; L                                                                                                           ",
"                                                                                                          O X X . X O O o 2 Z | {.@.X % : 4 q % % : N                                                                                                           ",
"                                                                                                            % + X O O O O 2 Z O.) : % N ] L H : ; 4                                                                                                             ",
"                                                                                                            ; O + % % % O 2 v : % % ; ) X.L ( 4 % q                                                                                                             ",
"                                                                                                            : O O % % % O > > X o O 4  .] L ) N % V                                                                                                             ",
"                                                                                                            ; O O % % : 0 D 8 > ; o q ..) ( ] H *                                                                                                               ",
"                                                                                                            ; O % & % ' Q.J.8.+.P % K | ( ) | ( : N                                                                                                             ",
"                                                                                                            ; % % ; ; L.2X2X-X/.J % L ) ( ] ] ' 4 N                                                                                                             ",
"                                                                                                            ; % ; & 4 {.8X8X{./.N : L H ( | ) | q 4                                                                                                             ",
"                                                                                                            ; % ; & q P.[.;X(.P.5 V S H ) | ) X.N 4                                                                                                             ",
"                                                                                                            ; ; ; ; ; : 4 q S S : S V H ) | ) ] S 4                                                                                                             ",
"                                                                                                            % ; ; ; & % % % O X 4 N V H ) | ) ` H 4                                                                                                             ",
"                                                                                                          > % ; ; ; ; % % % % % B 7 N H ( | | H H q                                                                                                             ",
"                                                                                                          : % & ; & & % % % % : S , N H ( | | H H q                                                                                                             ",
"                                                                                                          ; % ; ; ; % % % % % 4 q 4 q H L | ..H H q                                                                                                             ",
"                                                                                                          ; ; ; ; ; & % % % % 4 : 4 q K H X.C.L ( V                                                                                                             ",
"                                                                                                          & ; ; ; & % % O % % & * : q S H ..C.( ) B                                                                                                             ",
"                                                                                                          ; ; & ; % % % O % % % % : N B S | C.) ( K                                                                                                             ",
"                                                                                                          ; ; ; ; % % O O O % % % : B q V ] C.| K H V                                                                                                           ",
"                                                                                                          ; & ; ; O % % O O % % % 4 V : N ) C...C H S                                                                                                           ",
"                                                                                                          > & & & % % % O O % % % 4 : : N ( C.C.H S  .                                                                                                          ",
"                                                                                                          > % O O O O O O O O O O % % : 4 K C...) H `                                                                                                           ",
"                                                                                                          2.W F b 7 < > ; % % % % ; : 4 q ( L.)._.P.Q.                                                                                                          ",
"                                                                                                        E.M.M.m.n.h.a.a.2.~ W W W [ O.F.P.:X1X9XwX<X].                                                                                                          ",
"                                                                                                        m.m.M.m.E.E.m.m.m.m.v.x.`.T.`.XX:X6X6X9XwX4X*X                                                                                                          ",
"                                                                                                        n.m.m.m.m.E.E.M.m.m.Y.~.*XT.Q.].&X<X6X7XeX6X<X                                                                                                          ",
"                                                                                                        n.m.m.m.m.m.m.m.n.c.v.^.4X&X].`.].XX1X9XwX4X1X                                                                                                          ",
"                                                                                                        n.m.m.m.m.m.m.m.m.n.m.T.&X4X].T.R.Q.XX0XwX<X4X                                                                                                          ",
"                                                                                                        m.n.n.v.m.m.m.v.n.n.v.g.XX:X*XT.T.R.^.6XwX<X9X                                                                                                          ",
"                                                                                                          c.c.c.n.m.m.v.c.j.g.} G.G.Q.T.T.T.R.<XwX4XwX                                                                                                          ",
"                                                                                                        m.c.c.c.v.m.m.m.m.x.7.4.7.7.f.k.x.x.T.XX0X7XwX                                                                                                          ",
"                                                                                                        m.N.c.c.c.v.v.j.h.H.H.f.g.x.v.v.v.v.Y.].7X7XwX                                                                                                          ",
"                                                                                                        m.c.c.c.c.n.m.n.x.x.K.d.2.5.h.x.x.x.x.~.4X9XwX                                                                                                          ",
"                                                                                                        m.N.c.c.c.v.n.T.H.d.d.7.{ 2.3.5.g.g.x.H.>X0XwX                                                                                                          ",
"                                                                                                        m.c.h.c.c.v.v.l.k.7.k.f.^ h.h.h.h.h.g.x.&X:X*X                                                                                                          ",
"                                                                                                        m.c.a.c.v.c.x.T.R.R.R.8.T a.g.g.g.g.h.H.>X_.J.                                                                                                          ",
"                                                                                                          N.a.c.c.v.x.x.T.T.H.d.~ 3.a.j.j.h.h.^.1XQ.J.                                                                                                          ",
"                                                                                                        m.j.3.c.j.h.x.x.x.H.H.8.~ 2.3.5.5.a.l.`.1X:X[.                                                                                                          ",
"                                                                                                        n.s.a.h.h.h.x.x.H.H.G.8.W 2.5.5.a.5.g.~.<X9XwX                                                                                                          ",
"                                                                                                        c.c.h.h.h.j.x.H.H.l.d.O.  *.3.3.5.5.g.Q.<X9XeX                                                                                                          ",
"                                                                                                        h.c.c.j.j.h.x.x.H.G.d.    ~ 3.3.5.a.g.T.>X9XwX                                                                                                          ",
"                                                                                                          c.s.h.j.x.x.H.H.G.d.    T :.3.5.5.g.T.>X9XwX                                                                                                          ",
"                                                                                                          j.s.h.j.j.x.H.H.H.8.    T *.2.3.5.5.H.&X7X0X                                                                                                          ",
"                                                                                                          c.s.s.h.h.j.x.H.G.O.      / :.3.3.a.x.XX<X&X                                                                                                          ",
"                                                                                                          c.s.j.j.j.x.x.G.G.}       / :.2.3.g.l.R.~.Q.                                                                                                          ",
"                                                                                                          c.s.s.h.j.x.x.G.k.[       ~ :.2.3.5.g.H.P._.                                                                                                          ",
"                                                                                                          c.s.s.s.h.h.x.l.8.[       / *.:.3.5.g.H.Q._.                                                                                                          ",
"                                                                                                            h.s.h.j.v.H.G.8.          n E :.a.x.Q.`.                                                                                                            ",
"                                                                                                            E E *.5.h.k.4.            1 1 y n Y ^ <.                                                                                                            ",
"                                                                                                            M a e y j l f             u r 1 1 r j Y                                                                                                             ",
"                                                                                                            M z i e e f f             y w w w e z Y                                                                                                             ",
"                                                                                                            M x z h g g f             g w w w e g U                                                                                                             ",
"                                                                                                            M x z z z j g             j t t w e g U                                                                                                             ",
"                                                                                                            m a z z z z j               w t t i z U                                                                                                             ",
"                                                                                                            m a z z z g l               e t t i i U                                                                                                             ",
"                                                                                                            m p i h h g                   w w t i M                                                                                                             ",
"                                                                                                            z i i i i f                   r w w i M                                                                                                             ",
"                                                                                                            M p i i i f                   w w w i z                                                                                                             ",
"                                                                                                            M p i i i                     y w t i z                                                                                                             ",
"                                                                                                              p p h g                       w s i z                                                                                                             ",
"                                                                                                              c x z j                       i i i z                                                                                                             ",
"                                                                                                              x x x j                       i p i g                                                                                                             ",
"                                                                                                              x x x j                       z p p z                                                                                                             ",
"                                                                                                              M M M l                       j a h f                                                                                                             ",
"                                                                                                              y g u -                       # $ # > 0                                                                                                           ",
"                                                                                                            b < O . .                       . @ X : > ;                                                                                                         ",
"                                                                                                            - ; O . .                       . X X X X O                                                                                                         ",
"                                                                                                            O O O * X                       # . O . . O                                                                                                         ",
"                                                                                                          # . . . O ;                       ^ ; . . . X                                                                                                         ",
"                                                                                                          ; . X . %  .                      x.G . . . X 4                                                                                                       ",
"                                                                                                          # . O O 4 L.                        G . O X . N                                                                                                       ",
"                                                                                                        q ; . O ; O                             . O X . ;                                                                                                       ",
"                                                                                                        : O . O ; X                             O O ; O % >                                                                                                     ",
"                                                                                                        ; O # % : >                             b ; % % ; 4                                                                                                     ",
"                                                                                                      q ; ; ; ; N                               7.G - : q [                                                                                                     ",
"                                                                                                      ~ 8 - > S F.                                T.g.7.G.P.                                                                                                    ",
"                                                                                                        v.g.G.P.                                      g.                                                                                                        ",
"                                                                                                          H.                                                                                                                                                    ",
"                                                                                                                                                                                                                                                                ",
"                                                                                                                                                                                                                                                                ",
"                                                                                                                                                                                                                                                                "
};
