/* XPM */
static char *aim_back[] = {
/* columns rows colors chars-per-pixel */
"128 128 217 2 ",
"   c #FF00FF",
".  c #040305",
"X  c #070609",
"o  c #08070C",
"O  c #0A090D",
"+  c #07080B",
"@  c #160D0D",
"#  c #0D0C11",
"$  c #100F14",
"%  c #121115",
"&  c #1B1414",
"*  c #15141A",
"=  c #191719",
"-  c #1A191D",
";  c #1B1817",
":  c #1C100F",
">  c #231312",
",  c #2C1614",
"<  c #281A19",
"1  c #321712",
"2  c #331A15",
"3  c #391D16",
"4  c #351C19",
"5  c #3A1E19",
"6  c #2A130E",
"7  c #26201E",
"8  c #2E221F",
"9  c #3D2119",
"0  c #1C1C23",
"q  c #1F1F28",
"w  c #201F28",
"e  c #201C22",
"r  c #1F2027",
"t  c #232326",
"y  c #2D2622",
"u  c #22232B",
"i  c #2B2A2D",
"p  c #3D2624",
"a  c #322A26",
"s  c #322D29",
"d  c #3C2B29",
"f  c #342826",
"g  c #3A322B",
"h  c #2B2B35",
"j  c #2D2E39",
"k  c #272731",
"l  c #32323D",
"z  c #373336",
"x  c #303038",
"c  c #411F19",
"v  c #43221A",
"b  c #4A251D",
"n  c #50271F",
"m  c #4A2623",
"M  c #4D2B24",
"N  c #442E2A",
"B  c #442722",
"V  c #532B22",
"C  c #542D26",
"Z  c #49352E",
"A  c #593126",
"S  c #5D332B",
"D  c #533129",
"F  c #4C3C33",
"G  c #453D3A",
"H  c #463C38",
"J  c #543936",
"K  c #573430",
"L  c #62372D",
"P  c #6A3D35",
"I  c #663B35",
"U  c #49423C",
"Y  c #53463A",
"T  c #56493C",
"R  c #5C4C3D",
"E  c #594639",
"W  c #67453A",
"Q  c #76483B",
"!  c #69523E",
"~  c #353642",
"^  c #3A3B45",
"/  c #3D3E4B",
"(  c #403F4D",
")  c #3F404D",
"_  c #42424D",
"`  c #4D4848",
"'  c #554C44",
"]  c #5A4D42",
"[  c #564E49",
"{  c #584648",
"}  c #5C5145",
"|  c #5B524C",
" . c #434452",
".. c #494956",
"X. c #4B4C5B",
"o. c #5A5556",
"O. c #4F5056",
"+. c #6C4A42",
"@. c #684B4D",
"#. c #774B45",
"$. c #635344",
"%. c #685545",
"&. c #6C5946",
"*. c #62564C",
"=. c #65584C",
"-. c #6C5B4B",
";. c #6A5448",
":. c #715E4C",
">. c #775548",
",. c #645A51",
"<. c #6B5D52",
"1. c #665E5C",
"2. c #795B58",
"3. c #45754E",
"4. c #72614F",
"5. c #78644F",
"6. c #6E6156",
"7. c #6E645B",
"8. c #746353",
"9. c #796655",
"0. c #7B6856",
"q. c #74665A",
"w. c #75695E",
"e. c #7B6A5A",
"r. c #786759",
"t. c #545564",
"y. c #5B5B6A",
"u. c #585A66",
"i. c #4F5060",
"p. c #725C60",
"a. c #5B606B",
"s. c #686568",
"d. c #766C65",
"f. c #7A6C61",
"g. c #746A67",
"h. c #7E7165",
"j. c #7D7169",
"k. c #626473",
"l. c #676A78",
"z. c #777475",
"x. c #657662",
"c. c #963E3E",
"v. c #923F43",
"b. c #835A53",
"n. c #A64D4C",
"m. c #816E5C",
"M. c #89635D",
"N. c #84715E",
"B. c #95665B",
"V. c #856C65",
"C. c #847363",
"Z. c #897562",
"A. c #8D7965",
"S. c #8B7A69",
"D. c #86776A",
"F. c #91796A",
"G. c #847B73",
"H. c #8A7B75",
"J. c #957A73",
"K. c #9A6C65",
"L. c #A77873",
"P. c #B57E73",
"I. c #468258",
"U. c #95816C",
"Y. c #99836D",
"T. c #8D8176",
"R. c #8D847B",
"E. c #84817E",
"W. c #968677",
"Q. c #A58E77",
"!. c #B9857F",
"~. c #7F8189",
"^. c #6CAE89",
"/. c #8C8987",
"(. c #928C8B",
"). c #978683",
"_. c #999189",
"`. c #9B9898",
"'. c #8E8E94",
"]. c #BB938B",
"[. c #A29A92",
"{. c #A39595",
"}. c #B2968E",
"|. c #A8A39C",
" X c #93BCAA",
".X c #ADA8A1",
"XX c #B2ABA4",
"oX c #B7B2AC",
"OX c #BDBAB5",
"+X c #B9B8B3",
"@X c #C3928C",
"#X c #C9958B",
"$X c #CA9B91",
"%X c #D7A49D",
"&X c #CDB2AF",
"*X c #EBB5AA",
"=X c #A6D8B1",
"-X c #C6C3BD",
";X c #DFCBB8",
":X c #CDCAC5",
">X c #CECECB",
",X c #D2CDC5",
"<X c #D8D3CC",
"1X c #DBDAD4",
"2X c #DCDAD5",
"3X c #E7C8C9",
"4X c #E0DFDA",
"5X c #E0DBD4",
"6X c #DFE0D9",
"7X c #E3E2DC",
"8X c #EDE3DF",
"9X c #EBEAE5",
"0X c #EBE9E4",
"qX c #F3EEE9",
"wX c #F3F2EC",
"eX c #F5F6F1",
"rX c #F8F8F2",
/* pixels */
"                                                                                                                                                                                                                                                                ",
"                                                                                                                                                                                                                                                                ",
"                                                                                                                                                                                                                                                                ",
"                                                                                                                                                                                                                                                                ",
"                                                                                                                                                                                                                                                                ",
"                                                                                                                                                                                                                                                                ",
"                                                                                                                                                                                                                                                                ",
"                                                                                                                                                                                                                                                                ",
"                                                                                                                                                                                                                                                                ",
"                                                                                                                                                                                                                                                                ",
"                                                                                                                                                                                                                                                                ",
"                                                                                                                                                                                                                                                                ",
"                                                                                                                                                                                                                                                                ",
"                                                                                                                                                                                                                                                                ",
"                                                                                                                                                                                                                                                                ",
"                                                                                                                                                                                                                                                                ",
"                                                                                                                                                                                                                                                                ",
"                                                                                                                                                                                                                                                                ",
"                                                                                                                                                                                                                                                                ",
"                                                                                                                                                                                                                                                                ",
"                                                                                                                                                                                                                                                                ",
"                                                                                                                                                                                                                                                                ",
"                                                                                                                                                                                                                                                                ",
"                                                                                                                                                                                                                                                                ",
"                                                                                                                                                                                                                                                                ",
"                                                                                                                            t - u k x                                                                                                                           ",
"                                                                                                                        - % % = 0 t t l                                                                                                                         ",
"                                                                                                                        % O # % - i i k _                                                                                                                       ",
"                                                                                                                        % O # # = i x ^ ^                                                                                                                       ",
"                                                                                                                        % % # # 0 k ^ O.u.                                                                                                                      ",
"                                                                                                                        - = % % - i ` s.z.                                                                                                                      ",
"                                                                                                                        7 7 7 < y z s.(.(.                                                                                                                      ",
"                                                                                                                      m 8 y y y f G d.{.J.                                                                                                                      ",
"                                                                                                                      S p d f f N | H.).n.                                                                                                                      ",
"                                                                                                                      P N d N N F q.).L.c.                                                                                                                      ",
"                                                                                                                        J Z Z Z W J.].P.n.                                                                                                                      ",
"                                                                                                                        W W Q Q B.$X*X*X                                                                                                                        ",
"                                                                                                                        %.! >.>.L.%X*X*X                                                                                                                        ",
"                                                                                                                        3.3.3.I.^.=X;X                                                                                                                          ",
"                                                                                                                        g F E } x.^. X                                                                                                                          ",
"                                                                                                                  - % % $ $ % = e k ^ ..O.                                                                                                                      ",
"                                                                                                            0 = % $ # # # # # # % = 0 u j ~ ^  .                                                                                                                ",
"                                                                                                        - = % % # # # # # # # # $ = = - 0 u k l ^ _ ..k.                                                                                                        ",
"                                                                                                      - % % $ $ # # # # # # # # # # # $ % - u j ~ /  .y.k.                                                                                                      ",
"                                                                                                      = % % # # # # # # # # # # # # # # # % 0 k ~ _ ..t.k.                                                                                                      ",
"                                                                                                      % % $ # # # # # # # # # # # # # # # # = u l ^ ....k.                                                                                                      ",
"                                                                                                      $ # # # # # # # # # # # # # # # # # # = u l j ) / u.                                                                                                      ",
"                                                                                                      # # # # # # # # # # # # # # # # # # # $ 0 k k k ^ ..k.                                                                                                    ",
"                                                                                                      # O O # # # O O # # # # # # # O O O O # = k u q k _ y.                                                                                                    ",
"                                                                                                      # O O O # O O O # # # O O # # O O O O # = u u 0 u ~ t.                                                                                                    ",
"                                                                                                      % O O O O # # O O O O O O O # O O o O # 0 = k q 0 ~ t.                                                                                                    ",
"                                                                                                      - # O O O # # O O O O O O O O # O X # # 0 0 k j = ~ ..                                                                                                    ",
"                                                                                                        # O O O O O O O O O O O O O O O O # 0 = u k j = l ..                                                                                                    ",
"                                                                                                        # O O O O O O O O O o O O O O O o O u u u / w = j                                                                                                       ",
"                                                                                                          % O O O O O O O O O X X O O # O o 0 j j _ f {                                                                                                         ",
"                                                                                                            = O O O O O O O O X X X O # O O 0 l ~ ..@.@X                                                                                                        ",
"                                                                                                            - O O O # O O O O X X X O - = O = k / ..p.                                                                                                          ",
"                                                                                                            % # O O O # O O O O X X X $ 0 0 w l  ._                                                                                                             ",
"                                                                                                            % # O O O # O O O O X X X # = u k ^ / _                                                                                                             ",
"                                                                                                            # # O O O O # O O O X X X o 0 j j l ^ ..                                                                                                            ",
"                                                                                                            O O O O O O # # # # O X X X # k l l / _ k.                                                                                                          ",
"                                                                                                            O O O O O X O O # # # O O O O = 0 l l / k.                                                                                                          ",
"                                                                                                            # O O O O O o X X X X O # # # = j l l  .k.                                                                                                          ",
"                                                                                                            % O O O O O O O O o X X X o # w k k ( ..k.                                                                                                          ",
"                                                                                                            = O O O O O # # # # # # # O # u 0 0 / ..k.k.                                                                                                        ",
"                                                                                                            = # O O O O # # # # # # # # # # % u j ..y.t.                                                                                                        ",
"                                                                                                            % O O O O O X O # # # # 0 u 0 = 0 u k  . ...                                                                                                        ",
"                                                                                                            O O O O O O O X X X X X O = 0 0 w j ~ / _ ..                                                                                                        ",
"                                                                                                            # # O O O O # # = = = # # # = 0 k j ~ /  .t.                                                                                                        ",
"                                                                                                            % # # # # # O O # = u u 0 0 u j ^ /  ...t.k.                                                                                                        ",
"                                                                                                            = # # # # # # # O o X # = 0 0 j ~ /  .i.u.l.                                                                                                        ",
"                                                                                                            = O O # # # # # # # # O = w u k j ^ / ..t.l.                                                                                                        ",
"                                                                                                            *.s - % # # # # O O + O # = 0 u k ~ / O.'.(.                                                                                                        ",
"                                                                                                          &.Y.U.N.8.*.[ z a = % % $ % - u x _ s.`.>X4XoX                                                                                                        ",
"                                                                                                            Y.Y.Y.Y.Q.Q.Y.D.,.6.6.=.<.H.[.XX-X5XwX0X0X,X                                                                                                        ",
"                                                                                                            A.A.F.U.Y.Z.J.j.m.U.C.F.Y.S._.&X,X1X0X0X0X<X                                                                                                        ",
"                                                                                                            A.Z.C.N.N.C.S.7.e.C.e.U.U.h.q.R..X`.:XwX0X7X                                                                                                        ",
"                                                                                                            S.A.Z.Z.m.C.C.7.e.q.e.8.e.T.R..X[.G.<XwX0XqX                                                                                                        ",
"                                                                                                            A.A.N.N.9.9.f.6.8.<.8.T q.G._./.h.W.7XwX0XwX                                                                                                        ",
"                                                                                                            S.A.N.m.m.8.w.<.*.[ [ E q.G.g.w.C.[.7X0X0XwX                                                                                                        ",
"                                                                                                            Z.Z.Z.m.m.m.w.| G H g $.6.7.g.C.S.XX7X0X0X0X                                                                                                        ",
"                                                                                                            N.N.N.e.0.e.6.1.G f g &.<.f.C.S.T.XX7X4X0X0X                                                                                                        ",
"                                                                                                          C.m.m.4.:.9.8.*.1.[ y F &.<.q.e.q.R.oX4X1X0XwX                                                                                                        ",
"                                                                                                          C.4.C.9.$.=.8.<.| | y F &.} ] ] *.D.:X1X1X0XrX                                                                                                        ",
"                                                                                                          &.$.N.Z.e.&.=.w.,.[ a Z $.E [ &.9.w.-X:XOX0XeX                                                                                                        ",
"                                                                                                          $.$.e.C.e.9.&.6.g.| y H R ] &.9.e.G.OX+X(.-XeX                                                                                                        ",
"                                                                                                          e.8.0.C.C.r.<.} o.` f | ] %.8.9.h.XX.X.XG.E.eX                                                                                                        ",
"                                                                                                          8.8.0.C.C.S.C.q.| ` f   &.9.0.4.w.[.T.OX:X:XrX                                                                                                        ",
"                                                                                                          8.8.8.e.f.f.q.<.[ U f   R %.&.&.[ | *.|.7X7XwX                                                                                                        ",
"                                                                                                          &.&.8.8.,.*.*.[ [ U s   R $.&.$.[ &.e.oX0X1X0X                                                                                                        ",
"                                                                                                          4.&.:.&.| | [ [ | U g   T $.$.T ] &.H.>X2X7X6X                                                                                                        ",
"                                                                                                          8.&.&.6.6.,.*.| [ G       R R ] $.4._.7X6X7X+X                                                                                                        ",
"                                                                                                          8.&.&.8.f.f.w.q.,.G       R R $.&.&.R.2X1XOX                                                                                                          ",
"                                                                                                          9.:.$.$.f.C.f.q.[ G       R &.&.:.&.R.-X_./.                                                                                                          ",
"                                                                                                            4.%.%.<.f.f.<.[ G       R $.5.5.&.h./.E.oX1X                                                                                                        ",
"                                                                                                              :.&.:.q.q.*.G           ! &.:.&.| z.oX7X                                                                                                          ",
"                                                                                                                W +.>.;.J d           E ! :.$.7.|.1X                                                                                                            ",
"                                                                                                                L W W P K p             C W W m.&X3X                                                                                                            ",
"                                                                                                              D S P P P D p             M S S #.].3X                                                                                                            ",
"                                                                                                              M A L I I C p             b A A I L.*X                                                                                                            ",
"                                                                                                              M C L L S M B             b C C S M.%X%X                                                                                                          ",
"                                                                                                              b C A A C m p             v V n C b.@X%X                                                                                                          ",
"                                                                                                              v b C C M v p             v b b b #.!.%X                                                                                                          ",
"                                                                                                              v v b m v v 4             v v v c W L.$X",
"                                                                                                              v v v v v 4 <             3 5 3 3 K K.#X                                                                                                          ",
"                                                                                                              9 9 9 5 5 , >             2 2 2 2 M M.@X                                                                                                          ",
"                                                                                                              9 9 5 3 , >                 2 2 1 5 >.@X                                                                                                          ",
"                                                                                                              9 3 2 2 , :                 2 , , 2 +.].                                                                                                          ",
"                                                                                                              9 9 3 2 > :                 4 , 6 , +.].                                                                                                          ",
"                                                                                                              5 9 9 2 >                     2 , 2 >.].                                                                                                          ",
"                                                                                                              3 9 9 4 ,                     4 , 2 2.].                                                                                                          ",
"                                                                                                                9 9 5 ,                     2 1 4 2.F.                                                                                                          ",
"                                                                                                                5 9 5 ,                     2 1 2 J V.                                                                                                          ",
"                                                                                                                2 5 5 ,                     3 2 2 H.&X                                                                                                          ",
"                                                                                                                2 5 5 <                     3 1 b.qX`.                                                                                                          ",
"                                                                                                              = 9 3 4 G                     9 3 ].8X`                                                                                                           ",
"                                                                                                              = B 5 4 z                     2 9 V.2.= ^                                                                                                         ",
"                                                                                                              O > 4 < O                     @ > = @ X ^                                                                                                         ",
"                                                                                                              O X X X X                     X X X X X l                                                                                                         ",
"                                                                                                              O X % % X                     O # O X X ^                                                                                                         ",
"                                                                                                              ; O t 0 X                     % i t + = a.                                                                                                        ",
"                                                                                                              s X X X X                     X X X X l                                                                                                           ",
"                                                                                                              =.< X O i                     = X X = k.                                                                                                          ",
"                                                                                                                w.| o.s.                    <.U H 1.~.                                                                                                          ",
"                                                                                                                e.f.g.                        C.q.s.                                                                                                            ",
"                                                                                                                                                                                                                                                                ",
"                                                                                                                                                                                                                                                                ",
"                                                                                                                                                                                                                                                                "
};
