/* XPM */
static char *back_left1[] = {
/* columns rows colors chars-per-pixel */
"128 128 208 2 ",
"   c #FF00FF",
".  c #0B0B0D",
"X  c #0E0E11",
"o  c #110F11",
"O  c #121215",
"+  c #16151A",
"@  c #18171C",
"#  c #1A191E",
"$  c #1B1718",
"%  c #100D0E",
"&  c #231B1B",
"*  c #2C1C1B",
"=  c #241816",
"-  c #331F1D",
";  c #36211D",
":  c #3B231D",
">  c #1D1C21",
",  c #211F24",
"<  c #1F2025",
"1  c #222225",
"2  c #2B2424",
"3  c #24242B",
"4  c #28272D",
"5  c #2A2A2D",
"6  c #352321",
"7  c #3D2623",
"8  c #332B2A",
"9  c #3C2C2B",
"0  c #2C2C34",
"q  c #2C2C36",
"w  c #2F3036",
"e  c #333235",
"r  c #33333D",
"t  c #3A3838",
"y  c #353030",
"u  c #41251F",
"i  c #442924",
"p  c #4B2A24",
"a  c #492C29",
"s  c #512D25",
"d  c #532F2A",
"f  c #4C302C",
"g  c #54322D",
"h  c #5C342A",
"j  c #5B352B",
"k  c #433432",
"l  c #4A3431",
"z  c #423937",
"x  c #533531",
"c  c #543934",
"v  c #5B3B35",
"b  c #5B3D39",
"n  c #593431",
"m  c #62382F",
"M  c #663E3A",
"N  c #653C36",
"B  c #4A443D",
"V  c #46403A",
"C  c #5A443D",
"Z  c #66423B",
"A  c #6C423B",
"S  c #73463E",
"D  c #363641",
"F  c #363944",
"G  c #3A3A44",
"H  c #3D3E49",
"J  c #3F414D",
"K  c #3C6652",
"L  c #41424D",
"P  c #4C4A4C",
"I  c #4A4547",
"U  c #554A44",
"Y  c #5D534C",
"T  c #454552",
"R  c #494956",
"E  c #4D4D5A",
"W  c #484753",
"Q  c #4E505E",
"!  c #51515E",
"~  c #585659",
"^  c #644642",
"/  c #694945",
"(  c #6A4A48",
")  c #744C43",
"_  c #7A4C43",
"`  c #724640",
"'  c #64554A",
"]  c #6B5B4C",
"[  c #655448",
"{  c #7C534C",
"}  c #74574C",
"|  c #645A53",
" . c #6B5E54",
".. c #675755",
"X. c #7B5B56",
"o. c #72614F",
"O. c #6D6156",
"+. c #6D635B",
"@. c #746453",
"#. c #7B6956",
"$. c #73655A",
"%. c #7D6C5C",
"&. c #77675B",
"*. c #69614E",
"=. c #545462",
"-. c #595966",
";. c #5C5D6C",
":. c #575866",
">. c #565768",
",. c #6A5C62",
"<. c #5F6173",
"1. c #61616F",
"2. c #746B62",
"3. c #7C6D62",
"4. c #786E6E",
"5. c #7E7165",
"6. c #7E736A",
"7. c #646473",
"8. c #6A6B7A",
"9. c #676879",
"0. c #77767B",
"q. c #8A5A54",
"w. c #855A55",
"e. c #825046",
"r. c #816E5C",
"t. c #81625C",
"y. c #86715D",
"u. c #94645D",
"i. c #8D6865",
"p. c #986965",
"a. c #847363",
"s. c #8A7663",
"d. c #8C7965",
"f. c #83766B",
"g. c #85796F",
"h. c #8B7A6D",
"j. c #8A766D",
"k. c #927D6A",
"l. c #9B726B",
"z. c #857B74",
"x. c #8A7C72",
"c. c #847975",
"v. c #997E75",
"b. c #A56B6B",
"n. c #A3746E",
"m. c #A97776",
"M. c #B27275",
"N. c #4E937B",
"B. c #98826E",
"V. c #8C837B",
"C. c #8C8074",
"Z. c #968576",
"A. c #A28A74",
"S. c #6F6F80",
"D. c #5FAA90",
"F. c #78A79B",
"G. c #888789",
"H. c #998D84",
"J. c #9A9289",
"K. c #8F8E91",
"L. c #B88986",
"P. c #A79489",
"I. c #A69C95",
"U. c #A8908C",
"Y. c #91A286",
"T. c #A6A19C",
"R. c #A9A29B",
"E. c #B1A69C",
"W. c #AEA9A2",
"Q. c #ABABAD",
"!. c #B2AAA4",
"~. c #BAB5AD",
"^. c #B8B1AB",
"/. c #BBB8B2",
"(. c #C4968E",
"). c #CB9C9B",
"_. c #C89A95",
"`. c #D8969A",
"'. c #D4A49E",
"]. c #DC9CA1",
"[. c #CCA6A4",
"{. c #D6A8A0",
"}. c #D7A8A6",
"|. c #DDB2AA",
" X c #C3BDB4",
".X c #C3BFB8",
"XX c #CFB5B1",
"oX c #E5B9B9",
"OX c #B3C8AB",
"+X c #C5C2BD",
"@X c #CCC9C3",
"#X c #CECECA",
"$X c #C9C7C1",
"%X c #D5CBC5",
"&X c #D4D3CD",
"*X c #D5D6C9",
"=X c #D7D6D1",
"-X c #DEDED9",
";X c #DEDBD5",
":X c #ECCACC",
">X c #E5C5C5",
",X c #E6D9D6",
"<X c #E4E3DE",
"1X c #EBE9E5",
"2X c #EBEAE5",
"3X c #F0EFEA",
"4X c #FDFDF9",
"5X c #F0F0EC",
/* pixels */
"                                                                                                                                                                                                                                                                ",
"                                                                                                                                                                                                                                                                ",
"                                                                                                                                                                                                                                                                ",
"                                                                                                                                                                                                                                                                ",
"                                                                                                                                                                                                                                                                ",
"                                                                                                                                                                                                                                                                ",
"                                                                                                                                                                                                                                                                ",
"                                                                                                                                                                                                                                                                ",
"                                                                                                                                                                                                                                                                ",
"                                                                                                                                                                                                                                                                ",
"                                                                                                                                                                                                                                                                ",
"                                                                                                                                                                                                                                                                ",
"                                                                                                                                                                                                                                                                ",
"                                                                                                                                                                                                                                                                ",
"                                                                                                                                                                                                                                                                ",
"                                                                                                                                                                                                                                                                ",
"                                                                                                                                                                                                                                                                ",
"                                                                                                                                                                                                                                                                ",
"                                                                                                                                                                                                                                                                ",
"                                                                                                                                                                                                                                                                ",
"                                                                                                                                                                                                                                                                ",
"                                                                                                                                                                                                                                                                ",
"                                                                                                                                                                                                                                                                ",
"                                                                                                                                                                                                                                                                ",
"                                                                                                                                                                                                                                                                ",
"                                                                                                                        e r                                                                                                                                     ",
"                                                                                                                  4 > < < 0 w                                                                                                                                   ",
"                                                                                                                4 @ + + @ 3 4 t                                                                                                                                 ",
"                                                                                                              e @ + + @ > 3 r G P                                                                                                                               ",
"                                                                                                              e @ @ @ 1 1 e G P ~                                                                                                                               ",
"                                                                                                              e 1 2 8 8 8 t P ~ ~                                                                                                                               ",
"                                                                                                              z 9 l k k k z | 4.4.                                                                                                                              ",
"                                                                                                              } C ` c k k U 3.f.z.",
"                                                                                                                { _ A b k U j.Z.U.                                                                                                                              ",
"                                                                                                                { _ S A c ^ l.L.[.",
"                                                                                                                { _ e._ Z *.Y.OX*X                                                                                                                              ",
"                                                                                                                } A S A B K N.D.F.                                                                                                                              ",
"                                                                                                                  c l w w G L T Q -.7.",
"                                                                                                                I e 0 D G H T R ! =.! R !                                                                                                                       ",
"                                                                                                            0 3 > 1 4 r H T T R ! R R R R R =.                                                                                                                  ",
"                                                                                                        4 , > > > > 1 0 H T T R R R =.=.R R R =.-.R                                                                                                             ",
"                                                                                              } i.    4 > > > > > > > 3 G R R R ! =.=.! R ! =.R -.R =.                                                                                                          ",
"                                                                                            ) ) ) { U > > @ > > > > > 1 r R R R ! -.-.=.=.=.;.R R ! :.                                                                                                          ",
"                                                                                            ) S A &.e @ @ @ @ > @ @ > > 0 T R R R ! ;.;.=.=.;.;.T Q T -.                                                                                                        ",
"                                                                                            } ^ ( ..> @ @ @ @ @ @ @ @ @ 3 G R R R R R ;.-.! ;.7.Q R r T ;.                                                                                                      ",
"                                                                                          ' /  .4.4 + @ @ + @ @ + + @ @ > 0 L R T R R L ;.! -.8.;.L 0 0 L =.                                                                                                    ",
"                                                                                          ^ q.v.P @ @ @ + @ + + + + + @ > 1 4 R R L =.! G =.-.7.1.L 1 > 0 G =.                                                                                                  ",
"                                                                                          Z b C 1 @ @ + + @ O O + + + @ @ 1 4 3 W R R 1.T r -.8.7.H > + @ 3 H :.                                                                                                ",
"                                                                                        ( b 8 @ @ + @ @ @ O X O + + + @ @ 1 0 r 3 L R =.9.r r 7.S.L + + + @ 3 W U.                                                                                              ",
"                                                                                        / l > @ @ @ @ @ + X X O + + + + @ > 3 D G 3 L -.8.;.4 L 8.R @ O + + 2 { {.                                                                                              ",
"                                                                                        / v , @ @ @ @ + @   > O + + + + + @ 3 0 G H 3 H 7.7.=.0 =.R @ o O 2 M e.b.|.                                                                                            ",
"                                                                                        / A x , @ @ + +       + O + + + + + 1 r r G L 0 T 7.;.=.r T e O & f m _ q.).>X                                                                                          ",
"                                                                                        ( M N 7 @ @ + >       > O + + + + + + , G L H T G R =.;.W r         f A q._.:X                                                                                          ",
"                                                                                          c a 7 8 1 @           + + + + + + + + + 0 T T ! G R =.;.H         x A q.).:X",
"                                                                                            9                   @ O + + + + + + @ + , H =.R D R ;.R         v S q.).:X                                                                                          ",
"                                                                                                                1 + + + + + @ + @ > 4 3 G -.D H =.-.        v ` q.).>X                                                                                          ",
"                                                                                                                  @ + + + + 1 3 @ 3 q H 0 L R 0 R ;.        x A q.).                                                                                            ",
"                                                                                                                  > @ @ + + + 3 0 3 0 H R 0 R r r =.7.      x A q.).                                                                                            ",
"                                                                                                                  1 @ @ @ @ @ @ , r D L T L 0 T 3 L 7.      g M q.'.                                                                                            ",
"                                                                                                                  3 @ @ @ @ @ @ > 3 r T =.=.L r L 0 =.      f M p.{.                                                                                            ",
"                                                                                                                  4 @ @ @ @ @ @ > 4 r T =.<.>.D J H G       f M n.oX                                                                                            ",
"                                                                                                                  4 > @ @ @ @ @ @ 3 r L R ;.9.=.r R G L     f M L.                                                                                              ",
"                                                                                                                    > > > @ @ + + > 4 D T R R <.R D R T     d A L.                                                                                              ",
"                                                                                                                    1 > @ + + + + > 3 0 G H T T =.Q L =.    n w.[.                                                                                              ",
"                                                                                                                    3 @ + + + + + @ 3 0 D H R =.Q Q =.Q   b w.m.oX                                                                                              ",
"                                                                                                                      @ + + + + + > 3 0 D T R =.;.>.=.;.  { }.`.oX                                                                                              ",
"                                                                                                                      @ + @ @ @ @ @ > 0 D H R =.;.7.;.7.,.m.oXM.`.                                                                                              ",
"                                                                                                                      @ @ + + + + + @ > 0 D T R =.;.;.<...L.M.b.].                                                                                              ",
"                                                                                                                      @ + + + + + + + > 3 q D J R ;.7.G.4.q.m.n._.                                                                                              ",
"                                                                                                                      > @ + + + + + + @ 3 G -.G.Q.#X^.+XH.^ p.i.                                                                                                ",
"                                                                                                                      3 > , , 1 1 8 B | V.!.@X<X2X3X~./.                                                                                                        ",
"                                                                                                                      U B ' a.a.d.Z.P.I.E. X@X,X1X;XR.~.                                                                                                        ",
"                                                                                                                      O.] s.B.B.A.k.P.^.!.~.@X=X=XW.V.~.                                                                                                        ",
"                                                                                                                    Z.&.[ y.B.Z.B.a.3.V.J.I.#X&X XV.C.                                                                                                          ",
"                                                                                                                    a.&. .y.k.s.Z.x.f.g./.z.W. XP.5.H.                                                                                                          ",
"                                                                                                                    a.d.d.s.s.k.x.x.g.3.W.@XI.E.5.a.J.                                                                                                          ",
"                                                                                                                    k.k.d.s.a.k.d.f.z.z.z.<X<XI.%.d.                                                                                                            ",
"                                                                                                                    a.r.a.s.a.k.j.g.V.R.T.#X4XJ.%.H.                                                                                                            ",
"                                                                                                                    r.r.s.a.s.d.3.H.R.J./.+X<X!.a.R.                                                                                                            ",
"                                                                                                                    a.%.y.s.s.@.%.3.!.@X-X<X<X Xg. X                                                                                                            ",
"                                                                                                                    a.%.#.#.#.a.a.%.3.I.&X3X4X.XV.@X                                                                                                            ",
"                                                                                                                    %.o.] #.a.a.%.5.5.V.+X&X5X+XJ.                                                                                                              ",
"                                                                                                                    3.@.] r.s.a.a.a.3.x.#X,X3X@XR.                                                                                                              ",
"                                                                                                                      #.%.r.r.r.%.3.&.z./.-X3X&XT.                                                                                                              ",
"                                                                                                                      %.%.y.r.%.3.%.&.H.W.&X2X=X                                                                                                                ",
"                                                                                                                        %.#.#.%.%.a.J.T.W.&X1X<X                                                                                                                ",
"                                                                                                                        %.#.r.r.k.d.V.J.W.@X-X2X                                                                                                                ",
"                                                                                                                        %.r.y.%.a.+.+.z.R.$X&X-X                                                                                                                ",
"                                                                                                                        %.r.@.] +.+.&.2.J..X/.~.                                                                                                                ",
"                                                                                                                        @.] ] U | &. .+.z.V.z.G.                                                                                                                ",
"                                                                                                                          ] ' U ' O.O.&.+.+.4.T.                                                                                                                ",
"                                                                                                                          o.@.] ' O.&.+.2.5.T.=X                                                                                                                ",
"                                                                                                                          @.] ] ]  . .O.2.V.#X2X                                                                                                                ",
"                                                                                                                          @.@.@.@.@.@.&.5.R.%X,X                                                                                                                ",
"                                                                                                                          ' C [ ] ] ] [ X.v._.oX                                                                                                                ",
"                                                                                                                            ; * 6 l : p j { L.{.oX                                                                                                              ",
"                                                                                                                            - * 6 w.v s h N u._.oX>X                                                                                                            ",
"                                                                                                                            6 - a n.) s h m _ L.oX:X                                                                                                            ",
"                                                                                                                            6 - f m.{ s h m N p.XX,X%X                                                                                                          ",
"                                                                                                                            ; ; f w.l p h h m { L.:X>X                                                                                                          ",
"                                                                                                                            : : i X.9 : j h h A n.XX>X                                                                                                          ",
"                                                                                                                            7 : t.@X  ; p h h h w.(.oX                                                                                                          ",
"                                                                                                                        X & i : U.2X    u s g d A n.{.'.                                                                                                        ",
"                                                                                                                  1 + X X . = ; H.      : i s s Z p.).'.                                                                                                        ",
"                                                                                                                y @ + O O . . % 2       - : i p N l.).{.                                                                                                        ",
"                                                                                                                Y 1 O . X . . . + D       - : p g p.(.{.                                                                                                        ",
"                                                                                                                  O.t 2 @ . X O 0 D       - : : i w._.{.                                                                                                        ",
"                                                                                                                    4.2.+.V O X X +         ; : : Z (.|.                                                                                                        ",
"                                                                                                                          g.Y 1 @ t         ; : : g m.|.                                                                                                        ",
"                                                                                                                            V.f.2.0.        * : : i w._.                                                                                                        ",
"                                                                                                                                              ; : : v X.(                                                                                                       ",
"                                                                                                                                              * : : : g /                                                                                                       ",
"                                                                                                                                                - ; - v ^                                                                                                       ",
"                                                                                                                                                * - : : i                                                                                                       ",
"                                                                                                                                                & * - ; : 7                                                                                                     ",
"                                                                                                                                          O O O $ ; 7 7 7 7                                                                                                     ",
"                                                                                                                                        . . . X o $ i f i 6                                                                                                     ",
"                                                                                                                                        . . . X X . o * & o                                                                                                     ",
"                                                                                                                                        O @ @ O X . . . . . O                                                                                                   ",
"                                                                                                                                f.      3.| Y U X . . . . . @ +                                                                                                 ",
"                                                                                                                                  5.    x. .&.| 2 . . . . . . X                                                                                                 ",
"                                                                                                                                    3.&.Y | | U U o . . . . . @                                                                                                 ",
"                                                                                                                                       . .O.O.O.+.Y B t 2 & 8 P                                                                                                 ",
"                                                                                                                                                2.5.g.d.f.&.| U                                                                                                 ",
"                                                                                                                                                        4.5.O.                                                                                                  ",
"                                                                                                                                                                                                                                                                ",
"                                                                                                                                                                                                                                                                ",
"                                                                                                                                                                                                                                                                "
};
