/* XPM */
static char *back_right1[] = {
/* columns rows colors chars-per-pixel */
"128 128 218 2 ",
"   c #FF00FF",
".  c #040406",
"X  c #060609",
"o  c #0A0A0D",
"O  c #110D0E",
"+  c #0E0E11",
"@  c #110F13",
"#  c #0E1014",
"$  c #131215",
"%  c #161519",
"&  c #18171A",
"*  c #1B1A1D",
"=  c #191619",
"-  c #251312",
";  c #231B1A",
":  c #2B1C1B",
">  c #2C1715",
",  c #311A17",
"<  c #341C1A",
"1  c #381F1A",
"2  c #21100F",
"3  c #2A211E",
"4  c #3C231D",
"5  c #1C1D22",
"6  c #171B24",
"7  c #221F22",
"8  c #232225",
"9  c #24242B",
"0  c #2B2728",
"q  c #3C2B26",
"w  c #392825",
"e  c #3C322E",
"r  c #2C2B33",
"t  c #2B2B34",
"y  c #302E35",
"u  c #302F39",
"i  c #33333C",
"p  c #393638",
"a  c #2A3131",
"s  c #42251E",
"d  c #4B261F",
"f  c #4D2921",
"g  c #462C27",
"h  c #522B22",
"j  c #592F26",
"k  c #4D322D",
"l  c #44302A",
"z  c #5B332A",
"x  c #573329",
"c  c #493937",
"v  c #5B3A34",
"b  c #573834",
"n  c #66382C",
"m  c #623B33",
"M  c #6C3C31",
"N  c #663E3B",
"B  c #58463D",
"V  c #4B4139",
"C  c #6C433B",
"Z  c #674339",
"A  c #76483B",
"S  c #76523E",
"D  c #363641",
"F  c #3B3B44",
"G  c #3E3E48",
"H  c #423E47",
"J  c #3B5950",
"K  c #3D6348",
"L  c #42424D",
"P  c #494446",
"I  c #5B4D44",
"U  c #554A48",
"Y  c #5A514A",
"T  c #464652",
"R  c #4A4A55",
"E  c #4D4E5A",
"W  c #484652",
"Q  c #4E505C",
"!  c #4B5155",
"~  c #52525E",
"^  c #5B5655",
"/  c #654843",
"(  c #774D47",
")  c #6B5B4B",
"_  c #64554A",
"`  c #74524B",
"'  c #7C524B",
"]  c #725E4B",
"[  c #7D5346",
"{  c #655B55",
"}  c #745D53",
"|  c #624D51",
" . c #566040",
".. c #77634E",
"X. c #6D645E",
"o. c #6A6058",
"O. c #756453",
"+. c #7B6752",
"@. c #7D6954",
"#. c #7C6B5C",
"$. c #75675B",
"%. c #555561",
"&. c #5A5964",
"*. c #5A5965",
"=. c #5E616B",
"-. c #56766D",
";. c #6A6869",
":. c #786C67",
">. c #7B736C",
",. c #6A6C77",
"<. c #797878",
"1. c #6F6E75",
"2. c #85483E",
"3. c #835245",
"4. c #8D5444",
"5. c #87574A",
"6. c #945C4C",
"7. c #965B49",
"8. c #855B54",
"9. c #8A5C54",
"0. c #875A56",
"q. c #99604E",
"w. c #826C55",
"e. c #816E5C",
"r. c #88625B",
"t. c #986558",
"y. c #85715B",
"u. c #88735D",
"i. c #A66A5B",
"p. c #B6725F",
"a. c #AD6E5A",
"s. c #856B65",
"d. c #9A6A61",
"f. c #847262",
"g. c #8A7663",
"h. c #84746A",
"j. c #8B7B6D",
"k. c #88786B",
"l. c #977569",
"z. c #8D7C72",
"x. c #857B76",
"c. c #927E75",
"v. c #A76E62",
"b. c #A8756A",
"n. c #B47D6E",
"m. c #B77667",
"M. c #A97972",
"N. c #B47D73",
"B. c #C77E68",
"V. c #5B815E",
"C. c #8B8179",
"Z. c #93857A",
"A. c #978778",
"S. c #BA867A",
"D. c #AD8472",
"F. c #89A07F",
"G. c #C48B7C",
"H. c #C7877B",
"J. c #D08B7E",
"K. c #7A7B84",
"L. c #878788",
"P. c #938B86",
"I. c #9D9488",
"U. c #949395",
"Y. c #BF8E85",
"T. c #A59A8E",
"R. c #A9908D",
"E. c #A79E93",
"W. c #B89B94",
"Q. c #A98B84",
"!. c #AAA297",
"~. c #B2A89C",
"^. c #9197A1",
"/. c #98A1A9",
"(. c #ACABA7",
"). c #B5ADA3",
"_. c #B9B2A7",
"`. c #BAB8B2",
"'. c #A6AFB4",
"]. c #C98E84",
"[. c #D28F83",
"{. c #CA9488",
"}. c #D39A8B",
"|. c #D39588",
" X c #C69992",
".X c #DB9D93",
"XX c #D99C96",
"oX c #E2998E",
"OX c #E49E94",
"+X c #D9A497",
"@X c #E5A599",
"#X c #F2A69B",
"$X c #C9B3AA",
"%X c #E9B5AD",
"&X c #E7AEA7",
"*X c #C9C6BC",
"=X c #C7C4BA",
"-X c #ECC4BE",
";X c #F4C3BC",
":X c #CDC9C0",
">X c #D2CEC3",
",X c #D9D6CB",
"<X c #D7D4C9",
"1X c #DEDBD1",
"2X c #CDD8DD",
"3X c #F4CAC3",
"4X c #E1DED4",
"5X c #E1DCDB",
"6X c #E9E6DB",
"7X c #EBE9DE",
"8X c #E4E2D7",
"9X c #CCD8E0",
"0X c #D1DFE8",
"qX c #EEECE2",
"wX c #F1EEE5",
"eX c #F4F1E6",
"rX c #F8F4EA",
"tX c #F2F2F2",
/* pixels */
"                                                                                                                                                                                                                                                                ",
"                                                                                                                                                                                                                                                                ",
"                                                                                                                                                                                                                                                                ",
"                                                                                                                                                                                                                                                                ",
"                                                                                                                                                                                                                                                                ",
"                                                                                                                                                                                                                                                                ",
"                                                                                                                                                                                                                                                                ",
"                                                                                                                                                                                                                                                                ",
"                                                                                                                                                                                                                                                                ",
"                                                                                                                                                                                                                                                                ",
"                                                                                                                                                                                                                                                                ",
"                                                                                                                                                                                                                                                                ",
"                                                                                                                                                                                                                                                                ",
"                                                                                                                                                                                                                                                                ",
"                                                                                                                                                                                                                                                                ",
"                                                                                                                                                                                                                                                                ",
"                                                                                                                                                                                                                                                                ",
"                                                                                                                                                                                                                                                                ",
"                                                                                                                                                                                                                                                                ",
"                                                                                                                                                                                                                                                                ",
"                                                                                                                                                                                                                                                                ",
"                                                                                                                                                                                                                                                                ",
"                                                                                                                                                                                                                                                                ",
"                                                                                                                                                                                                                                                                ",
"                                                                                                                                                                                                                                                                ",
"                                                                                                                                                                                                                                                                ",
"                                                                                                                                  & & & 8 p                                                                                                                     ",
"                                                                                                                                % % % % & 9 r P                                                                                                                 ",
"                                                                                                                              & % % % % & 0 8 y p                                                                                                               ",
"                                                                                                                              % % % % = ; r 0 p P U                                                                                                             ",
"                                                                                                                              & % & ; 0 0 c U { R.W.                                                                                                            ",
"                                                                                                                              & ; 0 0 q e { >.x.$X3X                                                                                                            ",
"                                                                                                                              ; 3 q q l v b.Q.W.-X3X                                                                                                            ",
"                                                                                                                              ; q q q k 2.H. X$X3X$X                                                                                                            ",
"                                                                                                                              w l l k A 2.H.+X%X-X                                                                                                              ",
"                                                                                                                              B m b m 4.4.n.}.%X3X                                                                                                              ",
"                                                                                                                              K  .Z A q.N.q.H.&X;X                                                                                                              ",
"                                                                                                                            5 a K V.5.m.|.t.v..X%X                                                                                                              ",
"                                                                                                                          & & r L -.F.[.+Xt.( ].%X                                                                                                              ",
"                                                                                                                      & & & & 8 D R <.+X@X' b s.                                                                                                                ",
"                                                                                                                    & & & & & 8 i i L x.+X                                                                                                                      ",
"                                                                                                                  5 & & & & & & & 5 9 p 1.                                                                                                                      ",
"                                                                                                                7 & & % & % % @ & 9 i D E                     ' 0.                                                                                              ",
"                                                                                                                & & % % % + % & 5 5 r W %.                  C v (                                                                                               ",
"                                                                                                              8 & % + % @ % & 9 r r y W *.                k 8.b m                                                                                               ",
"                                                                                                              & & + + + % & 8 r i i D E *.              _ b 8.8.(                                                                                               ",
"                                                                                                            8 & % + o % % & 8 i D H T %.E             m _ _ 9.M.                                                                                                ",
"                                                                                                            & & + o + & & 9 r D H L R %.L         b C ' ( c                                                                                                     ",
"                                                                                                            & % o o % & 9 i D L L T ~ %.D     b m A 5.9.r.                                                                                                      ",
"                                                                                                          7 & % o % & 5 y H T T L R %.R D c z N [ 8.9.0.                                                                                                        ",
"                                                                                                          & % + : Z k y D T R R R E ~ D D b m ( 8.9.r.                                                                                                          ",
"                                                                                                          & % = A 7.a.d.P T E E ~ %.D u R v C ' 8.r.                                                                                                            ",
"                                                                                                        & % @ k 7.7.m.&Xs.H E ~ &.T u r ! _ N (                                                                                                                 ",
"                                                                                                        & % : [ t.M.].%X{.w D *.~ i D L J X.N                                                                                                                   ",
"                                                                                                        % % v 3.8. XXX@X.Xl o ~ D 9 L Q J                                                                                                                       ",
"                                                                                                        % ; 3.[ '  X.XoX.Xc X 9 r r r %.L.                                                                                                                      ",
"                                                                                                      & % q q.4.9.{.OX#XM.y r r 9 u D ~ '.                                                                                                                      ",
"                                                                                                      & % Z q.4.t.].OX#X/ o G D T r D 1.9X                                                                                                                      ",
"                                                                                                      % % [ q.4.t.].#X.XH & 9 T E R D 1.0X                                                                                                                      ",
"                                                                                                    7 % ; 5.q.4.t.[.#XM.9 u 9 R R %.E =.9X                                                                                                                      ",
"                                                                                                    & % 3 6.6.4.i.|.OX| D r 9 R E T ~ 1.2X                                                                                                                      ",
"                                                                                                    & @ w 6.7.4.v.oXN.r T E i D *.E ~ ,.                                                                                                                        ",
"                                                                                                  & % + w 6.4.3.n.oXB 9 L R E G R ~ E                                                                                                                           ",
"                                                                                                  & % o l 6.2.3.H.b.@ @ D R R R T R E                                                                                                                           ",
"                                                                                                  % % o x 6.A 6.J.c 5 5 5 i R E E R %.                                                                                                                          ",
"                                                                                                5 % % + m 4.A v.b.% & 5 9 r G G D R                                                                                                                             ",
"                                                                                                & % + @ C 4.3.H._ & 9 r 9 9 i D r L                                                                                                                             ",
"                                                                                                & @ + O C 4.v.S.7 & r D D L L i R G                                                                                                                             ",
"                                                                                                @ + o % A 4.[.8.+ & r i i D Q E E L                                                                                                                             ",
"                                                                                                V 3 g [ 7.6.].q + & 5 9 9 i R Q %.E                                                                                                                             ",
"                                                                                                D.l.m.B.q.i.l.c e p i y 0 y Q T E =.                                                                                                                            ",
"                                                                                                v.7.p.B.D.S.j.f.k.).C.:.{ Y `.L.L.`.                                                                                                                            ",
"                                                                                                p.a.p.m.[.l.s.k.s.$X_.h.O.h.wXqX4X                                                                                                                              ",
"                                                                                                6.p.6.b.u._ } z.h.Z.).h._ ~.eXwX6X                                                                                                                              ",
"                                                                                                  b C u.I _ $.z.z.f.E.#.} ,XwXeXwX                                                                                                                              ",
"                                                                                                    B B I ) #.j.z.k.h.$.T.4X7XeXwX                                                                                                                              ",
"                                                                                                    B B _ ) #.:.A.I.A.E.*X8X6XqXeX                                                                                                                              ",
"                                                                                                    ) ] _ O.#.#.A.!.!._.,X6XwXwXeX                                                                                                                              ",
"                                                                                                      +.] #.$.#.T.~.E._.*X6XwXeXrXrX                                                                                                                            ",
"                                                                                                      ..+.O.O.e.!.!.T.>X,X,XqXwXeXrX                                                                                                                            ",
"                                                                                                      y.w.+.#.@.j.$XE.).6X7X7XwX8XwX                                                                                                                            ",
"                                                                                                      u.y.e.#.+.O.I._.*X,X6XqXwX7XeXeX                                                                                                                          ",
"                                                                                                      g.g.f.f.e.f.T._.>X4X7XwX6X6XeXeX                                                                                                                          ",
"                                                                                                      g.j.f.g.f.e.z._.:X1X6XeX,X,XqXwX                                                                                                                          ",
"                                                                                                    g.y.j.g.f.y.f.Z._.>X,X8XqX4X6XqX*X                                                                                                                          ",
"                                                                                                    u.w.@.#.#.f.C.I.`.>X1X7XeX:X$XP.                                                                                                                            ",
"                                                                                                    y.w.+.e.g.j.A.I.,X1X4XqXqX{ c B                                                                                                                             ",
"                                                                                                    w.w.+.@.@.e.A.j.>XqX7XqX4Xc g l.                                                                                                                            ",
"                                                                                                    w.w.@...O.] O.{ *X,X8X7X,Xc r..X                                                                                                                            ",
"                                                                                                    w.@.@...O.#.I >.8X>X1XwX*X/ S.+X                                                                                                                            ",
"                                                                                                    y.@.w.+.] f.{ !.1X4X1XqXE./ Y.@X                                                                                                                            ",
"                                                                                                    @.] ..@...#.h.*X>X1X8X:X:.Z S.@X                                                                                                                            ",
"                                                                                                    ....] ) ..) x.*X>X*X(.P.I b N.@X                                                                                                                            ",
"                                                                                                    ..w.w.+.O.j.I.(.!.L.C.E.I f b.+X+X                                                                                                                          ",
"                                                                                                    n S w.u.e.Z.T.P.x.x.P.>.w 4 9.}.+X                                                                                                                          ",
"                                                                                                    n M C v c c I         > -, v G.}.                                                                                                                           ",
"                                                                                                  z n M M z g v }           2 - 4 v.}.                                                                                                                          ",
"                                                                                                  j n M n C 8.M.            - 2 , 8.{.                                                                                                                          ",
"                                                                                                  j n n A d.G.[.            - - : ' {.                                                                                                                          ",
"                                                                                                h j n n 4.S.}.}.              - < ` {.                                                                                                                          ",
"                                                                                                f j j z 5.N.[.}.              - < / l.                                                                                                                          ",
"                                                                                                f h h j 3.n.G.|.              - - k R.5X                                                                                                                        ",
"                                                                                                f f h z 3.n.G.[.                < A.rXtX<.                                                                                                                      ",
"                                                                                                d f h j 3.n.G.].                <  XrX1XP & o o                                                                                                                 ",
"                                                                                                s d d j 5.n.G.                  ; k.c.y o & & o o +                                                                                                             ",
"                                                                                                s s d z 9.n.G.                  o o . . + 6 6 5 % & 5 D                                                                                                         ",
"                                                                                                s s s z t.n.S.                  % . X X X + + @ & 6 i 1.                                                                                                        ",
"                                                                                                s s 4 x d.S.                  o o o X . + & & 8 y ~ K.                                                                                                          ",
"                                                                                                4 4 < v b.G.                  = . . % D ,.*.^ o.;.                                                                                                              ",
"                                                                                                4 < < Z M.].                  I V P 1.^.                                                                                                                        ",
"                                                                                                w < < Z M.{.                    $.<.L.                                                                                                                          ",
"                                                                                                4 < , / S.                                                                                                                                                      ",
"                                                                                                4 < < ` Y.                                                                                                                                                      ",
"                                                                                                4 , , ` {.                                                                                                                                                      ",
"                                                                                                1 , < ` D.                                                                                                                                                      ",
"                                                                                                4 1 g ` B R '.;.                                                                                                                                                ",
"                                                                                                4 g l : & ^./.r % o o                                                                                                                                           ",
"                                                                                              o O = o o ! =.9 + o o o                                                                                                                                           ",
"                                                                                              o . . . o 5 % & 5 5 & %     0 ^                                                                                                                                   ",
"                                                                                              % X . . X X 8 ^ ^ ^ ;.      ;.                                                                                                                                    ",
"                                                                                              o o o o . X Y ^ >.>.:.    <.<.                                                                                                                                    ",
"                                                                                            o X X . . . 0 U Y U X.p X.>.                                                                                                                                        ",
"                                                                                            B e 0 e c U X.{ { _ { { X.                                                                                                                                          ",
"                                                                                            @.g.c.Z.Z.C.x.>.                                                                                                                                                    ",
"                                                                                                Z.                                                                                                                                                              ",
"                                                                                                                                                                                                                                                                ",
"                                                                                                                                                                                                                                                                ",
"                                                                                                                                                                                                                                                                "
};
