/* XPM */
static char *front_left1[] = {
/* columns rows colors chars-per-pixel */
"128 128 225 2 ",
"   c #FF00FF",
".  c #050506",
"X  c #070709",
"o  c #0B0A0D",
"O  c #08070B",
"+  c #150E0D",
"@  c #0D0C12",
"#  c #100F14",
"$  c #131215",
"%  c #161519",
"&  c #19171C",
"*  c #1A191C",
"=  c #191617",
"-  c #241414",
";  c #2D1B1A",
":  c #281A19",
">  c #331D1A",
",  c #371D17",
"<  c #26211F",
"1  c #3C211A",
"2  c #33201D",
"3  c #1D1C22",
"4  c #201F25",
"5  c #1E2524",
"6  c #1B3629",
"7  c #232225",
"8  c #24242B",
"9  c #2A2A2D",
"0  c #2A2728",
"q  c #3C2522",
"w  c #372B28",
"e  c #25352B",
"r  c #3B322B",
"t  c #2B2B33",
"y  c #2E2F39",
"u  c #302F37",
"i  c #33333B",
"p  c #393636",
"a  c #273532",
"s  c #18231F",
"d  c #42241C",
"f  c #4B261E",
"g  c #432523",
"h  c #452A22",
"j  c #4D2A23",
"k  c #4A2B27",
"l  c #522B24",
"z  c #572E29",
"x  c #4C332C",
"c  c #47352B",
"v  c #51332C",
"b  c #5C332C",
"n  c #503126",
"m  c #423A33",
"M  c #4B3D33",
"N  c #4A3836",
"B  c #5C3732",
"V  c #5C3A34",
"C  c #553B36",
"Z  c #62352D",
"A  c #663A2E",
"S  c #643C34",
"D  c #6B3C33",
"F  c #6E3F38",
"G  c #703C32",
"H  c #284437",
"J  c #34563A",
"K  c #53453A",
"L  c #5C4B3B",
"P  c #53483F",
"I  c #48423E",
"U  c #64413B",
"Y  c #6C443B",
"T  c #684439",
"R  c #744236",
"E  c #73453B",
"W  c #75493E",
"Q  c #7A483B",
"!  c #71553D",
"~  c #3C3B44",
"^  c #393943",
"/  c #403F49",
"(  c #375A48",
")  c #394744",
"_  c #2B6949",
"`  c #3C7857",
"'  c #376E4A",
"]  c #44434C",
"[  c #4B4846",
"{  c #584C48",
"}  c #5B524B",
"|  c #4A4A54",
" . c #4A4954",
".. c #475653",
"X. c #585658",
"o. c #49534B",
"O. c #694C47",
"+. c #764C43",
"@. c #6C5C4B",
"#. c #675547",
"$. c #7B534C",
"%. c #705E4C",
"&. c #7B5349",
"*. c #6C5E51",
"=. c #645C57",
"-. c #785B54",
";. c #467C5D",
":. c #586D4D",
">. c #74614E",
",. c #6D6155",
"<. c #6B635C",
"1. c #66605C",
"2. c #736353",
"3. c #7D6A56",
"4. c #73665A",
"5. c #75695E",
"6. c #7D6B5B",
"7. c #796754",
"8. c #5A5C66",
"9. c #4B7762",
"0. c #6B6563",
"q. c #736A62",
"w. c #7B6E63",
"e. c #7D7167",
"r. c #696977",
"t. c #71717B",
"y. c #834C3C",
"u. c #89533D",
"i. c #8C5443",
"p. c #86554B",
"a. c #945B4A",
"s. c #96594A",
"d. c #855C53",
"f. c #95574C",
"g. c #A15F51",
"h. c #816E5A",
"j. c #876858",
"k. c #996559",
"l. c #84705D",
"z. c #89735D",
"x. c #91785F",
"c. c #A56457",
"v. c #826B60",
"b. c #956B65",
"n. c #837263",
"m. c #83766A",
"M. c #8C7B6C",
"N. c #8A7866",
"B. c #947A6A",
"V. c #857C73",
"C. c #8B7C74",
"Z. c #957372",
"A. c #A6766D",
"S. c #A57B73",
"D. c #B2776F",
"F. c #3E8661",
"G. c #52876A",
"H. c #529070",
"J. c #70926E",
"K. c #8C837B",
"L. c #8A8079",
"P. c #958578",
"I. c #94806C",
"U. c #A9817B",
"Y. c #B8847A",
"T. c #C1897F",
"R. c #76788A",
"E. c #817584",
"W. c #7C8394",
"Q. c #76BA98",
"!. c #7F8CA5",
"~. c #948C84",
"^. c #998C84",
"/. c #9A9086",
"(. c #9E948B",
"). c #999593",
"_. c #88878C",
"`. c #A1968B",
"'. c #A3998E",
"]. c #A7968A",
"[. c #BA9188",
"{. c #A49C93",
"}. c #A99D93",
"|. c #B38B86",
" X c #ADA59C",
".X c #AAA096",
"XX c #B2A89E",
"oX c #9699B3",
"OX c #9BA7B0",
"+X c #B3ABA2",
"@X c #B9ADA2",
"#X c #BCB4AB",
"$X c #B8B1A8",
"%X c #BBB9B8",
"&X c #C68C87",
"*X c #C6968B",
"=X c #CA9C94",
"-X c #D19790",
";X c #D6A599",
":X c #C8A79D",
">X c #D9A8A4",
",X c #C2B8AD",
"<X c #C5BCB2",
"1X c #C9BFB4",
"2X c #D3B9B5",
"3X c #E2B5B1",
"4X c #CAC1B6",
"5X c #CCC5BB",
"6X c #D1C8BD",
"7X c #EEC1BC",
"8X c #B1B2CD",
"9X c #CECAC3",
"0X c #D4CCC2",
"qX c #DBD4CA",
"wX c #D9D3C9",
"eX c #DDDBD4",
"rX c #E6DFD3",
"tX c #F5D4CD",
"yX c #EAE5DB",
"uX c #E7E4DA",
"iX c #F9E2D3",
"pX c #EEEBE3",
"aX c #F7F5ED",
"sX c #F6F4EE",
"dX c #D1E1E9",
/* pixels */
"                                                                                                                                                                                                                                                                ",
"                                                                                                                                                                                                                                                                ",
"                                                                                                                                                                                                                                                                ",
"                                                                                                                                                                                                                                                                ",
"                                                                                                                                                                                                                                                                ",
"                                                                                                                                                                                                                                                                ",
"                                                                                                                                                                                                                                                                ",
"                                                                                                                                                                                                                                                                ",
"                                                                                                                                                                                                                                                                ",
"                                                                                                                                                                                                                                                                ",
"                                                                                                                                                                                                                                                                ",
"                                                                                                                                                                                                                                                                ",
"                                                                                                                                                                                                                                                                ",
"                                                                                                                                                                                                                                                                ",
"                                                                                                                                                                                                                                                                ",
"                                                                                                                                                                                                                                                                ",
"                                                                                                                                                                                                                                                                ",
"                                                                                                                                                                                                                                                                ",
"                                                                                                                                                                                                                                                                ",
"                                                                                                                                                                                                                                                                ",
"                                                                                                                                                                                                                                                                ",
"                                                                                                                                                                                                                                                                ",
"                                                                                                                                                                                                                                                                ",
"                                                                                                                                                                                                                                                                ",
"                                                                                                                                                                                                                                                                ",
"                                                                                                                                7 7 8 u ]                                                                                                                       ",
"                                                                                                                              & & & & 3 u p [                                                                                                                   ",
"                                                                                                                            & $ % $ % & 9 9 p [                                                                                                                 ",
"                                                                                                                          7 $ $ $ $ 0 c w w K }",
"                                                                                                                          7 & & & : n i.f.A.;X;XK.                                                                                                              ",
"                                                                                                                          7 < 0 w w V s.k.D.7XiXtX                                                                                                              ",
"                                                                                                                          0 w w c V +.s.k.Y.7XtXtX",
"                                                                                                                          c F S V W s.i.+.v.[.3X2X",
"                                                                                                                            i.i.i.i.s.i.O.O.$.U.Z.                                                                                                              ",
"                                                                                                                            y.i.s.s.g.c.T.[.k.=X                                                                                                                ",
"                                                                                                                            E i.i.s.s.c.-X&Xf.&X                                                                                                                ",
"                                                                                                                            W u.i.s.s.g.D.D.p.&X                                                                                                                ",
"                                                                                                                            W i.u.i.s.s.k.k.D.3X                                                                                                                ",
"                                                                                                                          J ! i.W R i.i.p.p.A.>X                                                                                                                ",
"                                                                                                                  7 3 & < J ! u.W A b T +.k.Y.                                                                                                                  ",
"                                                                                                              7 & & % % & J :.u.W A n h c O.U.C.",
"                                                                                                        7 & & & & & % $ $ e :.u.u.R Y j.} 9 7 i t ]                                                                                                             ",
"                                                                                                    % & & & % % & & % % & 5 ` >.u.R D.;Xo.a % 3 9 ^ i                   W S.;X>X                                                                                ",
"                                                                                                    & & & & & & 3 4 9 t p i ;.J.+.k.Y.-.J H % 3 3 t i |               p.b a.*X;X3X                                                                              ",
"                                                                                                  3 & % % 3 7 t ] | | ^ ^ ^ ;.Q.p } } t _ ( % 4 3 & t i ]             +.S D k.[.*X                                                                              ",
"                                                                                                7 & % % $ & 8 8 ^ | ] ] ^ ^ ..Q...^ ] 8 ` 9.3 8 3 $ 8 8 ^               p.S E d.[.                                                                              ",
"                                                                                              3 & % $ $ $ % 4 3 i ^ ^ ^ / / ^ F.9.] p 8 H.H.8 9 8 % & & i ]             p.+.W p.*X                                                                              ",
"                                                                                            3 & % $ $ $ $ $ $ & 9 i i ^ ] ] ^ ( G.~ 7 i H.H.t 9 8 $ @ $ 3 9 |             O.s.a.Y.                                                                              ",
"                                                                                          7 & % $ $ $ $ $ @ @ % 3 t i ^ ] ] ^ H H.9 8 ^ _ ` & 8 & @ o @ # & t /         W #.Y +.b.                                                                              ",
"                                                                                          & % $ $ $ $ $ @ @ @ $ % 8 u ^ / ] ^ 5 ` a ^ t _ _ $ & @ o o @ @ $ % 8 ^       E +.#.*.                                                                                ",
"                                                                                        & % $ $ $ $ $ @ @ @ @ @ $ 4 t i ^ ] i & ( ) ^ 8 ;.;.3 @ @ O O @ @ @ $ % 7 N +.E W Y $.[.                                                                                ",
"                                                                                      & % % $ $ $ $ @ @ @ o o o @ % 4 t ^ ] u @ H ..4 9 G.G.4 @ $ $ o @ @ @ @ $ q b E W E S b.                                                                                  ",
"                                                                                    w % % % $ $ $ @ @ @ o O O o o @ % 8 i ] i # a ( # 7 G.G.& #       o @ @ = n D D W W S T U.                                                                                  ",
"                                                                                  W V & % $ $ $ @ @ o O . . O o o @ @ % t ^ u # a H @ % ' ( @ %       & o = n R D E E Y B $.                                                                                    ",
"                                                                                  E E 0 $ $ $ # @ % o . . O o o o o o @ 4 8 % @ 5 5 o % ` ..@ 4         & 4 T S S T S B T b.                                                                                    ",
"                                                                                Y R E l & $ # @ &   $ . O O o o o o @ @ @ @ @ o @ s 6 H ;.) $                   V V C C -.                                                                                      ",
"                                                                                E E R b > & #       & O O o o o @ @ @ @ @ @ @ @ @ 6 _ ;.1.% %                       C                                                                                           ",
"                                                                                W Q R Z g           @ o o o o o o @ @ @ @ @ # # @ 5 $ & $ # 7                                                                                                                   ",
"                                                                                +.Q R Z k         @ o o o o @ @ @ o @ @ @ $ $ # # t 3 8 % 4 ]                                                                                                                   ",
"                                                                                W Q G Z k         o o o o @ @ @ @ @ # # # # % 8 u ] X.t.^ ^                                                                                                                     ",
"                                                                                E R D z k         o o @ @ @ @ @ @ @ @ @ @ @ 9 8.r.t.R.!.8. .                                                                                                                    ",
"                                                                                Y D A z g       @ o @ @ @ @ @ @ @ @ @ @ @ # 8 R.oX8XoXW.r.|                                                                                                                     ",
"                                                                                Y D Z l g       @ @ @ @ @ @ @ @ @ @ @ @ @ @ 3 R.8X8XoXE.R.8.                                                                                                                    ",
"                                                                                  Z z l g       o @ @ @ @ # # @ @ @ @ @ @ % 3 r.8XoX_.r.8.                                                                                                                      ",
"                                                                                  Z z l g     $ o @ @ @ o @ $ $ $ # # # # % 8 ^ ] ] t i  .                                                                                                                      ",
"                                                                                  b z l g     o o @ @ @ @ o @ # $ # # @ @ % 7 3 8 t t ^ |                                                                                                                       ",
"                                                                                  S b l q   $ @ o o @ @ @ @ @ @ @ $ # @ @ $ & t i 4 i ~                                                                                                                         ",
"                                                                                  S Z l q   & @ @ @ o @ o o o o @ @ # $ $ % 5 i t 8 ^ ]                                                                                                                         ",
"                                                                                  T b j > w & @ @ @ @ @ o o o o O O O O @ & 5 8 8 i i ^ ]                                                                                                                       ",
"                                                                                  V j d > - = o @ @ @ @ @ @ @ @ @ o o O O @ & 3 8 t ^ i ~                                                                                                                       ",
"                                                                                  c h 1, q M & @ @ @ # # @ @ % % @ @ % & 3 3 3 3 i ^ t t.eX                                                                                                                    ",
"                                                                                  h 1 1 , c l.3.M & @ @ $ 3 & % 8 3 @ $ % 3 8 t ^ ^ y 8.9XuX",
"                                                                                      1 ;   I.x.B.m.{ w $ # & 3 8 t 8 3 3 % & ^ | X._.eXrXqX                                                                                                                    ",
"                                                                                            N.z.B.P.P.B.w.{ p 0 7 7 9 t 8 9 X.).%X9XyXyXqX4X                                                                                                                    ",
"                                                                                            N.z.l.N.P.M.B.].}./.w.*.C.{. X~.`.yXpXqXeXyX,XXX                                                                                                                    ",
"                                                                                            N.h.7.l.B.P.n.M.'.0X#Xm.4.m.`.XXC.5XuXwXqX4X@X6XaX                                                                                                                  ",
"                                                                                            z.3.>.3.l.I.P.M.C..XqX#XK.w.4.4.4.$X9X,X,X<X5X6XuX                                                                                                                  ",
"                                                                                              h.h.l.6.6.P.`././.<XqXwX4XXX'.'.<X,X,X4X5X5X4X0XuX                                                                                                                ",
"                                                                                              h.h.l.l.6.2.V.(./.P.{.,XqXrXrXqX1X1X5X5X<X,X4X0X#X                                                                                                                ",
"                                                                                              h.h.3.l.n.h.e.C././.K.C.K.~.{. X$X<X#X}.'.$XwXyX+X                                                                                                                ",
"                                                                                              h.h.z.7.6.w.m.~.(.(.{.'.'.(.(.~.{.(.e.w.V.XXyXpX5X                                                                                                                ",
"                                                                                              3.3.h.N.h.n.K.'. X+XXX X X X'.'.~.#.6.M.'.,XqXpXpX                                                                                                                ",
"                                                                                              h.h.h.h.l.N.P..X+X+X+XXXXX+X`. X=.#.2.v.P.XXwXpXaX                                                                                                                ",
"                                                                                              6.7.3.h.6.m.C.`.+X#X#X.X{.`.{.~.P 2.3.6.6.K.<XyXaX                                                                                                                ",
"                                                                                              6.2.>.2.6.M.m.C./.{.XX.X{.{.+X{ r @.h.n.h.m. XeXaX                                                                                                                ",
"                                                                                              7.2.>.>.2.n.e.C.~.(.{.{./.{.~.w c T @.2.v.C.'.9XpXaX",
"                                                                                              @.z.3.2.@.4.e.e.K./.'.'.`.K.} : M #.@.%.*.2.m.+XuXaX                                                                                                              ",
"                                                                                              K >.h.7.2.2.4.4.e.K.(.(.C.q.m 2 r L @.%.@.*.2.~.5XeX                                                                                                              ",
"                                                                                              K K #.>.2.4.4.w.L.K.L.e.q.q.m c c L #.@.2.2.*.4.K.).",
"                                                                                                L @.@.@.@.*.4.m.V.w.q.q.X.m K M L %.@.@.2.2.4.q.L.                                                                                                              ",
"                                                                                                L #.@.@.@.*.2.4.q.q.q.<.[ m M r K @.#.%.2.,.*.<.).                                                                                                              ",
"                                                                                                #.@.%.2.@.*.2.4.w.q.q.=.            q h c M C { ~.",
"                                                                                                %.@.@.%.@.2.2.4.4.q.<.=.            1 , , , 1 v Z.                                                                                                              ",
"                                                                                                #.>.#.#.@.#.@.*.<.<.1.X.            g 1 d d v $.|.                                                                                                              ",
"                                                                                              j n L #.@.@.%.@.*.,.<.=.              h j g g B b.=X                                                                                                              ",
"                                                                                              j f 1 2 w M #.*.,.<.<.                j l j f B b.=X                                                                                                              ",
"                                                                                            n j j d ; + - O.                        j l l j B j.*X                                                                                                              ",
"                                                                                            j j f d > - q                           j l l l B d.Y.>X                                                                                                            ",
"                                                                                            h d 1 , > - C                           j l l l V $.A.=X                                                                                                            ",
"                                                                                            d 1 > > ; > -.                          j l l l S Y b.=X                                                                                                            ",
"                                                                                            1 > > ; - N                               f j l Y T k.=X                                                                                                            ",
"                                                                                            > ; ; - ; $.                              d d j T S j.*X                                                                                                            ",
"                                                                                            ; ; - - V                                 1 1 j T S j.*X                                                                                                            ",
"                                                                                            ; ; - c j., d V S d.=X                                                                                                            ",
"                                                                                            ; ; 2 d.B.                                  > 1 k B j.=X                                                                                                            ",
"                                                                                            > ; c A.                                    >, d n $.S.                                                                                                            ",
"                                                                                            2 ; C S.                                      , d k V -.                                                                                                            ",
"                                                                                            q ; N {                                       1 1 j d.2X                                                                                                            ",
"                                                                                            ; ; : |                                       1 d $.tXaX                                                                                                            ",
"                                                                                            o $ i OXdX                                    1 d d.iXpX                                                                                                            ",
"                                                                                          o o $ & W.OX                                    d d T :X^.                                                                                                            ",
"                                                                                          $ o $ & i | 8.                                  1 f l S C                                                                                                             ",
"                                                                                          p & p $ o $ i                                   + , d 2 & u                                                                                                           ",
"                                                                                          n.#.{ p $ o o o                                 . . . . o & &                                                                                                         ",
"                                                                                            4.,.=.r $ o o $                             o O . . . o o o                                                                                                         ",
"                                                                                              *.4.p $ o @ $ &                           o . O o o o O X o                                                                                                       ",
"                                                                                              2.w $ $ $ $ $ 3                           p + . . . o @ o o                                                                                                       ",
"                                                                                                *.K 0 < : 9 {                           n.*.r $ . o $ o X o                                                                                                     ",
"                                                                                                  n.w.4.4.q.q.                            M.P.6.m o o o X o @                                                                                                   ",
"                                                                                                                                                6.m o o o @ @ $                                                                                                 ",
"                                                                                                                                                    0 o $ & & & &                                                                                               ",
"                                                                                                                                                    ,.r = $ $ $ & I                                                                                             ",
"                                                                                                                                                      n.*.m 0 w [ <.                                                                                            ",
"                                                                                                                                                          M.n.6.,.                                                                                              ",
"                                                                                                                                                                                                                                                                ",
"                                                                                                                                                                                                                                                                ",
"                                                                                                                                                                                                                                                                ",
"                                                                                                                                                                                                                                                                "
};
