/* XPM */
static char *front_left2[] = {
/* columns rows colors chars-per-pixel */
"128 128 221 2 ",
"   c #FF00FF",
".  c #060606",
"X  c #070708",
"o  c #0B0B0D",
"O  c #0A0808",
"+  c #130E0D",
"@  c #0E0D12",
"#  c #100F14",
"$  c #131315",
"%  c #161519",
"&  c #191719",
"*  c #1B1A1C",
"=  c #1A1716",
"-  c #241514",
";  c #221D1D",
":  c #2B1C1A",
">  c #291A17",
",  c #351C16",
"<  c #391E16",
"1  c #341D19",
"2  c #381F1B",
"3  c #26221F",
"4  c #3C221B",
"5  c #34201C",
"6  c #1D1D22",
"7  c #2A1F21",
"8  c #1D2D22",
"9  c #232225",
"0  c #2D2322",
"q  c #24242B",
"w  c #262B2D",
"e  c #2C292A",
"r  c #372826",
"t  c #39332D",
"y  c #2B2C34",
"u  c #272830",
"i  c #2D3237",
"p  c #343333",
"a  c #34333B",
"s  c #3A3939",
"d  c #2D3231",
"f  c #42241C",
"g  c #4C261D",
"h  c #462B22",
"j  c #4B2A22",
"k  c #482B25",
"l  c #532D22",
"z  c #4B332C",
"x  c #5B3226",
"c  c #5D342A",
"v  c #56352A",
"b  c #463933",
"n  c #5C3B33",
"m  c #553A36",
"M  c #64392D",
"N  c #65382C",
"B  c #663D34",
"V  c #723F33",
"C  c #2E4A36",
"Z  c #3D663F",
"A  c #4D433C",
"S  c #5B4737",
"D  c #59563B",
"F  c #65433B",
"G  c #6D423B",
"H  c #644839",
"J  c #7B453B",
"K  c #7B4A3A",
"L  c #774537",
"P  c #64523E",
"I  c #6B503F",
"U  c #3B3B44",
"Y  c #3A3A44",
"T  c #403F48",
"R  c #3D4244",
"E  c #3A4946",
"W  c #365848",
"Q  c #396B4E",
"!  c #2A724F",
"~  c #39734E",
"^  c #42424C",
"/  c #45494A",
"(  c #564B44",
")  c #584A48",
"_  c #5E5247",
"`  c #4A4B53",
"'  c #4D4D58",
"]  c #464651",
"[  c #564F58",
"{  c #485B59",
"}  c #52515C",
"|  c #54565B",
" . c #664941",
".. c #7B4E43",
"X. c #714C47",
"o. c #635243",
"O. c #6B5643",
"+. c #6E5A45",
"@. c #61544B",
"#. c #6D5C4A",
"$. c #6F504C",
"%. c #715E4B",
"&. c #79544B",
"*. c #695B55",
"=. c #785A56",
"-. c #4C6F4D",
";. c #75614D",
":. c #7A654E",
">. c #746353",
",. c #7B6752",
"<. c #7E6954",
"1. c #746559",
"2. c #7B6B5C",
"3. c #75695D",
"4. c #6F6155",
"5. c #565661",
"6. c #595864",
"7. c #577067",
"8. c #656265",
"9. c #796B66",
"0. c #707768",
"q. c #844A3C",
"w. c #8C4C3D",
"e. c #804538",
"r. c #94513F",
"t. c #8D4E41",
"y. c #834E42",
"u. c #8D5344",
"i. c #875548",
"p. c #935444",
"a. c #9A5544",
"s. c #93574A",
"d. c #945B4B",
"f. c #9C5C4C",
"g. c #9A5846",
"h. c #855750",
"j. c #945D54",
"k. c #914F40",
"l. c #A05B48",
"z. c #826D55",
"x. c #836E5B",
"c. c #946055",
"v. c #9A645A",
"b. c #85715B",
"n. c #8B745C",
"m. c #897056",
"M. c #90785C",
"N. c #A36358",
"B. c #9A6D63",
"V. c #8B7662",
"C. c #8B7A6A",
"Z. c #847362",
"A. c #94786D",
"S. c #907772",
"D. c #AA756A",
"F. c #B37467",
"G. c #AD7B74",
"H. c #A67D77",
"J. c #39805A",
"K. c #458862",
"L. c #62887A",
"P. c #8D8278",
"I. c #958272",
"U. c #998476",
"Y. c #B58376",
"T. c #B9877B",
"R. c #C2847D",
"E. c #7F848D",
"W. c #9A8B83",
"Q. c #999189",
"!. c #929399",
"~. c #878992",
"^. c #BD8B80",
"/. c #A39688",
"(. c #B6928B",
"). c #A79C92",
"_. c #B29A95",
"`. c #AFA396",
"'. c #B5A89B",
"]. c #B2ACA5",
"[. c #BBB1A5",
"{. c #BCB4A9",
"}. c #AAAEB2",
"|. c #B5B1AB",
" X c #C38D89",
".X c #C6948B",
"XX c #CB9B92",
"oX c #D79C97",
"OX c #D29B8B",
"+X c #D1A39A",
"@X c #C1B8AC",
"#X c #DCB1AB",
"$X c #C5BDB2",
"%X c #D2ABA5",
"&X c #E6B3AC",
"*X c #E8BEB7",
"=X c #CCC4B8",
"-X c #C9C2B7",
";X c #D4CABF",
":X c #D1C7BC",
">X c #EDC3BB",
",X c #D7CEC5",
"<X c #DBD2C6",
"1X c #DDD6CB",
"2X c #DBD6CB",
"3X c #CECCCD",
"4X c #E1DACE",
"5X c #F7D2CC",
"6X c #E3DDD2",
"7X c #F9DBD5",
"8X c #E5E1D6",
"9X c #EBE6DA",
"0X c #EAE5D9",
"qX c #F0EBDF",
"wX c #C7DCE2",
"eX c #EFEBE5",
"rX c #F2EDE2",
"tX c #F5F1E5",
"yX c #F6F3E9",
"uX c #F9F5EB",
"iX c #F3F6F6",
/* pixels */
"                                                                                                                                                                                                                                                                ",
"                                                                                                                                                                                                                                                                ",
"                                                                                                                                                                                                                                                                ",
"                                                                                                                                                                                                                                                                ",
"                                                                                                                                                                                                                                                                ",
"                                                                                                                                                                                                                                                                ",
"                                                                                                                                                                                                                                                                ",
"                                                                                                                                                                                                                                                                ",
"                                                                                                                                                                                                                                                                ",
"                                                                                                                                                                                                                                                                ",
"                                                                                                                                                                                                                                                                ",
"                                                                                                                                                                                                                                                                ",
"                                                                                                                                                                                                                                                                ",
"                                                                                                                                                                                                                                                                ",
"                                                                                                                                                                                                                                                                ",
"                                                                                                                                                                                                                                                                ",
"                                                                                                                                                                                                                                                                ",
"                                                                                                                                                                                                                                                                ",
"                                                                                                                                                                                                                                                                ",
"                                                                                                                                                                                                                                                                ",
"                                                                                                                                                                                                                                                                ",
"                                                                                                                                                                                                                                                                ",
"                                                                                                                                                                                                                                                                ",
"                                                                                                                                                                                                                                                                ",
"                                                                                                                            q q q w R                                                                                                                           ",
"                                                                                                                          * * * & * p s /                                                                                                                       ",
"                                                                                                                        * % % % % * 9 w p ^                                                                                                                     ",
"                                                                                                                        * % % % * 0 0 r m @.*.                                                                                                                  ",
"                                                                                                                        * = % = r ..u.N.oX&X(.                                                                                                                  ",
"                                                                                                                        ; 3 0 0 z y.g.F.&X7X5X                                                                                                                  ",
"                                                                                                                        0 r r z F u.g.F.&X7X5X                                                                                                                  ",
"                                                                                                                        z n z n u.p...=.H.#X%X                                                                                                                  ",
"                                                                                                                        J t.q.K s.s.G $.X.G.H.                                                                                                                  ",
"                                                                                                                        G q.p.p.s.v.D.XXv.R.*X                                                                                                                  ",
"                                                                                                                        n q.u.u.s.g.F.oXj.N.&X                                                                                                                  ",
"                                                                                                                          K q.p.s.g.N.R.v.G.&X                                                                                                                  ",
"                                                                                                                        D K q.K u.p.s.c.c.oX                                                                                                                    ",
"                                                                                                                      d Z I q.N B J y.i.h. X                                                                                                                    ",
"                                                                                                                    * * C D L N k k n ..D.+X                                                                                                                    ",
"                                                                                                                q * % % 8 Z H N v 4 r b $.W.                    D.+X                                                                                            ",
"                                                                                                              * 6 6 % % % C -.G ..B.4./ ` |                   y.s.T.*X                                                                                          ",
"                                                                                                            * * q a y * & w ~ <.D.OXA E | | 8.              K u.s.v..X>X                                                                                        ",
"                                                                                                          6 * & * 9 a U 9 9 Q 0.A.A.p E 5.5.6.              K s.s.c.v.#X                                                                                        ",
"                                                                                                        q * % * q i a U U q E 7.E ^ R W 5.6.6.              q.s.s.s.D.#X                                                                                        ",
"                                                                                                        * & % % * 9 y Y ^ a q C W ^ R Q { 6.`             q.u.s.s.c.XX                                                                                          ",
"                                                                                                        * * % % % * 9 a T ^ a w E ` R ~ { 6.|           q.u.g.s.h.v.                                                                                            ",
"                                                                                                      q * * % % % % q a ^ } ^ 9 C ^ R ! { 5.          t.p.s.D.Y.                                                                                                ",
"                                                                                                      6 * % % % % % & q a ' ` 9 i ` i ! { |       w.p.g.p.j.Y.                                                                                                  ",
"                                                                                                      * % % % % % % % 6 y a T U a | R J.7.|     w.g.g.s.s.Y.                                                                                                    ",
"                                                                                                      * % % % % % % % & 6 q a ` ` ] / K.L.[ h.r.g.l.g.s.D.                                                                                                      ",
"                                                                                                      * % @ % % % % % % % * q a ` U s -.9.q.a.l.g.s.c.G.XX                                                                                                      ",
"                                                                                                      * % o o % % % % % % % & r ) ) v K r.g.g.p.u.s.D.XX                                                                                                        ",
"                                                                                                      * % @ o o % % % % % & z J q.q.w.a.a.p.p.u.i.v.^.                                                                                                          ",
"                                                                                                      % % o o o % % % % ; n w.w.w.p.p.p.k.t.t.y.j.G.                                                                                                            ",
"                                                                                                      % % @ o o o % % & z q.e.e.w.w.w.w.w.q.J h.G.                                                                                                              ",
"                                                                                                      % % @ o o o % * & k V L L q.q.q.q.J G &.B.                                                                                                                ",
"                                                                                                      % % % @ o o o @ @ # r N V J q.J G G $.A.                                                                                                                  ",
"                                                                                                    * % % @ o o o o @ @ @ @ 0 $.B B B  .=.                                                                                                                      ",
"                                                                                                    * % % @ o @ o @ @ @ @ @ q }.Q.@.m *.9.                                                                                                                      ",
"                                                                                                    % % % % % o o @ @ @ @ @ % }.iXwXE.}                                                                                                                         ",
"                                                                                                  * % % % @ o o @ @ @ @ @ @ % }.iXeX!.'                                                                                                                         ",
"                                                                                                  * % % % % @ @ @ @ @ @ @ @ % }.iX2X~.'                                                                                                                         ",
"                                                                                                  % % % % % % % # # @ @ @ @ % | 8.5.| |                                                                                                                         ",
"                                                                                                  % % % % % % % # @ @ # % 6 q 9 y U ^ |                                                                                                                         ",
"                                                                                                  % % % % % % @ # @ @ % 6 9 9 9 y U U '                                                                                                                         ",
"                                                                                                  % % % % % # @ @ # % % 9 w y u y Y ^                                                                                                                           ",
"                                                                                                  @ @ @ o o @ @ @ @ # % 6 6 9 u y Y ^                                                                                                                           ",
"                                                                                                % % % % @ o @ o @ @ % @ @ @ @ % 6 y ^                                                                                                                           ",
"                                                                                                * % % % % % 9 9 9 y 9 i i y 9 9 9 9 Y                                                                                                                           ",
"                                                                                                * % @ @ @ % 6 y y Y a a ^ ] ] U U U |                                                                                                                           ",
"                                                                                                  t 3 * 3 q s a u 9 y a U ^ ^ ^ ^ `                                                                                                                             ",
"                                                                                                  >.<.;.<.2.{.].Q.0.8.| [ | ` ^ | !.                                                                                                                            ",
"                                                                                                  o.b.M.z.V.[.-X<X1X1X1X<X].{.3X-X8X                                                                                                                            ",
"                                                                                                  >.b.n.m.b.W.`.-X;X<X6X9X9X[.0X6X<X                                                                                                                            ",
"                                                                                                    x.n.m.<.Z.C.'.;X<X6X6XrX6X-X{.1X                                                                                                                            ",
"                                                                                                    <.b.z.#.#.>.C.W./.;X0XqXuX8X1X9XeX                                                                                                                          ",
"                                                                                                      <.z.:.x.V.C.A.U.'.;X0XuXtXtXrXeX                                                                                                                          ",
"                                                                                                      >.z.,.<.V.A.U./.[.;X6XrXtXrXuX                                                                                                                            ",
"                                                                                                      #.<.<.z.x.b.A./.'.-X6XqXrX9XrX                                                                                                                            ",
"                                                                                                      >.;.z.,.n.V.x.C.'.-X<X9XtXqX9X                                                                                                                            ",
"                                                                                                        ;.;.<.<.x.V.V.I.@X<X9XtXrX                                                                                                                              ",
"                                                                                                        ;.;.;.<.z.x.V.C.).$X1X9XrX                                                                                                                              ",
"                                                                                                        <.:.;.,.<.x.x.V.`.-X<X6XrX                                                                                                                              ",
"                                                                                                        z.<.;.#.%.>.<.x./.$X;X6XtX                                                                                                                              ",
"                                                                                                        ;.;.,.;.%.%.;.>.P.[.;X1XrXyX                                                                                                                            ",
"                                                                                                          O.,.,.,.;.#.#.2./.-X1X9XyX                                                                                                                            ",
"                                                                                                          O.%.;.n.n.z.;.2.P.).-X8XyX                                                                                                                            ",
"                                                                                                          #.#.P D #.,.,.>.2.W.{.1XtX                                                                                                                            ",
"                                                                                                          #.+.+.S o.o.o.#.#.*.P.$XeX                                                                                                                            ",
"                                                                                                          I %.;.P o.%.#.#.>.>.Z.'.8X                                                                                                                            ",
"                                                                                                          n ;.;.+.P O.%.,.>.;.,.W.$X                                                                                                                            ",
"                                                                                                        v l O.:.+.P +.%.;.>.>.>.3.P.                                                                                                                            ",
"                                                                                                        v g S z.:.%.+.%.%.%.%.>.1.S.].                                                                                                                          ",
"                                                                                                        l f k ;.z.:.,.,.,.,.,.2.9.).                                                                                                                            ",
"                                                                                                        g f , 4 r b #.I I O.I  .=._.                                                                                                                            ",
"                                                                                                        4 , : - -     l x x l n x.(.                                                                                                                            ",
"                                                                                                      k 1 - - - 0   l l v M v &.(.                                                                                                                              ",
"                                                                                                      k , - - :     k l x N v &.XX                                                                                                                              ",
"                                                                                                      k , - :       k l x v M h..X                                                                                                                              ",
"                                                                                                      4 1 : 0       k g l l v h..X                                                                                                                              ",
"                                                                                                    k 4 1 5 r       f g g g l .. X                                                                                                                              ",
"                                                                                                    k f 2 ; 6 % % % 5 g g f h G T.                                                                                                                              ",
"                                                                                                    1 4 - % 6 % % % : f f f f B Y.                                                                                                                              ",
"                                                                                                  o X O X o o o % % : 4 4 4 4 B Y.                                                                                                                              ",
"                                                                                                  o X o o o o X o %   1 < < < B Y.                                                                                                                              ",
"                                                                                                  o X . o @ % o X o & 1 , < < n Y.                                                                                                                              ",
"                                                                                                  _ b r = o % % o o % : , < 4 F T.                                                                                                                              ",
"                                                                                                  I.I.C.>.t + % % % % - , 4 < F T.                                                                                                                              ",
"                                                                                                            t = % % % 0 1 , < F ^.                                                                                                                              ",
"                                                                                                              *.( A ( 8.r , 1 F H.                                                                                                                              ",
"                                                                                                                  9.      1 , z $.                                                                                                                              ",
"                                                                                                                          1 , 4 S.,X                                                                                                                            ",
"                                                                                                                          1 , F 7X3X                                                                                                                            ",
"                                                                                                                          : 4 n U.` w                                                                                                                           ",
"                                                                                                                          O + + = q % %                                                                                                                         ",
"                                                                                                                        o . . . % % @ o o                                                                                                                       ",
"                                                                                                                        o . . o o o o o X X                                                                                                                     ",
"                                                                                                                        = . . . o + o o X X o                                                                                                                   ",
"                                                                                                                        >.3 . % @.t = o o X o %                                                                                                                 ",
"                                                                                                                        U.C.( @.A @.@.% % o X @                                                                                                                 ",
"                                                                                                                          I.I.2._ 1.A A q % o % * *                                                                                                             ",
"                                                                                                                              C.Z._ 1.e * * % % * *                                                                                                             ",
"                                                                                                                                  x.o.e ; * & * * t *.                                                                                                          ",
"                                                                                                                                      >.*._ ( ( _ *.                                                                                                            ",
"                                                                                                                                            3.1.                                                                                                                ",
"                                                                                                                                                                                                                                                                ",
"                                                                                                                                                                                                                                                                ",
"                                                                                                                                                                                                                                                                "
};
