/* XPM */
static char *shoot_right[] = {
/* columns rows colors chars-per-pixel */
"128 128 210 2 ",
"   c #FF00FF",
".  c #0B0D0B",
"X  c #0E100F",
"o  c #12120F",
"O  c #0F1110",
"+  c #131414",
"@  c #161619",
"#  c #18171C",
"$  c #17191A",
"%  c #1A1A1C",
"&  c #171817",
"*  c #211D1E",
"=  c #1E201F",
"-  c #3E291F",
";  c #1E1D21",
":  c #201F24",
">  c #1E2122",
",  c #222224",
"<  c #25252A",
"1  c #28272A",
"2  c #2B2A2C",
"3  c #282928",
"4  c #342D2C",
"5  c #3A2C27",
"6  c #37322D",
"7  c #2D2C33",
"8  c #302E34",
"9  c #2A3431",
"0  c #323134",
"q  c #35343B",
"w  c #3A363A",
"e  c #452D23",
"r  c #4A2E26",
"t  c #46332B",
"y  c #55342B",
"u  c #5A362C",
"i  c #5C392E",
"p  c #483A36",
"a  c #523C3B",
"s  c #583B35",
"d  c #512F27",
"f  c #643D32",
"g  c #693F33",
"h  c #35453B",
"j  c #49433C",
"k  c #57413C",
"l  c #6B4235",
"z  c #65443C",
"x  c #6B453D",
"c  c #6E4B3D",
"v  c #734B3C",
"b  c #3C3C44",
"n  c #3E3E48",
"m  c #493F43",
"M  c #3E4B45",
"N  c #4A4344",
"B  c #43434B",
"V  c #434949",
"C  c #574944",
"Z  c #464651",
"A  c #4B4B56",
"S  c #4D4E5A",
"D  c #474951",
"F  c #4E505D",
"G  c #51525D",
"H  c #515456",
"J  c #5C534B",
"K  c #6B4540",
"L  c #6A4B43",
"P  c #634A44",
"I  c #754D44",
"U  c #764D48",
"Y  c #66574C",
"T  c #7D534B",
"R  c #755448",
"E  c #655B53",
"W  c #6C5951",
"Q  c #755452",
"!  c #7D5953",
"~  c #526A47",
"^  c #6C6055",
"/  c #756452",
"(  c #7A6753",
")  c #7D6955",
"_  c #7D6B5B",
"`  c #776659",
"'  c #74624D",
"]  c #545562",
"[  c #595A67",
"{  c #5B5D6A",
"}  c #575A67",
"|  c #605F6C",
" . c #5E626D",
".. c #577D6C",
"X. c #646269",
"o. c #766D66",
"O. c #7D7368",
"+. c #646471",
"@. c #6B6E74",
"#. c #7C7977",
"$. c #6F737B",
"%. c #FB0927",
"&. c #F90C29",
"*. c #F2102B",
"=. c #85544B",
"-. c #895549",
";. c #945A4C",
":. c #925848",
">. c #8B5D53",
",. c #845C57",
"<. c #9A5E53",
"1. c #8F4948",
"2. c #816E5B",
"3. c #876458",
"4. c #94635A",
"5. c #9A645B",
"6. c #84715D",
"7. c #8B755F",
"8. c #A3675E",
"9. c #8D6764",
"0. c #956C63",
"q. c #9B6C63",
"w. c #996A66",
"e. c #847362",
"r. c #897562",
"t. c #8E7965",
"y. c #86796D",
"u. c #8C7B6B",
"i. c #82766B",
"p. c #927E6B",
"a. c #97756C",
"s. c #8C7D72",
"d. c #9A7872",
"f. c #A46D64",
"g. c #A56E6B",
"h. c #AB6D64",
"j. c #A7746D",
"k. c #B7796B",
"l. c #AB7B74",
"z. c #A57A74",
"x. c #B77C78",
"c. c #A26E71",
"v. c #95816E",
"b. c #99846D",
"n. c #89827A",
"m. c #948373",
"M. c #9A8879",
"N. c #AD837B",
"B. c #A18B74",
"V. c #B2847C",
"C. c #BC8B7E",
"Z. c #A6907D",
"A. c #C68679",
"S. c #7D7E86",
"D. c #7F838C",
"F. c #868687",
"G. c #948D87",
"H. c #9C948A",
"J. c #9C9387",
"K. c #9C9A98",
"L. c #B98C85",
"P. c #A3978A",
"I. c #A39B92",
"U. c #A89F94",
"Y. c #BE9794",
"T. c #BC928B",
"R. c #B1A699",
"E. c #949AA4",
"W. c #9FA8B3",
"Q. c #9FA3AE",
"!. c #A9A7A4",
"~. c #B2AEA5",
"^. c #B8B3AA",
"/. c #B0B2B9",
"(. c #C88E85",
"). c #C3938C",
"_. c #CB978B",
"`. c #C99A92",
"'. c #D49C95",
"]. c #DDA49C",
"[. c #DAABA4",
"{. c #C2BDB4",
"}. c #C0BFBE",
"|. c #DCB8B5",
" X c #E0ABA5",
".X c #C9C5BC",
"XX c #C8C4BB",
"oX c #A9B7C1",
"OX c #CACAC3",
"+X c #D2CEC4",
"@X c #D2CFC9",
"#X c #D5D3C9",
"$X c #DCD9CF",
"%X c #D7D5CB",
"&X c #DCDAD2",
"*X c #D0D9DD",
"=X c #C9D0D5",
"-X c #E2DED5",
";X c #E3E1D7",
":X c #E6E3DA",
">X c #E9E6DD",
",X c #ECE9DF",
"<X c #CFDEE6",
"1X c #D9E4EB",
"2X c #ECEAE2",
"3X c #F2EEE5",
"4X c #F5F2EB",
"5X c #F9F5ED",
"6X c #FAF8F2",
"7X c #F8F6F0",
/* pixels */
"                                                                                                                                                                                                                                                                ",
"                                                                                                                                                                                                                                                                ",
"                                                                                                                                                                                                                                                                ",
"                                                                                                                                                                                                                                                                ",
"                                                                                                                                                                                                                                                                ",
"                                                                                                                                                                                                                                                                ",
"                                                                                                                                                                                                                                                                ",
"                                                                                                                                                                                                                                                                ",
"                                                                                                                                                                                                                                                                ",
"                                                                                                                                                                                                                                                                ",
"                                                                                                                                                                                                                                                                ",
"                                                                                                                                                                                                                                                                ",
"                                                                                                                                                                                                                                                                ",
"                                                                                                                                                                                                                                                                ",
"                                                                                                                                                                                                                                                                ",
"                                                                                                                                                                                                                                                                ",
"                                                                                                                                                                                                                                                                ",
"                                                                                                                                                                                                                                                                ",
"                                                                                                                                                                                                                                                                ",
"                                                                                                                                                                                                                                                                ",
"                                                                                                                                                                                                                                                                ",
"                                                                                                                                                                                                                                                                ",
"                                                                                                                                                                                                                                                                ",
"                                                                                                                                                                                                                                                                ",
"                                                                                      , % % , ; , 0                                                                                                                                                             ",
"                                                                                    * % % % , , , , 4                                                                                                                                                           ",
"                                                                                  , % % % % , 2 P T ,.                                                                                                                                                          ",
"                                                                                  , % % , , 2 6 R f.l.V.                                                                                                                                                        ",
"                                                                                  , * 3 4 4 t k ! j.j.z.                                                                                                                                                        ",
"                                                                                  , 3 6 p P k P q.f.! W                                                                                                                                                         ",
"                                                                                    4 t =.h.>.T f.x.9.9.                                                                                                                                                        ",
"                                                                                    6 t =.8.;.<.8.x.x.g.g.                                                                                                                                                      ",
"                                                                                    p t v <.<.<.5.h.x.g.9.                                                                                                                                                      ",
"                                                                                      s v :.;.;.5.5.j.w.9.                                                                                                                                                      ",
"                                                                                      L v -.;.-.=.=.4.q.w.                                                                                                                                                      ",
"                                                                                        v -.:.=.x z z Q 9.                                                        l.                                                                                            ",
"                                                                                        ~ ~ R >.L t t J                                                         q.          %.%.                                                                                ",
"                                                                                      h 9 h M C J N X.#.X.                                                  T 0.[.        &.%.%.%.                                                                              ",
"                                                                                      0 2 < : < 7 q B B n w 2 w                                         V.l.q.q.).).z.! 1.*.%.%.%.                                                                              ",
"                                                                                      2 , ; % % , 2 0 q n n n n q q q C Q >.,.4.8.f.h.k.k.A.A.A.A.(.(.(.L.).).V.j.z.l.Y.  &.%.%.                                                                                ",
"                                                                                      , ; % % % % ; 1 7 q q q q w q q ,.j.>.=.8.h.<.;.<.h.k.A.'.]. X[.'.).).N.w.T c.L.|.                                                                                        ",
"                                                                                    2 ; % % % % % % ; < 7 7 7 7 8 7 8 9.j.f.4.=.U I =.>.4.g.l.V.).).V.z.a.9.R U U Q Y.                                                                                          ",
"                                                                                    , % % % % % % % % : < < < 7 7 < 6 q.5.q.=.K K U T T ,.3.4.j.l.N.z.        C L a.                                                                                            ",
"                                                                                    , % % % % % % % % ; ; : , , ; ; a T K x s p a a k z K U !                                                                                                                   ",
"                                                                                    1 % % % % % % # # % % ; % % % : t a C                                                                                                                                       ",
"                                                                                    2 % % % % @ @ @ @ # % % % % % : , ,                                                                                                                                         ",
"                                                                                    2 % @ @ @ @ @ @ @ + @ @ @ @ > 9                                                                                                                                             ",
"                                                                                      % % @ @ @ @ @ @ @ + , ; @ 3 ..H                                                                                                                                           ",
"                                                                                      , % @ @ @ @ % < < % n 7 , 2 V 3                                                                                                                                           ",
"                                                                                        % # @ @ % ; 1 ; ; n B Z B +.2 ,                                                                                                                                         ",
"                                                                                        % % @ @ # % ; # < n B S n W.E.7                                                                                                                                         ",
"                                                                                        , % @ @ @ @ @ % < n A A n $.1X{ 8                                                                                                                                       ",
"                                                                                        , % @ @ @ @ + < , n [ Z A M *XQ.7                                                                                                                                       ",
"                                                                                          % @ @ @ @ # < ; n +.Z G q F./.n                                                                                                                                       ",
"                                                                                          % @ @ + + % : % n +.S G G B { Z                                                                                                                                       ",
"                                                                                          , @ @ + + % % % m +.S G G G G |                                                                                                                                       ",
"                                                                                          1 @ + + @ % # % B +.S G G ] ] { Z                                                                                                                                     ",
"                                                                                          2 + @ @ % % % ; B +.A S G S [ [ B                                                                                                                                     ",
"                                                                                          , @ @ # % % % ; B +.S A G A ] { A                                                                                                                                     ",
"                                                                                          , @ % % % % % , B +.] S S S S { {                                                                                                                                     ",
"                                                                                            % % % % % # , B +.{ ] G G S [ +.                                                                                                                                    ",
"                                                                                            % % % % % # , n { { ] ] ] F { {                                                                                                                                     ",
"                                                                                          , % % % % @ % , n [ { ] G { S [ [                                                                                                                                     ",
"                                                                                          ; % % % @ @ % ; n ] { ] S { ] } [                                                                                                                                     ",
"                                                                                        , % % % @ @ # # % q ] { } S {  .{ [                                                                                                                                     ",
"                                                                                        , % % @ @ @ @ @ # 7 F ] } G ] { ] [                                                                                                                                     ",
"                                                                                        , % % + @ % % # % 7 Z F ] S ] S.K.                                                                                                                                      ",
"                                                                                        , % % @ % # @ @ % < n S { F.}.2X2X                                                                                                                                      ",
"                                                                                        4 % @ @ % % % ; , n F.!.@X4X5X4X4X                                                                                                                                      ",
"                                                                                        t./ Y Y / Y J ^ ^ n.-X>X-X3X5X5X4X                                                                                                                                      ",
"                                                                                      t.b.B.B.b.p.B.M.b.t.H.-X;X,X3X5X5X4X                                                                                                                                      ",
"                                                                                        b.b.B.r.t.Z.B.v.r.R.-X&X2X3X5X5X4X                                                                                                                                      ",
"                                                                                        e.t.6./ p.m.M.u._ ^.$X-X>X3X4X4X4X                                                                                                                                      ",
"                                                                                          6.2.r.b.t.m.r.e.XX+X-X:X3X4X5X4X                                                                                                                                      ",
"                                                                                          r.t.t.b.p.t.r.m.{..X-X>X3X4X5X                                                                                                                                        ",
"                                                                                          r.7.r.v.v.p.e.y.I.XX%X:X3X4X6X                                                                                                                                        ",
"                                                                                          6.2.6.p.v.u.e.u.H..X&X:X3X4X6X                                                                                                                                        ",
"                                                                                          6.2.r.r.v.p.e.u.U.{.&X:X3X4X5X                                                                                                                                        ",
"                                                                                          6.) 6.6.t.p.r.M.I.~.+X;X3X4X4X                                                                                                                                        ",
"                                                                                            2.6.6.2.u.e.s.{..X.X$X2X3X7X                                                                                                                                        ",
"                                                                                            6.2.2._ 2.e.e.J..X#X$X>X4X7X                                                                                                                                        ",
"                                                                                            e.6.6.2.2.e.s.I.{.#X-X>X3X4X                                                                                                                                        ",
"                                                                                            m.r.r.6.2.e.y.I.^.+X-X>X3X4X                                                                                                                                        ",
"                                                                                            p.p.r.e.2._ e.H.~.XX#X>X4X7X                                                                                                                                        ",
"                                                                                            2.e.e.e.e._ i.I.~..X&X2X4X6X                                                                                                                                        ",
"                                                                                            6.) 2.e.r.e.H.{.{.@X;X2X4X6X                                                                                                                                        ",
"                                                                                            6.( 2.r.t.r.P.$X-X&X;X,X4X6X                                                                                                                                        ",
"                                                                                            r.) ( ( / Y n.OXOX#X%X:X4X4X                                                                                                                                        ",
"                                                                                            2.) ( ( _ C G.#XXX+X-X:X4X4X                                                                                                                                        ",
"                                                                                            ) ) ) / _ W G.{..X+X&X:X2X&X                                                                                                                                        ",
"                                                                                            6.( 2.2./ ^ H.^.^.@X-X&XOX!.                                                                                                                                        ",
"                                                                                              ) ' / / W n.^.~.XXXX!.K.K.                                                                                                                                        ",
"                                                                                              6.6.( / ` O.H.K.H.G.G.K.                                                                                                                                          ",
"                                                                                              2.7.t.6.u.G.n.n.n.F.                                                                                                                                              ",
"                                                                                            z l c L Y P Y E X.                                                                                                                                                  ",
"                                                                                            f l l f u s Q C                                                                                                                                                     ",
"                                                                                            i g l x x a.L.C                                                                                                                                                     ",
"                                                                                            i f l U 3.).T.a                                                                                                                                                     ",
"                                                                                            u f g v 0.`.L.a                                                                                                                                                     ",
"                                                                                            i f f x 0.`.N.m                                                                                                                                                     ",
"                                                                                            u u u f 4.`.d.N                                                                                                                                                     ",
"                                                                                            y u u f 3.`.9.m                                                                                                                                                     ",
"                                                                                            y y y i >.`.,.4                                                                                                                                                     ",
"                                                                                            y y d u 4._.L * & 3 n                                                                                                                                               ",
"                                                                                            r r r y 4.(.4 . + & 8 n                                                                                                                                             ",
"                                                                                            r r r s q.N.& + & % + & <                                                                                                                                           ",
"                                                                                            e e r s l.a.+ O + & & X + & %                                                                                                                                       ",
"                                                                                            e e r z C.` . X O + + + & % > G                                                                                                                                     ",
"                                                                                            e e r L ).d.  N N p 6 2 0 B @.D.                                                                                                                                    ",
"                                                                                            - e e R `.          o.o.#.F.                                                                                                                                        ",
"                                                                                              e e U `.                                                                                                                                                          ",
"                                                                                              e e x T.                                                                                                                                                          ",
"                                                                                              e e s 3.M.                                                                                                                                                        ",
"                                                                                              r y y 0./.                                                                                                                                                        ",
"                                                                                              5 y s s.=X1X                                                                                                                                                      ",
"                                                                                            + o o + F.1X<XW.                                                                                                                                                    ",
"                                                                                            + . . + @.W.oX .%                                                                                                                                                   ",
"                                                                                            + . . + q G D + + +                                                                                                                                                 ",
"                                                                                            + o o o + , & + + + &                                                                                                                                               ",
"                                                                                          ` j + . o C C 2 % + + + % ,                                                                                                                                           ",
"                                                                                            M.` 6 j ^ Y i.3 , & + % > =                                                                                                                                         ",
"                                                                                            m.M.M.u.C O.E E 2 % & % % > V                                                                                                                                       ",
"                                                                                                s.m.p.W e.p % % % = = j #.                                                                                                                                      ",
"                                                                                                      e._ C j p j C E #.                                                                                                                                        ",
"                                                                                                          _ e.y.y.y.O.                                                                                                                                          ",
"                                                                                                                                                                                                                                                                ",
"                                                                                                                                                                                                                                                                ",
"                                                                                                                                                                                                                                                                "
};
