/* XPM */
static char *shoot_left[] = {
/* columns rows colors chars-per-pixel */
"128 128 207 2 ",
"   c #FF00FF",
".  c #040406",
"X  c #060609",
"o  c #08070B",
"O  c #0A0A0D",
"+  c #120E0E",
"@  c #0D0D11",
"#  c #100F12",
"$  c #121114",
"%  c #1A1415",
"&  c #15141A",
"*  c #18171D",
"=  c #1A191C",
"-  c #17181A",
";  c #271B19",
":  c #351B14",
">  c #391E16",
",  c #341E1A",
"<  c #3C1F18",
"1  c #3D221B",
"2  c #34211F",
"3  c #29201F",
"4  c #1C1B23",
"5  c #201F28",
"6  c #212124",
"7  c #2B2423",
"8  c #23232B",
"9  c #29292B",
"0  c #2D2924",
"q  c #3B2522",
"w  c #3B2825",
"e  c #342826",
"r  c #2C2B34",
"t  c #2E2E39",
"y  c #282730",
"u  c #312F35",
"i  c #343233",
"p  c #33323C",
"a  c #3E3B3A",
"s  c #393538",
"d  c #31392F",
"f  c #43231C",
"g  c #4A271E",
"h  c #452A23",
"j  c #4D2B24",
"k  c #452925",
"l  c #532D25",
"z  c #572F28",
"x  c #4D312A",
"c  c #5B342B",
"v  c #57332B",
"b  c #423C3C",
"n  c #4A3936",
"m  c #563632",
"M  c #5C3732",
"N  c #573A33",
"B  c #5C3C35",
"V  c #62352D",
"C  c #66392F",
"Z  c #6B392E",
"A  c #653B33",
"S  c #6D3D32",
"D  c #653A35",
"F  c #733C33",
"G  c #4C423B",
"H  c #5B433B",
"J  c #6D443B",
"K  c #684036",
"L  c #734235",
"P  c #794236",
"I  c #74453A",
"U  c #7A463A",
"Y  c #363642",
"T  c #383742",
"R  c #3A3945",
"E  c #3D3D4A",
"W  c #403F4B",
"Q  c #3C4C4E",
"!  c #42424E",
"~  c #494647",
"^  c #534943",
"/  c #554E49",
"(  c #5E5248",
")  c #454551",
"_  c #4A4A55",
"`  c #4D4D59",
"'  c #504F5B",
"]  c #5B5353",
"[  c #52525E",
"{  c #585657",
"}  c #4F505E",
"|  c #7D4D43",
" . c #724E48",
".. c #615244",
"X. c #6C5B4B",
"o. c #66564B",
"O. c #74594C",
"+. c #735D57",
"@. c #64514F",
"#. c #74604E",
"$. c #6F6259",
"%. c #756352",
"&. c #7A6654",
"*. c #7B6956",
"=. c #74655A",
"-. c #7C6A5A",
";. c #555461",
":. c #595963",
">. c #5C5C6A",
",. c #585763",
"<. c #64646D",
"1. c #696463",
"2. c #756C68",
"3. c #7B716C",
"4. c #646572",
"5. c #696976",
"6. c #6E6E7A",
"7. c #7B7678",
"8. c #C71C2C",
"9. c #FB0927",
"0. c #E61028",
"q. c #82443C",
"w. c #834E43",
"e. c #884F46",
"r. c #895148",
"t. c #9B554D",
"y. c #8A5D57",
"u. c #994C46",
"i. c #A04E4A",
"p. c #816E5C",
"a. c #8F6259",
"s. c #95665B",
"d. c #85715E",
"f. c #A4665B",
"g. c #806F60",
"h. c #856865",
"j. c #966B63",
"k. c #847364",
"l. c #8A7663",
"z. c #8D7965",
"x. c #84756A",
"c. c #87786D",
"v. c #8C7A6D",
"b. c #89776A",
"n. c #917C67",
"m. c #927E6A",
"M. c #8C7D71",
"N. c #877C76",
"B. c #917574",
"V. c #A6766B",
"C. c #AA766C",
"Z. c #65887F",
"A. c #9A836B",
"S. c #978069",
"D. c #8B827A",
"F. c #948374",
"G. c #98887B",
"H. c #B9857E",
"J. c #AD847B",
"K. c #8D8986",
"L. c #9B8D86",
"P. c #948D85",
"I. c #9E9287",
"U. c #9C9995",
"Y. c #AA8C85",
"T. c #BC8C83",
"R. c #A7948C",
"E. c #A49C93",
"W. c #B29287",
"Q. c #8BAB97",
"!. c #ACA59B",
"~. c #B3AEA5",
"^. c #B4B1AB",
"/. c #BBB3AA",
"(. c #BFBAB1",
"). c #C99487",
"_. c #CC9B94",
"`. c #D49C92",
"'. c #C99387",
"]. c #D4A49C",
"[. c #D8ADA5",
"{. c #C3BDB4",
"}. c #C8BFB6",
"|. c #CEB1A9",
" X c #E3B5AE",
".X c #A9E4BD",
"XX c #C5C0B7",
"oX c #C6C2B9",
"OX c #CBC6BE",
"+X c #E8C0BF",
"@X c #CDC9C1",
"#X c #D2CDC5",
"$X c #D5D2C9",
"%X c #DAD6CE",
"&X c #DBD9CF",
"*X c #DBD9D2",
"=X c #E2DED5",
"-X c #E3D7D3",
";X c #E9C9C7",
":X c #E5E2DA",
">X c #E9E6DE",
",X c #EDEAE2",
"<X c #EAE7E0",
"1X c #F1EEE6",
"2X c #F3F1E9",
"3X c #F4F2E9",
"4X c #FFFBF7",
/* pixels */
"                                                                                                                                                                                                                                                                ",
"                                                                                                                                                                                                                                                                ",
"                                                                                                                                                                                                                                                                ",
"                                                                                                                                                                                                                                                                ",
"                                                                                                                                                                                                                                                                ",
"                                                                                                                                                                                                                                                                ",
"                                                                                                                                                                                                                                                                ",
"                                                                                                                                                                                                                                                                ",
"                                                                                                                                                                                                                                                                ",
"                                                                                                                                                                                                                                                                ",
"                                                                                                                                                                                                                                                                ",
"                                                                                                                                                                                                                                                                ",
"                                                                                                                                                                                                                                                                ",
"                                                                                                                                                                                                                                                                ",
"                                                                                                                                                                                                                                                                ",
"                                                                                                                                                                                                                                                                ",
"                                                                                                                                                                                                                                                                ",
"                                                                                                                                                                                                                                                                ",
"                                                                                                                                                                                                                                                                ",
"                                                                                                                                                                                                                                                                ",
"                                                                                                                                                                                                                                                                ",
"                                                                                                                                                                                                                                                                ",
"                                                                                                                                                                                                                                                                ",
"                                                                                                                                                                                                                                                                ",
"                                                                                                                                                                                                                                                                ",
"                                                                                                                                                          9 = & 7 = 9                                                                                           ",
"                                                                                                                                                        $ @ O O $ - = 9 i                                                                                       ",
"                                                                                                                                                      0 % # O O O = = 7 i                                                                                       ",
"                                                                                                                                                       .x % O $ $ * 7 r ~ {                                                                                     ",
"                                                                                                                                                      | A 0 ; 3 ; 0 u ~ _ {                                                                                     ",
"                                                                                                                                                      J | N w q m n b { {                                                                                       ",
"                                                                                                                                                      M w.L B S i. .{ 7.2.                                                                                      ",
"                                                                                                                                                    O.J w.w.e.L u.y.+.N.3.                                                                                      ",
"                                                                                                                                                    L r.r.w.r.q.t.j.x.L.                                                                                        ",
"                                                                                                                                                    D w.w.w.e.t.f.T.Y.R.                                                                                        ",
"                                                                                                                                                    B L U L U e.f._.].|.                                                                                        ",
"                                                                                                                                                    K c l l c L f.`. X",
"                                                                                                                                                    x 1 , , j S %.Q..X                                                                                          ",
"                                                                                                                                                    ~ 0 % 0 n s d Q Z.Q.                                                                                        ",
"                                                                                9.9.        | J                                                   & = * = 7 p p T T [ 5.                                                                                        ",
"                                                                              9.9.9.9.        L L                                           = $ @ @ @ @ $ 4 r _ [ [ <.5.                                                                                        ",
"                                                                              9.9.9.0.      A L J O.O.            L L L L U | | U m = * $ $ @ O O O O @ @ & 7 W [ [ :.4.                                                                                        ",
"                                                                                9.9.8.  c c A S H ( A S L L L L U U U P Z S F F F c $ @ @ @ O O O O O O @ @ & r _ _ [ 4.",
"                                                                                        B A C C ^ o.C S S L L U U P P F Z z z C F S % O O O O O O O O O O O $ 8 E ! ` 4.7.                                                                                      ",
"                                                                                          M V z N n j c z C C S S Z C A C l j l c C ; O O O O O O O O O O O @ 4 p E ` >.6.",
"                                                                                          N M x x n       M M c l l j k q 2 2 1 q h, O O O O O O O O O O O @ * r p ) >.6.                                                                                      ",
"                                                                                                                    x k w q q q q q w $ O O O O O O O O O O O & 4 y T ,.5.                                                                                      ",
"                                                                                                                                        O O O O O X . . . X O & 4 8 t '                                                                                         ",
"                                                                                                                                        $ $ O . . . . . . X O @ * 8 t _                                                                                         ",
"                                                                                                                                            O . . . . . . X X @ 4 y T [                                                                                         ",
"                                                                                                                                            X X X X X . X X o $ 5 r ) `                                                                                         ",
"                                                                                                                                          O O O O X X . . X o $ 5 p ' >.                                                                                        ",
"                                                                                                                                          O O O O X O X X X o $ 8 T [ ,.                                                                                        ",
"                                                                                                                                        # O O O O O O X X X O $ 8 T ` ,.                                                                                        ",
"                                                                                                                                        @ O O O O O O O X o O & 8 T [                                                                                           ",
"                                                                                                                                        @ O O O O O O O O @ $ * r W ,.                                                                                          ",
"                                                                                                                                        O O O O O O O O O # & 5 8 T ,.                                                                                          ",
"                                                                                                                                      $ O O O O O O O O O $ 4 4 p T '                                                                                           ",
"                                                                                                                                      @ O O O O O O O O O @ 4 4 4 T :.                                                                                          ",
"                                                                                                                                      @ O O O O O O O O @ 4 4 8 p p :.                                                                                          ",
"                                                                                                                                      $ O O O O O O O O O & r 8 Y E !                                                                                           ",
"                                                                                                                                      # O O O O O O O O @ # r Y t E !                                                                                           ",
"                                                                                                                                      $ O O O O O O O O @ $ 8 T E Y )                                                                                           ",
"                                                                                                                                      # O O O O O O O O O $ 7 p ) ! !                                                                                           ",
"                                                                                                                                      @ O O O O O O O O O & 4 4 E E t T                                                                                         ",
"                                                                                                                                      O O O O O O O O O @ $ r * 5 } _ p                                                                                         ",
"                                                                                                                                      $ O O O O O O O O $ & 8 T r Y >.>.                                                                                        ",
"                                                                                                                                      $ O O O O O O O O @ 8 4 t E T ` 4.                                                                                        ",
"                                                                                                                                      $ O O O O O O O O O 4 8 8 Y Q _ >.                                                                                        ",
"                                                                                                                                        n 0 = $ O O @ $ $ & 4 8 r Y ) <.U.                                                                                      ",
"                                                                                                                                        -.p.-.X.( G i a b ~ ~ { <.K.^.*X2X                                                                                      ",
"                                                                                                                                        l.n.m.S.S.F.v.v.m.}./.}.=X:X,X2X3X                                                                                      ",
"                                                                                                                                        l.m.m.S.S.G.G.m.F.|.#XE.=X>X>X2X2X                                                                                      ",
"                                                                                                                                        l.n.n.S.S.G.F.m.b.G.#XL.(.>X>X1X,X                                                                                      ",
"                                                                                                                                          l.n.S.l.k.v.v.v.v.}.OX@X>X%X<X                                                                                        ",
"                                                                                                                                          m.m.l.-.%.k.F.M.k./.:X:X1X%X:X                                                                                        ",
"                                                                                                                                          l.l.d.l.v.v.G.M.k./.:X:X2X:X:X                                                                                        ",
"                                                                                                                                          l.l.l.m.m.M.D.c.k./.:X>X2X,X>X                                                                                        ",
"                                                                                                                                          l.l.k.p.k.c.c.x.v.}.%X>X2X1X<X                                                                                        ",
"                                                                                                                                          l.p.-.-.g.v.x.v.R.XX$X:X,X:X                                                                                          ",
"                                                                                                                                          d.p.-.-.-.k.x.x.L.^.OX,X>X%X                                                                                          ",
"                                                                                                                                          -.p.p.-.%.%.=.x.I.(.OX:X2X=X                                                                                          ",
"                                                                                                                                          X.%.%...X.-.g.F.!./.$X$X1X                                                                                            ",
"                                                                                                                                          -.&.%.X.%.p.k.I.!.oX}.~.2X                                                                                            ",
"                                                                                                                                          -.%.&.-.-.-.-.G.!.XXD.!.2X                                                                                            ",
"                                                                                                                                          p.%.&.-.-.-.-.M.~.}.E.$X1X                                                                                            ",
"                                                                                                                                          -.#.%.-.-.%.=.D.E.#X:X:X,X                                                                                            ",
"                                                                                                                                          -.&.-.-.-.d.-.E./.#X*X*X:X                                                                                            ",
"                                                                                                                                          -.&.&.%.-.l.%.R.#X@X$X%X=X                                                                                            ",
"                                                                                                                                          -.&.%.-.p.%...~.#XXX$X$X&X                                                                                            ",
"                                                                                                                                          -.O.X.o.....^ ^.oX@X#XoX~.                                                                                            ",
"                                                                                                                                          &.#.%.X.....( E.OX}.^.P.N.                                                                                            ",
"                                                                                                                                          &.#.X.X.#.X...c.U.K.D.7.K.                                                                                            ",
"                                                                                                                                          &.#.O.X.X.X.o.=.2.3.D.U.}.                                                                                            ",
"                                                                                                                                          %.#.#.%.#.#.%.2.c.P.!.#X-X                                                                                            ",
"                                                                                                                                              %.%.%.%.X.o.=.$.O.Y.;X                                                                                            ",
"                                                                                                                                                        ; , g c a. X",
"                                                                                                                                                        , g z J y._.+X                                                                                          ",
"                                                                                                                                                        1 g l L s.T. X                                                                                          ",
"                                                                                                                                                        g g l K s.H.[.                                                                                          ",
"                                                                                                                                                        g g j C a.H.].                                                                                          ",
"                                                                                                                                                        1 g g l | C.`.                                                                                          ",
"                                                                                                                                                          g g g K C.`.                                                                                          ",
"                                                                                                                                                          g g g M V.).                                                                                          ",
"                                                                                                                                                          1 g g x s.'.                                                                                          ",
"                                                                                                                                                          1 g 1 j a.'.                                                                                          ",
"                                                                                                                                                          < g 1 x s.'.                                                                                          ",
"                                                                                                                                                          < g g A V.).                                                                                          ",
"                                                                                                                                                          , 1 g J V.T.                                                                                          ",
"                                                                                                                                                            < 1  .j.h.                                                                                          ",
"                                                                                                                                                            < < m ..h.                                                                                          ",
"                                                                                                                                                            < , x R.-X                                                                                          ",
"                                                                                                                                                            , < W.4X                                                                                            ",
"                                                                                                                                                            , 1 |.2X                                                                                            ",
"                                                                                                                                                          , < j J.B.                                                                                            ",
"                                                                                                                                                          + 1 k x n                                                                                             ",
"                                                                                                                                                        % $ + , k q                                                                                             ",
"                                                                                                                                                    . . O O X . . . O                                                                                           ",
"                                                                                                                                                  . . . . . . . . . O                                                                                           ",
"                                                                                                                                                . . . . X . . . . . X @                                                                                         ",
"                                                                                                                                            O O . . . O 0 a . . . . $ ~                                                                                         ",
"                                                                                                                                          O O O O ; 0 b / { a O = a 1.7.                                                                                        ",
"                                                                                                                                        e + + $ + 7 x.^ 1.a / { 2.7.7.                                                                                          ",
"                                                                                                                                        g.G ; $ $ # i 1.~ 1.1.2.                                                                                                ",
"                                                                                                                                          b.=.( ^ ^ ^ { 1.                                                                                                      ",
"                                                                                                                                                $.                                                                                                              ",
"                                                                                                                                                                                                                                                                ",
"                                                                                                                                                                                                                                                                "
};
