/* XPM */
static char *still_front_left[] = {
/* columns rows colors chars-per-pixel */
"128 128 223 2 ",
"   c #FF00FF",
".  c #0D0C0E",
"X  c #0E0E11",
"o  c #100F13",
"O  c #121215",
"+  c #151519",
"@  c #18161B",
"#  c #1A1A1D",
"$  c #191516",
"%  c #261B1B",
"&  c #331E1E",
"*  c #3B241F",
"=  c #37201F",
"-  c #1E1D22",
";  c #201F23",
":  c #341F20",
">  c #232225",
",  c #2B2625",
"<  c #25242B",
"1  c #28272E",
"2  c #2A292D",
"3  c #27292E",
"4  c #3A2423",
"5  c #3E292A",
"6  c #382726",
"7  c #2C2C33",
"8  c #2F2F38",
"9  c #302F38",
"0  c #332E35",
"q  c #2B3335",
"w  c #333236",
"e  c #3C3532",
"r  c #33333B",
"t  c #38393D",
"y  c #412721",
"u  c #432923",
"i  c #4B2C26",
"p  c #422B2B",
"a  c #47282A",
"s  c #522E29",
"d  c #4A312B",
"f  c #52332C",
"g  c #5A352B",
"h  c #5E382E",
"j  c #472F30",
"k  c #4A3435",
"l  c #483737",
"z  c #543831",
"x  c #5B3934",
"c  c #573634",
"v  c #643D35",
"b  c #653C39",
"n  c #613A2F",
"m  c #2D433D",
"M  c #58443C",
"N  c #4C443E",
"B  c #6C443C",
"V  c #684339",
"C  c #76473E",
"Z  c #6C513F",
"A  c #363640",
"S  c #3B3B45",
"D  c #3E3E49",
"F  c #393741",
"G  c #453F47",
"H  c #5F3F41",
"J  c #3F424B",
"K  c #3C584F",
"L  c #42424D",
"P  c #45464B",
"I  c #594943",
"U  c #464652",
"Y  c #484652",
"T  c #4A4A55",
"R  c #4D4D59",
"E  c #465756",
"W  c #52525E",
"Q  c #5C5552",
"!  c #52534E",
"~  c #684744",
"^  c #734C42",
"/  c #7C4B43",
"(  c #754B4A",
")  c #67574A",
"_  c #735A4C",
"`  c #7A544B",
"'  c #6C5D53",
"]  c #695857",
"[  c #795857",
"{  c #6C4F55",
"}  c #74624E",
"|  c #6E6155",
" . c #6B625C",
".. c #746354",
"X. c #73655B",
"o. c #7D6B5B",
"O. c #7A6757",
"+. c #555561",
"@. c #5B5A65",
"#. c #5C5D6A",
"$. c #585B66",
"%. c #6A5C65",
"&. c #725D62",
"*. c #596B6C",
"=. c #516C67",
"-. c #666466",
";. c #7A6B63",
":. c #756966",
">. c #7C726A",
",. c #686B72",
"<. c #787476",
"1. c #416947",
"2. c #824D44",
"3. c #894F46",
"4. c #895446",
"5. c #8A554A",
"6. c #89574A",
"7. c #92584E",
"8. c #835957",
"9. c #955C54",
"0. c #816D5C",
"q. c #86675A",
"w. c #99635A",
"e. c #84715E",
"r. c #8A6663",
"t. c #946967",
"y. c #86776B",
"u. c #97736D",
"i. c #877C77",
"p. c #947876",
"a. c #A56C64",
"s. c #A76A66",
"d. c #A6756C",
"f. c #AA7A74",
"g. c #B77C75",
"h. c #B0726D",
"j. c #8A5E65",
"k. c #4B845E",
"l. c #4C9173",
"z. c #88827D",
"x. c #958377",
"c. c #8C8B6E",
"v. c #A9817C",
"b. c #B3837C",
"n. c #BD857C",
"m. c #7A7C86",
"M. c #837C85",
"N. c #B17E83",
"B. c #6B8784",
"V. c #6D948B",
"C. c #5BA885",
"Z. c #6DA892",
"A. c #79B9A7",
"S. c #6CC99E",
"D. c #8B8482",
"F. c #8B8587",
"G. c #928D8D",
"H. c #948A84",
"J. c #98928C",
"K. c #9B9593",
"L. c #959597",
"P. c #A88886",
"I. c #BA8A89",
"U. c #AA978A",
"Y. c #A39A94",
"T. c #B69390",
"R. c #ABA49D",
"E. c #B2A59C",
"W. c #B3A59B",
"Q. c #ABA7A4",
"!. c #B2ABA4",
"~. c #B8ADA6",
"^. c #B6B1AD",
"/. c #BBB3AD",
"(. c #B8B1A7",
"). c #BEB9B3",
"_. c #BAB7B6",
"`. c #A1A8B3",
"'. c #9A9AA4",
"]. c #C58A88",
"[. c #CD9A8D",
"{. c #C8938D",
"}. c #C99894",
"|. c #D69996",
" X c #D49185",
".X c #D7A59C",
"XX c #E1A29E",
"oX c #CDA1A3",
"OX c #DDA5AA",
"+X c #C2BCB4",
"@X c #C4BBB6",
"#X c #D4B5AA",
"$X c #E3A9A6",
"%X c #E8B1AC",
"&X c #E8B6B5",
"*X c #F1B8B7",
"=X c #87CBAF",
"-X c #C9C5BD",
";X c #C9C2BB",
":X c #D0C8BF",
">X c #B3BCC9",
",X c #BDC2C6",
"<X c #CEC9C3",
"1X c #C8C8C7",
"2X c #D4CDC6",
"3X c #D1CEC9",
"4X c #D5D1CA",
"5X c #DAD5CD",
"6X c #D5D0C7",
"7X c #DEDAD2",
"8X c #DCDBDE",
"9X c #C8D0D8",
"0X c #E2DED6",
"qX c #E2DED8",
"wX c #E5E1D9",
"eX c #E9E5DD",
"rX c #D9E3EB",
"tX c #EDEAE2",
"yX c #EBE7EC",
"uX c #F2EEE6",
"iX c #F3EFE8",
"pX c #F4F0E8",
"aX c #F6F9F9",
/* pixels */
"                                                                                                                                                                                                                                                                ",
"                                                                                                                                                                                                                                                                ",
"                                                                                                                                                                                                                                                                ",
"                                                                                                                                                                                                                                                                ",
"                                                                                                                                                                                                                                                                ",
"                                                                                                                                                                                                                                                                ",
"                                                                                                                                                                                                                                                                ",
"                                                                                                                                                                                                                                                                ",
"                                                                                                                                                                                                                                                                ",
"                                                                                                                                                                                                                                                                ",
"                                                                                                                                                                                                                                                                ",
"                                                                                                                                                                                                                                                                ",
"                                                                                                                                                                                                                                                                ",
"                                                                                                                                                                                                                                                                ",
"                                                                                                                                                                                                                                                                ",
"                                                                                                                                                                                                                                                                ",
"                                                                                                                                                                                                                                                                ",
"                                                                                                                                                                                                                                                                ",
"                                                                                                                                                                                                                                                                ",
"                                                                                                                                                                                                                                                                ",
"                                                                                                                                                                                                                                                                ",
"                                                                                                                                                                                                                                                                ",
"                                                                                                                                                                                                                                                                ",
"                                                                                                                      < 2 2 2 r P                                                                                                                               ",
"                                                                                                                    # # # # ; 2 w t                                                                                                                             ",
"                                                                                                                  - @ @ # < x ` a.u.                                                                                                                            ",
"                                                                                                                  # # # # , ~ a. X%X.X                                                                                                                          ",
"                                                                                                                < # % , 6 j ~ w.n.$X%X                                                                                                                          ",
"                                                                                                                  % , 5 j M 6.6.r.v.T.                                                                                                                          ",
"                                                                                                                  , x / B B 9.a.b.b.s.                                                                                                                          ",
"                                                                                                                  6 B 6.6.6.9.s.|.$Xs.n.                                                                                                                        ",
"                                                                                                                  e z 2.6.6.6.w.g.$Xg.I.                                                                                                                        ",
"                                                                                                                    k / 3.6.7.9.h.{.].OX                                                                                                                        ",
"                                                                                                                    M C 4.2.3.6.w.n.{.OX                                                                                                                        ",
"                                                                                                                      C 4.2.B V B 8.}.&X                                                                                                                        ",
"                                                                                                                      Z 4.4.B x z l [                                                                                                                           ",
"                                                                                                                    1.1.} 6.6.^ M I                                                                                                                             ",
"                                                                                                                  2 w ! k.c.g.u.r.                                                                                                                              ",
"                                                                                                              w w S S S E C.U.a.[ w                                                                                                                             ",
"                                                                                                            1 2 t P P S S K C.-.0 q t 0                                                                                                                         ",
"                                                                                                          < # - 7 S P P S S =.Z.J 3 E 3 7                                                                                                                       ",
"                                                                                                        2 # # < 7 r r P S P Y B.V.7 K m > 7                                                                                                                     ",
"                                                                                                        # # - - 7 7 7 S D P Y R Z.*.8 =.r > r                                                                                                                   ",
"                                                                                                      < # # 7 - r > 1 r S G Y R *.'.U m.M.> 7                                                                                                                   ",
"                                                                                                      - # # r # r > > 1 r G T R W B.V.+.E.r 7                                                                                                                   ",
"                                                                                                      # # - S # 7 7 ; - 2 S T T W @.A.*.L.W >                                                                                                                   ",
"                                                                                                      - @ - D > > S ; # - 9 S U R @.B.Z.V.L.>                                                                                                                   ",
"                                                                                                      ; # - P r - P ; # # - 7 A P +.#.C.=X`.3 r                                                                                                                 ",
"                                                                                                      # # > P G > P > @ @ @ - > r T @.*.S.B.7 2                                                                                                                 ",
"                                                                                                      # # > P U 1 Y 7 o @ @ @ # F D @.W l.l.P >                                                                                                                 ",
"                                                                                                      # # 7 T R r T - O @ @ @ 7 S S +.R E l.*.7 <                                                                                                               ",
"                                                                                                      # # 7 R W U D O O @ O - S r A U R +.,.m.P <                                                                                                               ",
"                                                                                                      ; # 7 +.+.W r X O O @ 9 9 7 9 S U #.L.>X`.                                                                                                                ",
"                                                                                                      ; # > T #.+.1 X O O > 7 > > > 9 S #.9XrXrX                                                                                                                ",
"                                                                                                      # ; 2 P #.+.- X O - > - - > > > A T _.aXrX                                                                                                                ",
"                                                                                                      4 4 5 I ] Y O O @ 7 ; - < > - > D D L.aXyX                                                                                                                ",
"                                                                                                      b v 5.|..Xl X O - > @ # - # @ r r D ,.8X_.F.                                                                                                              ",
"                                                                                                      V / a.%XI.@ O O @ @ @ @ @ @ > r 2 S R <.-.:.                                                                                                              ",
"                                                                                                      V / s.%Xr.X O @ @ @ @ @ @ - A > > 7 T #.@.&.                                                                                                              ",
"                                                                                                      B / w.XXp.O @ @ @ @ @ @ @ 9 r @ - r T @.+.%.                                                                                                              ",
"                                                                                                      ^ / 7.|.oX< O @ @ @ @ @ > F - @ - D P +.+.%.r.                                                                                                            ",
"                                                                                                      / 2.6.].*XG O @ @ @ @ - r - @ @ 9 J P W +.%.8.                                                                                                            ",
"                                                                                                      / 2.4.g.*X&.X @ @ @ @ 7 > @ @ > S S P R W %.[                                                                                                             ",
"                                                                                                      / 2.3.h.*Xp.X O @ @ @ > @ @ - A S S P T R %.( 8.                                                                                                          ",
"                                                                                                        / 2.a.%XP.O O O O @ @ @ - 9 S S S U U U %.H [                                                                                                           ",
"                                                                                                        / 2.9.$XT.@ O O @ @ @ # 7 A S S P U J T @.k {                                                                                                           ",
"                                                                                                        C / 7.|.oX% O @ @ @ # 7 r A r A P P P R @.l <.                                                                                                          ",
"                                                                                                        ^ C 2.g.OX6 O @ @ @ > r r r A D P D P R W k ~ [                                                                                                         ",
"                                                                                                          B 2.a.$XG O @ @ < 7 7 r A D D D D U R R p x (                                                                                                         ",
"                                                                                                          B C 7.|.] O @ - 2 7 7 7 9 r r A P @.<.,.j a ~                                                                                                         ",
"                                                                                                          ^ C 2.I.u.O ; 2 7 w t T -.<.D.L.^.).@XG.k a b                                                                                                         ",
"                                                                                                          } / / s.I.~ D.H.i.!.!.<XeXeXeXeXtX7X@X  j p x j.                                                                                                      ",
"                                                                                                          } ^ C 9.{.u.W.@XU.@X2X5XeXqXeXtXtX5X;X  k a s [                                                                                                       ",
"                                                                                                            ^ b 2.].}.x.~.E./.:X5XeX7X7XeXeX;X).K.{ z b                                                                                                         ",
"                                                                                                            _ b B h.$X{.U.~.!.;X2XqX5XqXeXeXqX^.K.:.~ {                                                                                                         ",
"                                                                                                            _ V B 9.].$XT.E./.+X2X7X5XeXtXtXpX).K.                                                                                                              ",
"                                                                                                            _ v B / h.}.b.P.!.;X2X4X5X7XuXtXeX^.K.                                                                                                              ",
"                                                                                                            ..h v B t.I.7.I.E.+X<X4X7XqXtXtXeX!.G.                                                                                                              ",
"                                                                                                            _ f g g 5.I.8.N.@X+X<X2X5XeXtXeXtX!.G.                                                                                                              ",
"                                                                                                            _ x f s x f.:.p.~.+X<X4X7XeXeXqXeXQ.G.                                                                                                              ",
"                                                                                                            _ 5.v x z t.p.X.Y.@X;X2XeXuXpXqX5XY.G.                                                                                                              ",
"                                                                                                            O.r.~ B z ~ P.i.J./.@X<XeXuXuX5X2XK.G.                                                                                                              ",
"                                                                                                            e.0.~ ( z I u.D.Y.Q.).<XqXpXeX:X).G.G.                                                                                                              ",
"                                                                                                            y.0.[ [ I [ :.i.E.!./.<X5XtXqX;XR.D.G.                                                                                                              ",
"                                                                                                            e.0...' ' ' X.:.Y.!./.<X7XuX;XR.J.D.G.                                                                                                              ",
"                                                                                                            0.0.o...X.' X.:.K.^./.;XqXiX!.i.<.z.G.                                                                                                              ",
"                                                                                                            o.0.e.0.y.>.>.y.J.!.).;XqXiXJ.-.<.i.D.                                                                                                              ",
"                                                                                                            o.O.....x.Y.J.H.R.!./.<XeXuXz.] :.<.D.                                                                                                              ",
"                                                                                                            e.o.) I ' X.>.i.Y.!.^.;XeXtX>.Q -.<.i.                                                                                                              ",
"                                                                                                              o...I X.X.o.i.Y.!.!.+XeXqX-.Q  .:.                                                                                                                ",
"                                                                                                              O...) | X.X.y.R.E.(.;X7X4X                                                                                                                        ",
"                                                                                                              } } ) ..| ;.y.J.E.E.+X/.Q.                                                                                                                        ",
"                                                                                                              O.} ) | X.X.y.x.x.z.J.G.L.                                                                                                                        ",
"                                                                                                            _ 0.0.} ....' | X.;.>.i.K.^.                                                                                                                        ",
"                                                                                                            x V } o.o.o.O.o.;.y.i.R.3X                                                                                                                          ",
"                                                                                                            g g f j l M ..) ' ;.i.J.D.                                                                                                                          ",
"                                                                                                            g h g i p [ u.4 4 5 p 5 p                                                                                                                           ",
"                                                                                                          z g h n g q..XP.4 & 4 5 5 l                                                                                                                           ",
"                                                                                                          z g h h v u..XT.4 % 4 p p k                                                                                                                           ",
"                                                                                                          f g g g v d..X  4 % 4 5 p l                                                                                                                           ",
"                                                                                                          f s s s v f..X  4 & : 5 p                                                                                                                             ",
"                                                                                                          f i i i x f..X  4 & 4 p l                                                                                                                             ",
"                                                                                                          f i i y x f.[.  y = 4 p k                                                                                                                             ",
"                                                                                                          i i y y v b.[.  p * 4 p k                                                                                                                             ",
"                                                                                                          y y y y V n.    4 * 4 j l                                                                                                                             ",
"                                                                                                          y y y y ^ n.    4 * 4 j l                                                                                                                             ",
"                                                                                                          j y y y ` ].    4 * y p <                                                                                                                             ",
"                                                                                                            y y i w.[.    $ % % $ @ <                                                                                                                           ",
"                                                                                                            * y f d.[.  # . . . . O O O #                                                                                                                       ",
"                                                                                                            * y f b.[.  O X . . O O O X O @                                                                                                                     ",
"                                                                                                            * y z b.b.  O . . . X O @ O X O                                                                                                                     ",
"                                                                                                            * 4 f 8.u.  N , # O . . O O O O @                                                                                                                   ",
"                                                                                                            * y y [ 2X  X.:.X.] N , O O O # # # -                                                                                                               ",
"                                                                                                            4 i x #X8X9X      :.] Q l $ O # # # - P                                                                                                             ",
"                                                                                                            % 4 4 ;.,XrX              I e , < 2 T m.                                                                                                            ",
"                                                                                                            . . . @.1X9X                X.X.X.:.<.                                                                                                              ",
"                                                                                                          O . . O P -.,.8                                                                                                                                       ",
"                                                                                                          $ O X # < # @ O                                                                                                                                       ",
"                                                                                                          e O X O # @ O O                                                                                                                                       ",
"                                                                                                          y.l . 6 ' , # O                                                                                                                                       ",
"                                                                                                          x.x.) ' I ;.l # O                                                                                                                                     ",
"                                                                                                            p.x...X.' ;.e @ O O # -                                                                                                                             ",
"                                                                                                                y...X.X.< # @ O # # 2                                                                                                                           ",
"                                                                                                                  o.o.e < # # # # 2 -.                                                                                                                          ",
"                                                                                                                      o.X.Q I I I :.M.                                                                                                                          ",
"                                                                                                                          y.y.y.y.                                                                                                                              ",
"                                                                                                                                                                                                                                                                ",
"                                                                                                                                                                                                                                                                "
};
