/* XPM */
static char *still_front[] = {
/* columns rows colors chars-per-pixel */
"128 128 220 2 ",
"   c #FF00FF",
".  c #0D0D0F",
"X  c #0E0E11",
"o  c #100F14",
"O  c #0F1014",
"+  c #131215",
"@  c #161519",
"#  c #18171B",
"$  c #17181C",
"%  c #1A191C",
"&  c #181717",
"*  c #251E1E",
"=  c #341F1A",
"-  c #3D251E",
";  c #36231E",
":  c #1D1D22",
">  c #201F25",
",  c #1E2125",
"<  c #1E2B26",
"1  c #222225",
"2  c #24242A",
"3  c #252A2D",
"4  c #2B2A2C",
"5  c #292524",
"6  c #342623",
"7  c #3B2623",
"8  c #342C2B",
"9  c #3C2D2D",
"0  c #372827",
"q  c #25352C",
"w  c #35312F",
"e  c #2B2C33",
"r  c #272B33",
"t  c #2C3335",
"y  c #333235",
"u  c #33343B",
"i  c #38383A",
"p  c #412720",
"a  c #442A24",
"s  c #492D26",
"d  c #442D2A",
"f  c #4A2E29",
"g  c #44312D",
"h  c #4C322B",
"j  c #47392F",
"k  c #53332D",
"l  c #5B352E",
"z  c #4C3533",
"x  c #473735",
"c  c #523633",
"v  c #563C35",
"b  c #5A3E3A",
"n  c #573A36",
"m  c #643C34",
"M  c #683E38",
"N  c #60372E",
"B  c #264235",
"V  c #305039",
"C  c #4A433C",
"Z  c #5B423B",
"A  c #574136",
"S  c #66433C",
"D  c #6C423A",
"F  c #6B483E",
"G  c #674338",
"H  c #74463D",
"J  c #79483F",
"K  c #75493E",
"L  c #3D3C45",
"P  c #3A3B46",
"I  c #2B5A46",
"U  c #375A46",
"Y  c #304D40",
"T  c #39654B",
"R  c #366951",
"E  c #3A7B57",
"W  c #39704A",
"Q  c #42434D",
"!  c #4D4B4C",
"~  c #494645",
"^  c #5B4242",
"/  c #574947",
"(  c #5C5248",
")  c #464650",
"_  c #464953",
"`  c #4A4B55",
"'  c #4E4E59",
"]  c #53545E",
"[  c #5B5854",
"{  c #4E4E4B",
"}  c #694A46",
"|  c #754D44",
" . c #7C4C43",
".. c #704242",
"X. c #675749",
"o. c #7D544B",
"O. c #76564A",
"+. c #675957",
"@. c #7B5954",
"#. c #785A56",
"$. c #654E50",
"%. c #437B5A",
"&. c #76624D",
"*. c #66615C",
"=. c #68625B",
"-. c #756354",
";. c #7B6956",
":. c #7D6C5B",
">. c #796655",
",. c #65694B",
"<. c #555662",
"1. c #595963",
"2. c #665C67",
"3. c #4D7E60",
"4. c #676468",
"5. c #796D62",
"6. c #7B746D",
"7. c #7A7368",
"8. c #686A75",
"9. c #7A7A75",
"0. c #697176",
"q. c #824D46",
"w. c #83544B",
"e. c #8B5A4C",
"r. c #87564A",
"t. c #845A53",
"y. c #8D5B55",
"u. c #865854",
"i. c #925C5A",
"p. c #945D4B",
"a. c #806F5C",
"s. c #87665B",
"d. c #9B6355",
"f. c #97645B",
"g. c #83715E",
"h. c #8C765F",
"j. c #97614D",
"k. c #A1685E",
"l. c #8A6865",
"z. c #936563",
"x. c #956C69",
"c. c #9A6D6C",
"v. c #9A6863",
"b. c #847363",
"n. c #8A7664",
"m. c #8E7A64",
"M. c #87796B",
"N. c #8C7B6B",
"B. c #867669",
"V. c #917D66",
"C. c #927E6B",
"Z. c #94726C",
"A. c #857D74",
"S. c #8B7E72",
"D. c #867B76",
"F. c #987373",
"G. c #A26C65",
"H. c #A96C68",
"J. c #A97976",
"K. c #B87E7D",
"L. c #AB756E",
"P. c #348861",
"I. c #4E8C6C",
"U. c #689173",
"Y. c #95816B",
"T. c #9A846E",
"R. c #918067",
"E. c #8D8175",
"W. c #8E847A",
"Q. c #878078",
"!. c #928273",
"~. c #998672",
"^. c #9D8874",
"/. c #93867A",
"(. c #9C8B7B",
"). c #95887B",
"_. c #A28C76",
"`. c #A38E7A",
"'. c #A5907D",
"]. c #AC957D",
"[. c #7C7F87",
"{. c #7D8D88",
"}. c #8A8684",
"|. c #9A8D81",
" X c #938B85",
".X c #9E9185",
"XX c #999696",
"oX c #8D8C96",
"OX c #A1958A",
"+X c #A3998D",
"@X c #A89482",
"#X c #A69C91",
"$X c #AA9E93",
"%X c #BC8D89",
"&X c #99A79F",
"*X c #ADA398",
"=X c #B4A99E",
"-X c #B1A69D",
";X c #969BA9",
":X c #B4ADA3",
">X c #BBB1A5",
",X c #BCB5AA",
"<X c #B7B4A9",
"1X c #ABA8B8",
"2X c #B9B8B3",
"3X c #B0ACB1",
"4X c #C1B8AB",
"5X c #C5BEB2",
"6X c #DBA8B8",
"7X c #CCC6BA",
"8X c #CAC4B9",
"9X c #9EACC6",
"0X c #B2B4C8",
"qX c #E2BDCA",
"wX c #BECCCD",
"eX c #D7D5CB",
"rX c #D2D1C9",
"tX c #E1DFD5",
"yX c #E4E1D6",
"uX c #CBCDE3",
/* pixels */
"                                                                                                                                                                                                                                                                ",
"                                                                                                                                                                                                                                                                ",
"                                                                                                                                                                                                                                                                ",
"                                                                                                                                                                                                                                                                ",
"                                                                                                                                                                                                                                                                ",
"                                                                                                                                                                                                                                                                ",
"                                                                                                                                                                                                                                                                ",
"                                                                                                                                                                                                                                                                ",
"                                                                                                                                                                                                                                                                ",
"                                                                                                                                                                                                                                                                ",
"                                                                                                                                                                                                                                                                ",
"                                                                                                                                                                                                                                                                ",
"                                                                                                                                                                                                                                                                ",
"                                                                                                                                                                                                                                                                ",
"                                                                                                                                                                                                                                                                ",
"                                                                                                                                                                                                                                                                ",
"                                                                                                                                                                                                                                                                ",
"                                                                                                                                                                                                                                                                ",
"                                                                                                                                                                                                                                                                ",
"                                                                                                                                                                                                                                                                ",
"                                                                                                                                                                                                                                                                ",
"                                                                                                                                                                                                                                                                ",
"                                                                                                                                                                                                                                                                ",
"                                                                                                                                                                                                                                                                ",
"                                                                                                                        y 2 1 1 1 y                                                                                                                             ",
"                                                                                                                      4 1 6 z v 9 1 y                                                                                                                           ",
"                                                                                                                    w 8 F e.d.k.v.} 8                                                                                                                           ",
"                                                                                                                    4 Z e.d.k.G.L.J./                                                                                                                           ",
"                                                                                                                    x } } | f.y.@.l.#.                                                                                                                          ",
"                                                                                                                      } b v w.t.b @.l.                                                                                                                          ",
"                                                                                                                    O.t.o.| e.G.t.c.J.z.                                                                                                                        ",
"                                                                                                                    w.f.d.e.w.v.H.K.J.v.                                                                                                                        ",
"                                                                                                                    o.y.d.w. .u.c.K.J.z.                                                                                                                        ",
"                                                                                                                      s.e.| q.i.z.J.J.                                                                                                                          ",
"                                                                                                                        e.e.e.v.J.x.x.                                                                                                                          ",
"                                                                                                                        S S | @.@.O.l.                                                                                                                          ",
"                                                                                                                        } g g g v @.Z.                                                                                                                          ",
"                                                                                                                        o.F G } t.v.6.R L                                                                                                                       ",
"                                                                                                                    y { &.r.e.d.f.G.U.I > 4 u                                                                                                                   ",
"                                                                                                                  1 % V ,.j.p.d.k.t.I.I : : > 2 e                                                                                                               ",
"                                                                                                            y 1 % % # q W v S Z g 2 P.B : : : : : 2 y                                                                                                           ",
"                                                                                                          1 : % % % # < %.< # % # t U.3 : : : : : 1 2 y                                                                                                         ",
"                                                                                                        : % % % % % % , I.B # % # Y I., % : : : > : 2 3 i                                                                                                       ",
"                                                                                                      1 % % % % % % % % R T # % # R E % % : : : 1 : 2 2 e                                                                                                       ",
"                                                                                                    4 % % % % % % % % # U I.% # 4 &X{.: : : : > 1 : 1 2 2 u                                                                                                     ",
"                                                                                                    1 % % # % % % % % # t U.< + ` 6XoX: % : : > 2 : 1 2 2 3                                                                                                     ",
"                                                                                                    % % # % % % % % % % , I.B + 2.qX4.# : : : > 1 : : 1 2 1                                                                                                     ",
"                                                                                                    % % # % % % % % % % $ 3.T + 9.2X` # : > > 1 1 : : : 2 : e                                                                                                   ",
"                                                                                                  1 % % # # # $ $ % % % # U %.u rX2Xu # : e 4 1 : $ % : 1 : 2                                                                                                   ",
"                                                                                                  : # % # + + $ # $ # # # q E 4.wX0.% % : e e 1 : # # : , : : u                                                                                                 ",
"                                                                                                  % # # # o + # + + # # # % W 9.XXe % : 2 e e : : + # % : : : 4                                                                                                 ",
"                                                                                                1 % # # # X + # + + # # # # V E t % : : u u e , % + + % : : : 2 u                                                                                               ",
"                                                                                                1 % # # + X X # + # % % % + B U % : 1 2 L L 4 1 : O + # : % % 1 e                                                                                               ",
"                                                                                                % % # # + X X + + % % % % + q i % 1 4 e Q ) e 2 : $ O # % $ : 2                                                                                                 ",
"                                                                                              4 % # # # + X . + # % % % y i { [ ! i e u ` ` e 1 : 2 + # > 9 /                                                                                                   ",
"                                                                                                1 % # # + . + + % % % 4 }. X}. XXX8.e L ' ` e 1 : u 6 d S w.z.                                                                                                  ",
"                                                                                                  b h 7 * + % # % % % 1 oX1X0X9X9X8.u Q ] ' e 1 ,   g k D r.z.                                                                                                  ",
"                                                                                                   .H M s 6 1 % % % % 1 ;XuXuX0X1X8.u ` <.' e : : ,   h M  .f.                                                                                                  ",
"                                                                                                   .K M s 6 % % % % # 1 ;XuXuX1X1X8.u ) <.' e : : $   h M  .i.c.                                                                                                ",
"                                                                                                   .H M s 0 % # % % # % ' 4.1.1.] L u ) <.` u : : #   h M  .i.c.                                                                                                ",
"                                                                                                o. .H M s 8 % # % # # # # # # # # e u ` 1.` u , : #   h M  .i.c.                                                                                                ",
"                                                                                                o.q.J M a w % % # + # # # # # # % e u ` <.Q u 1 : #   c M  .i.c.                                                                                                ",
"                                                                                                w. . .M 7 w % % + + # + # # # # : e u _ ] P e , : #   z M  .y.c.                                                                                                ",
"                                                                                                w.q.J l 7   % + + + + + # # # # : 2 y _ <.P 2 : % +     l  .y.x.                                                                                                ",
"                                                                                                w. .H k 7 * + + + # + # # + # # # 2 3 _ <.` 2 : # $     l J y.c.                                                                                                ",
"                                                                                                o. .H s   + + # % # + + + + + + # 2 2 _ ] ) 2 # # %     k H y.c.                                                                                                ",
"                                                                                                 . .D a   % # % # + + + # + + + % : 2 _ <.Q : # # #     c H y.c.                                                                                                ",
"                                                                                                 . .M a   % % % + + + + + + + # # # 2 _ <.e # $ % % 1     D u.x.                                                                                                ",
"                                                                                                o.J M a   % + # + + + + + + # + # % 2 ` <., , : $ # 1     M u.x.                                                                                                ",
"                                                                                                | H l     + + # # + + + + # # + # % : _ Q , u $ 1 ~ 5.    D w.x.                                                                                                ",
"                                                                                                | H l   / 4 % + + + + + # + + + + # % Q t u t ~ D.#X.XA.  @.s.S.                                                                                                ",
"                                                                                                | H S   T.Y.:./ w 6 % + + + o o o + # e u ] D.*X=X$X.X6.O.N.XXoX                                                                                                ",
"                                                                                                |  . .O.V._.].].].^.b.X.C w 8 4 1 : y ! 9.2X7X,X-X#X|.#.H w.#.0.                                                                                                ",
"                                                                                                o. .r.| a.T._.].@X].].].].^.~.!.+X:X,X,X5X5X7X7X-X+X/.F M f.J.l.                                                                                                ",
"                                                                                                   . .D >.Y._._.`._._._.'.'._.~.4XeXrX,X>X=X>XeX=X+XB.M N G.%Xx.                                                                                                ",
"                                                                                                  K M M o.m.T._._._.^.C.N.N.C.:.+X*X4X,X$X>X>X8X*X+XO.M | f.%X                                                                                                  ",
"                                                                                                  D @.| O.g.T.^._.'.'.`.^.N.5.-.5.7./.|..X+X*X=X#X+Xs.t.w.v.x.                                                                                                  ",
"                                                                                                  M o.@.@.;.Y.T.^.^.~.C.N.b.5.5.b.M.M.N.!.).(.+X#X+XN.  t.v.x.                                                                                                  ",
"                                                                                                  S ..O.n.&.Y.T.^.`.`.'.'.'.'.!.B.!.~.^.!.!./..X#X.XW.#.M O.                                                                                                    ",
"                                                                                                    ....-.;.Y.T.T.^.`.'.`.(.(.S.:.:.b.B.N.N.N.!.>X7X:X$.                                                                                                        ",
"                                                                                                      M | h.C.T.~._.(.~.!.S.S.M.:.b.n.N.N.N.!.N.*XyXrX                                                                                                          ",
"                                                                                                          C.n.Y.Y.~.(.(./.B.E.S.X.m.C.C.C.N.N.S.#X8XQ.                                                                                                          ",
"                                                                                                          T.n.Y.T.^.^.(.OXOX|.5.x b.C.C.N.N.E.+X5X2X[                                                                                                           ",
"                                                                                                          Y.g.C.C.!.(.(.(./.S.+.j ;.a.n.C.C.E.#X,X7X*.                                                                                                          ",
"                                                                                                        ~.m.a.C.C.C.S.S.E./.W.=.C :.b.b.g.b.N.|.,XtX2X                                                                                                          ",
"                                                                                                        Y.C.m.V.C.C.!./.E.S.A.*./ -.:.:.b.m.N.S.,XtXrX                                                                                                          ",
"                                                                                                        m.Y.Y.C.C.Y.!.W.E.S.6.[ C -.:.:.g.b.B.S.,XyXrX                                                                                                          ",
"                                                                                                        C.C.V.C.Y.Y.!././.A.6.[   X.;.:.:.b.N.S.:XtXrX                                                                                                          ",
"                                                                                                          Y.m.m.C.Y.!.E.E.W.7.!   X.-.:.g.b.b.S.:XeXrX                                                                                                          ",
"                                                                                                          R.m.V.C.C.!./.).A.*.~   ( O.-.:.g.b.N.:XrXrX                                                                                                          ",
"                                                                                                          Y.m.V.m.N.!.E.A.9.+.    ( O.-.:.:.b.M.+X>X<X                                                                                                          ",
"                                                                                                          V.m.V.N.N.S.E.A.6.+.      O.>.;.:.:.M.E. XXX                                                                                                          ",
"                                                                                                          V.h.m.m.N.S.E.A.7.[       O.&.;.;.:.b.M.W.XX                                                                                                          ",
"                                                                                                          Y.V.m.n.N.N.S.9.4.[       X.X.>.;.:.b.S.W.                                                                                                            ",
"                                                                                                            V.m.m.N.E.E.6./           6 j X.-.b.S.W.                                                                                                            ",
"                                                                                                              ;.O.-.:.+.z 6 9         ; = = ; g $.+.                                                                                                            ",
"                                                                                                              Z d 7 7 7 7 0 9         7 - - - a ^ $.                                                                                                            ",
"                                                                                                              v h a a d d d 9         7 a a p a ^ $.                                                                                                            ",
"                                                                                                              v h a s s s d d         a a a s h b $.                                                                                                            ",
"                                                                                                              A h h h h h d g         a a a s s b $.                                                                                                            ",
"                                                                                                              Z h s h h h d           a a p a s v $.                                                                                                            ",
"                                                                                                                h s s h s d           a - p a s v $.                                                                                                            ",
"                                                                                                                h a a s d g             - p p s b $.                                                                                                            ",
"                                                                                                                h a a d d g             - - p a b +.                                                                                                            ",
"                                                                                                                h a a d d               7 - - s Z +.                                                                                                            ",
"                                                                                                                h a a d h               d - - a ^                                                                                                               ",
"                                                                                                                h a a h z               g p p s ^                                                                                                               ",
"                                                                                                                  s h c z                 a a h ^                                                                                                               ",
"                                                                                                                  h k c v                 a a h /                                                                                                               ",
"                                                                                                                  h k v z                 s a h /                                                                                                               ",
"                                                                                                                  k k b v                 s s c (                                                                                                               ",
"                                                                                                                  a s z 8                 6 = 8 i                                                                                                               ",
"                                                                                                                  4 * % +                 + + u u                                                                                                               ",
"                                                                                                                1 4 % # X                 X + % : 3                                                                                                             ",
"                                                                                                                & + $ % :               + + + X + :                                                                                                             ",
"                                                                                                                % + X $ ,                 + X . + r                                                                                                             ",
"                                                                                                                % X X O 2 !               1 X X O e                                                                                                             ",
"                                                                                                                % . + + y                 1 X + X t                                                                                                             ",
"                                                                                                              4 % X # , %                 . X + O P 8.                                                                                                          ",
"                                                                                                              1 % X % r #                 + + + + , e                                                                                                           ",
"                                                                                                              1 + + % 2                   1 % % $ : t                                                                                                           ",
"                                                                                                            8 1 % % : r                   C % # % 2 _                                                                                                           ",
"                                                                                                            X.4 % % 2 <.                  7.( x ~ 8.oX                                                                                                          ",
"                                                                                                              b.+.*.[.;X                    !.!. XXX                                                                                                            ",
"                                                                                                              !.E. XXX                                                                                                                                          ",
"                                                                                                                                                                                                                                                                ",
"                                                                                                                                                                                                                                                                ",
"                                                                                                                                                                                                                                                                "
};
