/* XPM */
static char *still_back_left[] = {
/* columns rows colors chars-per-pixel */
"128 128 218 2 ",
"   c #FF00FF",
".  c #0B0A0D",
"X  c #07070A",
"o  c #0E0D11",
"O  c #100F14",
"+  c #131215",
"@  c #16151A",
"#  c #18171C",
"$  c #1A191D",
"%  c #1A1516",
"&  c #221A1B",
"*  c #351D1B",
"=  c #391E1C",
"-  c #3C231E",
";  c #36221D",
":  c #23211F",
">  c #1C1C22",
",  c #2B1F22",
"<  c #1F2125",
"1  c #222124",
"2  c #24242B",
"3  c #28272C",
"4  c #2C292A",
"5  c #28272A",
"6  c #3C2422",
"7  c #322A2A",
"8  c #382725",
"9  c #3B302F",
"0  c #2B2B34",
"q  c #2E2E39",
"w  c #282830",
"e  c #302F36",
"r  c #32333D",
"t  c #3B3635",
"y  c #2D303B",
"u  c #41221E",
"i  c #432622",
"p  c #452923",
"a  c #4C2B24",
"s  c #492A26",
"d  c #522D25",
"f  c #552D2A",
"g  c #47322E",
"h  c #55322B",
"j  c #59332B",
"k  c #533126",
"l  c #463936",
"z  c #593835",
"x  c #452F30",
"c  c #643B35",
"v  c #663D38",
"b  c #60382F",
"n  c #2F403D",
"m  c #4A433D",
"M  c #55443D",
"N  c #59473E",
"B  c #6B423B",
"V  c #65423A",
"C  c #72443D",
"Z  c #77493F",
"A  c #363641",
"S  c #393A45",
"D  c #3D3E4A",
"F  c #363945",
"G  c #463E48",
"H  c #593C40",
"J  c #3E414C",
"K  c #41414E",
"L  c #474547",
"P  c #534945",
"I  c #5B4C42",
"U  c #5B4749",
"Y  c #5D5149",
"T  c #444552",
"R  c #494954",
"E  c #4C4D5B",
"W  c #484957",
"Q  c #4E505F",
"!  c #425352",
"~  c #52515E",
"^  c #5C5153",
"/  c #584F58",
"(  c #694947",
")  c #734A42",
"_  c #7C4D44",
"`  c #774B47",
"'  c #635246",
"]  c #65554B",
"[  c #6A5A4C",
"{  c #68594F",
"}  c #7B524B",
"|  c #72584C",
" . c #644C53",
".. c #665A52",
"X. c #6B5D53",
"o. c #655756",
"O. c #795758",
"+. c #794E52",
"@. c #71614F",
"#. c #6E6154",
"$. c #6D6159",
"%. c #736254",
"&. c #796555",
"*. c #7A6857",
"=. c #74655A",
"-. c #7D6B5B",
";. c #76695D",
":. c #545463",
">. c #585766",
",. c #595867",
"<. c #565968",
"1. c #5C5C6B",
"2. c #565960",
"3. c #5E5F71",
"4. c #635E69",
"5. c #5D606E",
"6. c #62656B",
"7. c #7B6D62",
"8. c #766966",
"9. c #7E7066",
"0. c #7D726B",
"q. c #626273",
"w. c #6C6B7B",
"e. c #797372",
"r. c #556D4F",
"t. c #814F45",
"y. c #83544B",
"u. c #875449",
"i. c #845B57",
"p. c #915E58",
"a. c #826E5D",
"s. c #93635C",
"d. c #84715F",
"f. c #815D60",
"g. c #896662",
"h. c #966863",
"j. c #857263",
"k. c #8A7565",
"l. c #857569",
"z. c #8C7A6C",
"x. c #87786C",
"c. c #917D6D",
"v. c #8B7E73",
"b. c #867873",
"n. c #987C77",
"m. c #A6736C",
"M. c #A97873",
"N. c #AC7671",
"B. c #579772",
"V. c #8E857D",
"C. c #958477",
"Z. c #99816F",
"A. c #A7877A",
"S. c #B7827C",
"D. c #C1897E",
"F. c #7A7B86",
"G. c #748380",
"H. c #70C79A",
"J. c #8C8987",
"K. c #968B86",
"L. c #999189",
"P. c #9D9996",
"I. c #879395",
"U. c #A68B86",
"Y. c #B88786",
"T. c #A4958B",
"R. c #A59A93",
"E. c #BB9796",
"W. c #ABA49D",
"Q. c #A6A29D",
"!. c #A9A7A5",
"~. c #B2ABA3",
"^. c #B4A8A2",
"/. c #B8B3AC",
"(. c #BEBAB4",
"). c #B9B7B4",
"_. c #C28D84",
"`. c #C88E84",
"'. c #CA938B",
"]. c #CB9C99",
"[. c #CA9997",
"{. c #D29D97",
"}. c #C89390",
"|. c #CFA79E",
" X c #D9A29D",
".X c #CE9EA0",
"XX c #C7A9A6",
"oX c #DAA8A7",
"OX c #D9B5AA",
"+X c #C1BBB5",
"@X c #C2BEB9",
"#X c #D7B0B2",
"$X c #E2B2AE",
"%X c #E4B8B6",
"&X c #93E5B9",
"*X c #C5C2BC",
"=X c #CAC4BE",
"-X c #EAC4BB",
";X c #AEEFCE",
":X c #CBC8C3",
">X c #D2CDC8",
",X c #D5D2CD",
"<X c #D8D4CE",
"1X c #DCD9D4",
"2X c #DAD8D3",
"3X c #EBC6C6",
"4X c #E4DBD7",
"5X c #EACED2",
"6X c #E5E2DD",
"7X c #EEE2DE",
"8X c #F4E4D6",
"9X c #EBEAE5",
"0X c #EBEAE6",
"qX c #F0EFEA",
"wX c #F2F1ED",
"eX c #F9F6EF",
"rX c #FAF9F5",
"tX c #F9F8F3",
/* pixels */
"                                                                                                                                                                                                                                                                ",
"                                                                                                                                                                                                                                                                ",
"                                                                                                                                                                                                                                                                ",
"                                                                                                                                                                                                                                                                ",
"                                                                                                                                                                                                                                                                ",
"                                                                                                                                                                                                                                                                ",
"                                                                                                                                                                                                                                                                ",
"                                                                                                                                                                                                                                                                ",
"                                                                                                                                                                                                                                                                ",
"                                                                                                                                                                                                                                                                ",
"                                                                                                                                                                                                                                                                ",
"                                                                                                                                                                                                                                                                ",
"                                                                                                                                                                                                                                                                ",
"                                                                                                                                                                                                                                                                ",
"                                                                                                                                                                                                                                                                ",
"                                                                                                                                                                                                                                                                ",
"                                                                                                                                                                                                                                                                ",
"                                                                                                                                                                                                                                                                ",
"                                                                                                                                                                                                                                                                ",
"                                                                                                                                                                                                                                                                ",
"                                                                                                                                                                                                                                                                ",
"                                                                                                                                                                                                                                                                ",
"                                                                                                                                                                                                                                                                ",
"                                                                                                                                                                                                                                                                ",
"                                                                                                                                  1 5 e 4 5                                                                                                                     ",
"                                                                                                                              0 > @ + $ > 5 0                                                                                                                   ",
"                                                                                                                              > + + + + # 4 5 S                                                                                                                 ",
"                                                                                                                              $ @ @ @ @ $ 1 r L                                                                                                                 ",
"                                                                                                                              1 1 1 & $ 1 e L W                                                                                                                 ",
"                                                                                                                            M 7 7 7 7 4 4 t W ~                                                                                                                 ",
"                                                                                                                            | z v g t 9 9 l o.6.                                                                                                                ",
"                                                                                                                            i._ _ c l 9 l ^ 8.e.                                                                                                                ",
"                                                                                                                            y.y._ C z g M k.n.K.                                                                                                                ",
"                                                                                                                            y.y._ t.B g U c.T.                                                                                                                  ",
"                                                                                                                            i._ u.u.` z g.].XX                                                                                                                  ",
"                                                                                                                              V Z u._ | S.OX-X                                                                                                                  ",
"                                                                                                                              g V | r.B.H.&X;X                                                                                                                  ",
"                                                                                                                              P l t n ! 6.G.I.I.                                                                                                                ",
"                                                                                                                              L 0 0 r S T W :.q.w.                                                                                                              ",
"                                                                                                                          0 3 3 r S S K W ~ :.>.1.1.                                                                                                            ",
"                                                                                                                      5 > > 5 0 r S D W ~ :.>.1.1.>.,.                                                                                                          ",
"                                                                                                                    > $ $ 1 r 0 A S T W >.1.1.1.1.:.,.1.                                                                                                        ",
"                                                                                                                  1 # # # > r 0 S K T W 1.4.1.1.1.>.>.>.:.                                                                                                      ",
"                                                                                                                  $ # # # @ 0 r A T T K 1.1.q.,.,.>.:.1.W W                                                                                                     ",
"                                                                                                                1 @ # @ @ @ 1 A r T K A ,.1.4.1.W >.:.q.W K                                                                                                     ",
"                                                                                                                $ @ @ @ @ @ $ r r D S q :.:.>.q.W ~ :.1.W J                                                                                                     ",
"                                                                                                              3 @ @ @ @ $ > $ w 0 r r 0 W W W q.T W W ~ W S                                                                                                     ",
"                                                                                                              > @ @ @ @ 5 0 > > 5 0 5 5 K K W q.T T W T W q                                                                                                     ",
"                                                                                                              $ @ @ @ # 5 D w @ > 5 @ w S S K q.K D T K T 0                                                                                                     ",
"                                                                                                            1 @ @ @ @ $ 0 T > O @ > o q A r D q.T S W K D >                                                                                                     ",
"                                                                                                            > @ @ @ @ > r W @ o + + @ r r 0 D q.T r W T D >                                                                                                     ",
"                                                                                                            $ @ @ @ # 5 D T o o o o > r r 5 T w.T 0 W W D >                                                                                                     ",
"                                                                                                          1 # @ @ @ > 0 T D . o o o 0 A q > W q.T 0 K :.D $                                                                                                     ",
"                                                                                                          > $ @ @ @ $ r W 0 . o o @ A r 5 > :.q.T q S :.S @                                                                                                     ",
"                                                                                                          5 > @ @ $ 5 r W @ . . . > A 0 @ 5 1.1.K r S :.r @                                                                                                     ",
"                                                                                                            t , # $ 0 D T o . . o 0 A 5 @ 0 1.1.D r D W G l                                                                                                     ",
"                                                                                                              z h x G ~ r . o o @ q 0 @ > r 1.1.r r D W  .O.                                                                                                    ",
"                                                                                                            ) v c ) Y.].7 X o o > q > @ 5 A <.<.r q D ~  .O.                                                                                                    ",
"                                                                                                            ` v z ( ]..X& . o @ w > + # 5 r :.:.S q D :.U O.                                                                                                    ",
"                                                                                                          } _ C v O.XXn.o o O # 5 @ + $ > r :.:.S 5 r W ^ i.                                                                                                    ",
"                                                                                                          _ t._ +.K.oXO.. o + > > + @ # > S <.3.W q q T U i.                                                                                                    ",
"                                                                                                          _ y._ i.}.oXl . o @ > @ @ @ @ 5 J <.q.q.:.K G H i.                                                                                                    ",
"                                                                                                          _ y._ g.[.Y.+ o O @ @ @ @ @ @ 5 D :.:.:.:.:.~ U f.                                                                                                    ",
"                                                                                                        ` _ y._ M. Xo.o o o o O O + o $ 0 q F W T T W 1. .g.                                                                                                    ",
"                                                                                                        ` _ t.y.S.].7 o o o o o o + @ > 0 A A K Q W T W  .                                                                                                      ",
"                                                                                                        C _ _ p.}.U.@ o o o o O + + 5 r 5 q q q T Q W W 4.                                                                                                      ",
"                                                                                                        C Z _ m. X^ . . o o O o + + $ 0 r F S S D W :.W q.                                                                                                      ",
"                                                                                                        B B _ Y.|.$ . o o O + + @ > 5 y D T Q Q T D D W q.                                                                                                      ",
"                                                                                                      B c c i.{.  + o o o o O + @ @ 5 q F T W :.:.W W W <.                                                                                                      ",
"                                                                                                      V c v N.    $ . o o o O O + + > 0 A J W Q :.W :.5.F.                                                                                                      ",
"                                                                                                      v c _ }.    1 # $ $ $ $ 1 4 t L 4.J.P./.).(.!.).:X).                                                                                                      ",
"                                                                                                      B C M.      m l ' -.k.l.c.C.C.R./.>X1X6X0XwX<X=X0X0X                                                                                                      ",
"                                                                                                    ] B h.n.      I N | c.A.Z.A.T.L.T.~.=X1X1X6X0X,XR.>XeX                                                                                                      ",
"                                                                                                    8.N +.^       I M | d.Z.x.c.T.L.K.R.(.(.<X1X0X>Xv.Q.wX                                                                                                      ",
"                                                                                                    P 9 P 8.    I N ' &.k.c.x.k.x.0.8.K.>XP.).1X0X+Xv.>XeX                                                                                                      ",
"                                                                                                    g h +.      ' ' %.a.a.x.c.x.C.~.v.0.,X(.L.:X6XT.R.wXrX                                                                                                      ",
"                                                                                                    g g `       ] [ &.-.l.x.x.x.x.~.@X0.~.0XQ.!.@Xx.=XrXrX                                                                                                      ",
"                                                                                                    6 i +.      M ' %.*.l.x.x.x.x.T.6XQ.J.0X<X!.L.L.6XwXqX                                                                                                      ",
"                                                                                                    x x +.      I I %.&.l.k.x.x.C.^.1X1XQ.<X0X/.C.+X6X9XqX                                                                                                      ",
"                                                                                                      8 z       N M | a.d.k.x.l.v.+X1X1X>X1X6X+X~.,X1X6X6X                                                                                                      ",
"                                                                                                      8 6  .    ' ' | *.a.l.l.j.v.*X*X).@X4X6X+X,X6X,X9X                                                                                                        ",
"                                                                                                                ' N | a.l.d.l.l.x.1X1XP.b.=X4X~.4X4X,X0X                                                                                                        ",
"                                                                                                                ] ] -.k.k.k.k.l.=.Q.rX9XL.V.+XL.,X<X,XqX                                                                                                        ",
"                                                                                                                %.-.a.k.k.k.k.x.7.v.0XrX6XV.R.V.=X:X>XwX                                                                                                        ",
"                                                                                                                -.a.d.d.k.l.a.l.0.9.,XrXtX/.K.v./.(.*XwX                                                                                                        ",
"                                                                                                                  d.a.d.k.l.-.l.7.7.*XrXrX<XV.v.Q./.:X0X                                                                                                        ",
"                                                                                                                  a.-.a.k.x.l.9.7.7.~.wXeX:X7.l.L.(.1X1X<X                                                                                                      ",
"                                                                                                                  a.a.l.c.7.7.9.7.7.Q.wXrX+X;.7.L.:X1X@X                                                                                                        ",
"                                                                                                                  d.%.-.=.X.-.7.7.=.Q.qXeXQ.%.-.Q./.R.K.                                                                                                        ",
"                                                                                                                  *.[ { #.-.=.%.=.=.Q.0XqXb.[ %.b.K.J.K.                                                                                                        ",
"                                                                                                                  %.[ Y =.=.#.;.%.=.Q.qX6X..I X.$.e.P.*X                                                                                                        ",
"                                                                                                                  %.@.' %.#.=.%.X.=./.qX1XI M { 8.V.+X7X                                                                                                        ",
"                                                                                                                  %.%.[ #.%.%.#.X.=.(.6X1X  9 l ' O.E.5X5X                                                                                                      ",
"                                                                                                                  %.@.[ %.%.%.%.X.9.).*X/.  8 6 z B M.%X3X                                                                                                      ",
"                                                                                                                  *.&.&.*.-.-.-.%.8.J.K.J.    6 j c h.oX%X                                                                                                      ",
"                                                                                                                      -.a.l.a.-.=.=.8.b.T.    - f j y.}.$X                                                                                                      ",
"                                                                                                                            l 9 g V O.U.#X    - d j ` N. XoX                                                                                                    ",
"                                                                                                                            6 u d c g.#X3X    - a f B N.{.{.                                                                                                    ",
"                                                                                                                            p d j b h.#X3X%X  = a d B N.}.{.                                                                                                    ",
"                                                                                                                            p k j j y.].-X$X  = u a B m.`.].                                                                                                    ",
"                                                                                                                            p k j h ` S.$X$X  * = u h s.`.].                                                                                                    ",
"                                                                                                                            p d h h B m. XoX  8 * = i y.S.[.                                                                                                    ",
"                                                                                                                            i a h d c h.'. X    * = i } Y.                                                                                                      ",
"                                                                                                                            - p a a z s.`.{.    = - i } `.                                                                                                      ",
"                                                                                                                            - i a a c i.D.{.    6 - p } M.                                                                                                      ",
"                                                                                                                            - - p p B s.D.      6 - p v O.                                                                                                      ",
"                                                                                                                            - - p p ` m.`.        u i ( XX                                                                                                      ",
"                                                                                                                            ; - - u ` M.`.        - f |.eX                                                                                                      ",
"                                                                                                                            ; - - 6 ` S.`.        u f OXeX                                                                                                      ",
"                                                                                                                            ; - - p } D.`.        u f OX4X                                                                                                      ",
"                                                                                                                              - - p } `.          * a O.                                                                                                        ",
"                                                                                                                              - - p i.`.        . . & ,                                                                                                         ",
"                                                                                                                              - - p i.}.        . . . . @                                                                                                       ",
"                                                                                                                              - ; - ` S.8.      . . . + F                                                                                                       ",
"                                                                                                                              ; * * z |   $.X.Y 4 . . $ w >                                                                                                     ",
"                                                                                                                              * * * 6 b.        ..4 . . . <                                                                                                     ",
"                                                                                                                          + % - - - h.7X          =.9 $ 3 2.                                                                                                    ",
"                                                                                                                  $ + . . o + p p c -XtX            l.8.e.F.                                                                                                    ",
"                                                                                                              4 $ + . . . . . & a n.8X^.              e.                                                                                                        ",
"                                                                                                              l + + + + + o . . % o.^ &                                                                                                                         ",
"                                                                                                              X.: + P Y m % . . X X . < J                                                                                                                       ",
"                                                                                                                I $ ..=.$.7 . . . . o 5 w                                                                                                                       ",
"                                                                                                                7.] X.....m . . . . . o o                                                                                                                       ",
"                                                                                                                    =.=.=...t $ . . . . 5                                                                                                                       ",
"                                                                                                                        ;.9.l.l.=.P l L e.                                                                                                                      ",
"                                                                                                                              x.C.C.v.0.8.                                                                                                                      ",
"                                                                                                                                    x.                                                                                                                          ",
"                                                                                                                                                                                                                                                                "
};
