/* XPM */
static char *knife_front_right[] = {
/* columns rows colors chars-per-pixel */
"128 128 221 2 ",
"   c #FF00FF",
".  c #050506",
"X  c #070709",
"o  c #0B0B0D",
"O  c #110D0D",
"+  c #0E0D11",
"@  c #110F13",
"#  c #0F1114",
"$  c #121214",
"%  c #191516",
"&  c #151519",
"*  c #1A171A",
"=  c #1B1A1D",
"-  c #131B17",
";  c #211B1C",
":  c #281615",
">  c #341915",
",  c #3C1E1A",
"<  c #331A17",
"1  c #1B221D",
"2  c #1A2C1F",
"3  c #3C211D",
"4  c #36211F",
"5  c #22211F",
"6  c #1D1D22",
"7  c #171920",
"8  c #231F23",
"9  c #1C2720",
"0  c #232225",
"q  c #24232A",
"w  c #2D2D2B",
"e  c #272A27",
"r  c #392726",
"t  c #273329",
"y  c #3B332E",
"u  c #2C2B33",
"i  c #282730",
"p  c #302E35",
"a  c #33333C",
"s  c #383637",
"d  c #45251C",
"f  c #4B271E",
"g  c #4C291F",
"h  c #422522",
"j  c #4C2A22",
"k  c #452B28",
"l  c #4C2E2B",
"z  c #452723",
"x  c #532D24",
"c  c #532E2A",
"v  c #4C322C",
"b  c #53322B",
"n  c #5B332B",
"m  c #593328",
"M  c #493537",
"N  c #543532",
"B  c #5C3632",
"V  c #553833",
"C  c #593C3A",
"Z  c #64342E",
"A  c #66372E",
"S  c #633B34",
"D  c #6A3B34",
"F  c #653E3A",
"G  c #663834",
"H  c #723F39",
"J  c #294831",
"K  c #334634",
"L  c #315A3A",
"P  c #54453B",
"I  c #4B453D",
"U  c #6B423D",
"Y  c #674239",
"T  c #73443D",
"R  c #794638",
"E  c #6E503A",
"W  c #373640",
"Q  c #3C3B44",
"!  c #383840",
"~  c #403D46",
"^  c #513B40",
"/  c #6B3F41",
"(  c #3E4C42",
")  c #3D5D43",
"_  c #3E6B47",
"`  c #444344",
"'  c #44434C",
"]  c #4B4547",
"[  c #5B4342",
"{  c #5A4B4A",
"}  c #58504B",
"|  c #464551",
" . c #4B4954",
".. c #4E4D59",
"X. c #504F5C",
"o. c #54525E",
"O. c #595656",
"+. c #485B4C",
"@. c #6B4441",
"#. c #684847",
"$. c #724642",
"%. c #7C4C43",
"&. c #774A47",
"*. c #635445",
"=. c #6C5C4D",
"-. c #67544B",
";. c #76544A",
":. c #635B5A",
">. c #6B5654",
",. c #765753",
"<. c #406C45",
"1. c #6B625B",
"2. c #6D6157",
"3. c #746252",
"4. c #796553",
"5. c #79685A",
"6. c #606845",
"7. c #5C5B63",
"8. c #585763",
"9. c #6A5B62",
"0. c #696768",
"q. c #736A66",
"w. c #746B65",
"e. c #7C7269",
"r. c #787677",
"t. c #6E6E77",
"y. c #88423B",
"u. c #844E44",
"i. c #885446",
"p. c #96564B",
"a. c #885B56",
"s. c #8D5753",
"d. c #826D5B",
"f. c #8A615B",
"g. c #946156",
"h. c #99665C",
"j. c #86725E",
"k. c #A7655D",
"l. c #986661",
"z. c #8B7664",
"x. c #8E7966",
"c. c #8C7B6C",
"v. c #857669",
"b. c #917B65",
"n. c #947E6B",
"m. c #9C766D",
"M. c #857B74",
"N. c #8E7C73",
"B. c #927D73",
"V. c #9F7270",
"C. c #88686A",
"Z. c #A26B66",
"A. c #A47269",
"S. c #AC7B75",
"D. c #AD7A78",
"F. c #B57C73",
"G. c #B56D64",
"H. c #5A9A71",
"J. c #97806A",
"K. c #99826B",
"L. c #8C8277",
"P. c #988677",
"I. c #879778",
"U. c #AA8179",
"Y. c #B5817F",
"T. c #C28C7E",
"R. c #7C7D83",
"E. c #A67382",
"W. c #858486",
"Q. c #988C86",
"!. c #9C958C",
"~. c #95918B",
"^. c #9B9693",
"/. c #8D9299",
"(. c #B48685",
"). c #AA9C94",
"_. c #A39D96",
"`. c #B79695",
"'. c #B0958B",
"]. c #9EA29B",
"[. c #A9A59B",
"{. c #B1A69B",
"}. c #B5ADA3",
"|. c #B5B1A6",
" X c #BAB3A8",
".X c #B5B3A9",
"XX c #C78D85",
"oX c #CA9386",
"OX c #C89995",
"+X c #D49A90",
"@X c #CBA69C",
"#X c #D5A19A",
"$X c #E0A99B",
"%X c #C5A9A2",
"&X c #C1BDB2",
"*X c #D4B2A9",
"=X c #E7B7A9",
"-X c #E3B8B6",
";X c #A1D9AB",
":X c #C5C2B6",
">X c #CAC6BA",
",X c #CCC9BD",
"<X c #C6C4B9",
"1X c #D1CCBF",
"2X c #E2C0BF",
"3X c #CFCDC3",
"4X c #D2CEC3",
"5X c #D4D1C6",
"6X c #DAD6CB",
"7X c #DEDCD1",
"8X c #D1DCDF",
"9X c #CCD5D9",
"0X c #E6C4C2",
"qX c #E2DED3",
"wX c #E2E1D6",
"eX c #E7E6DC",
"rX c #FEEBDB",
"tX c #D3DFE1",
"yX c #DCE7EA",
"uX c #E6EAE8",
"iX c #E3EDF1",
/* pixels */
"                                                                                                                                                                                                                                                                ",
"                                                                                                                                                                                                                                                                ",
"                                                                                                                                                                                                                                                                ",
"                                                                                                                                                                                                                                                                ",
"                                                                                                                                                                                                                                                                ",
"                                                                                                                                                                                                                                                                ",
"                                                                                                                                                                                                                                                                ",
"                                                                                                                                                                                                                                                                ",
"                                                                                                                                                                                                                                                                ",
"                                                                                                                                                                                                                                                                ",
"                                                                                                                                                                                                                                                                ",
"                                                                                                                                                                                                                                                                ",
"                                                                                                                                                                                                                                                                ",
"                                                                                                                                                                                                                                                                ",
"                                                                                                                                                                                                                                                                ",
"                                                                                                                                                                                                                                                                ",
"                                                                                                                                                                                                                                                                ",
"                                                                                                                                                                                                                                                                ",
"                                                                                                                                                                                                                                                                ",
"                                                                                                                                                                                                                                                                ",
"                                                                                                                                                                                                                                                                ",
"                                                                                                                                                                                                                                                                ",
"                                                                                                                                                                                                                                                                ",
"                                                                                                                                                                                                                                                                ",
"                                                                                                                                            0 y s                                                                                                               ",
"                                                                                                                                      = = $ 6 0 0 y                                                                                                             ",
"                                                                                                                                    $ $ $ $ 0 6 0 u s                                                                                                           ",
"                                                                                                                                  = ; = ; % = 6 0 s '                                                                                                           ",
"                                                                                                                                  B Y D v ; i a ` O.O. .                                                                                                        ",
"                                                                                                                                  i.u.i.T M M ` =.M.M.:.                                                                                                        ",
"                                                                                                                                  u.%.u.i.;.[ C u.S.).e.                                                                                                        ",
"                                                                                                                                  Y v S i.g.,.&.y.G.`.M.                                                                                                        ",
"                                                                                                                                  Y n S u.k.F.h.y.G.@X                                                                                                          ",
"                                                                                                                                  s.u.i.p.k.F.A.p.+X*X                                                                                                          ",
"                                                                                                                                  %.R p.p.Z.F.oX#X=X=X                                                                                                          ",
"                                                                                                                                    D u.i.g.F.oX+X$X=X*X                                                                                                        ",
"                                                                              8X                                                    D T R %.h.g.g.oX=X;X                                                                                                        ",
"                                                                              9XtX                                                  %.R Y S B n R A.I.H.I '                                                                                                     ",
"                                                                                tXyX                                                  V k r z A R %._ 0 $ w ' 7.                                                                                                ",
"                                                                                  tX                                                    O.` b R R 6.J $ $ & q ' 7.                                                                                              ",
"                                                                                    yX                                                  = & v R E <.= $ $ & = i ' 7.                                                                                            ",
"                                                                                    yXiX                                              + + - e 4 K J @ $ $ $ & = 0 ' o.'                                                                                         ",
"                                                                                      yX                                            $ + o t 1 $ L 9 @ $ $ $ $ & 6 a  . .                                                                                        ",
"                                                                                        iX                                        $ $ + $ K $ t ) $ $ $ $ $ $ & 6 u ' o.8.                                                                                      ",
"                                                                                        9X/.                                      + # + 1 J @ +.K @ $ $ $ + + $ 0 q Q  .8.                                                                                      ",
"                                                                                          ` >.a.                                $ o + + 0 t - _ 1 $ $ $ + + + + 0 6 a ' ..7.                                                                                    ",
"                                                                                          U &.@.;.l.C.                        $ + o o + 0 1 ( ) $ $ $ $ + o o o = q u Q  .o.                                                                                    ",
"                                                                                          $.$.@./ a.a.;.;.                  $ + o o o o 1 w !.] @ $ $ + + o o o $ q u Q | ..7.                                                                                  ",
"                                                                                            T $.;.$.&.U @.@.@.            $ + o o X o + $ M E.u @ + + + o o o o + = u ! '  .8.                                                                                  ",
"                                                                                            Y F @.u.a.F U $.$.$.U U S b < + + o o X o + # :.C.% @ + o o o o X X o & q a ' | ..0.                                                                                ",
"                                                                                                      V F U $.&.&.T F n c < + o X X $ $ w [.r.$ + + o o o o X X o @ 6 u ~  ...8.",
"                                                                                                          V B F U U F B n B < O o $   # +.].` @ + + o o o X X . X o % q Q | ..X.                                                                                ",
"                                                                                                            V b V B B b c l z r       - ( 0.& + + o o o o X X . X o @ 6 p ~ ....8.",
"                                                                                                                v v l k k r           2 t w $ + + o o o o o X X X . + & q W | X.o.                                                                              ",
"                                                                                                                                      w $ $ $ + + o o o o o o X . . o @ = u a 9.`.*X                                                                            ",
"                                                                                                                                      y $ $ $ + + + o o + o o X . X $ & = 8 z a.*X0X                                                                            ",
"                                                                                                                                      q.0 @ $ + + o + o o o o X X o q a   4 z &.%X2X                                                                            ",
"                                                                                                                                      ~.w + $ + + o + o + o o o X $ a     V n &.OX0X                                                                            ",
"                                                                                                                                      W.8 + $ + o o + + + + o o X i a     B Z %.OX0X                                                                            ",
"                                                                                                                                      W.& + + + o o o + + + o o $ Q a     n Z $.(.-X                                                                            ",
"                                                                                                                                      ] $ $ + + o + o + + + + o q ' a  .  Z A T (.-X                                                                            ",
"                                                                                                                                      $ $ + o + o + + + + + + + u Q a X.  n A H S.-X                                                                            ",
"                                                                                                                                      $ $ + o + o + + o o o o + 6 a a X.  n A H S.-X                                                                            ",
"                                                                                                                                      $ + o o o o o o o o + o + q q ! o. .Z A H D.-X                                                                            ",
"                                                                                                                                      % o o o o o o o o o + $ = & q | ' Q Z A T Y.                                                                              ",
"                                                                                                                                      0 o o o o o o o o o + + $ 8 W  .a ~ D A %.XX                                                                              ",
"                                                                                                                                        o o o o o o o o o o % u a W | u ] S D s.OX                                                                              ",
"                                                                                                                                        o o o o o o o o o o $ 6 q a Q q ] Z D l.#X                                                                              ",
"                                                                                                                                        + + o o o o + + + + % q u u 6 a :.G D A.                                                                                ",
"                                                                                                                                        + o o + o + + + + @ q a u & q W.).G D A.                                                                                ",
"                                                                                                                                        $ + + + + o + + + + i W 6 q 0.wXQ.;.#.V.                                                                                ",
"                                                                                                                                          $ o o o + + + $ = p ~ 0.~.^.&X5.0.` ^.                                                                                ",
"                                                                                                                                          =.P y y I } *.5.z.z.M.,X7X).;.D [ ` Q.                                                                                ",
"                                                                                                                                          b.b.b.J.K.K.K.P.n.c.}.,X7X}.D D D ;.`.                                                                                ",
"                                                                                                                                          d.j.b.K.n.K.K.z.2.e.|.,XqXB.Z G $.a.OX                                                                                ",
"                                                                                                                                          3.d.b.K.K.J.P.[.Q.!.&X5X6Xa.x c F f.(.",
"                                                                                                                                            j.b.n.J.c.B.{. X:X,X4X5Xf.z z V #.                                                                                  ",
"                                                                                                                                            x.b.J.n.n.n.N. X:X,X,X7XB.k k V                                                                                     ",
"                                                                                                                                            x.n.n.x.z.c.!.,X,X,X5X7X5X).                                                                                        ",
"                                                                                                                                            z.b.n.z.B.{.:X,X,X3X6XqXeXeX                                                                                        ",
"                                                                                                                                            j.z.x.x.).:X,X,X,X5X7XwX7XuX                                                                                        ",
"                                                                                                                                            j.d.5.c. X,X:X,X,X6XwX5X6XeX                                                                                        ",
"                                                                                                                                            5.=.*.Q.&X&X|.:X4X7XwX X3X                                                                                          ",
"                                                                                                                                            z.j.5.{.<X|.|. X,X7X7X&X5X                                                                                          ",
"                                                                                                                                            z.j.=.[.&X[.|.&X,X6XeX3X X                                                                                          ",
"                                                                                                                                            z.5.*.w.^.[..X[.}.wX5X^.                                                                                            ",
"                                                                                                                                            d.-.=.=.2.[.}.L.!.3X^.r.                                                                                            ",
"                                                                                                                                            5.3.5.5.L.!.L.L.L.~.~._.                                                                                            ",
"                                                                                                                                            d.d.3.2.v.v.e.2.:.^.:X).                                                                                            ",
"                                                                                                                                            5.3.=.=.=.2.2.} W.3X5XN.,.                                                                                          ",
"                                                                                                                                            5.3.=.3.2.2.0.e.,XwX X,.,.                                                                                          ",
"                                                                                                                                            3.3.=.2.M.!.~.[.5X7XP.C >.                                                                                          ",
"                                                                                                                                            3.3.3.2.M.).[.<X7X5X-.V #.>.                                                                                        ",
"                                                                                                                                            3.3.3.v.!.[.|.:X&Xw.z c @.>.",
"                                                                                                                                              P P =.N.Q.%XB.k > , l C -.                                                                                        ",
"                                                                                                                                              < d B f.A.OXU.> > , z V [                                                                                         ",
"                                                                                                                                              k x D a.U.OX`.3 > , z l C                                                                                         ",
"                                                                                                                                              z x A %.S.#XOXk > > 3 l [                                                                                         ",
"                                                                                                                                              z x n U A.#X@XM : > 3 V                                                                                           ",
"                                                                                                                                              z x m D l.+X#XC : > z C                                                                                           ",
"                                                                                                                                              z x x A g.oX#X  : > 3 C                                                                                           ",
"                                                                                                                                              z x x n a.T.#X  > > , C                                                                                           ",
"                                                                                                                                              z z z n a.T.    3 > , V                                                                                           ",
"                                                                                                                                              f f g x a.oX    3 , 3 M {                                                                                         ",
"                                                                                                                                              d f z n g.oX    3 , d l {                                                                                         ",
"                                                                                                                                              d f g S A.oX    % , z k ^                                                                                         ",
"                                                                                                                                              d g z U F.m.  o . O : : %                                                                                         ",
"                                                                                                                                              d f z %.S.M . o X . . . .                                                                                         ",
"                                                                                                                                              d f z &.a.; . o + o . . o 7                                                                                       ",
"                                                                                                                                              d f d B C.e X o o . . X o #                                                                                       ",
"                                                                                                                                              d d n '.).% . X o o o o $ !                                                                                       ",
"                                                                                                                                              d d U.rXw.$ q Q } :.w.w.t.W.                                                                                      ",
"                                                                                                                                              d b @X%XO.7.t.                                                                                                    ",
"                                                                                                                                            k g b ,.[                                                                                                           ",
"                                                                                                                                            : d b [ M                                                                                                           ",
"                                                                                                                                          5 ; $ < r %                                                                                                           ",
"                                                                                                                                        o o @ o X . o                                                                                                           ",
"                                                                                                                                    o . . o o o X X + +                                                                                                         ",
"                                                                                                                                  . . . . o + X X X o a                                                                                                         ",
"                                                                                                                                o . . X + = O.0 . $  .R.                                                                                                        ",
"                                                                                                                              % o o $ $ w 0.` O.` t.W.                                                                                                          ",
"                                                                                                                            % $ O $ = } 2.O.0.7.R.W.                                                                                                            ",
"                                                                                                                          y % $ % = = 0 :.0.0.r.                                                                                                                ",
"                                                                                                                          5.} y e 0 w s O.0.                                                                                                                    ",
"                                                                                                                            c.v.w.w.w.w.                                                                                                                        ",
"                                                                                                                                                                                                                                                                ",
"                                                                                                                                                                                                                                                                ",
"                                                                                                                                                                                                                                                                "
};
