/* XPM */
static char *knife_back_left[] = {
/* columns rows colors chars-per-pixel */
"128 128 226 2 ",
"   c #FF00FF",
".  c #040405",
"X  c #070709",
"o  c #0A0A0B",
"O  c #090708",
"+  c #130D0D",
"@  c #0D0C12",
"#  c #100F15",
"$  c #131215",
"%  c #16151A",
"&  c #18161B",
"*  c #1B1A1C",
"=  c #1C1617",
"-  c #231615",
";  c #221D1C",
":  c #2C1A1A",
">  c #261616",
",  c #341A15",
"<  c #341C1B",
"1  c #3A1F1B",
"2  c #391D16",
"3  c #2B211E",
"4  c #3D221B",
"5  c #1D1C23",
"6  c #181720",
"7  c #211E24",
"8  c #222125",
"9  c #2C2523",
"0  c #24232B",
"q  c #2A272B",
"w  c #2D2A2B",
"e  c #2E2A26",
"r  c #332423",
"t  c #3B2323",
"y  c #3B2B2B",
"u  c #372927",
"i  c #272631",
"p  c #2B2B34",
"a  c #2E2E39",
"s  c #282731",
"d  c #302F39",
"f  c #3A3432",
"g  c #33323C",
"h  c #373639",
"j  c #3C342D",
"k  c #44251D",
"l  c #49271E",
"z  c #442622",
"x  c #442922",
"c  c #4B2B23",
"v  c #4A2E2C",
"b  c #482926",
"n  c #532C23",
"m  c #542E29",
"M  c #593127",
"N  c #54332C",
"B  c #5C342B",
"V  c #56352B",
"C  c #473935",
"Z  c #573934",
"A  c #43392E",
"S  c #62372C",
"D  c #643B33",
"F  c #673E37",
"G  c #713F35",
"H  c #4B423C",
"J  c #54443C",
"K  c #5B453A",
"L  c #68443A",
"P  c #72443A",
"I  c #76463B",
"U  c #363541",
"Y  c #3A3A45",
"T  c #3E3E4A",
"R  c #373B43",
"E  c #403F4A",
"W  c #3F414F",
"Q  c #42424D",
"!  c #464648",
"~  c #584B45",
"^  c #5D534A",
"/  c #5E5146",
"(  c #454553",
")  c #4A4A56",
"_  c #4C4D5A",
"`  c #474856",
"'  c #504F57",
"]  c #4E505E",
"[  c #51515D",
"{  c #595656",
"}  c #684A43",
"|  c #754C44",
" . c #7D4B43",
".. c #754845",
"X. c #635447",
"o. c #63564B",
"O. c #66594D",
"+. c #6B5B4D",
"@. c #6F5241",
"#. c #7D544A",
"$. c #77564B",
"%. c #655B52",
"&. c #6B5D53",
"*. c #6B5E59",
"=. c #605750",
"-. c #735A55",
";. c #6D6156",
":. c #6D625B",
">. c #746354",
",. c #7A6957",
"<. c #73655C",
"1. c #7B655E",
"2. c #76695D",
"3. c #7D6B5B",
"4. c #7A6653",
"5. c #676248",
"6. c #555562",
"7. c #595965",
"8. c #5C5C6A",
"9. c #575967",
"0. c #61616E",
"q. c #666361",
"w. c #766A63",
"e. c #7B6D63",
"r. c #746B68",
"t. c #7C7269",
"y. c #646472",
"u. c #696976",
"i. c #6C6B7A",
"p. c #686775",
"a. c #706F7E",
"s. c #797572",
"d. c #804E3D",
"f. c #834D43",
"g. c #824E48",
"h. c #8B5446",
"j. c #84554B",
"k. c #8B5349",
"l. c #865749",
"z. c #92564A",
"x. c #875B55",
"c. c #925C55",
"v. c #95645C",
"b. c #9E665F",
"n. c #84725E",
"m. c #826B62",
"M. c #856C68",
"N. c #847362",
"B. c #8E7A65",
"V. c #83756B",
"C. c #89796C",
"Z. c #897566",
"A. c #93796B",
"S. c #847B73",
"D. c #877B77",
"F. c #937C73",
"G. c #987E7A",
"H. c #9C6D66",
"J. c #A26C67",
"K. c #A87B74",
"L. c #AD7570",
"P. c #4B8461",
"I. c #8C837B",
"U. c #968579",
"Y. c #948E77",
"T. c #B7867B",
"R. c #917C82",
"E. c #60B38B",
"W. c #898582",
"Q. c #948B82",
"!. c #988B84",
"~. c #9C958D",
"^. c #9A948C",
"/. c #9C9994",
"(. c #989693",
"). c #A48183",
"_. c #BA8E8C",
"`. c #A5978E",
"'. c #A39B92",
"]. c #A59B97",
"[. c #B89894",
"{. c #ABA59C",
"}. c #ABA59C",
"|. c #B0A89E",
" X c #ADAAA4",
".X c #B2ADA4",
"XX c #B4AFA8",
"oX c #BAB4AC",
"OX c #B8B3AA",
"+X c #BDBBB4",
"@X c #B8B8B5",
"#X c #C48D87",
"$X c #CA948E",
"%X c #CA9B97",
"&X c #D99E98",
"*X c #D4A19A",
"=X c #C9AAA8",
"-X c #D7ABA7",
";X c #C1BEB5",
":X c #D6B5B4",
">X c #DCB0AE",
",X c #E5B4AF",
"<X c #A1D7BB",
"1X c #8CCFAB",
"2X c #C5C4BC",
"3X c #CAC6BE",
"4X c #C3D4B7",
"5X c #FDD3B9",
"6X c #BFC8D2",
"7X c #BFC7D1",
"8X c #B8C1CA",
"9X c #CCCBC4",
"0X c #CECFCC",
"qX c #D2D2CA",
"wX c #D3D5C8",
"eX c #DBDBD3",
"rX c #DFDFD8",
"tX c #D0CFC6",
"yX c #EFDCCB",
"uX c #E6D9D7",
"iX c #E4CCCC",
"pX c #E3E3DB",
"aX c #E8E4DD",
"sX c #EBEBE3",
"dX c #E7E8E0",
"fX c #F3F3EA",
/* pixels */
"                                                                                                                                                                                                                                                                ",
"                                                                                                                                                                                                                                                                ",
"                                                                                                                                                                                                                                                                ",
"                                                                                                                                                                                                                                                                ",
"                                                                                                                                                                                                                                                                ",
"                                                                                                                                                                                                                                                                ",
"                                                                                                                                                                                                                                                                ",
"                                                                                                                                                                                                                                                                ",
"                                                                                                                                                                                                                                                                ",
"                                                                                                                                                                                                                                                                ",
"                                                                                                                                                                                                                                                                ",
"                                                                                                                                                                                                                                                                ",
"                                                                                                                                                                                                                                                                ",
"                                                                                                                                                                                                                                                                ",
"                                                                                                                                                                                                                                                                ",
"                                                                                                                                                                                                                                                                ",
"                                                                                                                                                                                                                                                                ",
"                                                                                                                                                                                                                                                                ",
"                                                                                                                                                                                                                                                                ",
"                                                                                                                                                                                                                                                                ",
"                                                                                                                                                                                                                                                                ",
"                                                                                                                                                                                                                                                                ",
"                                                                                                                                                                                                                                                                ",
"                                                                                                                                  0 d 8                                                                                                                         ",
"                                                                                                                              * $ $ & & 0 p                                                                                                                     ",
"                                                                                                                            & $ $ # # & 8 8 h                                                                                                                   ",
"                                                                                                                          * $ $ $ $ & 5 q d !                                                                                                                   ",
"                                                                                                                          * $ * 7 ; 8 q h ! )                                                                                                                   ",
"                                                                                                                          9 9 r e y y h ! { {                                                                                                                   ",
"                                                                                                                          C y Z N A A C ~ t.r.                                                                                                                  ",
"                                                                                                                        #.| Z f. .Z C H &.D.V.                                                                                                                  ",
"                                                                                                                          j.g.f.f.I Z Z e.`.!.                                                                                                                  ",
"                                                                                                                          j.l.h.I g.L J M.[.[.                                                                                                                  ",
"                                                                                                                          j.l.z.h.z.L L K.-X-X                                                                                                                  ",
"                                                                                                                          l.h.h.h.h.I @.Y.4XwX                                                                                                                  ",
"                                                                                                                          #.I P d.g.5.P.E.1X<X                                                                                                                  ",
"                                                                                            6X6X                          @.Z N L Z h W ( 7.0.0.                                                                                                                ",
"                                                                                              6X                            v r u q g Y Q ) [ 6.8.7.                                                                                                            ",
"                                                                                              6X6X                          q 7 5 p Y Y Q ) ) [ 6.7.7.7.                                                                                                        ",
"                                                                                                6X7X                      8 5 8 0 d p Y ) [ 6.6.6.6.6.6.7.                                                                                                      ",
"                                                                                                6X6X                    * * & & 5 g p g ) 6.6.7.8.6.6.7.7.u.                                                                                                    ",
"                                                                                                  6X6X                  & & & & & 0 Y p ( 6.8.7.0.8.8.0.8.u.                                                                                                    ",
"                                                                                                    8X7.              * & & & & 5 8 Y U Q 7.8.8.y.u.y.0.y.y.                                                                                                    ",
"                                                                                                      ~ @.#.          * & & & & 5 p U Y Y 6.0.0.y.u.y.8.y.y.a.                                                                                                  ",
"                                                                                                      } F l.#.#.      5 & $ & & * p Y g g ) 8.y.8.a.0.8.y.u.u.                                                                                                  ",
"                                                                                                      @.F #.#.P | #.  8 $ $ $ & * g ) Y a Q ) 8.6.u.y.7.y.p.u.                                                                                                  ",
"                                                                                                        P F F L F L P 9 $ $ $ & & p ) 7.U U Q ) ) u.y.[ y.y.y.                                                                                                  ",
"                                                                                                            | #.L L P u $ $ & & & p ` 8.U a Y Q Q u.y.) y.y.y.                                                                                                  ",
"                                                                                                                    I u & & $ & & 8 Y 0.d p U U Y y.y.( 0.0.0.                                                                                                  ",
"                                                                                                                      9 & & & & & 5 g 8.Y i g p Q y.8.( 8.8.8.                                                                                                  ",
"                                                                                                                        & & & & & 5 p 6.Q 0 p 5 Q 8.6.) 6.6.7.                                                                                                  ",
"                                                                                                                        & & & & & 5 g [ ) 0 0 5 ( 7.[ ) [ ) 7.                                                                                                  ",
"                                                                                                                        & & & & & & p [ 6.5 & 0 Q 6.[ ) ) Y 0.y.                                                                                                ",
"                                                                                                                        & & & & & & q ( [ & @ g Y ) 6.) Y U y.[                                                                                                 ",
"                                                                                                                        & $ & : v Z x.).R.& & Y Y ) 6.( 0 ( 0.Y                                                                                                 ",
"                                                                                                                        @ X = P z.f.v.%X=X; p U Y ) [ p 5 6.6.p                                                                                                 ",
"                                                                                                                          $ 3 f.z.f. .).=Xq g p Y ) ( & p 6.E g                                                                                                 ",
"                                                                                                                          & u f.z.f.#.`.=Xh i 0 Y ) p $ Q ) 0 Q                                                                                                 ",
"                                                                                                                          * x h.z.l.x.=X:Xh 5 d ( Q & 5 ) g 5 )                                                                                                 ",
"                                                                                                                          & v h.z.l.v.>X=Xq 0 U ( p @ g Q & g 8.                                                                                                ",
"                                                                                                                          * N h.z.k.J.>X[.7 p U ( 5 & Q 0 & ) y.                                                                                                ",
"                                                                                                                            N h.l.l.K.,XG.5 p Y g @ p a @ g 8.8.                                                                                                ",
"                                                                                                                            N f.l.c.T.,X*.5 p Y 5 & U & 5 ( 6.6.8.                                                                                              ",
"                                                                                                                            Z f.l.b.#X>XC 5 a p & d 0 & U ) 6.) [                                                                                               ",
"                                                                                                                            N  .f.J.$X%X7 5 0 & i p & s ) 6.] ` )                                                                                               ",
"                                                                                                                            N I f.J.&XA.@ # & 0 p 6 0 Y ) ` ) 6.8.                                                                                              ",
"                                                                                                                            N P  .L.*XZ O @ 0 i 0 p Y ( ) ) ) ] 8.u.                                                                                            ",
"                                                                                                                            V P I L._.* @ 7 i 7 a Y ( ) ) ` ( ` 9.u.                                                                                            ",
"                                                                                                                          * V G  .#XM.@ # 5 5 i g Y W ( ) 6.0.W.@XtX                                                                                            ",
"                                                                                                                          ; F P g.$XC @ @ # 5 p Y [ a.(. X9X;XXXpXfX                                                                                            ",
"                                                                                                                          = F I J.K.$ @ 7 h ' s./.+XtXpXeXeX;XoX+XpXfX                                                                                          ",
"                                                                                                                        & ; P c.#X} 9 ~ M.G.U.`.oX;X9XeXeX3XoX;X/.].rX                                                                                          ",
"                                                                                                                        e H F J.%X&.Z.F.F.F.F.!.}.+X;X9XqX|.+XoX+X3XqX                                                                                          ",
"                                                                                                                      N.A e.-.x._.V.F.G.F.F.F.U.'.}.oXqX3X`.;X/.3XqX                                                                                            ",
"                                                                                                                      n.J ^ ~ C D.F.Z.U.F.F.F.U.~.}.XXqX}.'.~.'.;XoX                                                                                            ",
"                                                                                                                      B.3.L V | =XA.1.m.m.e.e.V.D. X3X3XQ.~.~.XX|.oX                                                                                            ",
"                                                                                                                      U.A.L V ..%Xm.m.1.1.<.<.D.^.}.;XXXU.'.}.OXXXeX                                                                                            ",
"                                                                                                                    U.B.n.K n j.#Xm.1.1.w.<.*.t. XOX}.Q.^.'.XX}.tXdX                                                                                            ",
"                                                                                                                    A.B.B.K 2 | %X_.1.<.<.w.:.*.}.9XW.w.}.oXXX+XeXuX                                                                                            ",
"                                                                                                                    B.n.n.+.x v _.G.<.<.:.<.w.:.S.+XI.I.|.XX3XtXpXeX                                                                                            ",
"                                                                                                                    B.B.B.n.} ~ m.;.&.:.*.:.s.s.t.Q.S.'.}.;XoXeXdX+X                                                                                            ",
"                                                                                                                  N.>.>.,.3.N.m.<.<.&.&.*.:.S.^.~.Q.~.'.'.`.oXpXaX~.                                                                                            ",
"                                                                                                                  3.>.>.N.B.N.3.2.<.<.:.e.s.w.D.~.'.XXU.I.Q.3XeXdX~.                                                                                            ",
"                                                                                                                    3.N.N.B.N.N.e.e.<.&.<.V.V.e.S.XXQ.C.D.}.9XrXdX                                                                                              ",
"                                                                                                                    n.N.N.n.N.m.e.2.;.X.&.w.s.e.Q.OX2.t.D. X3XpXdX                                                                                              ",
"                                                                                                                      N.n.N.N.e.<.;.X.~ X.&.<.S.3XW.o.2.S. X3XqX+X                                                                                              ",
"                                                                                                                      >.,.3.N.3.2.;.=.^ X.&.;.}.tX%./ ;.t.~.]./.(.                                                                                              ",
"                                                                                                                      n.n.n.A.e.:.:.&.%.&.o.s.9X XA X.;.<.s.s.W./.                                                                                              ",
"                                                                                                                      B.4.3.<.^ %.:.&.o.&.o.^.+Xq.j X.&.;.w.s./.9X                                                                                              ",
"                                                                                                                      3.X./ ^ &.<.&.%.o.+.%.a.a.h A X.&.<.S./.qXpX                                                                                              ",
"                                                                                                                      ,.+.J ;.&.~ / X.X.o.^ q.q.3 A X.&.e.I.~.eXdX                                                                                              ",
"                                                                                                                      n.,.X.+.^ o.o.X.o.o.r./.{ ; A / &.V.XXoX3XpX                                                                                              ",
"                                                                                                                      n.3.+.+.>.>.>.+.+.w.oX/.h 9 C X.>.t.}.;X9XdX                                                                                              ",
"                                                                                                                      ,.n.,.>.>.>.;.&.&.^./.{ C A J +.>.e.~.XX3XaX                                                                                              ",
"                                                                                                                      Z @.4.,.3.3.>.X.%.s.{ '       A x C } -.[.iX                                                                                              ",
"                                                                                                                      M V F L Z J X.                  4 N F | _.iXuX                                                                                            ",
"                                                                                                                      V S F F N t y                   k M F P H.:XiX                                                                                            ",
"                                                                                                                      V S S D Z v y                   k n F F x.%X:X                                                                                            ",
"                                                                                                                    N V S S V N v y                   z n V S | _.>X                                                                                            ",
"                                                                                                                    m M V M m m v y                   k n V V F K.*X-X                                                                                          ",
"                                                                                                                    c n M n n c z y                   k n V V F H.$X*X                                                                                          ",
"                                                                                                                    c n n c c z t t                   k l M V F v.#X%X                                                                                          ",
"                                                                                                                    c l c c k 1 <                     k l n M F v.#X%X                                                                                          ",
"                                                                                                                    l k z k 1 < :                       k l l F v.T.%X                                                                                          ",
"                                                                                                                    l k k 4 < : -                       2 2 , N x.T.$X                                                                                          ",
"                                                                                                                    c k 4 < : -, , , k #.T.                                                                                                                     ",
"                                                                                                                    x k 4 < : -                         < 4 k c l.K.                                                                                            ",
"                                                                                                                    x k 1 < : -                           k k c @.-.                                                                                            ",
"                                                                                                                    x 4 1 < :                             k k k Z G.                                                                                            ",
"                                                                                                                    x 4 1 < :                             k k V T.yX                                                                                            ",
"                                                                                                                    k 4 < : :                             k k v.5XyX                                                                                            ",
"                                                                                                                    4 1 , > <                             k k j.T.                                                                                              ",
"                                                                                                                $ : l 4 , > v                             k l k x                                                                                               ",
"                                                                                                            X X X - V c , -                             > k c k t                                                                                               ",
"                                                                                                          X X X X O 4 c : -                       X X X + k c x t                                                                                               ",
"                                                                                                          ; e ; X X X + X O $                   $ $ X X X + 4 z u                                                                                               ",
"                                                                                                          &.;.^ $ X X X X $ q                 H $ X X X X X O + X                                                                                               ",
"                                                                                                      Z.%.;.&.%.e X X X X X X                   J = X X X X X X X                                                                                               ",
"                                                                                                        3.3.2.;.^ * X X X X X                     <.~ e X X X X 5 8                                                                                             ",
"                                                                                                            e.V.Z.N.;.H q q H                         2.A X X $ 5 @                                                                                             ",
"                                                                                                                  Z.U.U.U.t.%.                          V.j X X X X                                                                                             ",
"                                                                                                                                                          Z.h $ + q                                                                                             ",
"                                                                                                                                                            U.2.%.%.                                                                                            ",
"                                                                                                                                                              Z.e.                                                                                              ",
"                                                                                                                                                                                                                                                                ",
"                                                                                                                                                                                                                                                                ",
"                                                                                                                                                                                                                                                                ",
"                                                                                                                                                                                                                                                                "
};
