/* XPM */
static char *oms_227[] = {
/* columns rows colors chars-per-pixel */
"128 54 201 2 ",
"   c #FF00FF",
".  c #0B0B0B",
"X  c #0C0C0C",
"o  c #0D0D0D",
"O  c #0E0E0E",
"+  c #0F0F0F",
"@  c #101010",
"#  c #111111",
"$  c #121212",
"%  c #131313",
"&  c #141414",
"*  c #151515",
"=  c #161616",
"-  c #171717",
";  c #181818",
":  c #191919",
">  c #1A1A1A",
",  c #1B1B1B",
"<  c #1C1C1C",
"1  c #1D1D1D",
"2  c #1E1E1E",
"3  c #1F1F1F",
"4  c #202020",
"5  c #212121",
"6  c #222222",
"7  c #232323",
"8  c #242424",
"9  c #252525",
"0  c #262626",
"q  c #272727",
"w  c #282828",
"e  c #292929",
"r  c #2A2A2A",
"t  c #2C2C2C",
"y  c #2D2D2D",
"u  c #2E2E2E",
"i  c #2F2F2F",
"p  c #303030",
"a  c #313131",
"s  c #323232",
"d  c #343434",
"f  c #353535",
"g  c #363636",
"h  c #373737",
"j  c #383838",
"k  c #393939",
"l  c #3A3A3A",
"z  c #3B3B3B",
"x  c #3C3C3C",
"c  c #3D3D3D",
"v  c #3E3E3E",
"b  c #3F3F3F",
"n  c #404040",
"m  c #414141",
"M  c #424242",
"N  c #434343",
"B  c #444444",
"V  c #454545",
"C  c #474747",
"Z  c #484848",
"A  c #4A4A4A",
"S  c #4B4B4B",
"D  c #4C4C4C",
"F  c #4E4E4E",
"G  c #505050",
"H  c #515151",
"J  c #525252",
"K  c #535353",
"L  c #545454",
"P  c #555555",
"I  c #565656",
"U  c #575757",
"Y  c #585858",
"T  c #595959",
"R  c #5B5B5B",
"E  c #5C5C5C",
"W  c #5D5D5D",
"Q  c #5F5F5F",
"!  c #606060",
"~  c #616161",
"^  c #626262",
"/  c #636363",
"(  c #646464",
")  c #666666",
"_  c #696969",
"`  c #6B6B6B",
"'  c #6D6D6D",
"]  c #6E6E6E",
"[  c #707070",
"{  c #717171",
"}  c #737373",
"|  c #777777",
" . c #787878",
".. c #7B7B7B",
"X. c #7C7C7C",
"o. c #7D7D7D",
"O. c #7E7E7E",
"+. c #808080",
"@. c #818181",
"#. c #828282",
"$. c #838383",
"%. c #848484",
"&. c #858585",
"*. c #878787",
"=. c #898989",
"-. c #8A8A8A",
";. c #8B8B8B",
":. c #8C8C8C",
">. c #8D8D8D",
",. c #8E8E8E",
"<. c #909090",
"1. c #919191",
"2. c #939393",
"3. c #949494",
"4. c #959595",
"5. c #969696",
"6. c #999999",
"7. c #9B9B9B",
"8. c #9C9C9C",
"9. c #9D9D9D",
"0. c #9E9E9E",
"q. c #9F9F9F",
"w. c #A0A0A0",
"e. c #A2A2A2",
"r. c #A3A3A3",
"t. c #A4A4A4",
"y. c #A5A5A5",
"u. c #A7A7A7",
"i. c #A9A9A9",
"p. c #AAAAAA",
"a. c #ADADAD",
"s. c #AEAEAE",
"d. c #B0B0B0",
"f. c #B1B1B1",
"g. c #B2B2B2",
"h. c #B2B2B2",
"j. c #B7B7B7",
"k. c #B8B8B8",
"l. c #B9B9B9",
"z. c #BABABA",
"x. c #BBBBBB",
"c. c #BDBDBD",
"v. c #808080",
"b. c #C1C1C1",
"n. c #C4C4C4",
"m. c #C6C6C6",
"M. c #C9C9C9",
"N. c #CACACA",
"B. c #CBCBCB",
"V. c #CCCCCC",
"C. c #CDCDCD",
"Z. c #CECECE",
"A. c #CFCFCF",
"S. c #D0D0D0",
"D. c #D1D1D1",
"F. c #D2D2D2",
"G. c #D3D3D3",
"H. c #D4D4D4",
"J. c #D5D5D5",
"K. c #D6D6D6",
"L. c #D7D7D7",
"P. c #D8D8D8",
"I. c #D9D9D9",
"U. c #DADADA",
"Y. c #DBDBDB",
"T. c #DCDCDC",
"R. c #DDDDDD",
"E. c #DEDEDE",
"W. c #DFDFDF",
"Q. c #E0E0E0",
"!. c #E1E1E1",
"~. c #E2E2E2",
"^. c #E3E3E3",
"/. c #E4E4E4",
"(. c #E6E6E6",
"). c #E6E6E6",
"_. c #E7E7E7",
"`. c #E8E8E8",
"'. c #E9E9E9",
"]. c #EAEAEA",
"[. c #EBEBEB",
"{. c #ECECEC",
"}. c #EDEDED",
"|. c #EEEEEE",
" X c #EFEFEF",
".X c #F0F0F0",
"XX c #F1F1F1",
"oX c #F2F2F2",
"OX c #F3F3F3",
"+X c #F4F4F4",
"@X c #F5F5F5",
"#X c #F6F6F6",
"$X c #F7F7F7",
"%X c #F8F8F8",
"&X c #F9F9F9",
"*X c #FAFAFA",
"=X c #FBFBFB",
"-X c #FCFCFC",
";X c #FDFDFD",
":X c #FEFEFE",
">X c #FFFFF1",
/* pixels */
"                                                                                                                                                                                                                                                                ",
"                                                                                                                                                                                                                                                                ",
"                                                                                                                                                                                                                                                                ",
"                                                                                                                                                                                                                                                                ",
"                                                                                                                                                                                                                                                                ",
"                                                                                                                                                                                                                                                                ",
"                                                                                                                                                                                                                                                                ",
"                                                                                                                                                                                                                                                                ",
"                                                                                                                                                                                                                                                                ",
"                                                                                                                                                                                                                                                                ",
"                                                                                                                                                                                            S p 8                                                               ",
"                                                                                                                                                                                      H t - - - - - -                                                           ",
"                                                                                                                                                                                    x - - - - - - - - - 8 H                                                     ",
"                                                                                                                                                                    ( m t 1 - -   m - - - - - - - 1 H y.K.'.XXXX                                                ",
"                                                                                                                                                                  ..1 - - - - - - - O - - - - - 8 y.XX-X-X-X-X-XXX                                              ",
"                                                                                                                                                      ( t 8 - - 1 t - - - - - - - t H @.6.8 - 1 y.-X-X'.z.K.-X-X-X                                              ",
"                                                                                                                                                      x O - - - - - - O - t 8 - x K.XX-XU.t O S '.-X^.H - S '.-X-X                                              ",
"                                                                                                                                                      x - - - - - - p ..j.U.2.- @.-X-X-XU.t O [ -X-Xj.- O H XX-XXX                                              ",
"                                                                                                                              H x 8 - - - -   S p 1   p - - - - - - :.-X-X-X^.m m.-X-X-XU.t O ..-X-XU.H ( K.-X-XXX                                              ",
"                                                                                                                        :.t 1 - - - - - - - - - - 8 t - - - - O O O :.-X-X-XXXz.'.-X-X-XU.t O ] -X-X-XXXXX-X-XXX                                                ",
"                                                                                                                        @.- - - - - - - - 8 m Y y.U.y.- - 1 m ] [ x 2.-X-X-X-X-X-X'.XX-XXX  O m ^.-X-X-X-XXXXX                                                  ",
"                                                                                                                        [ - - - - - - - Y K.'.z.XX-Xj.1 ] C.'.-X-XK.i.-X-X^.XX-X-Xi.^.-XXX        -X-XXX                                                        ",
"                                                                                                                  m 1 - 1 - - - - - - O @.-X-Xz.XX-Xj...XXXXj.^.-XXXC.-X-Xy.K.-X'.( ^.-XXX                                                                      ",
"                                                                                                      Y m t -   m - - - - - - - - 1 p t @.-X-Xz.XX-XC.U.-XXXU.'.-X'.C.-X-X@.:.-X^.  ^.                                                                          ",
"                                                                                                  Y 8 - - - - - - - - O - - - - p j.^.^.U.-X-Xz.XX-X'.^.'.C.@.U.-XK.i.-X-XC.                                                                                    ",
"                                                                      m 8                 x 8 - 1 - - - - - - - - - t ( 6.j.y.m y.-X-X'.XX-X-Xz.XX-X^.U.'.'.U.XX-Xm.y.-X                                                                                        ",
"                                                              ( x 8 1 - - - - - 1 m 8 - 1 - - - - - - O - - 8 p 1 [ U.-X-X-X-Xm.U.-X'.H 2.-X-Xz.XX-XU.^.-X-X-XXX                                                                                                ",
"                                                      Y 8 p x - - - - - - - - - - 8 S [ 2.:.p - - - 8 S x 2.K.C...XX-Xz.6.XX-X'.'.-XU.8 ..-X-Xz.XX-XXX                                                                                                          ",
"                                                  ..8 - - - - - - - - - - - - p 2.K.XX-X-X-Xy.- - x C.XX^.XX-X^.K.-XXXm x '.-XK.^.-X^.t @.-XXX                                                                                                                  ",
"                                            S p 1 1 - - - - - - - O 1 H 2.@.m K.-XXXC.'.-X-Xz.- - 6.-XXXU.XX-X'.^.-XXX@.6.-X-X2.K.-XXX                                                                                                                          ",
"                                          2.- - - - - - - - - - t x S '.-Xj.j.XX'.m.:.^.-X-X:.- 1 m.-X'.Y U.-X^.K.-X-X-X-X-XXX                                                                                                                                  ",
"                                          S - - - - - - - - 8 i.^.K.H K.U.6.[ j.^.XX-X-XXXK.m - 1 6.y.( p U.-X'.6.XX-XXXXX                                                                                                                                      ",
"                                H t - - p 1 - - - - - O - - x ^.-XXXz.^.-Xz.:.XX-XXXU.U.C.m.^.        O t U.-XXX                                                                                                                                                ",
"                            ( 8 - - - - - - - - - - t m m 8 y.XX-X-X^.XX-XK.^.-X-Xm.Y C.-X-XXX                                                                                                                                                                  ",
"                          ..1 - - - - - - - - - S i.U.XXXXj.K.-X-X'.2.'.-X^.XX-X-X'.^.-X-XXX                                                                                                                                                                    ",
"                          S - - - - - - - - - ] '.XXC.XX-X'.2.'.-XK.H '.-XC.C.-X-X-X-XXX                                                                                                                                                                        ",
"                          m - - - - - - - - t U.-X'.C.XX-X'.:.'.-XK.H '.-X^.                                                                                                                                                                                    ",
"                          S - - - - - - - - S '.'.K.6.^.-X^.U.-X-XK.Y '.                                                                                                                                                                                        ",
"                          Y - - - - - - - - m K.^.U.m.XX-Xi.C.-X                                                                                                                                                                                                ",
"                                      - - - x '.-X-X-XXX                                                                                                                                                                                                        ",
"                                                                                                                                                                                                                                                                ",
"                                                                                                                                                                                                                                                                ",
"                                                                                                                                                                                                                                                                ",
"                                                                                                                                                                                                                                                                ",
"                                                                                                                                                                                                                                                                ",
"                                                                                                                                                                                                                                                                ",
"                                                                                                                                                                                                                                                                ",
"                                                                                                                                                                                                                                                                ",
"                                                                                                                                                                                                                                                                ",
"                                                                                                                                                                                                                                                                ",
"                                                                                                                                                                                                                                                                ",
"                                                                                                                                                                                                                                                                ",
"                                                                                                                                                                                                                                                                ",
"                                                                                                                                                                                                                                                                "
};
