/* XPM */
static char *oms_236[] = {
/* columns rows colors chars-per-pixel */
"128 54 192 2 ",
"   c #FF00FF",
".  c #090909",
"X  c #0C0C0C",
"o  c #0D0D0D",
"O  c #0E0E0E",
"+  c #0F0F0F",
"@  c #101010",
"#  c #111111",
"$  c #121212",
"%  c #131313",
"&  c #141414",
"*  c #151515",
"=  c #161616",
"-  c #171717",
";  c #181818",
":  c #191919",
">  c #1A1A1A",
",  c #1B1B1B",
"<  c #1C1C1C",
"1  c #1D1D1D",
"2  c #1E1E1E",
"3  c #202020",
"4  c #212121",
"5  c #232323",
"6  c #242424",
"7  c #252525",
"8  c #262626",
"9  c #272727",
"0  c #282828",
"q  c #292929",
"w  c #2A2A2A",
"e  c #2B2B2B",
"r  c #2C2C2C",
"t  c #2D2D2D",
"y  c #2E2E2E",
"u  c #2F2F2F",
"i  c #303030",
"p  c #313131",
"a  c #323232",
"s  c #333333",
"d  c #353535",
"f  c #363636",
"g  c #373737",
"h  c #383838",
"j  c #393939",
"k  c #3A3A3A",
"l  c #3B3B3B",
"z  c #3D3D3D",
"x  c #3F3F3F",
"c  c #404040",
"v  c #414141",
"b  c #424242",
"n  c #434343",
"m  c #444444",
"M  c #464646",
"N  c #484848",
"B  c #4A4A4A",
"V  c #4B4B4B",
"C  c #4C4C4C",
"Z  c #4C4C4C",
"A  c #4E4E4E",
"S  c #4F4F4F",
"D  c #505050",
"F  c #515151",
"G  c #525252",
"H  c #535353",
"J  c #555555",
"K  c #565656",
"L  c #585858",
"P  c #5A5A5A",
"I  c #5B5B5B",
"U  c #606060",
"Y  c #636363",
"T  c #646464",
"R  c #656565",
"E  c #666666",
"W  c #676767",
"Q  c #686868",
"!  c #696969",
"~  c #6A6A6A",
"^  c #6B6B6B",
"/  c #6E6E6E",
"(  c #707070",
")  c #727272",
"_  c #777777",
"`  c #787878",
"'  c #797979",
"]  c #7B7B7B",
"[  c #7C7C7C",
"{  c #7E7E7E",
"}  c #808080",
"|  c #808080",
" . c #828282",
".. c #848484",
"X. c #868686",
"o. c #888888",
"O. c #898989",
"+. c #8A8A8A",
"@. c #8B8B8B",
"#. c #8F8F8F",
"$. c #919191",
"%. c #939393",
"&. c #959595",
"*. c #969696",
"=. c #979797",
"-. c #989898",
";. c #999999",
":. c #9A9A9A",
">. c #9B9B9B",
",. c #9C9C9C",
"<. c #9D9D9D",
"1. c #9F9F9F",
"2. c #A0A0A0",
"3. c #A1A1A1",
"4. c #A3A3A3",
"5. c #A4A4A4",
"6. c #A5A5A5",
"7. c #A8A8A8",
"8. c #AAAAAA",
"9. c #ADADAD",
"0. c #AEAEAE",
"q. c #B0B0B0",
"w. c #B1B1B1",
"e. c #B2B2B2",
"r. c #B2B2B2",
"t. c #B4B4B4",
"y. c #B5B5B5",
"u. c #BABABA",
"i. c #BBBBBB",
"p. c #BCBCBC",
"a. c #BDBDBD",
"s. c #808080",
"d. c #BFBFBF",
"f. c #C3C3C3",
"g. c #C4C4C4",
"h. c #C6C6C6",
"j. c #C7C7C7",
"k. c #C8C8C8",
"l. c #C9C9C9",
"z. c #CACACA",
"x. c #CBCBCB",
"c. c #CDCDCD",
"v. c #CECECE",
"b. c #CFCFCF",
"n. c #D0D0D0",
"m. c #D1D1D1",
"M. c #D2D2D2",
"N. c #D3D3D3",
"B. c #D4D4D4",
"V. c #D5D5D5",
"C. c #D6D6D6",
"Z. c #D7D7D7",
"A. c #D8D8D8",
"S. c #D9D9D9",
"D. c #DADADA",
"F. c #DBDBDB",
"G. c #DCDCDC",
"H. c #DDDDDD",
"J. c #DEDEDE",
"K. c #DFDFDF",
"L. c #E0E0E0",
"P. c #E1E1E1",
"I. c #E2E2E2",
"U. c #E3E3E3",
"Y. c #E4E4E4",
"T. c #E6E6E6",
"R. c #E6E6E6",
"E. c #E7E7E7",
"W. c #E8E8E8",
"Q. c #E9E9E9",
"!. c #EAEAEA",
"~. c #EBEBEB",
"^. c #ECECEC",
"/. c #EDEDED",
"(. c #EEEEEE",
"). c #EFEFEF",
"_. c #F0F0F0",
"`. c #F1F1F1",
"'. c #F2F2F2",
"]. c #F3F3F3",
"[. c #F4F4F4",
"{. c #F5F5F5",
"}. c #F6F6F6",
"|. c #F7F7F7",
" X c #F8F8F8",
".X c #F9F9F9",
"XX c #FAFAFA",
"oX c #FBFBFB",
"OX c #FCFCFC",
"+X c #FDFDFD",
"@X c #FEFEFE",
"#X c #FFFFF1",
/* pixels */
"                                                                                                                                                                                                                                                                ",
"                                                                                                                                                                                                                                                                ",
"                                                                                                                                                                                                                                                                ",
"                                                                                                                                                                                                                                                                ",
"                                                                                                                                                                                                                                                                ",
"                                                                                                                                                                                                                                                                ",
"                                                                                                                                                                                                                                                                ",
"                                                                                                                                                                                                                                                                ",
"                                                                                                                                                                                                                                                                ",
"                                                                                                                                                                                                                                                                ",
"                                                                                                                                                                            b 0 2 $                                                                             ",
"                                                                                                                                                                        b 2 $ $ $ $ $ $ $ +                                                                     ",
"                                                                                                                                                                      b $ $ $ $ $ $ $ $ 2 F ,.F.{.                                                              ",
"                                                                                                                                                          S 0 2 $ $ i $ $ $ $ $ $ $ $ 0 7.{..X.X.X{.                                                            ",
"                                                                                                                                                        b $ $ $ $ $ $ $ $ $ 6 b 0 $ 2 7..X.X/.{..X.X                                                            ",
"                                                                                                                                              S 0 2 $ 2 2 $ $ $ $ $ $ $ 6 O.c./.F + L {..X2.i O..X.X                                                            ",
"                                                                                                                                              2 $ $ $ $ $ $ $ $ 6 F E $ / .X.X.XF + O..XR.i + / .X.X                                                            ",
"                                                                                                                                              2 $ $ $ $ $ $ $ E M.{.R.i 2..X.X{.F $ 2..XR.b 0 a..X{.                                                            ",
"                                                                                                                            b 6 $ $         E 2 $ $ $ $ $ $ $ ,..X.X.XO.M..X.X{.F + 2..X.XF.F..X.X{.                                                            ",
"                                                                                                                      b 6 2 $ $ $ $ $ $ $ + $ 0 S 2 $ $ $ $ $ ,..X.X.X/.{.{..X.XF + } .X.X.X.X.X{.                                                              ",
"                                                                                                                    | $ $ $ $ $ $ $ $ $ 0 L O.F.M.6 $ S %.r.} ,..X.X.X.X.Xc.{..X,.  b R.{.{.{.                                                                  ",
"                                                                                                                    } 2 $ $ $ $ $ $ $ b F.{.F..XM.i ,./..X.X/.c..X/.R..X/.%.{..X                                                                                ",
"                                                                                                                S 6 i $ $ $ $ $ $ $ + F {.{.M..XM.%..XF.h..X{.M..XF.%..Xc.( {.{.                                                                                ",
"                                                                                                              F $ $ $ $ $ $ $ $ $ 6 z E {.{.M..XR.F..X/.F..X/.c..XR.L /.R.                                                                                      ",
"                                                                                                    S 0 2 $ 2 $ $ $ $ $ $ $ $ + b c./.F.{.{.M..X/.R.R.2.2..XM.r..X{.                                                                                            ",
"                                                                                                S 0 $ $ $ $ $ $ $ $ $ 0 E 2.2.S r..X{.R..X{.M..X/.R.{.{.{..X                                                                                                    ",
"                                                                        E i $             b 2 $ $ $ $ $ $ $ $ $ 6 2 F M..X.X.Xc.F..X,.E .X{.M..XR.c..X{.{.                                                                                                      ",
"                                                                    F 0 2 $ $ $ $ $ $ $ $ $ 6 S b 2 $ $ $ 6 0 O.h.} F..Xr.F..X/./..X} F {.{.M.{.{.                                                                                                              ",
"                                                              z i i $ $ $ $ $ $ $ $ $ $ S ,.M.{./.E $ $ } F.c.{..Xc..XR.0 2..XF.R..XO.F {.{.                                                                                                                    ",
"                                                          / 2 $ $ $ $ $ $ $ $ $ 6 z 6 O./..X{..X.X%.+ b /..X{..X.X{..XR./ M..X7.M..X                                                                                                                            ",
"                                                    / z 2 2 $ $ $ $ $ $ $ + $ S c.M.O.{..X7.r..X.X| + / .X/.O.{.{.F..X.X{..X{.                                                                                                                                  ",
"                                                    z + $ $ $ $ $ $ $ $ 0 / } } {.c.2.c.F.M./..XF.z + ( F.%.L /.{.7./.{.{.                                                                                                                                      ",
"                                                  ,.6 $ $ $ $ $ $ $ $ $ ,..Xc.| F.c.E c.{..X{.F.,.E $ 0 0 $ S {.{.                                                                                                                                              ",
"                                            b $ 0 i $ $ $ $ $ $ $ + + 6 a..X{./..XR.a..X.Xr.,.R.{..X                                                                                                                                                            ",
"                                        L 6 $ $ $ $ $ $ $ $ $ 2 S } ( / {..X{.R..X/.F..X.Xr.M..X.X                                                                                                                                                              ",
"                                      ( $ $ $ $ $ $ $ $ $ $ b a.{..X.Xh./..Xh.O..X/.F..X.X.X.X{.                                                                                                                                                                ",
"                                      z $ $ $ $ $ $ $ $ $ 0 c.{.a./..Xr.r..Xa.} .X/.r.{.{.{.                                                                                                                                                                    ",
"                                      0 $ $ $ $ $ $ $ $ + / .X{.F.{..Xc.F..Xa.} .X{.                                                                                                                                                                            ",
"                                      z $ $ $ $ $ $ $ $ $ | /.c.O.R.{.a.{..XM.                                                                                                                                                                                  ",
"                                      z $ $ $ $ $ $ $ $ $ ( /./.R.{./.                                                                                                                                                                                          ",
"                                                $ $ $ $ + / {..X.X{.                                                                                                                                                                                            ",
"                                                                                                                                                                                                                                                                ",
"                                                                                                                                                                                                                                                                ",
"                                                                                                                                                                                                                                                                ",
"                                                                                                                                                                                                                                                                ",
"                                                                                                                                                                                                                                                                ",
"                                                                                                                                                                                                                                                                ",
"                                                                                                                                                                                                                                                                ",
"                                                                                                                                                                                                                                                                ",
"                                                                                                                                                                                                                                                                ",
"                                                                                                                                                                                                                                                                ",
"                                                                                                                                                                                                                                                                ",
"                                                                                                                                                                                                                                                                ",
"                                                                                                                                                                                                                                                                "
};
