/* XPM */
static char *oms_142[] = {
/* columns rows colors chars-per-pixel */
"128 54 201 2 ",
"   c #FF00FF",
".  c #0B0B0B",
"X  c #0D0D0D",
"o  c #0E0E0E",
"O  c #0F0F0F",
"+  c #101010",
"@  c #111111",
"#  c #121212",
"$  c #131313",
"%  c #141414",
"&  c #151515",
"*  c #161616",
"=  c #171717",
"-  c #181818",
";  c #1A1A1A",
":  c #1B1B1B",
">  c #1C1C1C",
",  c #1D1D1D",
"<  c #1E1E1E",
"1  c #1F1F1F",
"2  c #202020",
"3  c #212121",
"4  c #222222",
"5  c #232323",
"6  c #242424",
"7  c #252525",
"8  c #262626",
"9  c #272727",
"0  c #282828",
"q  c #292929",
"w  c #2A2A2A",
"e  c #2B2B2B",
"r  c #2C2C2C",
"t  c #2D2D2D",
"y  c #2E2E2E",
"u  c #2F2F2F",
"i  c #303030",
"p  c #313131",
"a  c #333333",
"s  c #343434",
"d  c #353535",
"f  c #363636",
"g  c #373737",
"h  c #383838",
"j  c #393939",
"k  c #3A3A3A",
"l  c #3C3C3C",
"z  c #3D3D3D",
"x  c #3E3E3E",
"c  c #3F3F3F",
"v  c #404040",
"b  c #414141",
"n  c #434343",
"m  c #444444",
"M  c #454545",
"N  c #464646",
"B  c #474747",
"V  c #484848",
"C  c #494949",
"Z  c #4B4B4B",
"A  c #4C4C4C",
"S  c #4C4C4C",
"D  c #4E4E4E",
"F  c #4F4F4F",
"G  c #505050",
"H  c #515151",
"J  c #525252",
"K  c #535353",
"L  c #545454",
"P  c #555555",
"I  c #575757",
"U  c #595959",
"Y  c #5B5B5B",
"T  c #5C5C5C",
"R  c #5D5D5D",
"E  c #5E5E5E",
"W  c #5F5F5F",
"Q  c #626262",
"!  c #636363",
"~  c #646464",
"^  c #656565",
"/  c #666666",
"(  c #686868",
")  c #6A6A6A",
"_  c #6B6B6B",
"`  c #6C6C6C",
"'  c #6E6E6E",
"]  c #707070",
"[  c #747474",
"{  c #757575",
"}  c #767676",
"|  c #777777",
" . c #787878",
".. c #797979",
"X. c #7B7B7B",
"o. c #7D7D7D",
"O. c #808080",
"+. c #808080",
"@. c #838383",
"#. c #858585",
"$. c #868686",
"%. c #888888",
"&. c #8D8D8D",
"*. c #8E8E8E",
"=. c #8F8F8F",
"-. c #909090",
";. c #919191",
":. c #929292",
">. c #939393",
",. c #949494",
"<. c #969696",
"1. c #989898",
"2. c #9A9A9A",
"3. c #9B9B9B",
"4. c #9C9C9C",
"5. c #9D9D9D",
"6. c #9E9E9E",
"7. c #9F9F9F",
"8. c #A0A0A0",
"9. c #A1A1A1",
"0. c #A2A2A2",
"q. c #A5A5A5",
"w. c #A7A7A7",
"e. c #A8A8A8",
"r. c #A9A9A9",
"t. c #AAAAAA",
"y. c #ACACAC",
"u. c #AEAEAE",
"i. c #B0B0B0",
"p. c #B1B1B1",
"a. c #B2B2B2",
"s. c #B4B4B4",
"d. c #B6B6B6",
"f. c #B7B7B7",
"g. c #BABABA",
"h. c #BBBBBB",
"j. c #BCBCBC",
"k. c #BDBDBD",
"l. c #808080",
"z. c #BFBFBF",
"x. c #C0C0C0",
"c. c #C1C1C1",
"v. c #C2C2C2",
"b. c #C3C3C3",
"n. c #C4C4C4",
"m. c #C5C5C5",
"M. c #C6C6C6",
"N. c #C7C7C7",
"B. c #C8C8C8",
"V. c #C9C9C9",
"C. c #CACACA",
"Z. c #CBCBCB",
"A. c #CDCDCD",
"S. c #CECECE",
"D. c #CFCFCF",
"F. c #D0D0D0",
"G. c #D1D1D1",
"H. c #D2D2D2",
"J. c #D3D3D3",
"K. c #D4D4D4",
"L. c #D5D5D5",
"P. c #D6D6D6",
"I. c #D7D7D7",
"U. c #D8D8D8",
"Y. c #D9D9D9",
"T. c #DADADA",
"R. c #DCDCDC",
"E. c #DDDDDD",
"W. c #DEDEDE",
"Q. c #DFDFDF",
"!. c #E0E0E0",
"~. c #E1E1E1",
"^. c #E2E2E2",
"/. c #E4E4E4",
"(. c #E6E6E6",
"). c #E6E6E6",
"_. c #E7E7E7",
"`. c #E8E8E8",
"'. c #E9E9E9",
"]. c #EAEAEA",
"[. c #EBEBEB",
"{. c #ECECEC",
"}. c #EDEDED",
"|. c #EEEEEE",
" X c #EFEFEF",
".X c #F0F0F0",
"XX c #F1F1F1",
"oX c #F2F2F2",
"OX c #F3F3F3",
"+X c #F4F4F4",
"@X c #F5F5F5",
"#X c #F6F6F6",
"$X c #F7F7F7",
"%X c #F8F8F8",
"&X c #F9F9F9",
"*X c #FAFAFA",
"=X c #FBFBFB",
"-X c #FCFCFC",
";X c #FDFDFD",
":X c #FEFEFE",
">X c #FFFFF1",
/* pixels */
"                                                                                                                                                                                                                                                                ",
"                                                                                                                                                                                                                                                                ",
"                                                                                                                                                                                                                                                                ",
"                                                                                                                                                                                                                                                                ",
"                                                                                                                                                                                                                                                                ",
"                                                                                                                                                                                                                                                                ",
"                                                                                                                                                                                                                                                                ",
"                                                                                                                                                                                                                                                                ",
"                                                                                                                                                                                                                                                                ",
"                                                                                                                                                                                                                                                                ",
"                                                                                                                                                                                                                                                                ",
"                                                                                                                                                                                                                                                                ",
"                                                          P                                                                                                                                                                                                     ",
"                                                    @ @ @ @ - r V 6 @ @ @ - r 6 6 h W                                                                                                                                                                           ",
"                                                @ O @ @ @ - - O @ @ O @ @ @ @ @ @ @ 6     r h P                                                                                                                                                                 ",
"                                             XB.t.] r @ @ #.x.*.h P _ h - @ @ @ @ @ @ @ @ @ @ @ - r V                                                                                                                                                           ",
"                                          %X%XoX XoXQ.W b B.%X%Xo.>.%X X] 6 V V i 6 @ @ @ @ @ @ @ @ @ r >.                                                                                                                                                      ",
"                                          oXoX Xd.).%X).t.%X%X%Xx.3.Q.).*.d.oXoX XB.3.W - @ @ @ @ @ @ @ P                                                                                                                                                       ",
"                                          ).Q.H.x. X%X%Xx.Q.%X%XoXQ. X).>.l. XoXoXoX%XoXl.i @ @ @ @ @ @ b                                                                                                                                                       ",
"                                          oX%X).>.H.%X%X>.w.%X%XB.x.%X%X*._ x.Q.l.o.Q.%X%Xt.@ @ @ @ @ @ V       @ r Q                                                                                                                                           ",
"                                            oX%X%X%X%XoXl. X%X%X#.>.%X%Xl. X%X%XoX).oX%X%XH.6 @ @ @ 6 6 - @ @ @ @ @ @ - 6 i Q                                                                                                                                   ",
"                                                  oX%X  Q.%X%X%Xo.>.%X%XH.oX%X%XoX%X%X%X%Xx.- @ 6 #.>.b @ @ @ @ @ @ @ @ @ @ r i @ 6 i V                                                                                                                         ",
"                                                            oXoX  B.%X%Xl. X%X%Xl._ x.H.d.b @ @ ] %X%XQ.w.d.#.h O @ @ @ @ @ @ @ @ @ @ @ - h >.      @ @ @ @ 6 i h W                                                                                             ",
"                                                                    oX%X3.B.%X%X Xl.). XB.*.6 @ >.%X%XoXoX%X%X3.P t.w.#.P 6 @ @ @ @ @ @ r b h - O @ @ @ @ @ @ @ @ @ 6 t.                                                                                        ",
"                                                                              oX%X%X%X%X%XH.6 @ 3.%X%Xt.l.%X%Xx.).%X%X%X%XH.Q @ @ 6 - O P  XQ.>._ P r @ @ @ @ @ @ @ - w.                                                                                        ",
"                                                                                    oXoXoX               X%X%X XoX%X X3.B.%X XW o.H.x.Q W oX%XH.Q.oXQ.b @ @ @ @ @ @ - 3.              @ r b W                                                                   ",
"                                                                                                          %X%XQ.oX%XQ.6 W %X%XB.Q.%X%XoXx.oX%XH.H.%XoXP O @ @ @ @ @ @ i @ @ - 6 @ @ @ @ @ @ @ i d.                                                              ",
"                                                                                                          %X%Xt.x.%XoXo.*.%X%XoXoX%X%XQ. X%X%XH.H.%XoXV 6 h r - @ @ @ #.t.o.V - @ @ @ @ @ @ @ @ i @ @ - r h W                                                   ",
"                                                                                                                  %X%X%X%X%X%XH.).%XoXV o.%X%XH.H.%XoX#.B. X).x.*.i @ w.%X%XoX*.@ - V i - @ @ @ @ @ @ @ @ @ 6                                                   ",
"                                                                                                                      oXoX%XoXw. X%X Xh P oX%XH.H.%XoXB.%X%X).Q.%XQ.P 3.%X%X%XQ.6 b  X).x.>.h @ @ @ @ @ @ @ 6         @ - 6 i V                                 ",
"                                                                                                                                  %X Xb Q oX%XH.H.%XoXB. XoX).B.oX%XB.d.%X%X%X%X_ 3.%X%X%X%X] @ @ @ @ r r - @ - @ @ @ @ @ @ @ @ - h >.                          ",
"                                                                                                                                          oX%XH.Q.%XoXx. X).d.t.oX%X XH.%X%X%X%XH. X%X%X%X%X] @ @ i t.).Q.B.3.W 6 @ @ @ @ @ @ @ @ @ r 3.                        ",
"                                                                                                                                                  %X X>.oX%XQ.d.oX%X XH.%X%X).oX%X%X%X%X%X%X] @ @ w.%X%X%X%X%XoXx.P @ @ @ @ @ @ @ @ @ b                         ",
"                                                                                                                                                          oX%X%X%X%XB.d.%X%Xt.H.%X%X X X%X%X] O 6 H.%X%X XH.).%X%X).V @ @ @ @ @ @ @ @ 6 t.                      ",
"                                                                                                                                                                      ).%X%X>.*.%X%Xt.B.%X%X] O 6 H.%X%X*.- h l.%X%Xd.- @ @ @ @ @ @ @ - 3.                      ",
"                                                                                                                                                                            3.  %X XP x.%X%X] O - x.%X%X#.O O W %X%XQ.r @ @ @ @ @ @ @ - 3.                      ",
"                                                                                                                                                                                       X%X%X] O @ w.%X%X).Q i *.%X%X Xh @ @ @ @ @ @ @ r                         ",
"                                                                                                                                                                                                    oX%X%XoX XoX%X%XQ.r @ @ @ @ @ @ - W                         ",
"                                                                                                                                                                                                      oX%X%X%X%X%X%Xw.- @ @ @ @                                 ",
"                                                                                                                                                                                                            oXoXoX X                                            ",
"                                                                                                                                                                                                                                                                ",
"                                                                                                                                                                                                                                                                ",
"                                                                                                                                                                                                                                                                ",
"                                                                                                                                                                                                                                                                ",
"                                                                                                                                                                                                                                                                ",
"                                                                                                                                                                                                                                                                ",
"                                                                                                                                                                                                                                                                ",
"                                                                                                                                                                                                                                                                ",
"                                                                                                                                                                                                                                                                ",
"                                                                                                                                                                                                                                                                ",
"                                                                                                                                                                                                                                                                ",
"                                                                                                                                                                                                                                                                ",
"                                                                                                                                                                                                                                                                ",
"                                                                                                                                                                                                                                                                "
};
