/* XPM */
static char *oms_151[] = {
/* columns rows colors chars-per-pixel */
"128 54 206 2 ",
"   c #FF00FF",
".  c #0A0A0A",
"X  c #0B0B0B",
"o  c #0D0D0D",
"O  c #0E0E0E",
"+  c #0F0F0F",
"@  c #101010",
"#  c #111111",
"$  c #121212",
"%  c #131313",
"&  c #141414",
"*  c #151515",
"=  c #161616",
"-  c #171717",
";  c #181818",
":  c #191919",
">  c #1A1A1A",
",  c #1B1B1B",
"<  c #1C1C1C",
"1  c #1D1D1D",
"2  c #1E1E1E",
"3  c #1F1F1F",
"4  c #202020",
"5  c #212121",
"6  c #222222",
"7  c #232323",
"8  c #242424",
"9  c #252525",
"0  c #272727",
"q  c #282828",
"w  c #292929",
"e  c #2A2A2A",
"r  c #2B2B2B",
"t  c #2C2C2C",
"y  c #2D2D2D",
"u  c #2E2E2E",
"i  c #2F2F2F",
"p  c #303030",
"a  c #313131",
"s  c #323232",
"d  c #333333",
"f  c #343434",
"g  c #363636",
"h  c #373737",
"j  c #383838",
"k  c #393939",
"l  c #3B3B3B",
"z  c #3C3C3C",
"x  c #3D3D3D",
"c  c #3E3E3E",
"v  c #3F3F3F",
"b  c #404040",
"n  c #414141",
"m  c #424242",
"M  c #434343",
"N  c #444444",
"B  c #454545",
"V  c #474747",
"C  c #494949",
"Z  c #4A4A4A",
"A  c #4B4B4B",
"S  c #4C4C4C",
"D  c #4C4C4C",
"F  c #4E4E4E",
"G  c #4F4F4F",
"H  c #505050",
"J  c #525252",
"K  c #535353",
"L  c #545454",
"P  c #565656",
"I  c #575757",
"U  c #585858",
"Y  c #595959",
"T  c #5A5A5A",
"R  c #5B5B5B",
"E  c #5C5C5C",
"W  c #5F5F5F",
"Q  c #606060",
"!  c #616161",
"~  c #626262",
"^  c #636363",
"/  c #656565",
"(  c #666666",
")  c #676767",
"_  c #686868",
"`  c #696969",
"'  c #6A6A6A",
"]  c #6B6B6B",
"[  c #6C6C6C",
"{  c #6E6E6E",
"}  c #6F6F6F",
"|  c #707070",
" . c #717171",
".. c #727272",
"X. c #737373",
"o. c #747474",
"O. c #757575",
"+. c #767676",
"@. c #777777",
"#. c #787878",
"$. c #7B7B7B",
"%. c #7C7C7C",
"&. c #7D7D7D",
"*. c #808080",
"=. c #808080",
"-. c #828282",
";. c #838383",
":. c #858585",
">. c #878787",
",. c #888888",
"<. c #898989",
"1. c #8D8D8D",
"2. c #8E8E8E",
"3. c #919191",
"4. c #959595",
"5. c #969696",
"6. c #979797",
"7. c #989898",
"8. c #999999",
"9. c #9A9A9A",
"0. c #9B9B9B",
"q. c #9C9C9C",
"w. c #9D9D9D",
"e. c #9F9F9F",
"r. c #A1A1A1",
"t. c #A3A3A3",
"y. c #A4A4A4",
"u. c #A5A5A5",
"i. c #A7A7A7",
"p. c #A8A8A8",
"a. c #A9A9A9",
"s. c #AAAAAA",
"d. c #ABABAB",
"f. c #AFAFAF",
"g. c #B0B0B0",
"h. c #B1B1B1",
"j. c #B5B5B5",
"k. c #B6B6B6",
"l. c #B8B8B8",
"z. c #BABABA",
"x. c #BCBCBC",
"c. c #BFBFBF",
"v. c #C0C0C0",
"b. c #C1C1C1",
"n. c #C2C2C2",
"m. c #C3C3C3",
"M. c #C4C4C4",
"N. c #C5C5C5",
"B. c #C6C6C6",
"V. c #C7C7C7",
"C. c #C8C8C8",
"Z. c #C9C9C9",
"A. c #CACACA",
"S. c #CBCBCB",
"D. c #CCCCCC",
"F. c #CDCDCD",
"G. c #CECECE",
"H. c #CFCFCF",
"J. c #D0D0D0",
"K. c #D1D1D1",
"L. c #D2D2D2",
"P. c #D3D3D3",
"I. c #D4D4D4",
"U. c #D5D5D5",
"Y. c #D6D6D6",
"T. c #D7D7D7",
"R. c #D8D8D8",
"E. c #D9D9D9",
"W. c #DADADA",
"Q. c #DBDBDB",
"!. c #DCDCDC",
"~. c #DDDDDD",
"^. c #DEDEDE",
"/. c #DFDFDF",
"(. c #E0E0E0",
"). c #E1E1E1",
"_. c #E2E2E2",
"`. c #E3E3E3",
"'. c #E4E4E4",
"]. c #E6E6E6",
"[. c #E6E6E6",
"{. c #E7E7E7",
"}. c #E8E8E8",
"|. c #E9E9E9",
" X c #EAEAEA",
".X c #EBEBEB",
"XX c #ECECEC",
"oX c #EDEDED",
"OX c #EEEEEE",
"+X c #EFEFEF",
"@X c #F0F0F0",
"#X c #F1F1F1",
"$X c #F2F2F2",
"%X c #F3F3F3",
"&X c #F4F4F4",
"*X c #F5F5F5",
"=X c #F6F6F6",
"-X c #F7F7F7",
";X c #F8F8F8",
":X c #F9F9F9",
">X c #FAFAFA",
",X c #FBFBFB",
"<X c #FCFCFC",
"1X c #FDFDFD",
"2X c #FEFEFE",
"3X c #FFFFF1",
/* pixels */
"                                                                                                                                                                                                                                                                ",
"                                                                                                                                                                                                                                                                ",
"                                                                                                                                                                                                                                                                ",
"                                                                                                                                                                                                                                                                ",
"                                                                                                                                                                                                                                                                ",
"                                                                                                                                                                                                                                                                ",
"                                                                                                                                                                                                                                                                ",
"                                                                                                                                                                                                                                                                ",
"                                                                                                                                                                                                                                                                ",
"                                                                                                                                                                                                                                                                ",
"                                                                                                                                                                                                                                                                ",
"                                                                                                                                                                                                                                                                ",
"                                                                                                                                                                                                                                                                ",
"                                            k R           3 f Z /     R                                                                                                                                                                                         ",
"                                        # # # # 3 8 Z   # # # # 3 8 # # 3 f                                                                                                                                                                                     ",
"                                    + # # # # # # # # # # # + + # # # # # 3 f # # # 3 8 i k /                                                                                                                                                                   ",
"                                  i.<. .Z 8 # # 8 i.i.#.k m #.I f # # + + + # # # # # # # # # f <.                                                                                                                                                              ",
"                                -X>X>X-X-XU.#.3 R ).>X>X:.{ >X>X/.f m  . .R m i 3 # # # # # # # k                                                                                                                                                               ",
"                              -X>X>XOXd.U.>X>X8.U.>X>X>Xb.6.U./.U. .).>X>X-X-X/.h. .i # # # # # i                                                                                                                                                               ",
"                                /.).).U.OX>X>XOXC.-X>X>X>X-X-XOXU. .z.).OXOXU.OX>X>XC.k # # # # i         3 i /                                                                                                                                                 ",
"                                -X-XU. .z.>X>X).R /.>X>XC.C.>X>XOXR 8.U.).C.:.b.>X>X>X6.# # # i       # # # # # 3 3 8 f 6.                                                                                                                                      ",
"                                -X>X>X-X-X>X>X).b.-X>X>X:.{ >X>XOXC.>X>X>X>X>X>X>X>X>Xd.# # # Z  .i # # + + # # # # # # m # # 3 8 i k {               # 8 f m R                                                                                                 ",
"                                      -X-X>X-X  -X>X>X>X:. .>X>XOX).>X>X>XOX/.OX-X-XOX{ # # k U.OXU.{  ./ m 8 # # # + + # # # # # # # # m     # 3 # # # # # # # # 3 f                                                                                           ",
"                                                  -X-X-X    >X>XOXd.-X>X>XC.I 6./.h. .i # + #.>X>X>X-X-X>X-X#.f  .:. .I f # # # # # # # # { { k 8 # # + # # # # # # 3 8.                                                                                        ",
"                                                              -XOX  OX>X>X-X).OX>X-XOXd.# + d.>X>XOXd.-X>X>Xi.b.>X>X>X>X).d.Z # # i i # # i.>XOXh.8.8. .k # # # # # 3                   # 8 f m I                                                               ",
"                                                                        -X-X>X>X>X>X>Xh.          /.  -X>X>XC.-X>X>XC.h.-X>X).I  ././.d.Z i.>X>XU./.>X>Xi.# # # # # 3 m # 3 3 8 f 3 # # # # # # # Z       k I                                                   ",
"                                                                                                      -X>X>XC.-X>X>X/ # z.>X>XC./.>X>X>X)./.>X>XC./.>X>Xi.+ # # # + # # # f  .I k 8 # # # # # # # 3 8 # # # # 3 8 /                                             ",
"                                                                                                      -X>X>Xi.C.>X>Xd.m C.>X>X-X-X>X>X).z.-X>X>XC./.>X>Xi.f :.6.:./ k 3 + Z -X-XOXU./ # # i f 3 # # # # # # # # # I           8 f m I                           ",
"                                                                                                          >Xi.  >X>X>XOX>X>X>XU.).>X>X8.3 z.>X>XU./.>X>Xz.C.>X>X>X-XOXh.k Z -X>X>X>XC.3 8 b.).C.d.:.i # # # # # + Z     # # # # # # # 3 i R                     ",
"                                                                                                                    -X-X>X>X-X  -X>X>X6.# i.>X>XU./.>X>X).-X>X>Xb.h.-X>XU. .OX>X>X>X-XR { >X>X>X>X-XZ + # # 3 k Z I f 3 # # # # # # # # # # f 8.                ",
"                                                                                                                                  -X>X8.+ U.>X>XC.U.>X>X)././.).U./.-X>X>Xz.OX>X>X>X>Xb.U.>X>X>X>X-XZ + # i d.).-XOX).b.8.Z 3 # # # # # # # # m                 ",
"                                                                                                                                            -X>XU./.>X>Xb./.-XOXi.<.OX>X>Xb.OX>X-X).>X>X>X>X>X>X>X-XZ # # <.>X>X>X>X>X>X>X-Xi.i # # # # # # # 3 6.              ",
"                                                                                                                                                            >X>X-X-X>X>X-Xd.OX>X-X8.).>X>X-X).>X>X-XZ # # b.>X>X-Xb.i.C.-X>X>Xd.3 # # # # # # #  .              ",
"                                                                                                                                                                -X-X>X-X).  -X>X>X{ i.>X>X/.8.>X>X-XZ + # b.>X>X).i # 8 i.>X>X-XZ # # # # # # # #.              ",
"                                                                                                                                                                              -X-X . .>X>X:.#.>X>X-XZ # # i.>X>XOXm + + R >X>X>X .# # # # # # 8                 ",
"                                                                                                                                                                                              >X>XOXZ + + :.>X>X>XU.#./ b.>X>X>X .# # # # # # m                 ",
"                                                                                                                                                                                                              >X>X>X>X>X>X>X>X-XI # # # #                       ",
"                                                                                                                                                                                                                -X-X>X>X>X>X>Xb.8                               ",
"                                                                                                                                                                                                                                                                ",
"                                                                                                                                                                                                                                                                ",
"                                                                                                                                                                                                                                                                ",
"                                                                                                                                                                                                                                                                ",
"                                                                                                                                                                                                                                                                ",
"                                                                                                                                                                                                                                                                ",
"                                                                                                                                                                                                                                                                ",
"                                                                                                                                                                                                                                                                ",
"                                                                                                                                                                                                                                                                ",
"                                                                                                                                                                                                                                                                ",
"                                                                                                                                                                                                                                                                ",
"                                                                                                                                                                                                                                                                ",
"                                                                                                                                                                                                                                                                ",
"                                                                                                                                                                                                                                                                ",
"                                                                                                                                                                                                                                                                ",
"                                                                                                                                                                                                                                                                "
};
