/* XPM */
static char *oms_309[] = {
/* columns rows colors chars-per-pixel */
"128 54 191 2 ",
"   c #FF00FF",
".  c #0A0A0A",
"X  c #0C0C0C",
"o  c #0E0E0E",
"O  c #0F0F0F",
"+  c #101010",
"@  c #111111",
"#  c #121212",
"$  c #131313",
"%  c #141414",
"&  c #151515",
"*  c #161616",
"=  c #171717",
"-  c #181818",
";  c #191919",
":  c #1A1A1A",
">  c #1B1B1B",
",  c #1C1C1C",
"<  c #1D1D1D",
"1  c #1E1E1E",
"2  c #1F1F1F",
"3  c #202020",
"4  c #212121",
"5  c #222222",
"6  c #232323",
"7  c #242424",
"8  c #252525",
"9  c #262626",
"0  c #272727",
"q  c #2A2A2A",
"w  c #2C2C2C",
"e  c #2D2D2D",
"r  c #303030",
"t  c #313131",
"y  c #323232",
"u  c #333333",
"i  c #343434",
"p  c #353535",
"a  c #363636",
"s  c #373737",
"d  c #383838",
"f  c #393939",
"g  c #3A3A3A",
"h  c #3C3C3C",
"j  c #3D3D3D",
"k  c #3F3F3F",
"l  c #404040",
"z  c #414141",
"x  c #424242",
"c  c #454545",
"v  c #464646",
"b  c #484848",
"n  c #494949",
"m  c #4A4A4A",
"M  c #4B4B4B",
"N  c #4C4C4C",
"B  c #4C4C4C",
"V  c #4E4E4E",
"C  c #4F4F4F",
"Z  c #505050",
"A  c #515151",
"S  c #535353",
"D  c #545454",
"F  c #595959",
"G  c #5A5A5A",
"H  c #5C5C5C",
"J  c #5D5D5D",
"K  c #5F5F5F",
"L  c #606060",
"P  c #626262",
"I  c #656565",
"U  c #666666",
"Y  c #676767",
"T  c #6D6D6D",
"R  c #6E6E6E",
"E  c #727272",
"W  c #737373",
"Q  c #757575",
"!  c #767676",
"~  c #777777",
"^  c #787878",
"/  c #797979",
"(  c #7B7B7B",
")  c #808080",
"_  c #818181",
"`  c #828282",
"'  c #838383",
"]  c #868686",
"[  c #878787",
"{  c #888888",
"}  c #8C8C8C",
"|  c #8D8D8D",
" . c #8E8E8E",
".. c #8F8F8F",
"X. c #909090",
"o. c #939393",
"O. c #949494",
"+. c #959595",
"@. c #979797",
"#. c #989898",
"$. c #999999",
"%. c #9C9C9C",
"&. c #9E9E9E",
"*. c #A0A0A0",
"=. c #A1A1A1",
"-. c #A2A2A2",
";. c #A3A3A3",
":. c #A5A5A5",
">. c #A7A7A7",
",. c #A8A8A8",
"<. c #AAAAAA",
"1. c #ACACAC",
"2. c #ADADAD",
"3. c #AEAEAE",
"4. c #AFAFAF",
"5. c #B0B0B0",
"6. c #B1B1B1",
"7. c #B2B2B2",
"8. c #B2B2B2",
"9. c #B6B6B6",
"0. c #B7B7B7",
"q. c #B8B8B8",
"w. c #B9B9B9",
"e. c #BABABA",
"r. c #BBBBBB",
"t. c #BCBCBC",
"y. c #BDBDBD",
"u. c #808080",
"i. c #BFBFBF",
"p. c #C0C0C0",
"a. c #C1C1C1",
"s. c #C2C2C2",
"d. c #C3C3C3",
"f. c #C4C4C4",
"g. c #C5C5C5",
"h. c #C6C6C6",
"j. c #C7C7C7",
"k. c #C8C8C8",
"l. c #C9C9C9",
"z. c #CBCBCB",
"x. c #CCCCCC",
"c. c #CDCDCD",
"v. c #CECECE",
"b. c #CFCFCF",
"n. c #D1D1D1",
"m. c #D2D2D2",
"M. c #D3D3D3",
"N. c #D4D4D4",
"B. c #D5D5D5",
"V. c #D6D6D6",
"C. c #D7D7D7",
"Z. c #D8D8D8",
"A. c #D9D9D9",
"S. c #DADADA",
"D. c #DBDBDB",
"F. c #DCDCDC",
"G. c #DDDDDD",
"H. c #DEDEDE",
"J. c #DFDFDF",
"K. c #E0E0E0",
"L. c #E1E1E1",
"P. c #E2E2E2",
"I. c #E3E3E3",
"U. c #E4E4E4",
"Y. c #E6E6E6",
"T. c #E6E6E6",
"R. c #E7E7E7",
"E. c #E8E8E8",
"W. c #E9E9E9",
"Q. c #EAEAEA",
"!. c #EBEBEB",
"~. c #ECECEC",
"^. c #EDEDED",
"/. c #EEEEEE",
"(. c #EFEFEF",
"). c #F0F0F0",
"_. c #F1F1F1",
"`. c #F2F2F2",
"'. c #F3F3F3",
"]. c #F4F4F4",
"[. c #F5F5F5",
"{. c #F6F6F6",
"}. c #F7F7F7",
"|. c #F8F8F8",
" X c #F9F9F9",
".X c #FAFAFA",
"XX c #FBFBFB",
"oX c #FCFCFC",
"OX c #FDFDFD",
"+X c #FEFEFE",
"@X c #FFFFF1",
/* pixels */
"                                                                                                                                                                                                                                                                ",
"                                                                                                                                                                                                                                                                ",
"                                                                                                                                                                                                                                                                ",
"                                                                                                                                                                                                                                                                ",
"                                                                                                                                                                                                                                                                ",
"                                                                                                                                                                                                                                                                ",
"                                                                                                                                                                                                                                                                ",
"                                                                                                                                                                                                                                                                ",
"                                                                                                                                                                                                                                                                ",
"                                                                                                                                                                                                                                                                ",
"                                                                                                                                                                                                                                                                ",
"                                                                                                                                                                                                                                                                ",
"                                                                                                                                                                                                                                                                ",
"                                                                                                                                                                                                                                                                ",
"                                                                                                                                                                                                                                                                ",
"                                                                                                                                                                                                                                                                ",
"                                                                                                                                                                                                                                                                ",
"                                                                                                                                                                                                                                                                ",
"                                                  % % % % % % % ; ; C                                                                                                                                                                                           ",
"                                      {.{.|.{.T.<.g % % ; p q ; % % % p 8 X % ; 8                                                                                                                                                                               ",
"                                      |.|.|.|.|.|.b.q X p M.T.b.T % q J c q % % % % 8 ; % ; ; c                                                                                                                                                                 ",
"                                      |.|.M.=.A.|.|./ X p T.|.|.d.; ' |.{.M.p % % % % % % 8 % 8             % 8                                                                                                                                                 ",
"                                      |.{.J X C /.|.<.% p T.|.|./.C d.|.|./.g X X X % % p d.d.' ..T 8 % % % % % % % % L                                                                                                                                         ",
"                                      |.|.J X q T.|.d.% p T.|.|.{.9./.|.|./.g g L J g % g /.|.b.{.{.C X % % % % % % % L                                                                                                                                         ",
"                                      |.|.d.S ' {.|.w.% p T.|.|.|.{.|.|.|.T.' T.|.|./.O.C /.{.b.{.{.C % % % % % % % % p q 8                                                                                                                                     ",
"                                      {.|.|.{.|.|.|.O.X p T.|.T./.|.{./.|./.d.|./.w./.{.%.T.{.b.{.{...9.<.c % 8 c g 8 % % % ; 8 % % % 8 S         ~ p % % X X % % ; ; g                                                                                         ",
"                                        |.|.|.|.|.T.c X p T.|.9.b.|.T.9.|./.M.|.{.A.{.|.M./.|.b.{.|.|.|.|.d.C b././.M.' 8 S S q ; 8 % % % %.|.|.|.{.M./ q / T p % X X % % % % p                                                                                 ",
"                                            {.{.{.        {.|.=...|.<...|./.d.|.T...d.M.d./.|.b.{.|.w.b.|.T.w.|.|.T.|.|.O.b.|.d.w.M.J % ; b.|.|.M./.|.{.' T.|.' J ~ C % % % % % % % q                                                                           ",
"                                                            |.<.~ |.~ O.|.T...{.{.b.T./.b./.{.b.{.{.C / |./.A.|.A.c d.|.A.A.|.|.|.|.d.; ; d.|.{.%.=.T.A.=.d.A.~ <.|.M.; % % % % % % ; ~                                                                         ",
"                                                                                {.|.|.{.=./.{.b.{.{.C ~ |./.M.|.M.8 =.|.T.T.|.M.w.|.T.p % ..|.|.|.{./.9.J A./.w.T.|./.C ; p g 8 % % % ; ; % % ; C                                                               ",
"                                                                                          {.{.b.{.{.C ' |.T.%.{.{.w.T.|.T.A.|.<.L A.A.p % g <.T.{.|.|.|.9.T.|.A.|.|.|.%.=././.A...8 % % % % % % % L                                                             ",
"                                                                                                        |.T.J T.|.|.|.|.=.b.|.9.% 8 p ; 8 w.A.A.~ <.|.|.T./.|.9.M.|.{.b.{.|.M./.|...% % % % % % % g                                                             ",
"                                                                                                                    {.    T.|.9.% % %     A.|.|.b.b.|.|.T./.|.' =.|.A.O.|.|.M.T.|.M.8 % % % % % % p                                                             ",
"                                                                                                                                            {.|.|.|.|.{.9.T.|.' =.|./.w.|.{.w.d.T.b.q % % % % % % p                                                             ",
"                                                                                                                                                {.{.{.A.  /.|.' O.|.|.d.T.|.w.d.T.d.q % % % % % % S                                                             ",
"                                                                                                                                                                    |.O.9.|.|.|.|.w.; % % % %                                                                   ",
"                                                                                                                                                                                                                                                                ",
"                                                                                                                                                                                                                                                                ",
"                                                                                                                                                                                                                                                                ",
"                                                                                                                                                                                                                                                                ",
"                                                                                                                                                                                                                                                                ",
"                                                                                                                                                                                                                                                                ",
"                                                                                                                                                                                                                                                                ",
"                                                                                                                                                                                                                                                                ",
"                                                                                                                                                                                                                                                                ",
"                                                                                                                                                                                                                                                                ",
"                                                                                                                                                                                                                                                                ",
"                                                                                                                                                                                                                                                                ",
"                                                                                                                                                                                                                                                                ",
"                                                                                                                                                                                                                                                                ",
"                                                                                                                                                                                                                                                                ",
"                                                                                                                                                                                                                                                                ",
"                                                                                                                                                                                                                                                                ",
"                                                                                                                                                                                                                                                                "
};
