/* XPM */
static char *oms_060[] = {
/* columns rows colors chars-per-pixel */
"128 54 180 2 ",
"   c #FF00FF",
".  c #0C0C0C",
"X  c #0D0D0D",
"o  c #0E0E0E",
"O  c #0F0F0F",
"+  c #101010",
"@  c #111111",
"#  c #121212",
"$  c #131313",
"%  c #141414",
"&  c #151515",
"*  c #161616",
"=  c #171717",
"-  c #181818",
";  c #191919",
":  c #1A1A1A",
">  c #1B1B1B",
",  c #1C1C1C",
"<  c #1F1F1F",
"1  c #202020",
"2  c #222222",
"3  c #232323",
"4  c #242424",
"5  c #252525",
"6  c #262626",
"7  c #272727",
"8  c #282828",
"9  c #292929",
"0  c #2B2B2B",
"q  c #2C2C2C",
"w  c #2D2D2D",
"e  c #2E2E2E",
"r  c #363636",
"t  c #373737",
"y  c #3A3A3A",
"u  c #3B3B3B",
"i  c #3C3C3C",
"p  c #3D3D3D",
"a  c #3F3F3F",
"s  c #404040",
"d  c #414141",
"f  c #434343",
"g  c #444444",
"h  c #464646",
"j  c #484848",
"k  c #4A4A4A",
"l  c #4E4E4E",
"z  c #535353",
"x  c #545454",
"c  c #555555",
"v  c #565656",
"b  c #575757",
"n  c #585858",
"m  c #595959",
"M  c #5D5D5D",
"N  c #606060",
"B  c #616161",
"V  c #636363",
"C  c #646464",
"Z  c #666666",
"A  c #686868",
"S  c #696969",
"D  c #6A6A6A",
"F  c #6B6B6B",
"G  c #6C6C6C",
"H  c #6D6D6D",
"J  c #6F6F6F",
"K  c #717171",
"L  c #737373",
"P  c #747474",
"I  c #7A7A7A",
"U  c #7C7C7C",
"Y  c #7E7E7E",
"T  c #808080",
"R  c #808080",
"E  c #878787",
"W  c #888888",
"Q  c #898989",
"!  c #8A8A8A",
"~  c #8C8C8C",
"^  c #8D8D8D",
"/  c #8F8F8F",
"(  c #909090",
")  c #919191",
"_  c #929292",
"`  c #939393",
"'  c #949494",
"]  c #959595",
"[  c #969696",
"{  c #979797",
"}  c #989898",
"|  c #999999",
" . c #9C9C9C",
".. c #9D9D9D",
"X. c #9F9F9F",
"o. c #A1A1A1",
"O. c #A2A2A2",
"+. c #A4A4A4",
"@. c #A5A5A5",
"#. c #A6A6A6",
"$. c #A7A7A7",
"%. c #A8A8A8",
"&. c #A9A9A9",
"*. c #AAAAAA",
"=. c #ACACAC",
"-. c #ADADAD",
";. c #AEAEAE",
":. c #AFAFAF",
">. c #B0B0B0",
",. c #B1B1B1",
"<. c #B2B2B2",
"1. c #B4B4B4",
"2. c #B5B5B5",
"3. c #B6B6B6",
"4. c #B8B8B8",
"5. c #B9B9B9",
"6. c #BABABA",
"7. c #BBBBBB",
"8. c #BCBCBC",
"9. c #BDBDBD",
"0. c #BFBFBF",
"q. c #C0C0C0",
"w. c #C1C1C1",
"e. c #C3C3C3",
"r. c #C4C4C4",
"t. c #C5C5C5",
"y. c #C6C6C6",
"u. c #C7C7C7",
"i. c #C8C8C8",
"p. c #C9C9C9",
"a. c #CACACA",
"s. c #CCCCCC",
"d. c #CECECE",
"f. c #D0D0D0",
"g. c #D1D1D1",
"h. c #D2D2D2",
"j. c #D3D3D3",
"k. c #D4D4D4",
"l. c #D5D5D5",
"z. c #D6D6D6",
"x. c #D7D7D7",
"c. c #D8D8D8",
"v. c #D9D9D9",
"b. c #DADADA",
"n. c #DBDBDB",
"m. c #DCDCDC",
"M. c #DDDDDD",
"N. c #DEDEDE",
"B. c #DFDFDF",
"V. c #E1E1E1",
"C. c #E2E2E2",
"Z. c #E3E3E3",
"A. c #E4E4E4",
"S. c #E6E6E6",
"D. c #E6E6E6",
"F. c #E7E7E7",
"G. c #E8E8E8",
"H. c #E9E9E9",
"J. c #EAEAEA",
"K. c #EBEBEB",
"L. c #ECECEC",
"P. c #EDEDED",
"I. c #EEEEEE",
"U. c #EFEFEF",
"Y. c #F0F0F0",
"T. c #F1F1F1",
"R. c #F2F2F2",
"E. c #F3F3F3",
"W. c #F4F4F4",
"Q. c #F5F5F5",
"!. c #F6F6F6",
"~. c #F7F7F7",
"^. c #F8F8F8",
"/. c #F9F9F9",
"(. c #FAFAFA",
"). c #FBFBFB",
"_. c #FCFCFC",
"`. c #FDFDFD",
"'. c #FEFEFE",
"]. c #FFFFF1",
/* pixels */
"                                                                                                                                                                                                                                                                ",
"                                                                                                                                                                                                                                                                ",
"                                                                                                                                                                                                                                                                ",
"                                                                                                                                                                                                                                                                ",
"                                                                                                                                                                                                                                                                ",
"                                                                                                                                                                                                                                                                ",
"                                                                                                                                                                                                                                                                ",
"                                                                                                                                                                                                                                                                ",
"                                                                                                                                                                                                                                                                ",
"                                                                                                                                                                                                                                                                ",
"                                                                                                                                                                                                                                                                ",
"                                                                                                                                                                                                                                                                ",
"                                                                                                                                                                                                                                                                ",
"                                                                                                                                                                                                                                                                ",
"                                                                                                                                                                                                                                                                ",
"                                                                                                                                                                                                                                                                ",
"                                                                                                                                                                                                                                                                ",
"                                                                                                                                                                                                                                                                ",
"                                                                                                                                                                                                                                                                ",
"                                                                                                                                                                        i # # # # o # , 2 # w X.l.x                                                             ",
"                                                                                                                                                            j , # # # # # # # # 2 F #.q.a.) N W.V.F V.W.N # N l._.                                              ",
"                                                                                                                                                          I , # # # # # # # # 2 &._._._._._.#.l.q.~ W._.&.K V.W.W._.                                            ",
"                                                                                                                                                          m # # # # # # # # # x W._.4.&.V.4.R N.V.N._._.I.V._.4.N._.W.                                          ",
"                                                                                                                      2 , # #                     w # # , 2 # # # # # w j , o F _._.l.a.I.q.I W.I.l._.W.q.W._.I.V.I.W.                                          ",
"                                                                                                                i # # # # # # # # h ~ ) q.W.N o o # # # 2 h i , m #.X.q.W.F o x W._._._._._.l.W.V.I I.W.) W.W.) &.W.W.                                          ",
"                                                                                              h , # # # o o   h w 2 i 2 # # # # # ) _.N.V._.N w j 2 , ~ N.W.I.X.<._._._._.#.# 2 X.V.l.l._._.I.W.V.F I._.V.I._.I.W._.                                            ",
"                                                                                    i # # # , # # # # 2 i x 2 , #.V.I.x o # # # o ) _.l.V._.#.a.W.) R _.W.I._.V.a._.l.a._.<.# h &.N.) ~ _._.l.W.V.N V._.N.&.W._.W.                                              ",
"                                                                      2 , # # # # t , # 2 i i , # # t l.I.W.N i I._.W.x 2 K #.&.x ) _.l.V._.W._._.N.N._.) F W.W.N._.#.F X.m o F _._.W.W._.V.~ I.W.F l._.                                                        ",
"                                                                    2 # # # # # # # w ) l.I.I.<.w o h I._._.X.I _._.W.F 4._.W._.N.<._.l.V._.q.q._.W.W._.K x W.I.l._.4.# # o # t l._._.W.W.                                                                      ",
"                                                                  i # # # # # # # 2 <._._._._._.~ o h I._._.N.a._._.W.<.W.V.<.W.W.N._.l.V._.N R _.I.I._.l.a._.a.4._.W.                                                                                          ",
"                                                                  2 # # # # # # o N _._.V.a.W._.4.# h I._._.W.W.W._.W.l._.W.N.N.l.l._.l.V._.N I _.l.&._._._._.) &._.                                                                                            ",
"                                                                ) , # # # # # # # X._.V.h 2 4._.a., h I._.W._._.N.W.W.N._.N.R l.V.l._.l.V._.F I _.V.    W.                                                                                                      ",
"                                                                ) , # # # # # # # <._.q., # &._.q., h I.W.4.W.W.#.W.W.4.W.W.I._.l.&._.N.V.W.                                                                                                                    ",
"                                                                  w # # # # # # # <._.N.h x V._.&.# h I.W.I N.V.F W.W.~ N.W.W.W.                                                                                                                                ",
"                                                                  h # # # # # # # X._._.I.I._.W.F o h I._.F 4.N.  W.                                                                                                                                            ",
"                                                                      # # # # # # m W._._._._.I.      I.                                                                                                                                                        ",
"                                                                                    <.W.W.W.                                                                                                                                                                    ",
"                                                                                                                                                                                                                                                                ",
"                                                                                                                                                                                                                                                                ",
"                                                                                                                                                                                                                                                                ",
"                                                                                                                                                                                                                                                                ",
"                                                                                                                                                                                                                                                                ",
"                                                                                                                                                                                                                                                                ",
"                                                                                                                                                                                                                                                                ",
"                                                                                                                                                                                                                                                                ",
"                                                                                                                                                                                                                                                                ",
"                                                                                                                                                                                                                                                                ",
"                                                                                                                                                                                                                                                                ",
"                                                                                                                                                                                                                                                                ",
"                                                                                                                                                                                                                                                                ",
"                                                                                                                                                                                                                                                                ",
"                                                                                                                                                                                                                                                                ",
"                                                                                                                                                                                                                                                                ",
"                                                                                                                                                                                                                                                                "
};
