/* XPM */
static char *oms_077[] = {
/* columns rows colors chars-per-pixel */
"128 54 156 2 ",
"   c #FF00FF",
".  c #0F0F0F",
"X  c #101010",
"o  c #111111",
"O  c #121212",
"+  c #131313",
"@  c #141414",
"#  c #151515",
"$  c #161616",
"%  c #171717",
"&  c #181818",
"*  c #191919",
"=  c #1A1A1A",
"-  c #1B1B1B",
";  c #1C1C1C",
":  c #1D1D1D",
">  c #1E1E1E",
",  c #242424",
"<  c #252525",
"1  c #262626",
"2  c #272727",
"3  c #292929",
"4  c #2A2A2A",
"5  c #2B2B2B",
"6  c #2D2D2D",
"7  c #2E2E2E",
"8  c #303030",
"9  c #333333",
"0  c #353535",
"q  c #393939",
"w  c #3A3A3A",
"e  c #3B3B3B",
"r  c #3C3C3C",
"t  c #3D3D3D",
"y  c #3F3F3F",
"u  c #414141",
"i  c #424242",
"p  c #434343",
"a  c #444444",
"s  c #454545",
"d  c #464646",
"f  c #474747",
"g  c #484848",
"h  c #4B4B4B",
"j  c #4E4E4E",
"k  c #505050",
"l  c #525252",
"z  c #535353",
"x  c #545454",
"c  c #5B5B5B",
"v  c #5C5C5C",
"b  c #626262",
"n  c #646464",
"m  c #696969",
"M  c #6B6B6B",
"N  c #6E6E6E",
"B  c #757575",
"V  c #787878",
"C  c #7A7A7A",
"Z  c #7C7C7C",
"A  c #7D7D7D",
"S  c #7E7E7E",
"D  c #818181",
"F  c #838383",
"G  c #878787",
"H  c #888888",
"J  c #898989",
"K  c #8A8A8A",
"L  c #8F8F8F",
"P  c #919191",
"I  c #949494",
"U  c #959595",
"Y  c #969696",
"T  c #999999",
"R  c #9C9C9C",
"E  c #9F9F9F",
"W  c #A1A1A1",
"Q  c #A3A3A3",
"!  c #A5A5A5",
"~  c #A7A7A7",
"^  c #A8A8A8",
"/  c #A9A9A9",
"(  c #AAAAAA",
")  c #ABABAB",
"_  c #ACACAC",
"`  c #ADADAD",
"'  c #AEAEAE",
"]  c #AFAFAF",
"[  c #B1B1B1",
"{  c #B2B2B2",
"}  c #B2B2B2",
"|  c #B4B4B4",
" . c #B5B5B5",
".. c #B6B6B6",
"X. c #B7B7B7",
"o. c #BABABA",
"O. c #BDBDBD",
"+. c #BFBFBF",
"@. c #C1C1C1",
"#. c #C2C2C2",
"$. c #C3C3C3",
"%. c #C4C4C4",
"&. c #C5C5C5",
"*. c #C6C6C6",
"=. c #C8C8C8",
"-. c #C9C9C9",
";. c #CACACA",
":. c #CBCBCB",
">. c #CCCCCC",
",. c #CDCDCD",
"<. c #CECECE",
"1. c #D0D0D0",
"2. c #D1D1D1",
"3. c #D2D2D2",
"4. c #D3D3D3",
"5. c #D4D4D4",
"6. c #D5D5D5",
"7. c #D7D7D7",
"8. c #D8D8D8",
"9. c #D9D9D9",
"0. c #DADADA",
"q. c #DBDBDB",
"w. c #DCDCDC",
"e. c #DDDDDD",
"r. c #DEDEDE",
"t. c #DFDFDF",
"y. c #E0E0E0",
"u. c #E1E1E1",
"i. c #E2E2E2",
"p. c #E3E3E3",
"a. c #E4E4E4",
"s. c #E6E6E6",
"d. c #E8E8E8",
"f. c #E9E9E9",
"g. c #EAEAEA",
"h. c #EBEBEB",
"j. c #ECECEC",
"k. c #EDEDED",
"l. c #EEEEEE",
"z. c #EFEFEF",
"x. c #F0F0F0",
"c. c #F1F1F1",
"v. c #F2F2F2",
"b. c #F3F3F3",
"n. c #F4F4F4",
"m. c #F5F5F5",
"M. c #F6F6F6",
"N. c #F7F7F7",
"B. c #F8F8F8",
"V. c #F9F9F9",
"C. c #FAFAFA",
"Z. c #FBFBFB",
"A. c #FCFCFC",
"S. c #FDFDFD",
"D. c #FEFEFE",
"F. c #FFFFF1",
/* pixels */
"                                                                                                                                                                                                                                                                ",
"                                                                                                                                                                                                                                                                ",
"                                                                                                                                                                                                                                                                ",
"                                                                                                                                                                                                                                                                ",
"                                                                                                                                                                                                                                                                ",
"                                                                                                                                                                                                                                                                ",
"                                                                                                                                                                                                                                                                ",
"                                                                                                                                                                                                                                                                ",
"                                                                                                                                                                                                                                                                ",
"                                                                                                                                                                                                                                                                ",
"                                                                                                                                                                                                                                                                ",
"                                                                                                                                                                                                                                                                ",
"                                                                                                                                                                                                                                                                ",
"                                                                                                                                                                                                                                                                ",
"                                                                                                                                                                                                                                                                ",
"                                                                                                                                                                                                                                                                ",
"                                                                                                                                                                                                                                                                ",
"                                                                                                                                                    n * * O O O O O O O O 1 P [ _                                                                               ",
"                                                                                                                                                w * * O O O O O O O O d P F -.&._ F M.M.                                                                        ",
"                                                                                                                                              k O O O O O O O O O O w w.F.5.&.w.s.w.w.M.                                                                        ",
"                                                                                                                                              0 O O O O O O O O O O K k.w.[ w.M.k.M.k.k.                                                                        ",
"                                                                                                                                            _ 1 O O O O O O O O O O _ w.&.~ w.k.-.w.[ s.                                                                        ",
"                                                                                                                                          1 6 * O O O O O O O O d 1 _ F.F.k.w.&.s.k.k.M.                                                                        ",
"                                                                                                                                      d * O O O O * O O O O 0 P w.k F M.M.M.s.&.k.s.F.                                                                          ",
"                                                                                                                        M 1 O O O O O O O O O 6 S K O O k _ R F.F.n d R &.k.w.[ k.                                                                              ",
"                                                                                                                        k . O O O O O O O O O ~ M._ d d 5.F.s.s.s.M ~ k.k.-.w.                                                                                  ",
"                                                                                                                d O O w 6 O O O O O O 1 * O O [ M.-.w.+.w.5.F.-.M 6 R F.M.                                                                                      ",
"                                                                                                              d * O O O O O O O O O g &.w * 6 [ k.M.F.k._ R M.s.      M.                                                                                        ",
"                                                                                                          g O O O O O O O O O * B S K k.k _ &.&.k.w.w.F.-.&.w.M.                                                                                                ",
"                                                                                                    w O 6 1 O O O O O O O 6 * 6 s.&._ k.~ k.k.s.k._ [ k.M.M.+.                                                                                                  ",
"                                                                                                  c O O O O O O O O O O S w.S 6 w.s.5.k.5.w.s.s.M._ [ 5.k.M.                                                                                                    ",
"                                                                                                  6 O O O O O O O O O g k.F.&.w w.F.M.k.s.w.-.w.M.[ [                                                                                                           ",
"                                                                                                P * O O O O O O O O O K M.k.5.d w.F.M.k.s.-.w.w.M.                                                                                                              ",
"                                                                                                B O O O O O O O O O O [ _ S w.d w.M.w.w.5.F.s.                                                                                                                  ",
"                                                                                                B O O O O O O O O O * &.S c 5.d 5.-.+.5.[ M.                                                                                                                    ",
"                                                                                                B O O O O O O O O O * -.K K -.w 5._ [                                                                                                                           ",
"                                                                                                P * O O O O O O O O * +.k.k.[ 0 5.                                                                                                                              ",
"                                                                                                  0 O O O O O O O O O _ F.F.                                                                                                                                    ",
"                                                                                                              O O O . S F.M.                                                                                                                                    ",
"                                                                                                                                                                                                                                                                ",
"                                                                                                                                                                                                                                                                ",
"                                                                                                                                                                                                                                                                ",
"                                                                                                                                                                                                                                                                ",
"                                                                                                                                                                                                                                                                ",
"                                                                                                                                                                                                                                                                ",
"                                                                                                                                                                                                                                                                ",
"                                                                                                                                                                                                                                                                ",
"                                                                                                                                                                                                                                                                ",
"                                                                                                                                                                                                                                                                ",
"                                                                                                                                                                                                                                                                ",
"                                                                                                                                                                                                                                                                ",
"                                                                                                                                                                                                                                                                ",
"                                                                                                                                                                                                                                                                ",
"                                                                                                                                                                                                                                                                "
};
