/* XPM */
static char *oms_126[] = {
/* columns rows colors chars-per-pixel */
"128 54 185 2 ",
"   c #FF00FF",
".  c #0A0A0A",
"X  c #0E0E0E",
"o  c #0F0F0F",
"O  c #101010",
"+  c #111111",
"@  c #121212",
"#  c #131313",
"$  c #141414",
"%  c #151515",
"&  c #161616",
"*  c #171717",
"=  c #181818",
"-  c #191919",
";  c #1A1A1A",
":  c #1B1B1B",
">  c #1C1C1C",
",  c #1D1D1D",
"<  c #1E1E1E",
"1  c #1F1F1F",
"2  c #202020",
"3  c #212121",
"4  c #222222",
"5  c #232323",
"6  c #242424",
"7  c #252525",
"8  c #262626",
"9  c #272727",
"0  c #282828",
"q  c #292929",
"w  c #2A2A2A",
"e  c #2B2B2B",
"r  c #2D2D2D",
"t  c #2E2E2E",
"y  c #2F2F2F",
"u  c #313131",
"i  c #323232",
"p  c #353535",
"a  c #363636",
"s  c #383838",
"d  c #393939",
"f  c #3B3B3B",
"g  c #3C3C3C",
"h  c #3F3F3F",
"j  c #404040",
"k  c #414141",
"l  c #424242",
"z  c #454545",
"x  c #474747",
"c  c #484848",
"v  c #494949",
"b  c #4B4B4B",
"n  c #4C4C4C",
"m  c #4C4C4C",
"M  c #4E4E4E",
"N  c #4F4F4F",
"B  c #505050",
"V  c #515151",
"C  c #525252",
"Z  c #535353",
"A  c #545454",
"S  c #565656",
"D  c #575757",
"F  c #585858",
"G  c #5B5B5B",
"H  c #5C5C5C",
"J  c #5D5D5D",
"K  c #5F5F5F",
"L  c #606060",
"P  c #636363",
"I  c #646464",
"U  c #666666",
"Y  c #676767",
"T  c #686868",
"R  c #6A6A6A",
"E  c #6C6C6C",
"W  c #6D6D6D",
"Q  c #6F6F6F",
"!  c #717171",
"~  c #737373",
"^  c #747474",
"/  c #787878",
"(  c #797979",
")  c #7D7D7D",
"_  c #808080",
"`  c #808080",
"'  c #818181",
"]  c #828282",
"[  c #838383",
"{  c #858585",
"}  c #878787",
"|  c #898989",
" . c #8A8A8A",
".. c #8B8B8B",
"X. c #8E8E8E",
"o. c #909090",
"O. c #919191",
"+. c #939393",
"@. c #959595",
"#. c #969696",
"$. c #9C9C9C",
"%. c #9E9E9E",
"&. c #9F9F9F",
"*. c #A0A0A0",
"=. c #A2A2A2",
"-. c #A4A4A4",
";. c #A6A6A6",
":. c #A8A8A8",
">. c #A9A9A9",
",. c #ABABAB",
"<. c #ACACAC",
"1. c #AEAEAE",
"2. c #AFAFAF",
"3. c #B0B0B0",
"4. c #B2B2B2",
"5. c #B5B5B5",
"6. c #B6B6B6",
"7. c #B7B7B7",
"8. c #B8B8B8",
"9. c #BABABA",
"0. c #BBBBBB",
"q. c #BCBCBC",
"w. c #BDBDBD",
"e. c #808080",
"r. c #BFBFBF",
"t. c #C0C0C0",
"y. c #C1C1C1",
"u. c #C4C4C4",
"i. c #C5C5C5",
"p. c #C6C6C6",
"a. c #C7C7C7",
"s. c #C8C8C8",
"d. c #C9C9C9",
"f. c #CBCBCB",
"g. c #CCCCCC",
"h. c #CDCDCD",
"j. c #CECECE",
"k. c #CFCFCF",
"l. c #D0D0D0",
"z. c #D1D1D1",
"x. c #D2D2D2",
"c. c #D3D3D3",
"v. c #D4D4D4",
"b. c #D5D5D5",
"n. c #D6D6D6",
"m. c #D7D7D7",
"M. c #D8D8D8",
"N. c #D9D9D9",
"B. c #DADADA",
"V. c #DBDBDB",
"C. c #DCDCDC",
"Z. c #DDDDDD",
"A. c #DEDEDE",
"S. c #DFDFDF",
"D. c #E0E0E0",
"F. c #E1E1E1",
"G. c #E3E3E3",
"H. c #E4E4E4",
"J. c #E6E6E6",
"K. c #E6E6E6",
"L. c #E7E7E7",
"P. c #E8E8E8",
"I. c #E9E9E9",
"U. c #EAEAEA",
"Y. c #EBEBEB",
"T. c #ECECEC",
"R. c #EDEDED",
"E. c #EEEEEE",
"W. c #EFEFEF",
"Q. c #F0F0F0",
"!. c #F1F1F1",
"~. c #F2F2F2",
"^. c #F3F3F3",
"/. c #F4F4F4",
"(. c #F5F5F5",
"). c #F6F6F6",
"_. c #F7F7F7",
"`. c #F8F8F8",
"'. c #F9F9F9",
"]. c #FAFAFA",
"[. c #FBFBFB",
"{. c #FCFCFC",
"}. c #FDFDFD",
"|. c #FEFEFE",
" X c #FFFFF1",
/* pixels */
"                                                                                                                                                                                                                                                                ",
"                                                                                                                                                                                                                                                                ",
"                                                                                                                                                                                                                                                                ",
"                                                                                                                                                                                                                                                                ",
"                                                                                                                                                                                                                                                                ",
"                                                                                                                                                                                                                                                                ",
"                                                                                                                                                                                                                                                                ",
"                                                                                                                                                                                                                                                                ",
"                                                                                                                                                                                                                                                                ",
"                                                                                                                                                                                                                                                                ",
"                                                                                                                                                                                                                                                                ",
"                                                                                                                                                                                                                                                                ",
"                                                                                  @ : d P     : G                                                                                                                                                               ",
"                                                                        X @ : : @ @ X @ @ @ @ @ @ : @ e Q                                                                                                                                                       ",
"                                                                  ).R.6.N @ N y.Q d C 4 @ @ @ @ @ @ @ @ e d : x                                                                                                                                                 ",
"                                                                  ].R.J.R.P o.].m.( ).6.4 4 4 @ @ @ @ @ @ @ @ @ : d `                                                                                                                                           ",
"                                                                  ).J.h.].m.Z.].R.-.Z.y.` Z.h.o.N @ @ @ @ @ @ @ @ @ 4  .                                                                                                                                        ",
"                                                                  R.y.y.].R.h.].].R.R.r.r.].].].R.o.: @ @ @ @ @ @ @ @ N                                                                                                                                         ",
"                                                                  ].J.r.).J.o.).R.m.].m.P y.m.-.R.].( @ @ @ @ @ @ @ @ a                                                                                                                                         ",
"                                                                    ).].].Z.m.].m.( ].Z.y.).R.y.R.].6.: @ @ @ @ @ @ @ a                                                                                                                                         ",
"                                                                        ).  J.].m.( ].R.R.].].].].].r.: @ 4 : @ @ @ @ @ @ @ @ : x x                                                                                                                             ",
"                                                                              ].m. .].J.Z.].J.1.J.R.` @ a h.1.d e @ @ @ @ @ @ @ @ @ 4 `                                                                                                                         ",
"                                                                                    ].m.1.].R. .h.1.x @ P ].].J.m.` : : @ @ @ @ @ @ @ @ @ : a P                                                                                                                 ",
"                                                                                          ).].].].].r.: P ).R.J.].h.` y.1.G : @ @ @ @ 4 : @ X @ e @ @ @ @ @ 4 x G                                                                                               ",
"                                                                                              ).).].-.@ d Z.m.1.].Z.J.].].).-.4 @ : @  .h.Q a : @ @ @ @ @ @ @ @ @ d                                                                                             ",
"                                                                                                                ].J.R.].-.h.].(  .r.C o.].h.m.6.e @ @ @ @ @ @ @ @ 4 1.                                                                                          ",
"                                                                                                                ].Z.J.].C ~ ].m.J.].J.h.].h.R.).x @ @ @ @ @ @ @ @ 4 -.                                                                                          ",
"                                                                                                                ].h.6.].1.1.].R.R.].R.).].h.R.).d X @ @ @ : d : @ @ e @ @ @ @ @ @ 4 d -.                                                                        ",
"                                                                                                                      ).].].].Z.J.].~ 6.].h.J.).Q %.o.C @ 4 h.h.( : @ @ @ @ @ @ @ @ @ x a 4 Q                                                                   ",
"                                                                                                                          ).].6.J.).C o.].h.J.).Z.].].).%.a m.].).N : G a @ @ @ @ @ @ @ @ @ : e `                                                               ",
"                                                                                                                                ].).C o.].h.J.].R.].m.h.].o.m.].].` C ).J.%.e @ @ @ @ @ @ @ @ X P                                                               ",
"                                                                                                                                        ].h.R.].Z.Z.Z.J.].m.Z.].].r.-.].].R.x @ @ : : @ @ @ @ @ e e @ @ @ e N                                                   ",
"                                                                                                                                            R.).h.).6.1.].J.J.].).R.R.].].R.x X x r.h.%.C @ @ @ @ @ @ @ @ @ @ 4 (                                               ",
"                                                                                                                                                  ).).).].Z.J.].m.).].].].R.x @ 1.].].].).o.: @ @ @ @ @ @ @ @ @ : o.                                            ",
"                                                                                                                                                      ).].r.Z.].-.J.].R.).R.d 4 m.].).R.].].` @ @ @ @ @ @ @ @ @ @ N                                             ",
"                                                                                                                                                            ).].` y.).-.).R.d 4 m.].1.d 1.].Z.e @ @ @ @ @ @ @ @ @ e r.                                          ",
"                                                                                                                                                                  Z.Z.~ ).R.x : h.]. .X x R.).C X @ @ @ @ @ @ @ @ : -.                                          ",
"                                                                                                                                                                        ].R.x @ -.].m.a N R.].Q X @ @ @ @ @ @ @ @ : -.                                          ",
"                                                                                                                                                                                  ].].Z.m.].].P X @ @ @ @ @ @ @ @ e r.                                          ",
"                                                                                                                                                                                    ].].].].).N @ @ @ @ @ @ @ @ @ G                                             ",
"                                                                                                                                                                                      ).).].y.4 @ @ @ @ @                                                       ",
"                                                                                                                                                                                                                                                                ",
"                                                                                                                                                                                                                                                                ",
"                                                                                                                                                                                                                                                                ",
"                                                                                                                                                                                                                                                                ",
"                                                                                                                                                                                                                                                                ",
"                                                                                                                                                                                                                                                                ",
"                                                                                                                                                                                                                                                                ",
"                                                                                                                                                                                                                                                                ",
"                                                                                                                                                                                                                                                                ",
"                                                                                                                                                                                                                                                                ",
"                                                                                                                                                                                                                                                                ",
"                                                                                                                                                                                                                                                                ",
"                                                                                                                                                                                                                                                                "
};
