/* XPM */
static char *oms_200[] = {
/* columns rows colors chars-per-pixel */
"128 54 201 2 ",
"   c #FF00FF",
".  c #0C0C0C",
"X  c #0D0D0D",
"o  c #0E0E0E",
"O  c #0F0F0F",
"+  c #101010",
"@  c #111111",
"#  c #121212",
"$  c #131313",
"%  c #141414",
"&  c #151515",
"*  c #161616",
"=  c #171717",
"-  c #181818",
";  c #191919",
":  c #1A1A1A",
">  c #1B1B1B",
",  c #1C1C1C",
"<  c #1D1D1D",
"1  c #1E1E1E",
"2  c #1F1F1F",
"3  c #202020",
"4  c #212121",
"5  c #222222",
"6  c #232323",
"7  c #242424",
"8  c #252525",
"9  c #262626",
"0  c #272727",
"q  c #282828",
"w  c #292929",
"e  c #2A2A2A",
"r  c #2B2B2B",
"t  c #2C2C2C",
"y  c #2D2D2D",
"u  c #2E2E2E",
"i  c #2F2F2F",
"p  c #303030",
"a  c #313131",
"s  c #323232",
"d  c #333333",
"f  c #343434",
"g  c #353535",
"h  c #363636",
"j  c #373737",
"k  c #383838",
"l  c #393939",
"z  c #3A3A3A",
"x  c #3B3B3B",
"c  c #3C3C3C",
"v  c #3D3D3D",
"b  c #3E3E3E",
"n  c #3F3F3F",
"m  c #404040",
"M  c #424242",
"N  c #434343",
"B  c #444444",
"V  c #454545",
"C  c #464646",
"Z  c #474747",
"A  c #484848",
"S  c #494949",
"D  c #4A4A4A",
"F  c #4C4C4C",
"G  c #4E4E4E",
"H  c #515151",
"J  c #525252",
"K  c #545454",
"L  c #555555",
"P  c #565656",
"I  c #575757",
"U  c #585858",
"Y  c #595959",
"T  c #5B5B5B",
"R  c #5C5C5C",
"E  c #5E5E5E",
"W  c #5F5F5F",
"Q  c #606060",
"!  c #616161",
"~  c #626262",
"^  c #646464",
"/  c #656565",
"(  c #666666",
")  c #676767",
"_  c #686868",
"`  c #696969",
"'  c #6A6A6A",
"]  c #6C6C6C",
"[  c #6D6D6D",
"{  c #6F6F6F",
"}  c #717171",
"|  c #737373",
" . c #747474",
".. c #757575",
"X. c #767676",
"o. c #787878",
"O. c #7B7B7B",
"+. c #808080",
"@. c #828282",
"#. c #838383",
"$. c #848484",
"%. c #858585",
"&. c #878787",
"*. c #888888",
"=. c #8A8A8A",
"-. c #8B8B8B",
";. c #909090",
":. c #939393",
">. c #949494",
",. c #959595",
"<. c #969696",
"1. c #979797",
"2. c #989898",
"3. c #9A9A9A",
"4. c #9B9B9B",
"5. c #9C9C9C",
"6. c #9D9D9D",
"7. c #9E9E9E",
"8. c #9F9F9F",
"9. c #A0A0A0",
"0. c #A3A3A3",
"q. c #A4A4A4",
"w. c #A5A5A5",
"e. c #A6A6A6",
"r. c #A7A7A7",
"t. c #A9A9A9",
"y. c #AAAAAA",
"u. c #ABABAB",
"i. c #ACACAC",
"p. c #AEAEAE",
"a. c #AFAFAF",
"s. c #B2B2B2",
"d. c #B2B2B2",
"f. c #B4B4B4",
"g. c #B5B5B5",
"h. c #B6B6B6",
"j. c #B7B7B7",
"k. c #B8B8B8",
"l. c #B9B9B9",
"z. c #BABABA",
"x. c #BBBBBB",
"c. c #BCBCBC",
"v. c #BDBDBD",
"b. c #808080",
"n. c #C0C0C0",
"m. c #C1C1C1",
"M. c #C3C3C3",
"N. c #C4C4C4",
"B. c #C5C5C5",
"V. c #C6C6C6",
"C. c #CACACA",
"Z. c #CBCBCB",
"A. c #CCCCCC",
"S. c #CDCDCD",
"D. c #CFCFCF",
"F. c #D0D0D0",
"G. c #D1D1D1",
"H. c #D2D2D2",
"J. c #D3D3D3",
"K. c #D4D4D4",
"L. c #D5D5D5",
"P. c #D6D6D6",
"I. c #D7D7D7",
"U. c #D8D8D8",
"Y. c #D9D9D9",
"T. c #DADADA",
"R. c #DCDCDC",
"E. c #DDDDDD",
"W. c #DEDEDE",
"Q. c #DFDFDF",
"!. c #E0E0E0",
"~. c #E1E1E1",
"^. c #E2E2E2",
"/. c #E3E3E3",
"(. c #E4E4E4",
"). c #E6E6E6",
"_. c #E6E6E6",
"`. c #E8E8E8",
"'. c #E9E9E9",
"]. c #EAEAEA",
"[. c #EBEBEB",
"{. c #ECECEC",
"}. c #EDEDED",
"|. c #EEEEEE",
" X c #EFEFEF",
".X c #F0F0F0",
"XX c #F1F1F1",
"oX c #F2F2F2",
"OX c #F3F3F3",
"+X c #F4F4F4",
"@X c #F5F5F5",
"#X c #F6F6F6",
"$X c #F7F7F7",
"%X c #F8F8F8",
"&X c #F9F9F9",
"*X c #FAFAFA",
"=X c #FBFBFB",
"-X c #FCFCFC",
";X c #FDFDFD",
":X c #FEFEFE",
">X c #FFFFF1",
/* pixels */
"                                                                                                                                                                                                                                                                ",
"                                                                                                                                                                                                                                                                ",
"                                                                                                                                                                                                                                                                ",
"                                                                                                                                                                                                                                                                ",
"                                                                                                                                                                                                                                                                ",
"                                                                                                                                                                                                                                                                ",
"                                                                                                                                                                                                                                                                ",
"                                                                                                                                                                                                                                                                ",
"                                                                                                                                                                                                                                                                ",
"                                                                                                                                                                                                                                                                ",
"                                                                                                                                                                                                                                                                ",
"                                                                                                                                                                                                                                                                ",
"                                                                                                                                                                                                                                                                ",
"                                                                                                                                                                                                                                                                ",
"                                                                                                                                                                                                                        G b p u 8 u p B                         ",
"                                                                                                                                                                                                  Y B B b           p - @ @ @ @ @ @ @ @ u                       ",
"                                                                                                                                                                              J B B p 8       - @ @ @ @ @         8 @ @ @ @ @ @ o o o o @                       ",
"                                                                                                                                                                            @ @ @ @ @ @     p @ @ @ @ @ @ @     u @ @ @ @ - p G Y ] ] Y p -                     ",
"                                                                                                                                      J b b u u 8 - - @                     @ @ @ @ @ @ @   - @ @ @ - 8 u b     @ @ @ 8 X.z.(.oXoX>X>XoX(.8.                    ",
"                                                                                                                                      - @ @ @ @ @ @ @ @ @   ) B b p p p     @ @ - 8 p B J Y @ @ - :.m.I.(.'.'.  @ @ u z.>X>X>X>XoX>X>X>X>XoX                    ",
"                                                                                                                                      - @ @ @ @ o @ @ @ @ 8 - @ @ @ @ @ @ - @ @ Y E.(.'.oX(.B o ) oX>X>X>X>XoX    @ 8.>X>X>XE.=.Y X.E.>X>X>X'.                  ",
"                                                                ]                                             ) Y Y         p 8 8 8 p - @ @ b G ) ) ] 8.y.z.B @ @ @ @ o o o @ o X.>X>X>X>X>Xd.8 m.>X>X>X>X>XoX    u I.>X>XoX) o o o :.>X>X>XoX                  ",
"                                                      G p 8 8 - - @ - -                       Y B     Y p 8 - - @ @ - -   8 @ @ @ @ @ @ @ 8 Z.oX>X(.m.>X>XoXJ o - p J ] X.X.J - X.>X>X>X>X>XoXd.oXoX>X>X>X>XoX      E.>X>XoX] @ @ b Z.>X>X>XoX                  ",
"                                        Y 8 - @ @ p 8 @ @ @ @ @ @ @ @ @ @ @       G 8 - - 8 @ @ @ @ 8 @ @ @ @ @ @ @ @ @ @ @ @ @ @ @ @ @ @ 8 I.>X>XE.m.>X>XoXJ G d.(.oXoX>X>XoXy.@.>X>X>XoX>X>X>X>XoX'.>X>X>XoX      '.>X>X>X'.z.z.(.>X>X>XoX                    ",
"                              b - - @ - u @ @ @ @ @ @ @ @ @ @ @ o @ - 8 u p p   B @ @ @ @ @ @ @ @ @ @ @ @ @ @ @ @ - u p p u @ @ - ] y.z.y.X.E.>X>XE.m.>X>XoX@.E.>X>XI.r.(.>X>XoXd.oX>X>X'.'.>X>X>XE.r.>X>X>XoX        oX>X>X>X>X>X>X>X>XoX                      ",
"                              8 @ @ @ @ @ @ @ @ @ - 8 u p - @ b O.r.m.I.E.E.E.E.X.@ @ @ @ @ @ - @ - p b G u - Y r.Z.(.'.'.(.y.b @.oX>X>X>XoXoX>X>XE.z.>X>XoXZ.oXoXoX(.I.'.>X>XoXz.oX>X>XoXE.oX>X>Xd.@.>X>X>XoX          oXoXoXoXoXoXoX                          ",
"            J b u 8 8 8     u @ @ @ @ @ @ - u u - :.I.(.E.B =.'.>X>X>X'.oX>X>X>X(.u @ @ - ] z.m.:.r.(.'.oX] 8.oX>X>X(.(.>X>X>Xm.I.>X>XoX8.@.oX>X>XE.m.>X>XoXm.E.E.E.r.X.I.>X>X(.8.oX>X>XoX  oX>XoX    oX>XoX                                                    ",
"        ) 8 @ @ @ @ @ @ @ - @ @ @ @ @ - r.I.(.I.u d.oX'.I.O.'.'.'.'.y.X.Z.>X>X>XoXG @ @ ) oX>X>X>XoX>X>XoXy.oX>X>Xd.u Y oX>X>X'.'.>X>X'.p 8 E.>X>XE.m.>X>XoX(.oX>X>XoXoX>XoXoX  y.oX>XoX                                                                        ",
"        8 @ @ @ @ @ @ @ @ @ @ - @ @ @ b E.>X>X'.:.z.E.(.I.J X.z.E.'.(.'.>X>X>XoXoX    @ r.>X>XoX=.z.>X>XoXZ.oX>X>Xy.- ) oX>X>XZ.(.>X>X>X  u I.>X>X(.m.>X>XoX    oX>X>XoXoX                                                                                      ",
"        - @ @ @ @ @ - G @.r.z.z.d.@.p Z.>X>X>X>XoX'.>X>X'.O.E.>X>X>X>XoX'.(.Z.=.        m.oXoXm.u :.>X>XoXZ.oX>X>XoXI.'.>X>X>X@.E.>X>XoX    (.oXoX                                                                                                              ",
"        - @ @ @ @ p d.oX>X'.(.>X>X>Xz.E.oX>X>XoXy.I.>X>X'.Z.>X>X>XoX8.J y.(.E.(.'.              o 8.>X>X>X    oXoX>X>X>XoX                                                                                                                                      ",
"        @ @ @ @ @ 8.>X>XoXm.m.oX>X>XE.Y I.>X>X(.p z.>X>X'.I.>X>X>X>XI.Z.oX>X>X>XoX                  >XoX                                                                                                                                                        ",
"            @ @ - m.oX'.(.z.d.oX>X>XE.8.'.>X>X(.p z.>X>XoXI.oX>X>X>X>X>X>XoXoX                                                                                                                                                                                  ",
"              @ - d.(.'.(.r.d.oX>XoXr.E.>X>X>X'.  m.>X>XoX                                                                                                                                                                                                      ",
"                  Z.>X>X>X>X>X>XoX      >X                                                                                                                                                                                                                      ",
"                                                                                                                                                                                                                                                                ",
"                                                                                                                                                                                                                                                                ",
"                                                                                                                                                                                                                                                                ",
"                                                                                                                                                                                                                                                                ",
"                                                                                                                                                                                                                                                                ",
"                                                                                                                                                                                                                                                                ",
"                                                                                                                                                                                                                                                                ",
"                                                                                                                                                                                                                                                                ",
"                                                                                                                                                                                                                                                                ",
"                                                                                                                                                                                                                                                                ",
"                                                                                                                                                                                                                                                                ",
"                                                                                                                                                                                                                                                                ",
"                                                                                                                                                                                                                                                                ",
"                                                                                                                                                                                                                                                                ",
"                                                                                                                                                                                                                                                                ",
"                                                                                                                                                                                                                                                                ",
"                                                                                                                                                                                                                                                                ",
"                                                                                                                                                                                                                                                                ",
"                                                                                                                                                                                                                                                                "
};
