/* XPM */
static char *oms_308[] = {
/* columns rows colors chars-per-pixel */
"128 54 181 2 ",
"   c #FF00FF",
".  c #090909",
"X  c #0B0B0B",
"o  c #0C0C0C",
"O  c #0D0D0D",
"+  c #0E0E0E",
"@  c #0F0F0F",
"#  c #101010",
"$  c #111111",
"%  c #121212",
"&  c #131313",
"*  c #141414",
"=  c #151515",
"-  c #161616",
";  c #171717",
":  c #181818",
">  c #191919",
",  c #1A1A1A",
"<  c #1B1B1B",
"1  c #1C1C1C",
"2  c #1D1D1D",
"3  c #1E1E1E",
"4  c #1F1F1F",
"5  c #202020",
"6  c #212121",
"7  c #222222",
"8  c #232323",
"9  c #242424",
"0  c #252525",
"q  c #262626",
"w  c #292929",
"e  c #2A2A2A",
"r  c #2B2B2B",
"t  c #2C2C2C",
"y  c #2F2F2F",
"u  c #303030",
"i  c #313131",
"p  c #333333",
"a  c #353535",
"s  c #363636",
"d  c #3A3A3A",
"f  c #3B3B3B",
"g  c #3E3E3E",
"h  c #3F3F3F",
"j  c #414141",
"k  c #424242",
"l  c #434343",
"z  c #444444",
"x  c #454545",
"c  c #464646",
"v  c #484848",
"b  c #494949",
"n  c #4A4A4A",
"m  c #4B4B4B",
"M  c #4C4C4C",
"N  c #525252",
"B  c #555555",
"V  c #565656",
"C  c #575757",
"Z  c #5A5A5A",
"A  c #5C5C5C",
"S  c #5D5D5D",
"D  c #5E5E5E",
"F  c #5F5F5F",
"G  c #606060",
"H  c #616161",
"J  c #626262",
"K  c #636363",
"L  c #656565",
"P  c #676767",
"I  c #686868",
"U  c #696969",
"Y  c #6C6C6C",
"T  c #707070",
"R  c #717171",
"E  c #727272",
"W  c #747474",
"Q  c #757575",
"!  c #767676",
"~  c #777777",
"^  c #7E7E7E",
"/  c #808080",
"(  c #808080",
")  c #848484",
"_  c #858585",
"`  c #868686",
"'  c #878787",
"]  c #888888",
"[  c #898989",
"{  c #8D8D8D",
"}  c #8E8E8E",
"|  c #8F8F8F",
" . c #909090",
".. c #919191",
"X. c #929292",
"o. c #939393",
"O. c #949494",
"+. c #959595",
"@. c #969696",
"#. c #979797",
"$. c #989898",
"%. c #999999",
"&. c #9A9A9A",
"*. c #9D9D9D",
"=. c #9E9E9E",
"-. c #9F9F9F",
";. c #A0A0A0",
":. c #A3A3A3",
">. c #A4A4A4",
",. c #A5A5A5",
"<. c #A6A6A6",
"1. c #A7A7A7",
"2. c #AAAAAA",
"3. c #ABABAB",
"4. c #ADADAD",
"5. c #AEAEAE",
"6. c #B0B0B0",
"7. c #B2B2B2",
"8. c #B2B2B2",
"9. c #B4B4B4",
"0. c #B5B5B5",
"q. c #B6B6B6",
"w. c #B7B7B7",
"e. c #B8B8B8",
"r. c #B9B9B9",
"t. c #BABABA",
"y. c #BCBCBC",
"u. c #C0C0C0",
"i. c #C2C2C2",
"p. c #C3C3C3",
"a. c #C4C4C4",
"s. c #C8C8C8",
"d. c #C9C9C9",
"f. c #CCCCCC",
"g. c #CECECE",
"h. c #CFCFCF",
"j. c #D1D1D1",
"k. c #D2D2D2",
"l. c #D3D3D3",
"z. c #D4D4D4",
"x. c #D5D5D5",
"c. c #D6D6D6",
"v. c #D7D7D7",
"b. c #D8D8D8",
"n. c #D9D9D9",
"m. c #DADADA",
"M. c #DBDBDB",
"N. c #DCDCDC",
"B. c #DDDDDD",
"V. c #DEDEDE",
"C. c #DFDFDF",
"Z. c #E0E0E0",
"A. c #E1E1E1",
"S. c #E2E2E2",
"D. c #E4E4E4",
"F. c #E6E6E6",
"G. c #E7E7E7",
"H. c #E8E8E8",
"J. c #E9E9E9",
"K. c #EAEAEA",
"L. c #EBEBEB",
"P. c #ECECEC",
"I. c #EDEDED",
"U. c #EEEEEE",
"Y. c #EFEFEF",
"T. c #F0F0F0",
"R. c #F1F1F1",
"E. c #F2F2F2",
"W. c #F3F3F3",
"Q. c #F4F4F4",
"!. c #F5F5F5",
"~. c #F6F6F6",
"^. c #F7F7F7",
"/. c #F8F8F8",
"(. c #F9F9F9",
"). c #FAFAFA",
"_. c #FBFBFB",
"`. c #FCFCFC",
"'. c #FDFDFD",
"]. c #FEFEFE",
"[. c #FFFFF1",
/* pixels */
"                                                                                                                                                                                                                                                                ",
"                                                                                                                                                                                                                                                                ",
"                                                                                                                                                                                                                                                                ",
"                                                                                                                                                                                                                                                                ",
"                                                                                                                                                                                                                                                                ",
"                                                                                                                                                                                                                                                                ",
"                                                                                                                                                                                                                                                                ",
"                                                                                                                                                                                                                                                                ",
"                                                                                                                                                                                                                                                                ",
"                                                                                                                                                                                                                                                                ",
"                                                                                                                                                                                                                                                                ",
"                                                                                                                                                                                                                                                                ",
"                                                                                                                                                                                                                                                                ",
"                                                                                                                                                                                                                                                                ",
"                                                                                                                                                                                                                                                                ",
"                                                                                                                                                                                                                                                                ",
"                                                                                                                                                                                                                                                                ",
"                                                                                                                                                                                                                                                                ",
"                                            I.    < $ $ $ $ X $ $ $ 0 b                                                                                                                                                                                         ",
"                                        /././.^.I.>.t $ $ i b i < $ $ $ t $ $ $ $ 0                                                                                                                                                                             ",
"                                        /./././././.>.< X ^ ^.I.u.t < P F j 0 $ $ $ $ 0 $ $ < < O.                                                                                                                                                              ",
"                                      ^./.^.>.) b./.I.h X ) /././.F h I./.^.I $ $ $ $ $ $ 0 < $ P           $ <                                                                                                                                                 ",
"                                      /./.A.i X T /./.P X ) /././.*.^ /././.T X $ X $ $ t u.f.] O.T 0 $ $ $ $ $ $ $ $ N                                                                                                                                         ",
"                                      ^./.I.j X P /./.T X ) /././.b.z./././.T i T T b < t b./.z.^.^.b X $ $ $ $ $ $ $ N                                                                                                                                         ",
"                                        /./.u.T u././.P X ) /./.^./././././.O.z././.^.0.j b./.z.^.^.b $ $ $ $ $ $ $ $ t h <                                                                                                                                     ",
"                                        /./././././.I.j X ) /.^.b././.A.^.^.f.^.^.t.A./.>.b./.z.^.^.O.0.5.h $ t h i < $ $ X < 0 $ $ $ t             $ $ X X $ $ < < i                                                                                           ",
"                                          ^././././.>.< X ) /.I.*.^./.>.I.^.z./.^.A.I./.b.A./.z.^././././.5.F b.^.A.u.F 0 N h < 0 $ $ $ j I./.^.I.z.) 0 N F i $ X $ $ < $ $ 0 P                                                                                 ",
"                                                          b./.I.F A.A.I I.^.u.^.^.O.5.z.f.I./.z.^./.0.z./.b.f./.^.I./.A.] I.I.>.f.*.0 X T /./.A.A././.O.f./.*.j F h $ $ $ $ $ $ $ < ]                                                                           ",
"                                                                  b.u.N I./.O.z./.b.A.^.z.A./.z.^.^.b ] /.I.A./.t.b A./.z.^././././.P X T /./.u.) b.A.u.t.A.O.*./.z.0 $ $ $ $ $ $ < T                                                                           ",
"                                                                                /././.^.>.A./.z.^.^.j ) /.A.b./.5.0 z./.^././.0.I./.] X j I././.I.I.u.F u.I.t.z./.I.j $ 0 0 < $ $ $ 0 0 $ < 0 N                                                                 ",
"                                                                                            ^.z.^.I.b ] /.b.5./.I.0.^./.A.^.^.I 5.I.] $ 0 ) b.^./././.t.z./.A.^././.*.] z.b.0.P $ $ $ $ $ $ $ < I                                                               ",
"                                                                                                        /.z.P ^./././.I.*.^.^.F < i t $ T z.b.>.] ^./.^.^./.f.z././.z.^./.A.^.^.P $ $ $ $ $ $ $ h                                                               ",
"                                                                                                                  ^.^.    ^.^.F X $ $ X O././.b.5.^./.^.^./.*.O./.A.*./.^.u.A./.0.$ $ $ $ $ $ $ t                                                               ",
"                                                                                                                                          ^./././././.f.b./.*.O./.I.0./.^.f.z.I.u.< $ $ $ $ $ $ i                                                               ",
"                                                                                                                                              ^.^.^.^.  b./.*.) /./.z.I./.>.0.b.5.< $ $ $ $ $ $ j                                                               ",
"                                                                                                                                                                ^./.5.u././././.0.$ $ $ $ $ $                                                                   ",
"                                                                                                                                                                          ^.^.^.                                                                                ",
"                                                                                                                                                                                                                                                                ",
"                                                                                                                                                                                                                                                                ",
"                                                                                                                                                                                                                                                                ",
"                                                                                                                                                                                                                                                                ",
"                                                                                                                                                                                                                                                                ",
"                                                                                                                                                                                                                                                                ",
"                                                                                                                                                                                                                                                                ",
"                                                                                                                                                                                                                                                                ",
"                                                                                                                                                                                                                                                                ",
"                                                                                                                                                                                                                                                                ",
"                                                                                                                                                                                                                                                                ",
"                                                                                                                                                                                                                                                                ",
"                                                                                                                                                                                                                                                                ",
"                                                                                                                                                                                                                                                                ",
"                                                                                                                                                                                                                                                                ",
"                                                                                                                                                                                                                                                                ",
"                                                                                                                                                                                                                                                                "
};
