/* XPM */
static char *oms_085[] = {
/* columns rows colors chars-per-pixel */
"128 54 139 2 ",
"   c #FF00FF",
".  c #0D0D0D",
"X  c #0F0F0F",
"o  c #101010",
"O  c #111111",
"+  c #121212",
"@  c #131313",
"#  c #141414",
"$  c #151515",
"%  c #161616",
"&  c #171717",
"*  c #181818",
"=  c #191919",
"-  c #1A1A1A",
";  c #1B1B1B",
":  c #1C1C1C",
">  c #1E1E1E",
",  c #202020",
"<  c #212121",
"1  c #222222",
"2  c #232323",
"3  c #242424",
"4  c #292929",
"5  c #2E2E2E",
"6  c #2F2F2F",
"7  c #303030",
"8  c #323232",
"9  c #353535",
"0  c #373737",
"q  c #383838",
"w  c #3A3A3A",
"e  c #414141",
"r  c #424242",
"t  c #454545",
"y  c #464646",
"u  c #4B4B4B",
"i  c #4C4C4C",
"p  c #4E4E4E",
"a  c #505050",
"s  c #525252",
"d  c #535353",
"f  c #565656",
"g  c #595959",
"h  c #5A5A5A",
"j  c #5B5B5B",
"k  c #5C5C5C",
"l  c #5E5E5E",
"z  c #636363",
"x  c #646464",
"c  c #666666",
"v  c #686868",
"b  c #6A6A6A",
"n  c #6B6B6B",
"m  c #6C6C6C",
"M  c #6E6E6E",
"N  c #757575",
"B  c #767676",
"V  c #787878",
"C  c #7B7B7B",
"Z  c #7D7D7D",
"A  c #808080",
"S  c #818181",
"D  c #828282",
"F  c #838383",
"G  c #848484",
"H  c #868686",
"J  c #898989",
"K  c #8A8A8A",
"L  c #8B8B8B",
"P  c #919191",
"I  c #939393",
"U  c #949494",
"Y  c #959595",
"T  c #969696",
"R  c #989898",
"E  c #9D9D9D",
"W  c #A0A0A0",
"Q  c #A2A2A2",
"!  c #A5A5A5",
"~  c #A8A8A8",
"^  c #A9A9A9",
"/  c #AAAAAA",
"(  c #ACACAC",
")  c #AFAFAF",
"_  c #B2B2B2",
"`  c #B2B2B2",
"'  c #B6B6B6",
"]  c #B7B7B7",
"[  c #BABABA",
"{  c #BDBDBD",
"}  c #BFBFBF",
"|  c #C0C0C0",
" . c #C1C1C1",
".. c #C2C2C2",
"X. c #C3C3C3",
"o. c #C4C4C4",
"O. c #C8C8C8",
"+. c #C9C9C9",
"@. c #CACACA",
"#. c #CDCDCD",
"$. c #CFCFCF",
"%. c #D0D0D0",
"&. c #D1D1D1",
"*. c #D2D2D2",
"=. c #D3D3D3",
"-. c #D4D4D4",
";. c #D5D5D5",
":. c #D6D6D6",
">. c #D7D7D7",
",. c #D8D8D8",
"<. c #D9D9D9",
"1. c #DADADA",
"2. c #DBDBDB",
"3. c #DCDCDC",
"4. c #DDDDDD",
"5. c #DEDEDE",
"6. c #DFDFDF",
"7. c #E0E0E0",
"8. c #E1E1E1",
"9. c #E2E2E2",
"0. c #E3E3E3",
"q. c #E4E4E4",
"w. c #E7E7E7",
"e. c #E8E8E8",
"r. c #E9E9E9",
"t. c #EAEAEA",
"y. c #ECECEC",
"u. c #EDEDED",
"i. c #F1F1F1",
"p. c #F2F2F2",
"a. c #F3F3F3",
"s. c #F5F5F5",
"d. c #F6F6F6",
"f. c #F7F7F7",
"g. c #F9F9F9",
"h. c #FAFAFA",
"j. c #FBFBFB",
"k. c #FDFDFD",
"l. c #FEFEFE",
/* pixels */
"                                                                                                                                                                                                                                                                ",
"                                                                                                                                                                                                                                                                ",
"                                                                                                                                                                                                                                                                ",
"                                                                                                                                                                                                                                                                ",
"                                                                                                                                                                                                                                                                ",
"                                                                                                                                                                                                                                                                ",
"                                                                                                                                                                                                                                                                ",
"                                                                                                                                                                                                                                                                ",
"                                                                                                                                                                                                                                                                ",
"                                                                                                                                                                                                                                                                ",
"                                                                                                                                                                                                                                                                ",
"                                                                                                                                                                                                                                                                ",
"                                                                                                                                                                                                                                                                ",
"                                                                                                                                                                                                                                                                ",
"                                                                                                                                                                                                                                                                ",
"                                                                                                                                                                                                                                                                ",
"                                                                                                                                            6 o o o o = = o o = = Z W '                                                                                         ",
"                                                                                                                                          w o o o o o o o o o = z ( ( <.                                                                                        ",
"                                                                                                                                        t X o o o o o o o o o d t.@.<.<.                                                                                        ",
"                                                                                                                                      W 2 o o o o o o o o o o H 0.<.s.t.                                                                                        ",
"                                                                                                                                      R = o o o o o o o o o o Y { ;.<.@.                                                                                        ",
"                                                                                                                                      H = o o o o o o o o o = W h.;.<.s.                                                                                        ",
"                                                                                                                                    z 2 o o o o o o o o o 2 v W h.;.@.t.                                                                                        ",
"                                                                                                                                  l 2 o o o o o o o o o 2 H  .v @.<.;.                                                                                          ",
"                                                                                                                            J 2 = o o o o o o o o 2 N 2 Y 0.@.Y <.0.                                                                                            ",
"                                                                                                                            d o o o o o o o o o X l @.z ;.t.Y ( h.                                                                                              ",
"                                                                                                                            t o o o o o o o o o o z 0.;. .<.d J                                                                                                 ",
"                                                                                                                        w o = o o o o o o o o l 7 z s.h.' 0.                                                                                                    ",
"                                                                                                                      t = o o o o o o o o o 7 ( H ' 0.0.<.<.                                                                                                    ",
"                                                                                                                    Z = o o o o o o o o X 6 (  .;.t.;.{ s.                                                                                                      ",
"                                                                                                                  w 2 o o o o o o o o o 7 t @.<.0.t.;.' 0.                                                                                                      ",
"                                                                                                                H = o o o o o o o o o 6  .Z <.s.t.<.0. .                                                                                                        ",
"                                                                                                                v o o o o o o o o o X d s.J 0.h.<.;.s.                                                                                                          ",
"                                                                                                                l o o o o o o o o o X N 0.Y <.s.s.t.                                                                                                            ",
"                                                                                                                p o o o o o o o o o o N Y Y @.<.0.                                                                                                              ",
"                                                                                                                p o o o o o o o o o o N H J { ;.                                                                                                                ",
"                                                                                                                p o o o o o o o o o o H ( H  .                                                                                                                  ",
"                                                                                                                l o o o o o o o o o o J s.R                                                                                                                     ",
"                                                                                                                v o o o o o o o o o X H h.                                                                                                                      ",
"                                                                                                                                o o X v s.                                                                                                                      ",
"                                                                                                                                                                                                                                                                ",
"                                                                                                                                                                                                                                                                ",
"                                                                                                                                                                                                                                                                ",
"                                                                                                                                                                                                                                                                ",
"                                                                                                                                                                                                                                                                ",
"                                                                                                                                                                                                                                                                ",
"                                                                                                                                                                                                                                                                ",
"                                                                                                                                                                                                                                                                ",
"                                                                                                                                                                                                                                                                ",
"                                                                                                                                                                                                                                                                ",
"                                                                                                                                                                                                                                                                ",
"                                                                                                                                                                                                                                                                ",
"                                                                                                                                                                                                                                                                ",
"                                                                                                                                                                                                                                                                "
};
