/* XPM */
static char *oms_096[] = {
/* columns rows colors chars-per-pixel */
"128 54 97 2 ",
"   c #FF00FF",
".  c #0E0E0E",
"X  c #0F0F0F",
"o  c #101010",
"O  c #111111",
"+  c #121212",
"@  c #131313",
"#  c #141414",
"$  c #151515",
"%  c #161616",
"&  c #171717",
"*  c #181818",
"=  c #191919",
"-  c #1B1B1B",
";  c #1C1C1C",
":  c #1D1D1D",
">  c #1E1E1E",
",  c #202020",
"<  c #212121",
"1  c #222222",
"2  c #232323",
"3  c #242424",
"4  c #252525",
"5  c #262626",
"6  c #272727",
"7  c #282828",
"8  c #292929",
"9  c #2C2C2C",
"0  c #2D2D2D",
"q  c #2F2F2F",
"w  c #303030",
"e  c #323232",
"r  c #333333",
"t  c #343434",
"y  c #373737",
"u  c #393939",
"i  c #3A3A3A",
"p  c #3C3C3C",
"a  c #3D3D3D",
"s  c #3E3E3E",
"d  c #3F3F3F",
"f  c #434343",
"g  c #444444",
"h  c #454545",
"j  c #464646",
"k  c #494949",
"l  c #4A4A4A",
"z  c #4C4C4C",
"x  c #4C4C4C",
"c  c #515151",
"v  c #535353",
"b  c #555555",
"n  c #5C5C5C",
"m  c #5D5D5D",
"M  c #676767",
"N  c #686868",
"B  c #707070",
"V  c #717171",
"C  c #777777",
"Z  c #787878",
"A  c #797979",
"S  c #7B7B7B",
"D  c #7D7D7D",
"F  c #8A8A8A",
"G  c #8C8C8C",
"H  c #919191",
"J  c #969696",
"K  c #989898",
"L  c #9D9D9D",
"P  c #9F9F9F",
"I  c #A2A2A2",
"U  c #ABABAB",
"Y  c #ADADAD",
"T  c #B1B1B1",
"R  c #B4B4B4",
"E  c #B6B6B6",
"W  c #B9B9B9",
"Q  c #BABABA",
"!  c #BBBBBB",
"~  c #C3C3C3",
"^  c #C5C5C5",
"/  c #C6C6C6",
"(  c #CBCBCB",
")  c #CCCCCC",
"_  c #D6D6D6",
"`  c #DEDEDE",
"'  c #DFDFDF",
"]  c #E1E1E1",
"[  c #E2E2E2",
"{  c #E4E4E4",
"}  c #E6E6E6",
"|  c #E6E6E6",
" . c #E8E8E8",
".. c #EBEBEB",
"X. c #ECECEC",
"o. c #EFEFEF",
"O. c #F0F0F0",
/* pixels */
"                                                                                                                                                                                                                                                                ",
"                                                                                                                                                                                                                                                                ",
"                                                                                                                                                                                                                                                                ",
"                                                                                                                                                                                                                                                                ",
"                                                                                                                                                                                                                                                                ",
"                                                                                                                                                                                                                                                                ",
"                                                                                                                                                                                                                                                                ",
"                                                                                                                                                                                                                                                                ",
"                                                                                                                                                                                                                                                                ",
"                                                                                                                                                                                                                                                                ",
"                                                                                                                                                                                                                                                                ",
"                                                                                                                                                                                                                                                                ",
"                                                                                                                                                                                                                                                                ",
"                                                                                                                                                                                                                                                                ",
"                                                                                                                                                                                                                                                                ",
"                                                                                                                          F - - - O O 6 6 6 - O w U                                                                                                             ",
"                                                                                                                          P 6 O O O O O O O O O - B                                                                                                             ",
"                                                                                                                          { m X O O O O O O O O O f                                                                                                             ",
"                                                                                                                          o.Z O O O O O O O O O O p (                                                                                                           ",
"                                                                                                                          _ Z O O O O O O O O O O p                                                                                                             ",
"                                                                                                                          { F O O O O O O O O O O q !                                                                                                           ",
"                                                                                                                          o.P - O O O O O O O O O q I                                                                                                           ",
"                                                                                                                            P p O O O O O O O O O - M                                                                                                           ",
"                                                                                                                            ^ Z - O O O O O O O O O w                                                                                                           ",
"                                                                                                                            ^ T b O O O O O O O O O O m                                                                                                         ",
"                                                                                                                              ( P - O O O O O O O O O 6 H                                                                                                       ",
"                                                                                                                              ` T O O O O O O O O O O O H                                                                                                       ",
"                                                                                                                              { T w O O O O O O O O O O Z                                                                                                       ",
"                                                                                                                              o.^ Z - O O O O O O O O O p Z                                                                                                     ",
"                                                                                                                                ` T q O O O O O O O O O 6 B                                                                                                     ",
"                                                                                                                                O.{ f O O O O O O O O O O b                                                                                                     ",
"                                                                                                                                o.{ B - O O O O O O O O O p U                                                                                                   ",
"                                                                                                                                  ` U q O O O O O O O O O O B                                                                                                   ",
"                                                                                                                                  { ! p O O O O O O O O O X b                                                                                                   ",
"                                                                                                                                  { I p O O O O O O O O O - m                                                                                                   ",
"                                                                                                                                    H w O 6 - O O O O O O w Z                                                                                                   ",
"                                                                                                                                    ! f O w q - - 6 6 6 O p M                                                                                                   ",
"                                                                                                                                      z O O O 6 6 6 O - 6 q z                                                                                                   ",
"                                                                                                                                      f O O O O O O O O O O f                                                                                                   ",
"                                                                                                                                      z - 6 6 - O O O - O O z                                                                                                   ",
"                                                                                                                                                                                                                                                                ",
"                                                                                                                                                                                                                                                                ",
"                                                                                                                                                                                                                                                                ",
"                                                                                                                                                                                                                                                                ",
"                                                                                                                                                                                                                                                                ",
"                                                                                                                                                                                                                                                                ",
"                                                                                                                                                                                                                                                                ",
"                                                                                                                                                                                                                                                                ",
"                                                                                                                                                                                                                                                                ",
"                                                                                                                                                                                                                                                                ",
"                                                                                                                                                                                                                                                                ",
"                                                                                                                                                                                                                                                                ",
"                                                                                                                                                                                                                                                                ",
"                                                                                                                                                                                                                                                                "
};
