/* XPM */
static char *oms_297[] = {
/* columns rows colors chars-per-pixel */
"128 54 176 2 ",
"   c #FF00FF",
".  c #080808",
"X  c #0C0C0C",
"o  c #0E0E0E",
"O  c #0F0F0F",
"+  c #101010",
"@  c #111111",
"#  c #121212",
"$  c #131313",
"%  c #141414",
"&  c #151515",
"*  c #161616",
"=  c #171717",
"-  c #181818",
";  c #191919",
":  c #1A1A1A",
">  c #1B1B1B",
",  c #1C1C1C",
"<  c #1D1D1D",
"1  c #1E1E1E",
"2  c #1F1F1F",
"3  c #202020",
"4  c #222222",
"5  c #232323",
"6  c #242424",
"7  c #252525",
"8  c #262626",
"9  c #272727",
"0  c #292929",
"q  c #2C2C2C",
"w  c #2D2D2D",
"e  c #2F2F2F",
"r  c #303030",
"t  c #313131",
"y  c #323232",
"u  c #333333",
"i  c #343434",
"p  c #353535",
"a  c #3A3A3A",
"s  c #3C3C3C",
"d  c #3D3D3D",
"f  c #3E3E3E",
"g  c #3F3F3F",
"h  c #404040",
"j  c #414141",
"k  c #434343",
"l  c #444444",
"z  c #454545",
"x  c #464646",
"c  c #474747",
"v  c #4B4B4B",
"b  c #4C4C4C",
"n  c #4E4E4E",
"m  c #4F4F4F",
"M  c #515151",
"N  c #525252",
"B  c #535353",
"V  c #545454",
"C  c #585858",
"Z  c #5C5C5C",
"A  c #5D5D5D",
"S  c #5F5F5F",
"D  c #626262",
"F  c #646464",
"G  c #666666",
"H  c #676767",
"J  c #686868",
"K  c #696969",
"L  c #6A6A6A",
"P  c #6C6C6C",
"I  c #6E6E6E",
"U  c #707070",
"Y  c #717171",
"T  c #757575",
"R  c #767676",
"E  c #777777",
"W  c #787878",
"Q  c #797979",
"!  c #7D7D7D",
"~  c #818181",
"^  c #828282",
"/  c #838383",
"(  c #848484",
")  c #858585",
"_  c #868686",
"`  c #878787",
"'  c #8B8B8B",
"]  c #8D8D8D",
"[  c #8E8E8E",
"{  c #8F8F8F",
"}  c #909090",
"|  c #949494",
" . c #969696",
".. c #989898",
"X. c #9A9A9A",
"o. c #9B9B9B",
"O. c #9E9E9E",
"+. c #A1A1A1",
"@. c #A3A3A3",
"#. c #A8A8A8",
"$. c #A9A9A9",
"%. c #ABABAB",
"&. c #ADADAD",
"*. c #AEAEAE",
"=. c #AFAFAF",
"-. c #B2B2B2",
";. c #B2B2B2",
":. c #B4B4B4",
">. c #B5B5B5",
",. c #B6B6B6",
"<. c #B8B8B8",
"1. c #BABABA",
"2. c #BBBBBB",
"3. c #BCBCBC",
"4. c #BDBDBD",
"5. c #808080",
"6. c #BFBFBF",
"7. c #C0C0C0",
"8. c #C1C1C1",
"9. c #C3C3C3",
"0. c #C5C5C5",
"q. c #C7C7C7",
"w. c #C8C8C8",
"e. c #C9C9C9",
"r. c #CACACA",
"t. c #CBCBCB",
"y. c #CCCCCC",
"u. c #CDCDCD",
"i. c #CECECE",
"p. c #CFCFCF",
"a. c #D0D0D0",
"s. c #D2D2D2",
"d. c #D3D3D3",
"f. c #D4D4D4",
"g. c #D5D5D5",
"h. c #D6D6D6",
"j. c #D7D7D7",
"k. c #D8D8D8",
"l. c #D9D9D9",
"z. c #DADADA",
"x. c #DBDBDB",
"c. c #DCDCDC",
"v. c #DDDDDD",
"b. c #DFDFDF",
"n. c #E0E0E0",
"m. c #E1E1E1",
"M. c #E2E2E2",
"N. c #E3E3E3",
"B. c #E4E4E4",
"V. c #E6E6E6",
"C. c #E6E6E6",
"Z. c #E7E7E7",
"A. c #E8E8E8",
"S. c #E9E9E9",
"D. c #EAEAEA",
"F. c #EBEBEB",
"G. c #ECECEC",
"H. c #EDEDED",
"J. c #EEEEEE",
"K. c #EFEFEF",
"L. c #F0F0F0",
"P. c #F1F1F1",
"I. c #F2F2F2",
"U. c #F3F3F3",
"Y. c #F4F4F4",
"T. c #F5F5F5",
"R. c #F6F6F6",
"E. c #F7F7F7",
"W. c #F8F8F8",
"Q. c #F9F9F9",
"!. c #FAFAFA",
"~. c #FBFBFB",
"^. c #FCFCFC",
"/. c #FDFDFD",
"(. c #FEFEFE",
"). c #FFFFF1",
/* pixels */
"                                                                                                                                                                                                                                                                ",
"                                                                                                                                                                                                                                                                ",
"                                                                                                                                                                                                                                                                ",
"                                                                                                                                                                                                                                                                ",
"                                                                                                                                                                                                                                                                ",
"                                                                                                                                                                                                                                                                ",
"                                                                                                                                                                                                                                                                ",
"                                                                                                                                                                                                                                                                ",
"                                                                                                                                                                                                                                                                ",
"                                                                                                                                                                                                                                                                ",
"                                                                                                                                                                                                                                                                ",
"                                                                                                                                                                                                                                                                ",
"                                                                                                                                                                                                                                                                ",
"                                                                                                                                                                                                                                                                ",
"                                                                                                                                                                                                                                                                ",
"                                                                                                                                                                                                                                                                ",
"                                                                                * * u                                                                                                                                                                           ",
"                                                          Y.W.A.` : * * * * * * * * * 0 `                                                                                                                                                                       ",
"                                                          W.W.W.Y.D O B ` l * * O * * * : : * : s                                                                                                                                                               ",
"                                                          W.g.r.W.1.* W W.M.u m D 0 * * * * * * * 4 * 4 S                                                                                                                                                       ",
"                                                          W.D u M.z.4 T W.Y.S =.W.1.: * * * * O * * * O s                                                                                                                                                       ",
"                                                          W.S * q.M.0 T W.W.X.g.W.r.: O * * B K u : * * : 4 * * * * 0 u                                                                                                                                         ",
"                                                          W.=.B M.A.u T W.W.M.Y.W.r.u m u * [ Y.r.1.u * * * * * * * * * l                                                                                                                                       ",
"                                                          W.W.Y.W.z.4 T W.Y.W.W.W.g.-.Y.M.D [ Y.z.A.l O * * * * * * * * l                                                                                                                                       ",
"                                                          Y.W.W.W.-.* T W.r.Y.A.Y.M.A.A.M.z.=.Y.z.A.m 4 * * * * * * * * : 4 B                                                                                                                                   ",
"                                                              Y.Y.K O X.Y.+.A.q.z.A.A.A.M.Y.z.Y.z.Y.r.g.m : s 4 * * * * * * : 0 O : S                                                                                                                           ",
"                                                                        Y.` g.X.g.M.A.z.-.M.z.Y.z.W.W.W.=.+.Y.g.D 4 4 * * * * l [ T s 4 * * * * * * * : u K                                                                                                     ",
"                                                                              ` M.g.q.A.q.z.g.Y.z.Y.| A.z.A.Y.Y.M.| r.W K : : 1.W.W.M.K s s * * * * * * * : * u                                                                                                 ",
"                                                                                      W.W.A.r.Y.z.A.S g.M.Y.1.` W.g.W.Y.Y.D : g.W.g.Y.z.=.M.m 0 * * * * * * * * 4 4                                                                                             ",
"                                                                                            q.A.z.A.S g.M.A.-.S W.Y.W.M.W.X.: q.W.=.r.z.-.z.W g.K * * * * * * * * * `                                                                                           ",
"                                                                                                  A.D M.r.r.A.q.W.A.Y.X.A.=.* [ W.W.A.X.| g.=.W.| O O O * * * * * * l                                                                                           ",
"                                                                                                          -.W.W.Y.q.Y.W K K : D r.A.W.M.1.Y.M.W.r.m T B : * * * * * * * * 4 `                                                                                   ",
"                                                                                                              Y.g.=.W.K O * 4 g.M.` z.W.M.Y.g.W.M.r.W.Y.| * * * * * * * * O l                                                                                   ",
"                                                                                                                              A.W.g.A.W.M.A.[ Y.r.M.M.r.A.l O * * * * * * * 0                                                                                   ",
"                                                                                                                                Y.W.W.A.r.A.` Y.1.M.Y.M.W.K O * * * * * * * u                                                                                   ",
"                                                                                                                                    Y.r.1.A.` A.M.A.z.X.z.K * * * * * * * * u                                                                                   ",
"                                                                                                                                              Y.z.q.Y.z.A.D * * * * * * * * l                                                                                   ",
"                                                                                                                                                    Y.W.Y.B O * * *                                                                                             ",
"                                                                                                                                                                                                                                                                ",
"                                                                                                                                                                                                                                                                ",
"                                                                                                                                                                                                                                                                ",
"                                                                                                                                                                                                                                                                ",
"                                                                                                                                                                                                                                                                ",
"                                                                                                                                                                                                                                                                ",
"                                                                                                                                                                                                                                                                ",
"                                                                                                                                                                                                                                                                ",
"                                                                                                                                                                                                                                                                ",
"                                                                                                                                                                                                                                                                ",
"                                                                                                                                                                                                                                                                ",
"                                                                                                                                                                                                                                                                ",
"                                                                                                                                                                                                                                                                ",
"                                                                                                                                                                                                                                                                ",
"                                                                                                                                                                                                                                                                ",
"                                                                                                                                                                                                                                                                "
};
