/* XPM */
static char *oms_278[] = {
/* columns rows colors chars-per-pixel */
"128 54 110 2 ",
"   c #FF00FF",
".  c #0F0F0F",
"X  c #101010",
"o  c #111111",
"O  c #121212",
"+  c #131313",
"@  c #141414",
"#  c #151515",
"$  c #161616",
"%  c #171717",
"&  c #181818",
"*  c #191919",
"=  c #1A1A1A",
"-  c #1B1B1B",
";  c #1C1C1C",
":  c #1D1D1D",
">  c #1F1F1F",
",  c #212121",
"<  c #262626",
"1  c #272727",
"2  c #282828",
"3  c #2A2A2A",
"4  c #2C2C2C",
"5  c #2D2D2D",
"6  c #353535",
"7  c #363636",
"8  c #373737",
"9  c #383838",
"0  c #393939",
"q  c #3D3D3D",
"w  c #414141",
"e  c #424242",
"r  c #444444",
"t  c #4A4A4A",
"y  c #4C4C4C",
"u  c #4E4E4E",
"i  c #505050",
"p  c #515151",
"a  c #525252",
"s  c #535353",
"d  c #545454",
"f  c #565656",
"g  c #5C5C5C",
"h  c #666666",
"j  c #6B6B6B",
"k  c #6C6C6C",
"l  c #6E6E6E",
"z  c #707070",
"x  c #717171",
"c  c #727272",
"v  c #747474",
"b  c #757575",
"n  c #787878",
"m  c #7B7B7B",
"M  c #7C7C7C",
"N  c #818181",
"B  c #828282",
"V  c #838383",
"C  c #868686",
"Z  c #8A8A8A",
"A  c #8B8B8B",
"S  c #8F8F8F",
"D  c #909090",
"F  c #969696",
"G  c #979797",
"H  c #9A9A9A",
"J  c #9E9E9E",
"K  c #A1A1A1",
"L  c #A4A4A4",
"P  c #A6A6A6",
"I  c #A7A7A7",
"U  c #ABABAB",
"Y  c #B0B0B0",
"T  c #B1B1B1",
"R  c #B2B2B2",
"E  c #B2B2B2",
"W  c #B4B4B4",
"Q  c #B5B5B5",
"!  c #B9B9B9",
"~  c #BCBCBC",
"^  c #808080",
"/  c #C0C0C0",
"(  c #C1C1C1",
")  c #C3C3C3",
"_  c #C6C6C6",
"`  c #C8C8C8",
"'  c #CACACA",
"]  c #CCCCCC",
"[  c #CDCDCD",
"{  c #CFCFCF",
"}  c #D3D3D3",
"|  c #D5D5D5",
" . c #D9D9D9",
".. c #DBDBDB",
"X. c #DCDCDC",
"o. c #DDDDDD",
"O. c #DEDEDE",
"+. c #E0E0E0",
"@. c #E2E2E2",
"#. c #E3E3E3",
"$. c #E7E7E7",
"%. c #E8E8E8",
"&. c #ECECEC",
"*. c #EDEDED",
"=. c #EEEEEE",
"-. c #F0F0F0",
";. c #F2F2F2",
":. c #F3F3F3",
">. c #F4F4F4",
",. c #FAFAFA",
/* pixels */
"                                                                                                                                                                                                                                                                ",
"                                                                                                                                                                                                                                                                ",
"                                                                                                                                                                                                                                                                ",
"                                                                                                                                                                                                                                                                ",
"                                                                                                                                                                                                                                                                ",
"                                                                                                                                                                                                                                                                ",
"                                                                                                                                                                                                                                                                ",
"                                                                                                                                                                                                                                                                ",
"                                                                                                                                                                                                                                                                ",
"                                                                                                                                                                                                                                                                ",
"                                                                                                                                                                                                                                                                ",
"                                                                                                                                                                                                                                                                ",
"                                                                                                                                                                                                                                                                ",
"                                                                                                                                                                                                                                                                ",
"                                                                                              m . O O O O O O O O O < T                                                                                                                                         ",
"                                                                                              J O O O O O O O O O O & S                                                                                                                                         ",
"                                                                                              ^ s O O O O O O O O O O 8                                                                                                                                         ",
"                                                                                              L S < O O O O O O O O O O z                                                                                                                                       ",
"                                                                                              F T j O O O O O O O O O O 5 T                                                                                                                                     ",
"                                                                                              L ^ m O O O O O O O O O O < T                                                                                                                                     ",
"                                                                                              _ ` B 9 & O O O O O O O O & s                                                                                                                                     ",
"                                                                                              _ ` ^ F w O O O O O O O O O & g                                                                                                                                   ",
"                                                                                              T _ %.} s O O O O O O O O O & s                                                                                                                                   ",
"                                                                                                %.%.O.s O O O O O O O O O O t                                                                                                                                   ",
"                                                                                                @.;.%.B O O O O O O O O O O 5 L                                                                                                                                 ",
"                                                                                                  @.O._ 8 O O O O O O O O O O s                                                                                                                                 ",
"                                                                                                  %.%.@.J O O O O O O O O O O & S                                                                                                                               ",
"                                                                                                    %.O.} t t O O O O O O O O O < 5 L                                                                                                                           ",
"                                                                                                      ` ` U T 5 O O O O O O O O O O j                                                                                                                           ",
"                                                                                                      @.} _ ` z O O O O O O O O O O 8                                                                                                                           ",
"                                                                                                        ;.T _ U & O O O O O O O O O &                                                                                                                           ",
"                                                                                                        ;.F T T 9 O O O O O O O O O & j                                                                                                                         ",
"                                                                                                          z ^ @.w O O O O O O O O O O h                                                                                                                         ",
"                                                                                                            } ;.z O O O O O O O O O O 5 L                                                                                                                       ",
"                                                                                                            ;.%.` < O O O O O O O O O O B                                                                                                                       ",
"                                                                                                            ,.O.` 9 O O O O O O O O & O z                                                                                                                       ",
"                                                                                                              @.O.9 O O O O O O O O O & m                                                                                                                       ",
"                                                                                                                O.w & O O O O O O O O & B                                                                                                                       ",
"                                                                                                                @.w O O O O O O O O O O m                                                                                                                       ",
"                                                                                                                O.w . O O & O O O & O                                                                                                                           ",
"                                                                                                                                                                                                                                                                ",
"                                                                                                                                                                                                                                                                ",
"                                                                                                                                                                                                                                                                ",
"                                                                                                                                                                                                                                                                ",
"                                                                                                                                                                                                                                                                ",
"                                                                                                                                                                                                                                                                ",
"                                                                                                                                                                                                                                                                ",
"                                                                                                                                                                                                                                                                ",
"                                                                                                                                                                                                                                                                ",
"                                                                                                                                                                                                                                                                ",
"                                                                                                                                                                                                                                                                ",
"                                                                                                                                                                                                                                                                ",
"                                                                                                                                                                                                                                                                ",
"                                                                                                                                                                                                                                                                "
};
