/* XPM */
static char *oms_027[] = {
/* columns rows colors chars-per-pixel */
"128 54 191 2 ",
"   c #FF00FF",
".  c #0B0B0B",
"X  c #0C0C0C",
"o  c #0D0D0D",
"O  c #0E0E0E",
"+  c #0F0F0F",
"@  c #101010",
"#  c #111111",
"$  c #121212",
"%  c #131313",
"&  c #141414",
"*  c #151515",
"=  c #161616",
"-  c #171717",
";  c #181818",
":  c #191919",
">  c #1A1A1A",
",  c #1B1B1B",
"<  c #1D1D1D",
"1  c #1E1E1E",
"2  c #1F1F1F",
"3  c #202020",
"4  c #222222",
"5  c #232323",
"6  c #252525",
"7  c #272727",
"8  c #2A2A2A",
"9  c #2C2C2C",
"0  c #2D2D2D",
"q  c #2E2E2E",
"w  c #303030",
"e  c #313131",
"r  c #333333",
"t  c #373737",
"y  c #393939",
"u  c #3A3A3A",
"i  c #3B3B3B",
"p  c #3C3C3C",
"a  c #3E3E3E",
"s  c #3F3F3F",
"d  c #404040",
"f  c #414141",
"g  c #424242",
"h  c #434343",
"j  c #444444",
"k  c #464646",
"l  c #474747",
"z  c #484848",
"x  c #494949",
"c  c #4A4A4A",
"v  c #4B4B4B",
"b  c #4C4C4C",
"n  c #4E4E4E",
"m  c #505050",
"M  c #515151",
"N  c #525252",
"B  c #565656",
"V  c #575757",
"C  c #5A5A5A",
"Z  c #5C5C5C",
"A  c #5D5D5D",
"S  c #5F5F5F",
"D  c #616161",
"F  c #626262",
"G  c #636363",
"H  c #646464",
"J  c #666666",
"K  c #676767",
"L  c #6B6B6B",
"P  c #6C6C6C",
"I  c #6D6D6D",
"U  c #6E6E6E",
"Y  c #6F6F6F",
"T  c #717171",
"R  c #727272",
"E  c #747474",
"W  c #787878",
"Q  c #7A7A7A",
"!  c #7C7C7C",
"~  c #7D7D7D",
"^  c #7E7E7E",
"/  c #808080",
"(  c #828282",
")  c #838383",
"_  c #858585",
"`  c #868686",
"'  c #878787",
"]  c #888888",
"[  c #898989",
"{  c #8A8A8A",
"}  c #8B8B8B",
"|  c #8C8C8C",
" . c #8D8D8D",
".. c #8E8E8E",
"X. c #909090",
"o. c #929292",
"O. c #949494",
"+. c #959595",
"@. c #969696",
"#. c #979797",
"$. c #999999",
"%. c #9C9C9C",
"&. c #9D9D9D",
"*. c #9E9E9E",
"=. c #9F9F9F",
"-. c #A2A2A2",
";. c #A3A3A3",
":. c #A4A4A4",
">. c #A5A5A5",
",. c #A6A6A6",
"<. c #A7A7A7",
"1. c #A8A8A8",
"2. c #A9A9A9",
"3. c #AAAAAA",
"4. c #ACACAC",
"5. c #ADADAD",
"6. c #AFAFAF",
"7. c #B0B0B0",
"8. c #B1B1B1",
"9. c #B2B2B2",
"0. c #B2B2B2",
"q. c #B4B4B4",
"w. c #B5B5B5",
"e. c #B6B6B6",
"r. c #B8B8B8",
"t. c #B9B9B9",
"y. c #BABABA",
"u. c #BCBCBC",
"i. c #808080",
"p. c #BFBFBF",
"a. c #C0C0C0",
"s. c #C2C2C2",
"d. c #C3C3C3",
"f. c #C4C4C4",
"g. c #C6C6C6",
"h. c #C7C7C7",
"j. c #C8C8C8",
"k. c #C9C9C9",
"l. c #CACACA",
"z. c #CBCBCB",
"x. c #CCCCCC",
"c. c #CDCDCD",
"v. c #CECECE",
"b. c #CFCFCF",
"n. c #D0D0D0",
"m. c #D1D1D1",
"M. c #D2D2D2",
"N. c #D3D3D3",
"B. c #D4D4D4",
"V. c #D5D5D5",
"C. c #D6D6D6",
"Z. c #D7D7D7",
"A. c #D8D8D8",
"S. c #D9D9D9",
"D. c #DADADA",
"F. c #DBDBDB",
"G. c #DCDCDC",
"H. c #DDDDDD",
"J. c #DEDEDE",
"K. c #DFDFDF",
"L. c #E0E0E0",
"P. c #E1E1E1",
"I. c #E2E2E2",
"U. c #E3E3E3",
"Y. c #E4E4E4",
"T. c #E6E6E6",
"R. c #E7E7E7",
"E. c #E8E8E8",
"W. c #E9E9E9",
"Q. c #EAEAEA",
"!. c #EBEBEB",
"~. c #ECECEC",
"^. c #EDEDED",
"/. c #EEEEEE",
"(. c #EFEFEF",
"). c #F0F0F0",
"_. c #F1F1F1",
"`. c #F2F2F2",
"'. c #F3F3F3",
"]. c #F4F4F4",
"[. c #F5F5F5",
"{. c #F6F6F6",
"}. c #F7F7F7",
"|. c #F8F8F8",
" X c #F9F9F9",
".X c #FAFAFA",
"XX c #FBFBFB",
"oX c #FCFCFC",
"OX c #FDFDFD",
"+X c #FEFEFE",
"@X c #FFFFF1",
/* pixels */
"                                                                                                                                                                                                                                                                ",
"                                                                                                                                                                                                                                                                ",
"                                                                                                                                                                                                                                                                ",
"                                                                                                                                                                                                                                                                ",
"                                                                                                                                                                                                                                                                ",
"                                                                                                                                                                                                                                                                ",
"                                                                                                                                                                                                                                                                ",
"                                                                                                                                                                                                                                                                ",
"                                                                                                                                                                                                                                                                ",
"                                                                                                                                                                                                                                                                ",
"                                                                                                                                                                                                                                                                ",
"                                                                                                                                                                                                                                                                ",
"                                                                                                                                                                                                                                                                ",
"                                                                                                                                                                                                                                                                ",
"                                                                                                                                                                                                                                                                ",
"                                                                                                                                                                                                                                                                ",
"                                                                                                                                                                                                                                                                ",
"                                                                                                                                                                                                                                                                ",
"                                                                                                                                                                                                                                                                ",
"                                                                                                                                                                                                                                                                ",
"                                                                                                                                                                                                                                                                ",
"                                                                                                                                                                                                                                                                ",
"                                                                                                                                                                                % % % % 3 Z @.d.n.n.y.<._ v % R H.W.XXH                                         ",
"                              O % r V I               % % , Z I _     g % % r | @.q.                g % % % _ y.q.q.| n.U.).                                                r % % % % 9 y.).XXXXXXXXXXXXXXW.R @.XXXXXXZ H ).).).k.                              ",
"                          % % g %.n.U.W.).).).).).    % % u U.).).).XX%.% % @.XXXXXXXX).            u O % % y.XXXX).y.XXXXXXn.                                  3           g % % % O ~ XXXXXX).y.%.U.W.W.W.y._ H.k.k.~ 4.XXXXXXk.g , Z 4.n.W.XX).              ",
"                        % % V U.XXXXXXXXXXXXXXXXXXXX  % % u W.XXXXXXXXU.u u U.XXXXXXXXn.3 % u I %.k.| V 3 % q.XXXX).q.).XXXX| v q.H.4.v % , H 4.k.H.H.k.q.H , @.d.k.d.~ k.).H.~ % % O | XXXXXXXXk.4.n.n.y.@.g @.).).).n.XXXXXXXXXX%.%.).XX).U.).XXXX).          ",
"                      3 % , k.XXXXXX).k.4.n.XXXXXXXX<.% % u W.XXXXXXXXXX<.%.XXXXXXXXXXn.r %.U.).).).XX).k.V q.XXXX).q.).XXXXH.W.XXXXXXU.v %.XXXXXX).XXXXXX).| k.XXXXXX).XXXXXXW.u % % v U.XXXXXXXXXXXXXXXX).q.<.XXXX).k.W.XXXXXXW.d.).XXXXU.<.n.XXXXXX          ",
"                      % % u W.XXXX).  r % 9 k.XXXXXXy.% % u W.XXXXXXXXXX).).XXXXXXXXXXn.%.XXXXXXd.4.).XXXXk.d.XXXX).q.).XXXX).n.W.XXXXXXq.W.XXXXH.V ~ ).XXXXH.H.XXXX).<.k.XXXXXXI O % , H 4.n.W.H.H.).XXXXXX).n.XXXXXXR _ XXXXXX%.R XXXXXXW.n.H.U.H.W.          ",
"                      , % g ).XXXXXX  % O % y.XXXXXXy.% % u W.XXXXW.W.XXXXXXXXU.).XXXXH.n.XXXXXXW.U.W.).).U.H.XXXX).q.).XXXX<., %.XXXXXXn.).XXXX4.O 9 W.XXXXU.U.XXXX).V %.XXn.y.u % % _ k.k.H.W.R v k.XXXXXX).n.XXXXXXH I XXXXXXH.q.).XXXXk.H <.U.H.W.          ",
"                        % r W.XXXXXXq.v g _ W.XXXXXX4.% % u W.XXXXn.@.XXXXXX).| W.XXXXH.n.XXXX).@.R d.n.n.k.H.XXXX).q.).XXXX_ O _ XXXXXXq.W.XXXXU.~ <.).XXXXk.n.XXXX).        3 % % % R XXXXXXXXW.U.).XXXXXXd.<.XXXXXXH Z ).XXXXXX4.y.XXXXXX).XXXXXX).          ",
"                        , , 4.XXXXXXXX).).XXXXXXXXXX  % % u W.XXXXn.g n.XXXXq.g W.XXXXn.| ).XXXXH.n.).XXXXd.k.XXXX).q.).XXXX_ O _ XXXXXX_ %.).XXXXXXXXXXXXU.Z d.XXXX).              % 3 <.).).XXXXXXXXXX).U.g @.XXXX).| r H.).).XX      ).).).).).              ",
"                            v H.XXXXXXXXXXXXXXXX).    % % u U.XXXXH.9 _ XXXXI u ).XXXXU.V d.XXXXXXXX).).W.V y.XX).W.y.).).).    | XXXXXX      ).XXXXXX).                                                                                                        ",
"                                  ).).).).XX).                                                                                                                                                                                                                  ",
"                                                                                                                                                                                                                                                                ",
"                                                                                                                                                                                                                                                                ",
"                                                                                                                                                                                                                                                                ",
"                                                                                                                                                                                                                                                                ",
"                                                                                                                                                                                                                                                                ",
"                                                                                                                                                                                                                                                                ",
"                                                                                                                                                                                                                                                                ",
"                                                                                                                                                                                                                                                                ",
"                                                                                                                                                                                                                                                                ",
"                                                                                                                                                                                                                                                                ",
"                                                                                                                                                                                                                                                                ",
"                                                                                                                                                                                                                                                                ",
"                                                                                                                                                                                                                                                                ",
"                                                                                                                                                                                                                                                                ",
"                                                                                                                                                                                                                                                                ",
"                                                                                                                                                                                                                                                                ",
"                                                                                                                                                                                                                                                                ",
"                                                                                                                                                                                                                                                                ",
"                                                                                                                                                                                                                                                                ",
"                                                                                                                                                                                                                                                                ",
"                                                                                                                                                                                                                                                                "
};
