/* XPM */
static char *oms_341[] = {
/* columns rows colors chars-per-pixel */
"128 54 195 2 ",
"   c #FF00FF",
".  c #090909",
"X  c #0C0C0C",
"o  c #0D0D0D",
"O  c #0E0E0E",
"+  c #0F0F0F",
"@  c #101010",
"#  c #111111",
"$  c #121212",
"%  c #131313",
"&  c #141414",
"*  c #151515",
"=  c #161616",
"-  c #171717",
";  c #181818",
":  c #191919",
">  c #1A1A1A",
",  c #1B1B1B",
"<  c #1C1C1C",
"1  c #1D1D1D",
"2  c #1E1E1E",
"3  c #1F1F1F",
"4  c #202020",
"5  c #222222",
"6  c #232323",
"7  c #242424",
"8  c #262626",
"9  c #272727",
"0  c #282828",
"q  c #292929",
"w  c #2A2A2A",
"e  c #2C2C2C",
"r  c #303030",
"t  c #333333",
"y  c #343434",
"u  c #373737",
"i  c #383838",
"p  c #3A3A3A",
"a  c #3B3B3B",
"s  c #3D3D3D",
"d  c #404040",
"f  c #424242",
"g  c #444444",
"h  c #454545",
"j  c #464646",
"k  c #474747",
"l  c #494949",
"z  c #4B4B4B",
"x  c #4C4C4C",
"c  c #4E4E4E",
"v  c #4F4F4F",
"b  c #505050",
"n  c #515151",
"m  c #535353",
"M  c #545454",
"N  c #565656",
"B  c #575757",
"V  c #585858",
"C  c #595959",
"Z  c #5A5A5A",
"A  c #5B5B5B",
"S  c #5D5D5D",
"D  c #5E5E5E",
"F  c #5F5F5F",
"G  c #606060",
"H  c #616161",
"J  c #626262",
"K  c #646464",
"L  c #656565",
"P  c #676767",
"I  c #686868",
"U  c #6A6A6A",
"Y  c #6C6C6C",
"T  c #6D6D6D",
"R  c #6E6E6E",
"E  c #707070",
"W  c #717171",
"Q  c #727272",
"!  c #737373",
"~  c #747474",
"^  c #777777",
"/  c #787878",
"(  c #797979",
")  c #7B7B7B",
"_  c #7C7C7C",
"`  c #7E7E7E",
"'  c #808080",
"]  c #828282",
"[  c #848484",
"{  c #868686",
"}  c #878787",
"|  c #888888",
" . c #898989",
".. c #8A8A8A",
"X. c #8D8D8D",
"o. c #8E8E8E",
"O. c #8F8F8F",
"+. c #939393",
"@. c #949494",
"#. c #959595",
"$. c #969696",
"%. c #979797",
"&. c #9A9A9A",
"*. c #9B9B9B",
"=. c #9C9C9C",
"-. c #9D9D9D",
";. c #9E9E9E",
":. c #9F9F9F",
">. c #A0A0A0",
",. c #A2A2A2",
"<. c #A3A3A3",
"1. c #A4A4A4",
"2. c #A5A5A5",
"3. c #A6A6A6",
"4. c #A7A7A7",
"5. c #AAAAAA",
"6. c #ACACAC",
"7. c #ADADAD",
"8. c #AEAEAE",
"9. c #AFAFAF",
"0. c #B1B1B1",
"q. c #B2B2B2",
"w. c #B2B2B2",
"e. c #B4B4B4",
"r. c #B6B6B6",
"t. c #B7B7B7",
"y. c #B8B8B8",
"u. c #B9B9B9",
"i. c #BABABA",
"p. c #BBBBBB",
"a. c #BCBCBC",
"s. c #BDBDBD",
"d. c #BFBFBF",
"f. c #C0C0C0",
"g. c #C1C1C1",
"h. c #C2C2C2",
"j. c #C3C3C3",
"k. c #C4C4C4",
"l. c #C5C5C5",
"z. c #C6C6C6",
"x. c #C7C7C7",
"c. c #C9C9C9",
"v. c #CACACA",
"b. c #CBCBCB",
"n. c #CCCCCC",
"m. c #CDCDCD",
"M. c #CECECE",
"N. c #CFCFCF",
"B. c #D0D0D0",
"V. c #D1D1D1",
"C. c #D2D2D2",
"Z. c #D3D3D3",
"A. c #D4D4D4",
"S. c #D5D5D5",
"D. c #D6D6D6",
"F. c #D7D7D7",
"G. c #D8D8D8",
"H. c #D9D9D9",
"J. c #DADADA",
"K. c #DBDBDB",
"L. c #DCDCDC",
"P. c #DDDDDD",
"I. c #DEDEDE",
"U. c #DFDFDF",
"Y. c #E0E0E0",
"T. c #E1E1E1",
"R. c #E2E2E2",
"E. c #E3E3E3",
"W. c #E4E4E4",
"Q. c #E6E6E6",
"!. c #E6E6E6",
"~. c #E7E7E7",
"^. c #E8E8E8",
"/. c #E9E9E9",
"(. c #EAEAEA",
"). c #EBEBEB",
"_. c #ECECEC",
"`. c #EEEEEE",
"'. c #EFEFEF",
"]. c #F0F0F0",
"[. c #F1F1F1",
"{. c #F2F2F2",
"}. c #F3F3F3",
"|. c #F4F4F4",
" X c #F5F5F5",
".X c #F6F6F6",
"XX c #F7F7F7",
"oX c #F8F8F8",
"OX c #F9F9F9",
"+X c #FAFAFA",
"@X c #FBFBFB",
"#X c #FCFCFC",
"$X c #FDFDFD",
"%X c #FEFEFE",
"&X c #FFFFF1",
/* pixels */
"                                                                                                                                                                                                                                                                ",
"                                                                                                                                                                                                                                                                ",
"                                                                                                                                                                                                                                                                ",
"                                                                                                                                                                                                                                                                ",
"                                                                                                                                                                                                                                                                ",
"                                                                                                                                                                                                                                                                ",
"                                                                                                                                                                                                                                                                ",
"                                                                                                                                                                                                                                                                ",
"                                                                                                                                                                                                                                                                ",
"                                                                                                                                                                                                                                                                ",
"                                                                                                                                                                                                                                                                ",
"                                                                                                                                                                                                                                                                ",
"                                                                                                                                                                                                                                                                ",
"                                                                                                                                                                                                                                                                ",
"                                                                                                                                                                                                                                                                ",
"                                                                                                                                                                                                                                                                ",
"                                                                                                                                                                                                                                                                ",
"                                                                                                                                                                                                                                                                ",
"                                                                                                                                                                                                                                                                ",
"                                                                                                                                                                                                                                                                ",
"                                                                                                                                                                                                                                                                ",
"                            : o $ $ $ $                                                                                                                                                                                                                         ",
"              XXXXOXXXXX).J.e.V $ $ $ $ z J.XX).Z.e.q $ $ W 4.4.e.e.m $ $ $ $ : _                 V m m u $ $ $ $ u                                                                                                                                             ",
"            OXOXOXOXOXOXOXOXOXXX_ $ $ o V OXOXOXOXOX[ o s R.OXOXOXOX_ o $ $ $ $ W         OXXXXXe.R.).).=.$ $ $ $ u                                                         y. .W m 9 $ : m     u $ o $                                                         ",
"          XXOXOXOXR.5.4.J.OXOXOXR.s $ o V XXOXOXOXOXZ.q %.OXOXOXOXOX_ o : s z z _   : o [ OXOXOXy.XXOXOX5.$ $ $ $ q                                                 XXOXXXOXOXOXXX).c.T h J.).).%.9 T W [ V $ $ :                                               ",
"          OXOXOXXXV $ $ u J.OXOXOXH o o V XXOXOXOXOXOX4.R.OXOXOXOXOX_ m l.R.XXXXXXJ.5.h T OXOXOXy.XXOXOXe.V 4.l.5.V $ $ z  .l.).l.=.H 9 $ m H _ V 9 m T h 9 $ $ 9 J.OXOXOX).y.J.OXOXOX).W Z.).XX=.s R.OXOXy.$ $ $                                               ",
"          OXOXOX).s o o $ l.OXOXOXT o o V XXOXOXXXOXOXOXOXOXOXOXOXOX=.Z.OXOXR.5.J.OXOXZ.%.OXOXOXy.XXOXOX).XXOXOXOX).z  .XXOXOXOXOXOXOXl.z J.XXXXJ.y.).XXR.H $ $ 9 c.OXOXOXJ.[ =.Z.Z.y.%.T l.J.J.5.5.XXOXOXR.T $ h  .J.c.=._ h $ $ :                             ",
"          OXOXOXOXy.m h [ ).OXOXXXV o o V XXOXOXJ.R.OXOXOXXXJ.OXOXOXy.).OXOX).c.R.OXOXXXc.XXOXOXy.XXOXOXXXy.R.OXOXOXe.).OXOXR.[ 5.OXOXOXl.R.OXOXOXXXOXOXOXl.: $ $ %.OXOXOXOXOXOXXXXXR.=.V ).OXOXZ.).OXOXOXOXl.[ ).OXOXXXOXOX).%.: $ :                           ",
"            OXOXOXOXXX).OXOXOXOXZ.q $ o V XXOXOXe.%.OXOXOXe.=.OXOXOXy.).OXOXJ. .5.Z.c.Z.c.OXOXOXy.XXOXOXy.$ _ OXOXOXZ.XXOXOX5.o u ).OXOXR.).OXOXR.H J.OXOXJ.9 $ $ u l.J.).).).XXOXOXOXOXe.).OXOXl.e.XXOXOX).l.).OXOXR.=.c.OXOXXXV $ $ h                         ",
"              OXOXOXOXOXOXOXXXZ.m $ $ o W OXOXOX5.s R.OXXXm [ OXOXOX%.c.OXOX).5.Z.XX).).l.OXOXOXy.XXOXOX5.o H OXOXOXy.).OXOXZ.z _ XXOXOXJ.R.OXOXZ.9 W =.=.y.      J.J.c.R.e.z [ XXOXOXOXZ.).OXOX4.s R.OXOXl.m XXOXOXXXJ.R.).XXXX_ $ $                           ",
"                  XXXXOXXXXX              OXXXXXe.$ y.OXc.: =.OXXXXX_ V XXOXOXOXOXOXXXe. .OXOXOXy.XXOXOX5.o T OXOXOX .=.XXOXOXXXXXOXOXXX .J.OXOXc.9 $ $ $ W       XXOXOXOXXXl.Z.OXOXOXOXe.).OXOX4.s R.OXOX).y.).OXOXJ.T  .c.Z.Z.T $ $                           ",
"                                                                                                              ).XXOX      XXOXOXOXXXXX5.  ).OXOXc.9 $               XXOXOXOXOXOXOXOXOXc.W ).OXOX4.q J.OXOXOXc.4.OXOXOX).XXOXOXXXV o                             ",
"                                                                                                                                                                            ).).XX            XXe.    OXOXOXl.    XXXXXXXXXXXX                                  ",
"                                                                                                                                                                                                                                                                ",
"                                                                                                                                                                                                                                                                ",
"                                                                                                                                                                                                                                                                ",
"                                                                                                                                                                                                                                                                ",
"                                                                                                                                                                                                                                                                ",
"                                                                                                                                                                                                                                                                ",
"                                                                                                                                                                                                                                                                ",
"                                                                                                                                                                                                                                                                ",
"                                                                                                                                                                                                                                                                ",
"                                                                                                                                                                                                                                                                ",
"                                                                                                                                                                                                                                                                ",
"                                                                                                                                                                                                                                                                ",
"                                                                                                                                                                                                                                                                ",
"                                                                                                                                                                                                                                                                ",
"                                                                                                                                                                                                                                                                ",
"                                                                                                                                                                                                                                                                ",
"                                                                                                                                                                                                                                                                ",
"                                                                                                                                                                                                                                                                ",
"                                                                                                                                                                                                                                                                ",
"                                                                                                                                                                                                                                                                ",
"                                                                                                                                                                                                                                                                "
};
