/* XPM */
static char *oms_136[] = {
/* columns rows colors chars-per-pixel */
"128 54 204 2 ",
"   c #FF00FF",
".  c #0B0B0B",
"X  c #0C0C0C",
"o  c #0D0D0D",
"O  c #0E0E0E",
"+  c #0F0F0F",
"@  c #101010",
"#  c #111111",
"$  c #121212",
"%  c #131313",
"&  c #141414",
"*  c #151515",
"=  c #161616",
"-  c #171717",
";  c #181818",
":  c #191919",
">  c #1A1A1A",
",  c #1B1B1B",
"<  c #1C1C1C",
"1  c #1D1D1D",
"2  c #1E1E1E",
"3  c #1F1F1F",
"4  c #202020",
"5  c #212121",
"6  c #222222",
"7  c #232323",
"8  c #242424",
"9  c #252525",
"0  c #262626",
"q  c #272727",
"w  c #282828",
"e  c #292929",
"r  c #2A2A2A",
"t  c #2B2B2B",
"y  c #2C2C2C",
"u  c #2D2D2D",
"i  c #2E2E2E",
"p  c #2F2F2F",
"a  c #303030",
"s  c #313131",
"d  c #323232",
"f  c #333333",
"g  c #343434",
"h  c #353535",
"j  c #363636",
"k  c #383838",
"l  c #393939",
"z  c #3A3A3A",
"x  c #3B3B3B",
"c  c #3C3C3C",
"v  c #3D3D3D",
"b  c #3E3E3E",
"n  c #3F3F3F",
"m  c #404040",
"M  c #424242",
"N  c #434343",
"B  c #454545",
"V  c #464646",
"C  c #474747",
"Z  c #484848",
"A  c #494949",
"S  c #4B4B4B",
"D  c #4E4E4E",
"F  c #525252",
"G  c #535353",
"H  c #545454",
"J  c #565656",
"K  c #575757",
"L  c #5A5A5A",
"P  c #5B5B5B",
"I  c #5C5C5C",
"U  c #5D5D5D",
"Y  c #5F5F5F",
"T  c #606060",
"R  c #616161",
"E  c #636363",
"W  c #666666",
"Q  c #686868",
"!  c #6A6A6A",
"~  c #6B6B6B",
"^  c #6C6C6C",
"/  c #6E6E6E",
"(  c #707070",
")  c #717171",
"_  c #727272",
"`  c #737373",
"'  c #747474",
"]  c #777777",
"[  c #787878",
"{  c #797979",
"}  c #7B7B7B",
"|  c #7C7C7C",
" . c #7D7D7D",
".. c #808080",
"X. c #808080",
"o. c #818181",
"O. c #848484",
"+. c #858585",
"@. c #868686",
"#. c #878787",
"$. c #888888",
"%. c #898989",
"&. c #8C8C8C",
"*. c #8D8D8D",
"=. c #8E8E8E",
"-. c #8F8F8F",
";. c #929292",
":. c #939393",
">. c #949494",
",. c #969696",
"<. c #979797",
"1. c #989898",
"2. c #999999",
"3. c #9A9A9A",
"4. c #9B9B9B",
"5. c #9C9C9C",
"6. c #9D9D9D",
"7. c #9F9F9F",
"8. c #A0A0A0",
"9. c #A1A1A1",
"0. c #A2A2A2",
"q. c #A4A4A4",
"w. c #A5A5A5",
"e. c #A6A6A6",
"r. c #A7A7A7",
"t. c #A9A9A9",
"y. c #AAAAAA",
"u. c #ABABAB",
"i. c #ACACAC",
"p. c #B0B0B0",
"a. c #B1B1B1",
"s. c #B2B2B2",
"d. c #B2B2B2",
"f. c #B4B4B4",
"g. c #B5B5B5",
"h. c #B7B7B7",
"j. c #B8B8B8",
"k. c #BABABA",
"l. c #BBBBBB",
"z. c #BCBCBC",
"x. c #BDBDBD",
"c. c #808080",
"v. c #BFBFBF",
"b. c #C0C0C0",
"n. c #C1C1C1",
"m. c #C3C3C3",
"M. c #C5C5C5",
"N. c #C6C6C6",
"B. c #C7C7C7",
"V. c #C8C8C8",
"C. c #C9C9C9",
"Z. c #CACACA",
"A. c #CBCBCB",
"S. c #CCCCCC",
"D. c #CDCDCD",
"F. c #CECECE",
"G. c #CFCFCF",
"H. c #D0D0D0",
"J. c #D1D1D1",
"K. c #D2D2D2",
"L. c #D3D3D3",
"P. c #D4D4D4",
"I. c #D5D5D5",
"U. c #D6D6D6",
"Y. c #D7D7D7",
"T. c #D8D8D8",
"R. c #D9D9D9",
"E. c #DADADA",
"W. c #DBDBDB",
"Q. c #DCDCDC",
"!. c #DEDEDE",
"~. c #DFDFDF",
"^. c #E0E0E0",
"/. c #E1E1E1",
"(. c #E2E2E2",
"). c #E3E3E3",
"_. c #E4E4E4",
"`. c #E6E6E6",
"'. c #E6E6E6",
"]. c #E7E7E7",
"[. c #E8E8E8",
"{. c #E9E9E9",
"}. c #EAEAEA",
"|. c #EBEBEB",
" X c #ECECEC",
".X c #EDEDED",
"XX c #EEEEEE",
"oX c #EFEFEF",
"OX c #F0F0F0",
"+X c #F1F1F1",
"@X c #F2F2F2",
"#X c #F3F3F3",
"$X c #F4F4F4",
"%X c #F5F5F5",
"&X c #F6F6F6",
"*X c #F7F7F7",
"=X c #F8F8F8",
"-X c #F9F9F9",
";X c #FAFAFA",
":X c #FBFBFB",
">X c #FCFCFC",
",X c #FDFDFD",
"<X c #FEFEFE",
"1X c #FFFFF1",
/* pixels */
"                                                                                                                                                                                                                                                                ",
"                                                                                                                                                                                                                                                                ",
"                                                                                                                                                                                                                                                                ",
"                                                                                                                                                                                                                                                                ",
"                                                                                                                                                                                                                                                                ",
"                                                                                                                                                                                                                                                                ",
"                                                                                                                                                                                                                                                                ",
"                                                                                                                                                                                                                                                                ",
"                                                                                                                                                                                                                                                                ",
"                                                                                                                                                                                                                                                                ",
"                                                                                                                                                                                                                                                                ",
"                                                                                                                                                                                                                                                                ",
"                                                                  < j F         j R                                                                                                                                                                             ",
"                                                            = = = + = = < < = = = = < = < j `                                                                                                                                                                   ",
"                                                      q.F 5 = = j R j < 5 < = = = = = = = + j r < r A ^                                                                                                                                                         ",
"                                                  *X=X=X*XA.R = ^ *X}.^ =.M.} < + = = = = = = = = = = < 5 F                                                                                                                                                     ",
"                                                  *X=X'.j.*X}.} A.=X=X3.3.=X}.F #.q.#.F r = = = = = = = = = M                                                                                                                                                   ",
"                                                  '.'.'.W.*X=XW.}.=X=X}.A.I.M.3.=X=X=X*XW.>.j = = = = = = = = #.                                                                                                                                                ",
"                                                  *X*XM.#.}.=XI.>.=X=X*X}.=X'.` y.'.'.A.*X=XI.k = = = = = = = `                                                                                                                                                 ",
"                                                    =X*X'.*X=XI.y.=X=Xq.s.=X}.=.A.'.I.=.I.=X=X=.= = = = = = < `     = r ^                                                                                                                                       ",
"                                                      *X=X=X*XM.}.=X=X=.3.=X*XW.=X=X=X=X=X=X=Xq.= = = < = = = < = = = = < 5 r M                                                                                                                                 ",
"                                                                *X=X=X} q.=X}.W.=X=X*XW.}.*X*X} + = } M.` 5 5 = = = = = = = = = M r 5 k Y                                                                                                                       ",
"                                                                        '.=X}.y.*X=XW.Y s.A.=.5 = r W.=X*XM.A.3.j + = = + = = = = = = = = 5 Y         = = 5 k R                                                                                                 ",
"                                                                                *X=X=X}.*X*X'.>.= j }.=X}.}.=X=X} #.j.q.` j = = = = = = j r = 5 = = = = = = = = < r Y                                                                                           ",
"                                                                                    *X=X=X=X=X3.= r W.=Xj.y.=X*Xj.*X=X=X=X'.} < = 5 = = y.W.3.F k < = = = = = = = = j                                                                                           ",
"                                                                                                            =X*XI.*X=Xj.q.=X*X^ } I.q.k s.=X*XW.}.j.j = = = = = = = j                                                                                           ",
"                                                                                                            =X*XM.*X=X` 5 '.=XI.W.=X=XI.I.=X*X'.=X}.M + = = = = = = 5 F = j j = = = = < j A                                                                     ",
"                                                                                                            =X*X>.W.=XM.` }.=X}.}.=X*X'.*X=X*X'.=X}.k = < = = = = F ^ k < = = = = = = = = = F     k                                                             ",
"                                                                                                                    =X=X*X=X=XI.'.=XI.M A.=X*X'.=X}.` s.A.s.` r + =.=X'.j.k = = = + + = = = = = = = < r F                                                       ",
"                                                                                                                        *X=X*X3.'.=XA.< s.=X*X'.=X}.A.=X=X}.*XI.A =.=X=X=X#.+ } s.` M < = = = = = = = = r                                                       ",
"                                                                                                                                *X=XA.5 j.=X*XW.=X*XW.*X*Xj.W.=XA.q.=X=X=XM.j I.=X=X}.` = = = = + + = = 5 F   = = = = r M }                                     ",
"                                                                                                                                        }.=X}.'.=X}.A.'.I.M.'.=X*XA.=X=X=X}.q.*X=X=X=X=.+ = < Y } R k < = = = = = = = = = < A                                   ",
"                                                                                                                                                =X}.y.*X*X3.A.=X*XI.=X=X*X=X*X=X=X=X=X=.+ = >.*X=X=X}.j.Y = = = = = = = = = = M                                 ",
"                                                                                                                                                        =X=X=X=X'.j.=X=XM.*X=X=X*X=X=X=.+ j W.=X=X=X=X=X*X#.= = = = = = = = = = #.                              ",
"                                                                                                                                                            *X*Xj.j.=X=X#.I.=X}.s.*X=X=.+ M }.=X*X3.>.'.=X*XY = = = = = = = = + F                               ",
"                                                                                                                                                                    *X=X` y.=Xj.} =X=X#.+ k }.=XI.5 + ^ *X=Xy.= = = = = = = = + k                               ",
"                                                                                                                                                                            =X#.>.=X=X#.+ 5 I.=X'.M + k }.=XA.< = = = = = = = = M                               ",
"                                                                                                                                                                                  *X=X=.+ = j.=X=XI.#.q.*X=XI.< = = = = = = = = R                               ",
"                                                                                                                                                                                              *X=X=X=X=X=X=Xj.< = = = = = = = r                                 ",
"                                                                                                                                                                                                  *X=X=X*X*X` + = = = =                                         ",
"                                                                                                                                                                                                                                                                ",
"                                                                                                                                                                                                                                                                ",
"                                                                                                                                                                                                                                                                ",
"                                                                                                                                                                                                                                                                ",
"                                                                                                                                                                                                                                                                ",
"                                                                                                                                                                                                                                                                ",
"                                                                                                                                                                                                                                                                ",
"                                                                                                                                                                                                                                                                ",
"                                                                                                                                                                                                                                                                ",
"                                                                                                                                                                                                                                                                ",
"                                                                                                                                                                                                                                                                ",
"                                                                                                                                                                                                                                                                ",
"                                                                                                                                                                                                                                                                ",
"                                                                                                                                                                                                                                                                "
};
