/* XPM */
static char *oms_233[] = {
/* columns rows colors chars-per-pixel */
"128 54 196 2 ",
"   c #FF00FF",
".  c #0A0A0A",
"X  c #0B0B0B",
"o  c #0C0C0C",
"O  c #0E0E0E",
"+  c #0F0F0F",
"@  c #101010",
"#  c #111111",
"$  c #121212",
"%  c #131313",
"&  c #141414",
"*  c #151515",
"=  c #161616",
"-  c #171717",
";  c #181818",
":  c #191919",
">  c #1A1A1A",
",  c #1B1B1B",
"<  c #1C1C1C",
"1  c #1D1D1D",
"2  c #1E1E1E",
"3  c #1F1F1F",
"4  c #202020",
"5  c #212121",
"6  c #222222",
"7  c #232323",
"8  c #242424",
"9  c #252525",
"0  c #262626",
"q  c #272727",
"w  c #292929",
"e  c #2B2B2B",
"r  c #2C2C2C",
"t  c #2D2D2D",
"y  c #2E2E2E",
"u  c #2F2F2F",
"i  c #303030",
"p  c #313131",
"a  c #323232",
"s  c #333333",
"d  c #343434",
"f  c #353535",
"g  c #363636",
"h  c #373737",
"j  c #383838",
"k  c #393939",
"l  c #3A3A3A",
"z  c #3B3B3B",
"x  c #3D3D3D",
"c  c #404040",
"v  c #414141",
"b  c #424242",
"n  c #444444",
"m  c #454545",
"M  c #464646",
"N  c #474747",
"B  c #484848",
"V  c #494949",
"C  c #4C4C4C",
"Z  c #4C4C4C",
"A  c #4E4E4E",
"S  c #4F4F4F",
"D  c #505050",
"F  c #515151",
"G  c #525252",
"H  c #535353",
"J  c #545454",
"K  c #575757",
"L  c #585858",
"P  c #595959",
"I  c #5A5A5A",
"U  c #5C5C5C",
"Y  c #5D5D5D",
"T  c #5F5F5F",
"R  c #626262",
"E  c #636363",
"W  c #646464",
"Q  c #656565",
"!  c #676767",
"~  c #686868",
"^  c #696969",
"/  c #6A6A6A",
"(  c #6B6B6B",
")  c #707070",
"_  c #717171",
"`  c #727272",
"'  c #747474",
"]  c #797979",
"[  c #7A7A7A",
"{  c #7B7B7B",
"}  c #7D7D7D",
"|  c #7E7E7E",
" . c #808080",
".. c #808080",
"X. c #818181",
"o. c #828282",
"O. c #858585",
"+. c #888888",
"@. c #898989",
"#. c #8A8A8A",
"$. c #8C8C8C",
"%. c #8D8D8D",
"&. c #8F8F8F",
"*. c #909090",
"=. c #929292",
"-. c #939393",
";. c #959595",
":. c #989898",
">. c #999999",
",. c #9B9B9B",
"<. c #9C9C9C",
"1. c #9E9E9E",
"2. c #A0A0A0",
"3. c #A1A1A1",
"4. c #A2A2A2",
"5. c #A3A3A3",
"6. c #A5A5A5",
"7. c #A6A6A6",
"8. c #A9A9A9",
"9. c #AAAAAA",
"0. c #ABABAB",
"q. c #ACACAC",
"w. c #AEAEAE",
"e. c #AFAFAF",
"r. c #B0B0B0",
"t. c #B1B1B1",
"y. c #B2B2B2",
"u. c #B2B2B2",
"i. c #B4B4B4",
"p. c #B5B5B5",
"a. c #B7B7B7",
"s. c #B8B8B8",
"d. c #B9B9B9",
"f. c #BABABA",
"g. c #BBBBBB",
"h. c #BDBDBD",
"j. c #BFBFBF",
"k. c #C0C0C0",
"l. c #C1C1C1",
"z. c #C2C2C2",
"x. c #C3C3C3",
"c. c #C5C5C5",
"v. c #C7C7C7",
"b. c #C9C9C9",
"n. c #CACACA",
"m. c #CBCBCB",
"M. c #CCCCCC",
"N. c #CDCDCD",
"B. c #CECECE",
"V. c #CFCFCF",
"C. c #D0D0D0",
"Z. c #D1D1D1",
"A. c #D3D3D3",
"S. c #D4D4D4",
"D. c #D6D6D6",
"F. c #D7D7D7",
"G. c #D8D8D8",
"H. c #D9D9D9",
"J. c #DADADA",
"K. c #DBDBDB",
"L. c #DCDCDC",
"P. c #DDDDDD",
"I. c #DEDEDE",
"U. c #DFDFDF",
"Y. c #E0E0E0",
"T. c #E1E1E1",
"R. c #E2E2E2",
"E. c #E3E3E3",
"W. c #E4E4E4",
"Q. c #E6E6E6",
"!. c #E6E6E6",
"~. c #E7E7E7",
"^. c #E8E8E8",
"/. c #E9E9E9",
"(. c #EAEAEA",
"). c #EBEBEB",
"_. c #ECECEC",
"`. c #EDEDED",
"'. c #EEEEEE",
"]. c #EFEFEF",
"[. c #F0F0F0",
"{. c #F1F1F1",
"}. c #F2F2F2",
"|. c #F3F3F3",
" X c #F4F4F4",
".X c #F5F5F5",
"XX c #F6F6F6",
"oX c #F7F7F7",
"OX c #F8F8F8",
"+X c #F9F9F9",
"@X c #FAFAFA",
"#X c #FBFBFB",
"$X c #FCFCFC",
"%X c #FDFDFD",
"&X c #FEFEFE",
"*X c #FFFFF1",
/* pixels */
"                                                                                                                                                                                                                                                                ",
"                                                                                                                                                                                                                                                                ",
"                                                                                                                                                                                                                                                                ",
"                                                                                                                                                                                                                                                                ",
"                                                                                                                                                                                                                                                                ",
"                                                                                                                                                                                                                                                                ",
"                                                                                                                                                                                                                                                                ",
"                                                                                                                                                                                                                                                                ",
"                                                                                                                                                                                                                                                                ",
"                                                                                                                                                                                                                                                                ",
"                                                                                                                                                                                D l 6 $                                                                         ",
"                                                                                                                                                                            I 6 $ $ $ $ $ $ $ +                                                                 ",
"                                                                                                                                                                          E $ $ $ $ $ $ $ $ $ i ` i.~.                                                          ",
"                                                                                                                                                              b u < $ $ u < $ $ $ $ $ $ $ 6 %.~.#X#X#X#X                                                        ",
"                                                                                                                                                            i $ $ $ $ $ $ $ $ $ 6 i < $ < e.#X#X.X.X#X#X.X                                                      ",
"                                                                                                                                                ` i 6 $ $ < $ $ $ $ $ $ $ $ A *.m.l.6 + ~ #X#Xl.I %..X#X#X                                                      ",
"                                                                                                                                                A + $ $ $ $ $ $ $ < i I < 6 D.#X#Xm.6 $ e.#X(.b + b .X#X.X                                                      ",
"                                                                                                                                                A $ $ $ $ $ $ $ D h.~..XD A .X#X#Xm.6 < l.#X~.i $ *.#X#X                                                        ",
"                                                                                                                            I i < $ $ $         i + $ $ $ $ $ + %.#X#X#Xe.*.#X#X#Xm.6 < l.#X.Xl.h..X#X.X                                                        ",
"                                                                                                                      ~ u < $ $ $ $ $ $ $ $ $ < l i $ $ + + $ + %.#X#X#X(.~.#X#X#Xm.6 $ e.#X#X#X#X#X.X                                                          ",
"                                                                                                                      b $ $ $ $ $ $ $ $ < b E i.(.%.$ < A %.6.~ %.#X#X#X#X#X(.(.#X(.  + ~ .X#X#X.X.X                                                            ",
"                                                                                                                      b $ $ $ $ $ $ $ 6 i.(.m.(.#X%.i i..X#X#X(.h.#X.XD.#X#Xi.m.#X.X                                                                            ",
"                                                                                                                E 6 < < $ $ $ $ $ $ + u J.#Xm.~.#X>.i.#Xm.m.#X.XD.#X(.%.(..X` l.#X.X                                                                            ",
"                                                                                                              E < $ $ $ $ $ $ $ $ 6 l b J.#Xm.(.#Xl.(.#X~.~.#X.Xm.#X(.I l.#X                                                                                    ",
"                                                                                                   .l 6 $ $ $ $ $ $ $ $ $ $ $ + l l.(.J.(.#Xm.(.#XJ.~.J.*.i.#XD.6.#X.X                                                                                          ",
"                                                                                            A 6 l 6 $ $ $ $ $ $ $ $ $ l  .e.6.b e.#X.X~.#X#Xm.(.#XD.~..X(..X#X                                                                                                  ",
"                                                                      A u $ $ $       u l 6 $ $ $ $ $ $ $ $ $ < 6 < %.~.#X#X#Xm.J.#Xl.b ~.#Xm.(.#Xm.(.#X.X.X                                                                                                    ",
"                                                                X.i < $ $ $ $ $ $ $ $ $ < l I D < $ $ $ u u ~ h.e.%.#X(.6.~.#X(.(.#X6.u J.#Xm.~.#X                                                                                                              ",
"                                                          b 6 6 6 $ $ $ $ $ $ $ $ $ u  .l.(.#X.X` $ $ ~ J.D.~.#XJ.J.#Xe.< l.#XJ.~.#Xe.i J.#X                                                                                                                    ",
"                                                        u $ $ $ $ $ $ $ $ $ 6 A b b m.#X.X.X#X#X>.+ u J.#X(..X#X.X.X#Xl.~ ~.#X6.D.#X~.                                                                                                                          ",
"                                                 .i < $ $ $ $ $ $ $ $ $ $ u l..X>.l.#X(.%.m.#X#XX.+ A .X#X%.D.#X~.~.#X#X.X#X.X                                                                                                                                  ",
"                                                E $ $ $ $ $ $ $ $ $ i  .e.D J.~.>.e.m.J.~..X#Xm.i + D D.6.b m.#XD.i.#X.X.X                                                                                                                                      ",
"                                                i $ $ $ $ $ $ $ $ + X.#X(.*.D.(.*.%.(.#X#X(.D.>.X.  6 u $ < D.#X.X                                                                                                                                              ",
"                                      I u < $ 6 $ $ $ $ $ $ $ $ $ 6 i.#X#X.X.X#Xh.~.#X.X%.e.(..X#X                                                                                                                                                              ",
"                                  6.l $ $ $ $ $ $ $ $ $ $ l  .e.>.` .X#X.XD..X#XJ..X#X.Xh.(.#X#X                                                                                                                                                                ",
"                                  D $ $ $ $ $ $ $ $ $ < X.~..X#X#Xm.J.#X~.E (.#Xm.(.#X#X#X#X.X                                                                                                                                                                  ",
"                                  u $ $ $ $ $ $ $ $ $ ~ .X(.i..X#Xh.>.#X~.I (.#Xh.D.#X.X.X                                                                                                                                                                      ",
"                                  u $ $ $ $ $ $ $ $ < h.#X.XJ..X#XD.J.#X~.I ~.#X                                                                                                                                                                                ",
"                                  u $ $ $ $ $ $ $ $ 6 h.~.h.%.(..Xe.(.#X.X                                                                                                                                                                                      ",
"                                  b $ $ $ $ $ $ $ $ < h..X.X.X#X.X                                                                                                                                                                                              ",
"                                                  $ $ 6.#X.X.X                                                                                                                                                                                                  ",
"                                                                                                                                                                                                                                                                ",
"                                                                                                                                                                                                                                                                ",
"                                                                                                                                                                                                                                                                ",
"                                                                                                                                                                                                                                                                ",
"                                                                                                                                                                                                                                                                ",
"                                                                                                                                                                                                                                                                ",
"                                                                                                                                                                                                                                                                ",
"                                                                                                                                                                                                                                                                ",
"                                                                                                                                                                                                                                                                ",
"                                                                                                                                                                                                                                                                ",
"                                                                                                                                                                                                                                                                ",
"                                                                                                                                                                                                                                                                ",
"                                                                                                                                                                                                                                                                "
};
