/* XPM */
static char *oms_219[] = {
/* columns rows colors chars-per-pixel */
"128 54 200 2 ",
"   c #FF00FF",
".  c #090909",
"X  c #0D0D0D",
"o  c #0E0E0E",
"O  c #0F0F0F",
"+  c #101010",
"@  c #111111",
"#  c #121212",
"$  c #131313",
"%  c #141414",
"&  c #151515",
"*  c #161616",
"=  c #171717",
"-  c #181818",
";  c #191919",
":  c #1A1A1A",
">  c #1B1B1B",
",  c #1C1C1C",
"<  c #1D1D1D",
"1  c #1E1E1E",
"2  c #1F1F1F",
"3  c #202020",
"4  c #212121",
"5  c #232323",
"6  c #242424",
"7  c #252525",
"8  c #262626",
"9  c #272727",
"0  c #282828",
"q  c #292929",
"w  c #2A2A2A",
"e  c #2B2B2B",
"r  c #2C2C2C",
"t  c #2D2D2D",
"y  c #2E2E2E",
"u  c #2F2F2F",
"i  c #303030",
"p  c #313131",
"a  c #323232",
"s  c #343434",
"d  c #353535",
"f  c #363636",
"g  c #373737",
"h  c #383838",
"j  c #393939",
"k  c #3A3A3A",
"l  c #3B3B3B",
"z  c #3C3C3C",
"x  c #3D3D3D",
"c  c #3E3E3E",
"v  c #3F3F3F",
"b  c #404040",
"n  c #414141",
"m  c #424242",
"M  c #434343",
"N  c #444444",
"B  c #454545",
"V  c #474747",
"C  c #484848",
"Z  c #4A4A4A",
"A  c #4B4B4B",
"S  c #4C4C4C",
"D  c #4C4C4C",
"F  c #4E4E4E",
"G  c #515151",
"H  c #535353",
"J  c #555555",
"K  c #565656",
"L  c #575757",
"P  c #585858",
"I  c #595959",
"U  c #5B5B5B",
"Y  c #5C5C5C",
"T  c #5D5D5D",
"R  c #5E5E5E",
"E  c #5F5F5F",
"W  c #626262",
"Q  c #646464",
"!  c #656565",
"~  c #686868",
"^  c #696969",
"/  c #6A6A6A",
"(  c #6C6C6C",
")  c #6D6D6D",
"_  c #6E6E6E",
"`  c #717171",
"'  c #737373",
"]  c #747474",
"[  c #757575",
"{  c #767676",
"}  c #777777",
"|  c #7A7A7A",
" . c #7D7D7D",
".. c #7E7E7E",
"X. c #808080",
"o. c #838383",
"O. c #858585",
"+. c #868686",
"@. c #878787",
"#. c #888888",
"$. c #8A8A8A",
"%. c #8B8B8B",
"&. c #8C8C8C",
"*. c #8D8D8D",
"=. c #8E8E8E",
"-. c #8F8F8F",
";. c #909090",
":. c #919191",
">. c #929292",
",. c #939393",
"<. c #949494",
"1. c #969696",
"2. c #989898",
"3. c #999999",
"4. c #9B9B9B",
"5. c #9C9C9C",
"6. c #9D9D9D",
"7. c #9E9E9E",
"8. c #9F9F9F",
"9. c #A0A0A0",
"0. c #A1A1A1",
"q. c #A2A2A2",
"w. c #A3A3A3",
"e. c #A4A4A4",
"r. c #A5A5A5",
"t. c #A7A7A7",
"y. c #A8A8A8",
"u. c #ABABAB",
"i. c #ADADAD",
"p. c #AFAFAF",
"a. c #B0B0B0",
"s. c #B2B2B2",
"d. c #B2B2B2",
"f. c #B4B4B4",
"g. c #B8B8B8",
"h. c #BABABA",
"j. c #BBBBBB",
"k. c #BCBCBC",
"l. c #808080",
"z. c #BFBFBF",
"x. c #C0C0C0",
"c. c #C1C1C1",
"v. c #C3C3C3",
"b. c #C4C4C4",
"n. c #C5C5C5",
"m. c #C7C7C7",
"M. c #C8C8C8",
"N. c #CACACA",
"B. c #CBCBCB",
"V. c #CDCDCD",
"C. c #CECECE",
"Z. c #CFCFCF",
"A. c #D0D0D0",
"S. c #D1D1D1",
"D. c #D2D2D2",
"F. c #D3D3D3",
"G. c #D4D4D4",
"H. c #D5D5D5",
"J. c #D6D6D6",
"K. c #D7D7D7",
"L. c #D8D8D8",
"P. c #D9D9D9",
"I. c #DADADA",
"U. c #DBDBDB",
"Y. c #DCDCDC",
"T. c #DDDDDD",
"R. c #DEDEDE",
"E. c #DFDFDF",
"W. c #E0E0E0",
"Q. c #E1E1E1",
"!. c #E2E2E2",
"~. c #E3E3E3",
"^. c #E4E4E4",
"/. c #E6E6E6",
"(. c #E6E6E6",
"). c #E7E7E7",
"_. c #E8E8E8",
"`. c #E9E9E9",
"'. c #EAEAEA",
"]. c #EBEBEB",
"[. c #ECECEC",
"{. c #EDEDED",
"}. c #EEEEEE",
"|. c #EFEFEF",
" X c #F0F0F0",
".X c #F1F1F1",
"XX c #F2F2F2",
"oX c #F3F3F3",
"OX c #F4F4F4",
"+X c #F5F5F5",
"@X c #F6F6F6",
"#X c #F7F7F7",
"$X c #F8F8F8",
"%X c #F9F9F9",
"&X c #FAFAFA",
"*X c #FBFBFB",
"=X c #FCFCFC",
"-X c #FDFDFD",
";X c #FEFEFE",
":X c #FFFFF1",
/* pixels */
"                                                                                                                                                                                                                                                                ",
"                                                                                                                                                                                                                                                                ",
"                                                                                                                                                                                                                                                                ",
"                                                                                                                                                                                                                                                                ",
"                                                                                                                                                                                                                                                                ",
"                                                                                                                                                                                                                                                                ",
"                                                                                                                                                                                                                                                                ",
"                                                                                                                                                                                                                                                                ",
"                                                                                                                                                                                                                                                                ",
"                                                                                                                                                                                                                                                                ",
"                                                                                                                                                                                                                                                                ",
"                                                                                                                                                                                                    C s 5 : : :                                                 ",
"                                                                                                                                                                                                x : = = = = = = = O                                             ",
"                                                                                                                                                                                T N w         w = = = = = = = = 5 s C                                           ",
"                                                                                                                                                                            x : = = = = =   s = = = = = = : T e.N.^.XXXXXX                                      ",
"                                                                                                                                                              C s w : =   G : = = = = = O O = 5 5 = = = s d.XX=X=X=X=X=X=XXX                                    ",
"                                                                                                                                                            | : = = = = = = = O O = = : G X.p.H.#.= = 5 l.=X=XXXv.p.^.=X=X=X                                    ",
"                                                                                                                                                            | : = = = = = : s T | w O G _.=X=X=X3.O O Q XX=XXX[ : = #.=X=X=X                                    ",
"                                                                                                                                C s w : : = = =     G x w   / : = = = = N N.^.XX=X#.= e.=X=X=X=X<.O O <.=X=XI.5 O = e.=X=XXX                                    ",
"                                                                                                                            T : = = = = = = = = = = = : = = : = = = = O T XX=X=X=X^.T I.=X=X=X=X3.O = 3.=X=XXXX.T 3.XX=X=XXX                                    ",
"                                                                                                                            G = = = = = = = : w x [ e.d.w = O = : w w = T XX=X=X=X=X^.XX=X=X=X=XN.O O X.=X=X=X=XXX=X=X=XXX                                      ",
"                                                                                                                            N = = = = = : #.N.^.l.XX=X_.w : G 3.N.I.I.e.[ XX=X=XXX=X=X=X^.^.=X=X=X      _.=X=X=X=X=XXX                                          ",
"                                                                                                                    x = = = = = = = = = 5 H.=X=Xl.XX=X^.N e.XXXXH.XX=XXXl.XX=XXXv.=X=X=X<.H.=X=XXX          XXXX                                                ",
"                                                                                                    T x 5 : = = : s = = = = = = = = 5 w w H.=XXXl.XX=X^.e.=X=XI.v._.=X=XH.XX=X_.Q I.=X_.C H.=X=X                                                                ",
"                                                                                            x 5 s x = = = = = = = O O = = : = = w 3.I.^.v._.=XXXl.XX=XXX^.XX_.N.p._.=XXXp.XX=XXXG e.=X_.                                                                        ",
"                                                          / x w : = = = = =       N : : w = = = = = = = = = = = = w Q 3.l.v.e.x 3.=X=XXX_.=X=XXXl.XX=XXXH.I.^.v.p.XX=XI.| XX=XXX                                                                                ",
"                                                T N 5 x x : = = = = = = = = O = w s s 5 = = = = = = O = w C T 5 [ I.=X=X=X=X=Xv.I.=X=X3.N ^.=XXXl.XX=X_.H.=X=X=X=X=XXX                                                                                          ",
"                                              x = = = = = = = = = O = = = x [ e.N.^._.H.G = = = x X.X.[ I.XXI.X.XX=XI.[ l.=X=XXXXX=X=X/ : H.=XXXl.XX=XXX                                                                                                        ",
"                                      s 5 : = = = = = = = = = : x Q C w 3._.=X=XXX=X=X=Xp.= = x H.=X=XXX=X=X_.H.=X=X3.O #.=X=XH.^.=X=X| 5 H.=XXXN.                                                                                                              ",
"                                    | : = = = = = = = = = 5 : 3._.=X3.e.=X=X_.#.p.=X=X=X3.= = X.=X=XH.d.=X=X_.I.=X=XH.X.I.=XXX#.I.=XXX                                                                                                                          ",
"                                    s = = = = = = = 5 #.l.I.G e.^.I.<.e.v.H.I.N._.=X=XXX/ O = e.=X_.#.T XX=X^.v.=X=X=X=X=XXX                                                                                                                                    ",
"                      T s 5 : = = 5 = = = = = O = = s ^.=X=Xp.l.^.XX<./ I.XX=X=XXX_.v.e.        X.N : T XX=XXX  XXXXXXXX                                                                                                                                        ",
"                    x = = = = = = = = = = : s N s : e.XX=X=X=X=X=X=Xl.I.=X=XXX<.#.I.^._.XX            / XXXX                                                                                                                                                    ",
"                  T O = = = = = = = = N <.N._._.^.<.^.=X=X=Xv.H.=X=XH.XX=X=X_.3.H.=X=X=X                                                                                                                                                                        ",
"                  x O = = = = = = = / _.=XH.I.=X=X^.<._.=XXXT d.=X=Xv._.=X=X=X=X=X=XXX                                                                                                                                                                          ",
"                  N = = = = = = = s ^.=XXXN.I.=X=X^.[ _.=XXXG d.=X=XH.  =XXXXXXX                                                                                                                                                                                ",
"                  N = = = = = = O G _._.I.e.l.=X=XI.^.=X=XXXC l.=XXX                                                                                                                                                                                            ",
"                      = = = = = O C I.^.^.l.I.=XXX<.I.=XXX                                                                                                                                                                                                      ",
"                                O N _.=X=X=X=XXX                                                                                                                                                                                                                ",
"                                                                                                                                                                                                                                                                ",
"                                                                                                                                                                                                                                                                ",
"                                                                                                                                                                                                                                                                ",
"                                                                                                                                                                                                                                                                ",
"                                                                                                                                                                                                                                                                ",
"                                                                                                                                                                                                                                                                ",
"                                                                                                                                                                                                                                                                ",
"                                                                                                                                                                                                                                                                ",
"                                                                                                                                                                                                                                                                ",
"                                                                                                                                                                                                                                                                ",
"                                                                                                                                                                                                                                                                ",
"                                                                                                                                                                                                                                                                ",
"                                                                                                                                                                                                                                                                ",
"                                                                                                                                                                                                                                                                ",
"                                                                                                                                                                                                                                                                "
};
