/* XPM */
static char *oms_116[] = {
/* columns rows colors chars-per-pixel */
"128 54 179 2 ",
"   c #FF00FF",
".  c #0E0E0E",
"X  c #0F0F0F",
"o  c #101010",
"O  c #111111",
"+  c #121212",
"@  c #131313",
"#  c #141414",
"$  c #151515",
"%  c #161616",
"&  c #171717",
"*  c #181818",
"=  c #191919",
"-  c #1B1B1B",
";  c #1C1C1C",
":  c #1D1D1D",
">  c #1E1E1E",
",  c #1F1F1F",
"<  c #202020",
"1  c #212121",
"2  c #222222",
"3  c #232323",
"4  c #242424",
"5  c #252525",
"6  c #262626",
"7  c #272727",
"8  c #282828",
"9  c #2A2A2A",
"0  c #2B2B2B",
"q  c #2C2C2C",
"w  c #2D2D2D",
"e  c #2E2E2E",
"r  c #2F2F2F",
"t  c #323232",
"y  c #333333",
"u  c #343434",
"i  c #353535",
"p  c #363636",
"a  c #373737",
"s  c #393939",
"d  c #3A3A3A",
"f  c #3B3B3B",
"g  c #3C3C3C",
"h  c #3D3D3D",
"j  c #404040",
"k  c #414141",
"l  c #424242",
"z  c #464646",
"x  c #474747",
"c  c #484848",
"v  c #494949",
"b  c #4A4A4A",
"n  c #4B4B4B",
"m  c #4C4C4C",
"M  c #4C4C4C",
"N  c #545454",
"B  c #555555",
"V  c #595959",
"C  c #5A5A5A",
"Z  c #5B5B5B",
"A  c #5D5D5D",
"S  c #5E5E5E",
"D  c #5F5F5F",
"F  c #636363",
"G  c #656565",
"H  c #666666",
"J  c #696969",
"K  c #6A6A6A",
"L  c #6C6C6C",
"P  c #6D6D6D",
"I  c #6E6E6E",
"U  c #6F6F6F",
"Y  c #707070",
"T  c #757575",
"R  c #777777",
"E  c #797979",
"W  c #7B7B7B",
"Q  c #7C7C7C",
"!  c #7D7D7D",
"~  c #808080",
"^  c #858585",
"/  c #868686",
"(  c #878787",
")  c #8A8A8A",
"_  c #8C8C8C",
"`  c #8D8D8D",
"'  c #8F8F8F",
"]  c #909090",
"[  c #919191",
"{  c #929292",
"}  c #949494",
"|  c #959595",
" . c #999999",
".. c #9A9A9A",
"X. c #9B9B9B",
"o. c #9D9D9D",
"O. c #9E9E9E",
"+. c #9F9F9F",
"@. c #A1A1A1",
"#. c #A2A2A2",
"$. c #A3A3A3",
"%. c #A4A4A4",
"&. c #A5A5A5",
"*. c #A6A6A6",
"=. c #A7A7A7",
"-. c #A9A9A9",
";. c #ABABAB",
":. c #ACACAC",
">. c #ADADAD",
",. c #B0B0B0",
"<. c #B1B1B1",
"1. c #B2B2B2",
"2. c #B6B6B6",
"3. c #B7B7B7",
"4. c #B8B8B8",
"5. c #B9B9B9",
"6. c #BABABA",
"7. c #BBBBBB",
"8. c #BDBDBD",
"9. c #BFBFBF",
"0. c #C0C0C0",
"q. c #C1C1C1",
"w. c #C2C2C2",
"e. c #C3C3C3",
"r. c #C4C4C4",
"t. c #C5C5C5",
"y. c #C6C6C6",
"u. c #C7C7C7",
"i. c #CACACA",
"p. c #CBCBCB",
"a. c #CCCCCC",
"s. c #CECECE",
"d. c #CFCFCF",
"f. c #D0D0D0",
"g. c #D1D1D1",
"h. c #D3D3D3",
"j. c #D4D4D4",
"k. c #D6D6D6",
"l. c #D7D7D7",
"z. c #D8D8D8",
"x. c #D9D9D9",
"c. c #DADADA",
"v. c #DBDBDB",
"b. c #DCDCDC",
"n. c #DDDDDD",
"m. c #DEDEDE",
"M. c #DFDFDF",
"N. c #E0E0E0",
"B. c #E1E1E1",
"V. c #E2E2E2",
"C. c #E3E3E3",
"Z. c #E4E4E4",
"A. c #E6E6E6",
"S. c #E6E6E6",
"D. c #E7E7E7",
"F. c #E8E8E8",
"G. c #E9E9E9",
"H. c #EAEAEA",
"J. c #EBEBEB",
"K. c #ECECEC",
"L. c #EDEDED",
"P. c #EEEEEE",
"I. c #EFEFEF",
"U. c #F0F0F0",
"Y. c #F1F1F1",
"T. c #F2F2F2",
"R. c #F3F3F3",
"E. c #F4F4F4",
"W. c #F5F5F5",
"Q. c #F6F6F6",
"!. c #F7F7F7",
"~. c #F8F8F8",
"^. c #F9F9F9",
"/. c #FAFAFA",
"(. c #FBFBFB",
"). c #FCFCFC",
"_. c #FDFDFD",
"`. c #FEFEFE",
"'. c #FFFFF1",
/* pixels */
"                                                                                                                                                                                                                                                                ",
"                                                                                                                                                                                                                                                                ",
"                                                                                                                                                                                                                                                                ",
"                                                                                                                                                                                                                                                                ",
"                                                                                                                                                                                                                                                                ",
"                                                                                                                                                                                                                                                                ",
"                                                                                                                                                                                                                                                                ",
"                                                                                                                                                                                                                                                                ",
"                                                                                                                                                                                                                                                                ",
"                                                                                                                                                                                                                                                                ",
"                                                                                                                                                                                                                                                                ",
"                                                                                                                                                                                                                                                                ",
"                                                                                                                                                                                                                                                                ",
"                                                                                          ; 7 o X o o o o 7 o o 7 y j                                                                                                                                           ",
"                                                                                    ~.d.b e 1.D D 7 o o o o o o o o o b                                                                                                                                         ",
"                                                                                    E.M.d.Q E.=.k.` 7 7 o o o o o o o o o ; b                                                                                                                                   ",
"                                                                                  F.F.k.F.k.~.d.k.-.t.k.Q 7 o o o o o o o o o y -.                                                                                                                              ",
"                                                                                    M.8.E.k.E.~.E.1.M.~.~.-.; o o o o o o o o o J                                                                                                                               ",
"                                                                                    E.k.E.1.D.M.E.-.} t.t.E.D o o o o o o o o o b                                                                                                                               ",
"                                                                                      ~.E.k.~.=.M.k.F.D.M.~.` o o o o o o o o o j                                                                                                                               ",
"                                                                                          M.~.=.k.D.E.~.~.~.` o 7 ; o o o o o o 7 7 o b                                                                                                                         ",
"                                                                                            ~.O.D.M.E.M.8.D.D 7 t.^ e o o o o o o o o o ; B                                                                                                                     ",
"                                                                                                ~.8.D.M.-.8.y g F.E.M.H ; o o o o o o o o ; g e T                                                                                                               ",
"                                                                                                      ~.~.~.` g F.D.~.8.1.=.g o o o 7 o o o o o ; g o o o e Q                                                                                                   ",
"                                                                                                        E.~.T ; =.=.F.F.~.~.k.g o o ^ =.y o o o o o o o o o ; g }                                                                                               ",
"                                                                                                                    ~.E.E.1.D.O.O.^ O.~.F.^ o o o o o o o o o X J                                                                                               ",
"                                                                                                                    ~.F.E.J 8.D.F.F.k.~.~.t.; o o o o o o o o o J                                                                                               ",
"                                                                                                                    ~.t.F.1.k.F.F.E.E.~.~.t.; o o ; e o o o o o y g o o o e Q                                                                                   ",
"                                                                                                                        F.~.~.D.F.1.1.~.~.t.Q ^ e e t.` 7 o o o o o o o o o 7 `                                                                                 ",
"                                                                                                                            ~.t.F.} } ~.~.M.D.~.d.b M.~.B y y o o o o o o o o ; o j `                                                                           ",
"                                                                                                                                ~.} O.~.~.F.E.k.D.-.M.~.Q O.M.T o o o o o o o o o o g k.                                                                        ",
"                                                                                                                                    k.~.~.F.k.M.E.M.D.~.1.d.~.t.; o ; o o o o o o o e ^                                                                         ",
"                                                                                                                                        ~.M.D.1.k.F.F.~.F.E.~.t.o j 8.} y o o o o o o o o o ; b                                                                 ",
"                                                                                                                                            D.E.E.D.F.F.E.~.~.t.; =.~.~.d.g o o o o o o o o o o b                                                               ",
"                                                                                                                                              E.~.t.D.d.D.E.E.t.7 t.~.E.~.-.; o o o o o o o o o o }                                                             ",
"                                                                                                                                                    E.8.t.M.D.t.7 t.D.H d.F.g o o o o o o o o o X H                                                             ",
"                                                                                                                                                        k.-.M.t.; t.k.; T ~.D X o o o o o o o o o b                                                             ",
"                                                                                                                                                            E.t.; =.E.j J ~.J X o o o o o o o o o j                                                             ",
"                                                                                                                                                                  =.~.k.k.~.J o o o o o o o o o o j                                                             ",
"                                                                                                                                                                    ~.~.~.~.D X o o o o o o o o X D                                                             ",
"                                                                                                                                                                      E.~.M.y o o o o o o o o o ; `                                                             ",
"                                                                                                                                                                                                                                                                ",
"                                                                                                                                                                                                                                                                ",
"                                                                                                                                                                                                                                                                ",
"                                                                                                                                                                                                                                                                ",
"                                                                                                                                                                                                                                                                ",
"                                                                                                                                                                                                                                                                ",
"                                                                                                                                                                                                                                                                ",
"                                                                                                                                                                                                                                                                ",
"                                                                                                                                                                                                                                                                ",
"                                                                                                                                                                                                                                                                ",
"                                                                                                                                                                                                                                                                ",
"                                                                                                                                                                                                                                                                ",
"                                                                                                                                                                                                                                                                "
};
