/* XPM */
static char *oms_048[] = {
/* columns rows colors chars-per-pixel */
"128 54 194 2 ",
"   c #FF00FF",
".  c #0B0B0B",
"X  c #0D0D0D",
"o  c #0E0E0E",
"O  c #0F0F0F",
"+  c #101010",
"@  c #111111",
"#  c #121212",
"$  c #131313",
"%  c #141414",
"&  c #151515",
"*  c #161616",
"=  c #171717",
"-  c #181818",
";  c #191919",
":  c #1A1A1A",
">  c #1B1B1B",
",  c #1C1C1C",
"<  c #1D1D1D",
"1  c #1E1E1E",
"2  c #1F1F1F",
"3  c #202020",
"4  c #212121",
"5  c #222222",
"6  c #232323",
"7  c #242424",
"8  c #252525",
"9  c #262626",
"0  c #282828",
"q  c #292929",
"w  c #2A2A2A",
"e  c #2B2B2B",
"r  c #2D2D2D",
"t  c #2E2E2E",
"y  c #2F2F2F",
"u  c #303030",
"i  c #323232",
"p  c #343434",
"a  c #353535",
"s  c #363636",
"d  c #373737",
"f  c #383838",
"g  c #393939",
"h  c #3C3C3C",
"j  c #3D3D3D",
"k  c #3E3E3E",
"l  c #414141",
"z  c #424242",
"x  c #434343",
"c  c #464646",
"v  c #474747",
"b  c #4A4A4A",
"n  c #4C4C4C",
"m  c #4C4C4C",
"M  c #4F4F4F",
"N  c #505050",
"B  c #515151",
"V  c #525252",
"C  c #565656",
"Z  c #575757",
"A  c #585858",
"S  c #5B5B5B",
"D  c #5D5D5D",
"F  c #5E5E5E",
"G  c #5F5F5F",
"H  c #616161",
"J  c #636363",
"K  c #656565",
"L  c #676767",
"P  c #686868",
"I  c #696969",
"U  c #6B6B6B",
"Y  c #6D6D6D",
"T  c #6E6E6E",
"R  c #6F6F6F",
"E  c #717171",
"W  c #737373",
"Q  c #747474",
"!  c #7A7A7A",
"~  c #7B7B7B",
"^  c #7D7D7D",
"/  c #7E7E7E",
"(  c #808080",
")  c #808080",
"_  c #818181",
"`  c #828282",
"'  c #838383",
"]  c #848484",
"[  c #858585",
"{  c #868686",
"}  c #878787",
"|  c #888888",
" . c #898989",
".. c #8A8A8A",
"X. c #8B8B8B",
"o. c #8C8C8C",
"O. c #8D8D8D",
"+. c #8E8E8E",
"@. c #8F8F8F",
"#. c #909090",
"$. c #929292",
"%. c #939393",
"&. c #949494",
"*. c #969696",
"=. c #979797",
"-. c #9C9C9C",
";. c #9D9D9D",
":. c #9E9E9E",
">. c #9F9F9F",
",. c #A2A2A2",
"<. c #A3A3A3",
"1. c #A4A4A4",
"2. c #A5A5A5",
"3. c #A9A9A9",
"4. c #ABABAB",
"5. c #ACACAC",
"6. c #AEAEAE",
"7. c #B0B0B0",
"8. c #B1B1B1",
"9. c #B2B2B2",
"0. c #B4B4B4",
"q. c #B5B5B5",
"w. c #B6B6B6",
"e. c #B7B7B7",
"r. c #B8B8B8",
"t. c #B9B9B9",
"y. c #BABABA",
"u. c #BBBBBB",
"i. c #BCBCBC",
"p. c #BDBDBD",
"a. c #808080",
"s. c #BFBFBF",
"d. c #C0C0C0",
"f. c #C1C1C1",
"g. c #C3C3C3",
"h. c #C4C4C4",
"j. c #C5C5C5",
"k. c #C6C6C6",
"l. c #C7C7C7",
"z. c #C8C8C8",
"x. c #C9C9C9",
"c. c #CACACA",
"v. c #CBCBCB",
"b. c #CCCCCC",
"n. c #CDCDCD",
"m. c #CECECE",
"M. c #CFCFCF",
"N. c #D0D0D0",
"B. c #D1D1D1",
"V. c #D2D2D2",
"C. c #D3D3D3",
"Z. c #D4D4D4",
"A. c #D5D5D5",
"S. c #D6D6D6",
"D. c #D7D7D7",
"F. c #D8D8D8",
"G. c #D9D9D9",
"H. c #DADADA",
"J. c #DBDBDB",
"K. c #DCDCDC",
"L. c #DDDDDD",
"P. c #DEDEDE",
"I. c #DFDFDF",
"U. c #E0E0E0",
"Y. c #E1E1E1",
"T. c #E2E2E2",
"R. c #E3E3E3",
"E. c #E6E6E6",
"W. c #E6E6E6",
"Q. c #E7E7E7",
"!. c #E8E8E8",
"~. c #E9E9E9",
"^. c #EAEAEA",
"/. c #EBEBEB",
"(. c #ECECEC",
"). c #EDEDED",
"_. c #EEEEEE",
"`. c #EFEFEF",
"'. c #F0F0F0",
"]. c #F1F1F1",
"[. c #F2F2F2",
"{. c #F3F3F3",
"}. c #F4F4F4",
"|. c #F5F5F5",
" X c #F6F6F6",
".X c #F7F7F7",
"XX c #F8F8F8",
"oX c #F9F9F9",
"OX c #FAFAFA",
"+X c #FBFBFB",
"@X c #FCFCFC",
"#X c #FDFDFD",
"$X c #FEFEFE",
"%X c #FFFFF1",
/* pixels */
"                                                                                                                                                                                                                                                                ",
"                                                                                                                                                                                                                                                                ",
"                                                                                                                                                                                                                                                                ",
"                                                                                                                                                                                                                                                                ",
"                                                                                                                                                                                                                                                                ",
"                                                                                                                                                                                                                                                                ",
"                                                                                                                                                                                                                                                                ",
"                                                                                                                                                                                                                                                                ",
"                                                                                                                                                                                                                                                                ",
"                                                                                                                                                                                                                                                                ",
"                                                                                                                                                                                                                                                                ",
"                                                                                                                                                                                                                                                                ",
"                                                                                                                                                                                                                                                                ",
"                                                                                                                                                                                                                                                                ",
"                                                                                                                                                                                                                                                                ",
"                                                                                                                                                                                                                                                                ",
"                                                                                                                                                                                                                                                                ",
"                                                                                                                                                                                                                                                                ",
"                                                                                                                                                                                                                                                                ",
"                                                                                                                                                                                                                                                                ",
"                                                                                                                                                                                    f > O $ $ > > $                                                             ",
"                                                                                                                                                                    x > $ $ $ $ $ $ $ s E -.0.u.u.$.s ~ `.@Xo.H L.|.b.                                          ",
"                                                                                                                                                                  E $ $ $ $ $ $ $ $ C R.@X@X@X@X@X@Xg.$.`.`.[ $.@X@X0.6 w o.L.|.|.|.                            ",
"                                                                                                            $ > > $ > $ $ > w s                                   C O $ $ $ $ $ $ > u.@X@XR.o.b.`.V.0.$.L.L.u.R.@X@X|.[ u.@X|.R.|.@X|.                          ",
"                                                                                    $ $ > O $ $           G $ $ $ $ $ $ > ,.V.V.0.`.@X,.O O O 6 6 $ $ > 6 6 > $ 6 x n f C -.~ > $ > b.@X@X`.u.V.R.g.P $.@X@XR.|.@X@X|.V.@X@XV.0.|.@X|.                          ",
"                                                        > $           f $ $ $ $ $ > x H E [ f O s u.L.`.@XH $ $ $ O O $ 6 V.@X|.b.@X@X[ > n C 6 $ s o.u.V.V.g.G P `.|.V.`.@X@XP O $ 6.@X@X@X@X@X@X@XR.u.@X@X0.u.@X@X,.-.@X@X`.b.L.R.|.                          ",
"                                                x > $ $ $ $ $ w E 0.V.b.6.E 6 $ $ 6 L.@X@X@X,.$ ~ @X@X@XR.s $ w n G G s 6 b.@X|.g.@X@X6.u.|.|.6.x V.@X@X|.@X@XR.,.@X@X|.`.@X@X-.$ $ s 6.L.L.g.R.@X@X|.L.@X@Xo.[ @X@Xg.0.@X@Xg.~ L.`.|.                          ",
"                                              G > $ $ $ $ $ n V.@X@X@X@X@X@X,.> $ 6 L.@X@X@XR.f g.@X@X@XL.f o.L.|.@X|.L.P b.@X|.g.@X@X@X@X@X@XR.0.@X@Xu.C V.@X|.V.|.@X0.[ @X|.-.$ 6 $.g.L.b.C 0.@X@X|.b.@X@Xo.[ @X@X@X0.`.@X@X|.@X@X|.                          ",
"                                              s $ $ $ $ $ w V.@X@X|.`.|.@X@X|.n O 6 L.@X@X@X|.0.`.@X@X@XL.o.@X@Xb.g.@X@Xb.V.@X|.g.@X@Xb.~ `.@X`.L.@X@X~ O u.@X|.V.|.@X6.w G n w $ > g.@X@X@X`.|.@X@Xu.-.@X@X$.G |.@X@X$.  |.@X|.|.                              ",
"                                              s $ $ $ $ O H @X@X|.~ f P `.@X@XP O 6 L.@X@X@X@X|.@X|.@X@XR.b.@X@XR.R.|.|.L.L.@X`.g.@X@X[ 6 V.@X`.b.@X@Xg.[ `.@X`.6.|.@XL.      $ $ O H `.@X@X@X|.|.|.                                                            ",
"                                              s $ $ $ $ O [ @X@Xb.> O > V.@X@XE O 6 L.@X|.L.@X@X@Xb.`.@XR.V.@X@X0.o.b.V.g.L.@X`.g.@X@X[ 6 V.@XR.[ `.@X@X@X@X@X,.[ |.@X|.                                                                                        ",
"                                              s $ $ $ $ O [ @X@XL.s $ n `.@X@XH O 6 L.@X`.$.`.@X`.~ `.@XL.u.@X@XV.b.|.@Xu.V.@X|.g.@X@X$.6 V.@X`.    |.@X|.|.                                                                                                    ",
"                                              C > $ $ $ O P @X@X@Xb.0.R.@X@XR.s $ 6 L.@X|.G g.@Xu.n `.@XR.P R.@X@X@X@X|.  b.@X`.                                                                                                                                ",
"                                                  $ $ $ $ s V.@X@X@X@X@X@X@X6.$ $ 6 L.@X|.H o.@X    `.|.                                                                                                                                                        ",
"                                                          $ P `.|.|.|.|.|.                                                                                                                                                                                      ",
"                                                                                                                                                                                                                                                                ",
"                                                                                                                                                                                                                                                                ",
"                                                                                                                                                                                                                                                                ",
"                                                                                                                                                                                                                                                                ",
"                                                                                                                                                                                                                                                                ",
"                                                                                                                                                                                                                                                                ",
"                                                                                                                                                                                                                                                                ",
"                                                                                                                                                                                                                                                                ",
"                                                                                                                                                                                                                                                                ",
"                                                                                                                                                                                                                                                                ",
"                                                                                                                                                                                                                                                                ",
"                                                                                                                                                                                                                                                                ",
"                                                                                                                                                                                                                                                                ",
"                                                                                                                                                                                                                                                                ",
"                                                                                                                                                                                                                                                                ",
"                                                                                                                                                                                                                                                                ",
"                                                                                                                                                                                                                                                                ",
"                                                                                                                                                                                                                                                                ",
"                                                                                                                                                                                                                                                                "
};
