/* XPM */
static char *oms_167[] = {
/* columns rows colors chars-per-pixel */
"128 54 207 2 ",
"   c #FF00FF",
".  c #0B0B0B",
"X  c #0C0C0C",
"o  c #0E0E0E",
"O  c #0F0F0F",
"+  c #101010",
"@  c #111111",
"#  c #121212",
"$  c #131313",
"%  c #141414",
"&  c #151515",
"*  c #161616",
"=  c #171717",
"-  c #181818",
";  c #191919",
":  c #1A1A1A",
">  c #1B1B1B",
",  c #1C1C1C",
"<  c #1D1D1D",
"1  c #1E1E1E",
"2  c #1F1F1F",
"3  c #202020",
"4  c #212121",
"5  c #222222",
"6  c #232323",
"7  c #242424",
"8  c #252525",
"9  c #262626",
"0  c #272727",
"q  c #282828",
"w  c #292929",
"e  c #2A2A2A",
"r  c #2B2B2B",
"t  c #2C2C2C",
"y  c #2D2D2D",
"u  c #2E2E2E",
"i  c #2F2F2F",
"p  c #303030",
"a  c #313131",
"s  c #323232",
"d  c #343434",
"f  c #353535",
"g  c #363636",
"h  c #373737",
"j  c #383838",
"k  c #3A3A3A",
"l  c #3B3B3B",
"z  c #3C3C3C",
"x  c #3D3D3D",
"c  c #3E3E3E",
"v  c #414141",
"b  c #424242",
"n  c #434343",
"m  c #444444",
"M  c #454545",
"N  c #464646",
"B  c #474747",
"V  c #484848",
"C  c #494949",
"Z  c #4A4A4A",
"A  c #4B4B4B",
"S  c #4C4C4C",
"D  c #4F4F4F",
"F  c #525252",
"G  c #535353",
"H  c #545454",
"J  c #555555",
"K  c #565656",
"L  c #575757",
"P  c #585858",
"I  c #595959",
"U  c #5B5B5B",
"Y  c #5D5D5D",
"T  c #5E5E5E",
"R  c #5F5F5F",
"E  c #606060",
"W  c #616161",
"Q  c #626262",
"!  c #636363",
"~  c #646464",
"^  c #656565",
"/  c #666666",
"(  c #676767",
")  c #686868",
"_  c #696969",
"`  c #6B6B6B",
"'  c #6C6C6C",
"]  c #6E6E6E",
"[  c #6F6F6F",
"{  c #707070",
"}  c #717171",
"|  c #727272",
" . c #747474",
".. c #767676",
"X. c #777777",
"o. c #787878",
"O. c #7A7A7A",
"+. c #7B7B7B",
"@. c #7C7C7C",
"#. c #808080",
"$. c #808080",
"%. c #818181",
"&. c #838383",
"*. c #848484",
"=. c #858585",
"-. c #878787",
";. c #888888",
":. c #898989",
">. c #8A8A8A",
",. c #8B8B8B",
"<. c #8C8C8C",
"1. c #8D8D8D",
"2. c #8E8E8E",
"3. c #8F8F8F",
"4. c #909090",
"5. c #9A9A9A",
"6. c #9C9C9C",
"7. c #9E9E9E",
"8. c #9F9F9F",
"9. c #A1A1A1",
"0. c #A2A2A2",
"q. c #A4A4A4",
"w. c #A5A5A5",
"e. c #A6A6A6",
"r. c #A8A8A8",
"t. c #AAAAAA",
"y. c #ACACAC",
"u. c #ADADAD",
"i. c #AEAEAE",
"p. c #AFAFAF",
"a. c #B0B0B0",
"s. c #B1B1B1",
"d. c #B2B2B2",
"f. c #B2B2B2",
"g. c #B4B4B4",
"h. c #B5B5B5",
"j. c #B6B6B6",
"k. c #B7B7B7",
"l. c #B9B9B9",
"z. c #BABABA",
"x. c #BBBBBB",
"c. c #BCBCBC",
"v. c #BDBDBD",
"b. c #808080",
"n. c #C0C0C0",
"m. c #C1C1C1",
"M. c #C2C2C2",
"N. c #C3C3C3",
"B. c #C4C4C4",
"V. c #C5C5C5",
"C. c #C6C6C6",
"Z. c #C7C7C7",
"A. c #C9C9C9",
"S. c #CACACA",
"D. c #CBCBCB",
"F. c #CCCCCC",
"G. c #CDCDCD",
"H. c #CECECE",
"J. c #CFCFCF",
"K. c #D0D0D0",
"L. c #D1D1D1",
"P. c #D2D2D2",
"I. c #D3D3D3",
"U. c #D4D4D4",
"Y. c #D5D5D5",
"T. c #D6D6D6",
"R. c #D7D7D7",
"E. c #D8D8D8",
"W. c #D9D9D9",
"Q. c #DADADA",
"!. c #DBDBDB",
"~. c #DCDCDC",
"^. c #DDDDDD",
"/. c #DEDEDE",
"(. c #DFDFDF",
"). c #E0E0E0",
"_. c #E1E1E1",
"`. c #E2E2E2",
"'. c #E3E3E3",
"]. c #E4E4E4",
"[. c #E6E6E6",
"{. c #E6E6E6",
"}. c #E7E7E7",
"|. c #E8E8E8",
" X c #E9E9E9",
".X c #EAEAEA",
"XX c #EBEBEB",
"oX c #ECECEC",
"OX c #EDEDED",
"+X c #EEEEEE",
"@X c #EFEFEF",
"#X c #F0F0F0",
"$X c #F1F1F1",
"%X c #F2F2F2",
"&X c #F3F3F3",
"*X c #F4F4F4",
"=X c #F5F5F5",
"-X c #F6F6F6",
";X c #F7F7F7",
":X c #F8F8F8",
">X c #F9F9F9",
",X c #FAFAFA",
"<X c #FBFBFB",
"1X c #FCFCFC",
"2X c #FDFDFD",
"3X c #FEFEFE",
"4X c #FFFFF1",
/* pixels */
"                                                                                                                                                                                                                                                                ",
"                                                                                                                                                                                                                                                                ",
"                                                                                                                                                                                                                                                                ",
"                                                                                                                                                                                                                                                                ",
"                                                                                                                                                                                                                                                                ",
"                                                                                                                                                                                                                                                                ",
"                                                                                                                                                                                                                                                                ",
"                                                                                                                                                                                                                                                                ",
"                                                                                                                                                                                                                                                                ",
"                                                                                                                                                                                                                                                                ",
"                                                                                                                                                                                                                                                                ",
"                                                                                                                                                                                                                                                                ",
"                                                                                                                                                                                                                                                                ",
"                                                                                                                                                                                                                                                                ",
"                                                                                                                                                                                                                                                                ",
"                                            W         J R                                                                                                                                                                                                       ",
"                        b d x J           @ @ , ,   @ @ @ @ b     d i 5 i b Z J                                                                                                                                                                                 ",
"                    @ @ @ @ @ @ @ 5 b   , @ @ @ @ , @ @ @ @ d i @ @ @ @ @ @ @ @ , i ]                                                                                                                                                                           ",
"                    @ @ @ @ @ @ @ @ @ i 5 @ @ @ @ 5 , @ @ @ , @ O O @ @ @ @ @ @ @ @ 5                                                                                                                                                                           ",
"                    , i d i 5 @ @ @ @ x B.B.k.{ i l.H.l.>., 5 Z R R J b d 5 @ @ @ @ @                                                                                                                                                                           ",
"                  *.B.).).).T.k.@.i 5 *.;X>X>XB.x T.;X;XH.J H.;X>X>X;X;X+XT.u.W , @ @         @ @ @ 5 d 5 i d x           W                       @ , , 5 i i x d J                                                                                             ",
"                  ;X>X>X;XB.(.>X>XH.{ +X>X>X>X;XB.T.(.(.k.>.).+X;X;XT.H.;X>X>X;X>.@         @ @ @ @ @ @ @ @ @ ,   , @ @ @ @ , 5 d W       x Z b @ @ @ @ @ @ @ @ @ 5                       b Z W                                                                 ",
"                  +X;X;X+XT.(.>X>X>XB.(.>X>X>X>X+X;X>X>XH.b >.B.T.).e.>.).>X>X>XT.5 d       i , @ @ @ O O @ @ @ @ @ @ @ @ @ @ @ @ , R 5 @ @ , , @ @ @ O O O @ @ @ i                     @ @ @ @ , , W       i b Z Z W                                           ",
"                  ).).(.B.*.l.>X>X>XH.] ;X>X>XH.*.;X>X>XT.u.;X>X>X>X>X>X>X>X>X>XH., @     (.(.H.{ ] >.@.W 5 @ 5 d d i 5 @ @ @ @ @ @ @ @ @ 5 u.B.k.>.W @.] J 5 @ @ i   , , , 5 5 i x i @ @ @ @ @ @ @ i   @ @ @ @ @ @ @ J             d x Z b J                   ",
"                  ;X>X>X;XH.).>X>X>X).(.>X>X>XB.  ;X>X>X).).>X>X>X;XT.H.+X+X).l.Z @     >X>X>X>X;X+X>X>X>XW @.H.).).(.T.k.@.i @ @ d Z x , 5 T.>X>X(.k.>X>X;XW O @ , 5 @ @ @ @ @ 5 b x i 5 , @ @ @ @ @ , @ @ @ @ @ @ @ Z         @ @ @ @ @ @ @ , 5 b             ",
"                      ;X;X>X>X>X;X;X  >X>X>X>X).  ;X>X>X(.B.>X>X>X;X@.J H.(.B.7.{ i     >X>X>X;XB.;X>X>X;Xk.;X>X>X;X).;X>X>XT.b { ).;X+XB.{ T.>X>X(.k.>X>X;XW O @ , @ @ @ O @ O J +X+X).T.l.d @ @ J ] R Z x i @ @ @ @ Z     O O O @ @ @ @ @ @ @ @ @ 5 *.        ",
"                                          >X;X    ;X>X>X(.  >X>X>X>X;X;X;X>X>X>X;X        ;X;X+X  ;X>X>X;XT.>X>X>Xe.5 { ;X>X>XB.T.>X>X>X>X;X;X>X>X(.k.>X>X>XW Z e.B.B.l.e.@.x @ J ;X>X>X>X>X>.@ d ).>X;X;X+Xl., @ @ @ Z   ] W W J b i , @ @ @ @ @ @ @ x         ",
"                                                                ;X>X;X>X>X>X;X;X                  ;X>X>X;Xl.;X>X>Xu., J ;X>X>X+X+X>X>X;X*.*.;X>X>X(.k.>X>X;X7.).>X>X+X(.;X>X+X*.R ;X>X>X>X>X).x 7.>X>X>X>X>XT., @ @ , e.;X;X>X>X;X;X).l.{ 5 @ @ @ @ @ , >.      ",
"                                                                                                  ;X>X>X;X4.+X>X>X;XT.).>X>X>X).+X>X>X+Xi 5 ).>X>X(.k.>X>X;XH.;X;X>X).k.(.>X>X;X7.+X>X>X>X>X>XB.+X>X>X>X>X>XT., @ @ { >X>X>X>X>X>X>X>X>X>Xl.d @ @ @ @ , *.      ",
"                                                                                                                ;X;X>X>X>X;X;X  ;X>X>X+Xd   >X>X>X(.k.>X>X;Xl.(.(.(.B.u.(.>X>X>XH.;X>X>X;X;X>X>X>X>X;X>X>X>XT., @ @ u.>X>X>X(.@.W >.).>X>X>Xe.@ @ @ @ 5         ",
"                                                                                                                                    ;X+X    >X;X>X(.B.>X>X;Xe.+X>X;X(.7.(.>X>X;Xl.;X>X>XT.u.>X>X>X;Xl.;X>X>XT., @ @ k.>X>X>X>.O O O ] >X>X>X(.5 @ @ @ i         ",
"                                                                                                                                                          ;X    ;X;X>X>X>X;X;X;X  >X>X>XH.b +X>X>XB.W ;X>X>XT., @ @ B.>X>X>XB.d @ @ { >X>X>X).i @ @             ",
"                                                                                                                                                                                  >X;X>X(.    >X;X>.  >X>X>XT., @     ;X>X>X>X(.k.l.+X>X>X>XH.5 @               ",
"                                                                                                                                                                                                      ;X>X;X(.          ;X>X>X>X>X>X>X>X>X>Xu.                  ",
"                                                                                                                                                                                                                            ;X;X;X;X;X;X;X                      ",
"                                                                                                                                                                                                                                                                ",
"                                                                                                                                                                                                                                                                ",
"                                                                                                                                                                                                                                                                ",
"                                                                                                                                                                                                                                                                ",
"                                                                                                                                                                                                                                                                ",
"                                                                                                                                                                                                                                                                ",
"                                                                                                                                                                                                                                                                ",
"                                                                                                                                                                                                                                                                ",
"                                                                                                                                                                                                                                                                ",
"                                                                                                                                                                                                                                                                ",
"                                                                                                                                                                                                                                                                ",
"                                                                                                                                                                                                                                                                ",
"                                                                                                                                                                                                                                                                ",
"                                                                                                                                                                                                                                                                ",
"                                                                                                                                                                                                                                                                ",
"                                                                                                                                                                                                                                                                ",
"                                                                                                                                                                                                                                                                ",
"                                                                                                                                                                                                                                                                ",
"                                                                                                                                                                                                                                                                "
};
