/* XPM */
static char *oms_191[] = {
/* columns rows colors chars-per-pixel */
"128 54 197 2 ",
"   c #FF00FF",
".  c #090909",
"X  c #0E0E0E",
"o  c #0F0F0F",
"O  c #101010",
"+  c #111111",
"@  c #121212",
"#  c #131313",
"$  c #141414",
"%  c #151515",
"&  c #161616",
"*  c #171717",
"=  c #181818",
"-  c #191919",
";  c #1A1A1A",
":  c #1B1B1B",
">  c #1C1C1C",
",  c #1D1D1D",
"<  c #1E1E1E",
"1  c #1F1F1F",
"2  c #202020",
"3  c #212121",
"4  c #222222",
"5  c #232323",
"6  c #242424",
"7  c #252525",
"8  c #262626",
"9  c #272727",
"0  c #282828",
"q  c #292929",
"w  c #2A2A2A",
"e  c #2B2B2B",
"r  c #2C2C2C",
"t  c #2D2D2D",
"y  c #2E2E2E",
"u  c #303030",
"i  c #313131",
"p  c #323232",
"a  c #333333",
"s  c #343434",
"d  c #353535",
"f  c #363636",
"g  c #373737",
"h  c #383838",
"j  c #393939",
"k  c #3A3A3A",
"l  c #3B3B3B",
"z  c #3C3C3C",
"x  c #3D3D3D",
"c  c #3E3E3E",
"v  c #3F3F3F",
"b  c #404040",
"n  c #414141",
"m  c #434343",
"M  c #444444",
"N  c #454545",
"B  c #464646",
"V  c #474747",
"C  c #484848",
"Z  c #494949",
"A  c #4A4A4A",
"S  c #4B4B4B",
"D  c #4C4C4C",
"F  c #4E4E4E",
"G  c #4F4F4F",
"H  c #505050",
"J  c #515151",
"K  c #525252",
"L  c #535353",
"P  c #545454",
"I  c #585858",
"U  c #595959",
"Y  c #5A5A5A",
"T  c #5B5B5B",
"R  c #5C5C5C",
"E  c #5D5D5D",
"W  c #616161",
"Q  c #626262",
"!  c #636363",
"~  c #676767",
"^  c #696969",
"/  c #6A6A6A",
"(  c #6B6B6B",
")  c #6C6C6C",
"_  c #6D6D6D",
"`  c #6E6E6E",
"'  c #6F6F6F",
"]  c #707070",
"[  c #747474",
"{  c #757575",
"}  c #787878",
"|  c #7D7D7D",
" . c #7E7E7E",
".. c #808080",
"X. c #808080",
"o. c #838383",
"O. c #868686",
"+. c #898989",
"@. c #8A8A8A",
"#. c #8C8C8C",
"$. c #8D8D8D",
"%. c #909090",
"&. c #919191",
"*. c #929292",
"=. c #949494",
"-. c #969696",
";. c #989898",
":. c #999999",
">. c #9B9B9B",
",. c #9C9C9C",
"<. c #9F9F9F",
"1. c #A0A0A0",
"2. c #A2A2A2",
"3. c #A3A3A3",
"4. c #A5A5A5",
"5. c #A7A7A7",
"6. c #A8A8A8",
"7. c #A9A9A9",
"8. c #AAAAAA",
"9. c #ACACAC",
"0. c #ADADAD",
"q. c #AEAEAE",
"w. c #AFAFAF",
"e. c #B1B1B1",
"r. c #B2B2B2",
"t. c #B4B4B4",
"y. c #B5B5B5",
"u. c #B6B6B6",
"i. c #B7B7B7",
"p. c #B8B8B8",
"a. c #B9B9B9",
"s. c #BABABA",
"d. c #BBBBBB",
"f. c #BCBCBC",
"g. c #BDBDBD",
"h. c #BFBFBF",
"j. c #C0C0C0",
"k. c #C1C1C1",
"l. c #C2C2C2",
"z. c #C3C3C3",
"x. c #C4C4C4",
"c. c #C6C6C6",
"v. c #C7C7C7",
"b. c #C8C8C8",
"n. c #C9C9C9",
"m. c #CACACA",
"M. c #CBCBCB",
"N. c #CDCDCD",
"B. c #CECECE",
"V. c #CFCFCF",
"C. c #D0D0D0",
"Z. c #D1D1D1",
"A. c #D2D2D2",
"S. c #D3D3D3",
"D. c #D4D4D4",
"F. c #D5D5D5",
"G. c #D6D6D6",
"H. c #D7D7D7",
"J. c #D8D8D8",
"K. c #D9D9D9",
"L. c #DADADA",
"P. c #DBDBDB",
"I. c #DCDCDC",
"U. c #DDDDDD",
"Y. c #DEDEDE",
"T. c #DFDFDF",
"R. c #E0E0E0",
"E. c #E2E2E2",
"W. c #E3E3E3",
"Q. c #E4E4E4",
"!. c #E6E6E6",
"~. c #E6E6E6",
"^. c #E7E7E7",
"/. c #E8E8E8",
"(. c #E9E9E9",
"). c #EAEAEA",
"_. c #EBEBEB",
"`. c #ECECEC",
"'. c #EDEDED",
"]. c #EEEEEE",
"[. c #EFEFEF",
"{. c #F0F0F0",
"}. c #F1F1F1",
"|. c #F2F2F2",
" X c #F3F3F3",
".X c #F4F4F4",
"XX c #F5F5F5",
"oX c #F6F6F6",
"OX c #F7F7F7",
"+X c #F8F8F8",
"@X c #F9F9F9",
"#X c #FAFAFA",
"$X c #FBFBFB",
"%X c #FCFCFC",
"&X c #FDFDFD",
"*X c #FEFEFE",
"=X c #FFFFF1",
/* pixels */
"                                                                                                                                                                                                                                                                ",
"                                                                                                                                                                                                                                                                ",
"                                                                                                                                                                                                                                                                ",
"                                                                                                                                                                                                                                                                ",
"                                                                                                                                                                                                                                                                ",
"                                                                                                                                                                                                                                                                ",
"                                                                                                                                                                                                                                                                ",
"                                                                                                                                                                                                                                                                ",
"                                                                                                                                                                                                                                                                ",
"                                                                                                                                                                                                                                                                ",
"                                                                                                                                                                                                                                                                ",
"                                                                                                                                                                                                                                                                ",
"                                                                                                                                                                                                                                                                ",
"                                                                                                                                                                                                                                                                ",
"                                                                                                                                                                                                                                                                ",
"                                                                                                                                                                                                                                                                ",
"                                                                                                                                                                                                                              D v v q q i v Y                   ",
"                                                                                                                                                                                  Y J V i v         i q q 3 1 3           i 1 @ @ @ @ @ @ @ @ q                 ",
"                                                                                                                                          J V v v v v i q 3                       @ @ @ @ @ 1     3 @ @ @ @ @ @         1 @ @ @ @ @ @ @ @ @ @ @ q               ",
"                                                                                                                                          @ @ @ @ @ @ @ @ @                       @ @ @ @ @ @ i   @ @ @ @ @ o o         @ @ @ @ 1 3 q q 3 1 @ @ 1               ",
"                                            ^ Y       ! D i i q 3 3 3 i v                                                                 @ @ @ @ @ @ @ @ @     v 3 3 1 1 3 q J   @ @ 1 1 1 1 1 q @ q V D J Y !         @ i [ u.m.Z.K.K.K.v.X.q @               ",
"                                D J D     1 @ @ @ i v 1 @ @ @ @ @ @ @ @ @ 1                       !       Y v i i q q i V     v 3 1 1 3 i @ 1 1 3 3 3 q i v V 1 @ @ @ @ @ @ @ 1 3 ^ f.f.v.Z.f.i o 3 v.(.{.{.{.{.        ! K.&X&X&X&X&X&X&X&X&Xv.i               ",
"                              q @ @ @ @ q @ @ @ @ @ @ @ @ @ @ @ @ @ o o o o         i 1 1 3 q 1 @ @ @ i q @ @ @ @ @ @ @ @ 3   @ @ @ @ @ @ @ -.m.Z.Z.>.~.~.{.f.@ @ @ o o o o o @ @ >.&X&X&X&X&X-.o ^ &X&X&X&X&X{.        ~.&X&X&X~.6.1.m.{.&X&X&X>.              ",
"            Y V D V V v     i 1 @ @ @ @ @ @ @ @ @ @ @ 1 @ @ @ q v D J Y Y D v     i @ @ @ @ @ @ @ @ @ @ @ @ @ @ @ @ @ o o @ 1 @ @ @ @ @ @ @ v.&X&X{.f.{.&X&Xv.@ 1 v Y [  . .^ v @ -.&X&X&X&X&X(.! m.&X&X&X&X&X{.        &X&X&X~.V @ @ 3 v.&X&X&XK.              ",
"        D 3 @ @ @ @ @ @ @ 3 @ @ @ @ 1 3 3 q 1 i >.u.u.>.1 Y u.K.(.{.{.{.&X{.~.Z.  3 @ @ @ @ @ @ @ @ @ @ 1 @ @ 1 i D J Y J v 1 @ 1 Y -.>.X.D v.&X&X{.u.{.&X&Xv.v 6.(.{.{.{.&X&X(.$.-.&X&X&X&X&X&X(.{.&X{.&X&X&X{.        &X&X&XK.q o @ q m.&X&X&X(.              ",
"      Y 1 @ @ @ @ @ @ @ o @ @ @ @ o ^ Z.K.~. .V {.{.&Xm.[ {.&X&X&XK.u.~.&X&X&X&X  @ @ @ v $.1.X.D >.6.f.1.q ^ v.~.{.&X{.{.(.f.v  .{.&X&X&X(.(.&X&X{.u.{.&X&Xm.f.&X&X{.f.6.{.&X&X(.f.&X&X&X{.{.&X&X&X&X(.{.&X&X{.        &X&X&X{.v.X.X.m.&X&X&X{.                ",
"      v @ @ @ @ @ @ 3 i v v i 1 @ q 1.&X&X&Xv. .Z.Z.Z.u.^ 1.v.Z.K.6.-.K.&X&X&X&X    @ i Z.&X&X&X(.&X&X&XZ.$.{.&X&X~.6.Z.&X&X&Xv.Z.&X&X&X{.u.(.&X&X{.u.{.&X&X~.(.(.(.(.Z.Z.{.&X&X{.m.&X&X&X{.{.&X&X&X{.  {.&X&X{.        {.&X&X&X&X&X&X&X&X&X&X{.                ",
"      v @ @ @ @ Y 6.Z.~.(.(.~.v.! $.&X&X&X&X&X{.{.&X&XZ.D f.(.{.{.&X&X&X&X&X(.m.      ^ &X&X&XZ.6.{.&X&XK.Z.&X&X&X[ o ! &X&X&X(.(.&X&X&X    v.&X&X{.u.{.&X&X(.~.~.K.~.$.-.{.&X&X{.m.&X&X&X{.  {.&X&X    {.&X&X{.          {.{.&X{.{.{.&X{.{.                    ",
"        @ @ @ ^ {.&X&XZ.u.(.&X&X(.u.(.&X&X&XK.f.{.&X&XK.m.&X&X&X&X~.f.Z.K.v.-.^       u.{.{.&X-.v {.&X&X(.~.&X&X&X1.V 1.&X&X&Xm.K.&X&X{.    v.&X&X{.v.{.&X&X{.{.&X&X&X&X&X&X&X{.    {.&X&X{.    &X{.    {.                                                      ",
"          @ 1 f.&X&X{.K.K.{.&X&X&X[ -.&X&X&X-.V {.&X&X~.~.&X&X&X{.-.Y v.(.(.{.{.                D (.&X&X{.  &X&X&X&X(.&X&X{.{.  ~.&X&X{.    (.&X&X{.  {.&X&X{.      {.{.                                                                                        ",
"            1 6.K.(.Z.-.X.K.&X&X{.6.K.&X&X&X>.V {.&X&X{.(.&X&X&X&X{.{.&X&X&X&X{.                  (.&X&X{.    {.&X{.&X&X{.                                                                                                                                      ",
"              Z.{.&X&X~.K.{.&X&XZ.6.&X&X&X&X    {.&X{.{.    {.&X&X&X{.{.{.{.                                                                                                                                                                                    ",
"                  {.&X&X&X{.{.                                                                                                                                                                                                                                  ",
"                                                                                                                                                                                                                                                                ",
"                                                                                                                                                                                                                                                                ",
"                                                                                                                                                                                                                                                                ",
"                                                                                                                                                                                                                                                                ",
"                                                                                                                                                                                                                                                                ",
"                                                                                                                                                                                                                                                                ",
"                                                                                                                                                                                                                                                                ",
"                                                                                                                                                                                                                                                                ",
"                                                                                                                                                                                                                                                                ",
"                                                                                                                                                                                                                                                                ",
"                                                                                                                                                                                                                                                                ",
"                                                                                                                                                                                                                                                                ",
"                                                                                                                                                                                                                                                                ",
"                                                                                                                                                                                                                                                                ",
"                                                                                                                                                                                                                                                                ",
"                                                                                                                                                                                                                                                                ",
"                                                                                                                                                                                                                                                                ",
"                                                                                                                                                                                                                                                                ",
"                                                                                                                                                                                                                                                                ",
"                                                                                                                                                                                                                                                                ",
"                                                                                                                                                                                                                                                                "
};
