/* XPM */
static char *oms_264[] = {
/* columns rows colors chars-per-pixel */
"128 54 128 2 ",
"   c #FF00FF",
".  c #0F0F0F",
"X  c #101010",
"o  c #111111",
"O  c #121212",
"+  c #131313",
"@  c #141414",
"#  c #151515",
"$  c #171717",
"%  c #181818",
"&  c #191919",
"*  c #1A1A1A",
"=  c #1B1B1B",
"-  c #1C1C1C",
";  c #1D1D1D",
":  c #1F1F1F",
">  c #212121",
",  c #242424",
"<  c #252525",
"1  c #262626",
"2  c #272727",
"3  c #282828",
"4  c #2A2A2A",
"5  c #303030",
"6  c #323232",
"7  c #333333",
"8  c #363636",
"9  c #373737",
"0  c #3A3A3A",
"q  c #3B3B3B",
"w  c #3E3E3E",
"e  c #404040",
"r  c #434343",
"t  c #444444",
"y  c #454545",
"u  c #474747",
"i  c #4A4A4A",
"p  c #4F4F4F",
"a  c #515151",
"s  c #525252",
"d  c #545454",
"f  c #555555",
"g  c #565656",
"h  c #5B5B5B",
"j  c #646464",
"k  c #6B6B6B",
"l  c #6C6C6C",
"z  c #6D6D6D",
"x  c #6E6E6E",
"c  c #6F6F6F",
"v  c #717171",
"b  c #727272",
"n  c #737373",
"m  c #747474",
"M  c #757575",
"N  c #767676",
"B  c #777777",
"V  c #7A7A7A",
"C  c #7C7C7C",
"Z  c #7D7D7D",
"A  c #7E7E7E",
"S  c #808080",
"D  c #828282",
"F  c #838383",
"G  c #848484",
"H  c #888888",
"J  c #898989",
"K  c #8A8A8A",
"L  c #8C8C8C",
"P  c #8E8E8E",
"I  c #939393",
"U  c #959595",
"Y  c #979797",
"T  c #999999",
"R  c #9E9E9E",
"E  c #A1A1A1",
"W  c #A2A2A2",
"Q  c #A3A3A3",
"!  c #A6A6A6",
"~  c #A9A9A9",
"^  c #ACACAC",
"/  c #AEAEAE",
"(  c #AFAFAF",
")  c #B1B1B1",
"_  c #B6B6B6",
"`  c #B7B7B7",
"'  c #BFBFBF",
"]  c #C0C0C0",
"[  c #C2C2C2",
"{  c #C4C4C4",
"}  c #C7C7C7",
"|  c #C8C8C8",
" . c #CACACA",
".. c #CBCBCB",
"X. c #CCCCCC",
"o. c #CDCDCD",
"O. c #CECECE",
"+. c #D0D0D0",
"@. c #D1D1D1",
"#. c #D2D2D2",
"$. c #D6D6D6",
"%. c #D7D7D7",
"&. c #D8D8D8",
"*. c #D9D9D9",
"=. c #DADADA",
"-. c #DCDCDC",
";. c #DDDDDD",
":. c #DFDFDF",
">. c #E2E2E2",
",. c #E3E3E3",
"<. c #E4E4E4",
"1. c #E6E6E6",
"2. c #E7E7E7",
"3. c #E8E8E8",
"4. c #E9E9E9",
"5. c #EAEAEA",
"6. c #EBEBEB",
"7. c #ECECEC",
"8. c #EDEDED",
"9. c #EFEFEF",
"0. c #F0F0F0",
"q. c #F2F2F2",
"w. c #F3F3F3",
"e. c #F4F4F4",
"r. c #F5F5F5",
"t. c #F6F6F6",
"y. c #F7F7F7",
"u. c #F9F9F9",
/* pixels */
"                                                                                                                                                                                                                                                                ",
"                                                                                                                                                                                                                                                                ",
"                                                                                                                                                                                                                                                                ",
"                                                                                                                                                                                                                                                                ",
"                                                                                                                                                                                                                                                                ",
"                                                                                                                                                                                                                                                                ",
"                                                                                                                                                                                                                                                                ",
"                                                                                                                                                                                                                                                                ",
"                                                                                                                                                                                                                                                                ",
"                                                                                                                                                                                                                                                                ",
"                                                                                                                                                                                                                                                                ",
"                                                                                                                                                                                                                                                                ",
"                                                                                                                        p O O O O O O O O O                                                                                                                     ",
"                                                                                                                      E > O O O O O O O O O = { q.                                                                                                              ",
"                                                                                                                      s O O O O O O O O O O t 5.u.                                                                                                              ",
"                                                                                                                    9 O O O O O O O O O O j A ..5.                                                                                                              ",
"                                                                                                                  s = O O O O O O O O O 3 ` K K :.                                                                                                              ",
"                                                                                                                A O O O O O O O O O O 9 E ' R K :.                                                                                                              ",
"                                                                                                                n O O O O O O O O O O p :...R ..<.                                                                                                              ",
"                                                                                                                t O O O O O O O O = = t 5.:.U u.                                                                                                                ",
"                                                                                                          E 9 O O O O O O O O O O c s D q.:.D q.                                                                                                                ",
"                                                                                                          n O O O O O O O O O O q ' ^ q.q.<.U                                                                                                                   ",
"                                                                                                          n O O O O O O O O O O t ....5.:.:.                                                                                                                    ",
"                                                                                                          h O O O O O O O O O O p @.<.q.@.                                                                                                                      ",
"                                                                                                        K = O O O O O O O O O = ` <.:.:.5.                                                                                                                      ",
"                                                                                                      A 3 O O O O O O O O O > D :.:.5.<.                                                                                                                        ",
"                                                                                                      q . O O O O O O O O O n q...@.5.                                                                                                                          ",
"                                                                                                  9 q = O O O O O O O q > s ' <.{ @.                                                                                                                            ",
"                                                                                              c O O O O O O O O O O 3 { c ..{ ' ..:.                                                                                                                            ",
"                                                                                              9 O O O O O O O O O = D 5.D :.....<.                                                                                                                              ",
"                                                                                            t O O O O O O O O O O p :.@.K ..<.q.                                                                                                                                ",
"                                                                                          A = O O O O O O O O O > U ..:.c ^ :.                                                                                                                                  ",
"                                                                                          s . O O O O O O O O O 9 ..@.:.t n                                                                                                                                     ",
"                                                                                          p O O O O O O O O O O t <.q...                                                                                                                                        ",
"                                                                                        c > O O O O O O O O O 9 ^ 5.q.<.                                                                                                                                        ",
"                                                                                      E > O O O O O O O O O O D 5.@.q.q.                                                                                                                                        ",
"                                                                                      K O O O O O O O O O O O R @...<.                                                                                                                                          ",
"                                                                                      n O O O O O O O O O O O ^ 5.:.                                                                                                                                            ",
"                                                                                      n = O O O O O O O O O = U :.                                                                                                                                              ",
"                                                                                      n = O O O O O O O O O O ` q.                                                                                                                                              ",
"                                                                                      n O O O O O O O O O O O ^                                                                                                                                                 ",
"                                                                                                                                                                                                                                                                ",
"                                                                                                                                                                                                                                                                ",
"                                                                                                                                                                                                                                                                ",
"                                                                                                                                                                                                                                                                ",
"                                                                                                                                                                                                                                                                ",
"                                                                                                                                                                                                                                                                ",
"                                                                                                                                                                                                                                                                ",
"                                                                                                                                                                                                                                                                ",
"                                                                                                                                                                                                                                                                ",
"                                                                                                                                                                                                                                                                ",
"                                                                                                                                                                                                                                                                ",
"                                                                                                                                                                                                                                                                ",
"                                                                                                                                                                                                                                                                "
};
