/* XPM */
static char *oms_137[] = {
/* columns rows colors chars-per-pixel */
"128 54 196 2 ",
"   c #FF00FF",
".  c #0C0C0C",
"X  c #0D0D0D",
"o  c #0E0E0E",
"O  c #0F0F0F",
"+  c #101010",
"@  c #111111",
"#  c #121212",
"$  c #131313",
"%  c #141414",
"&  c #151515",
"*  c #161616",
"=  c #171717",
"-  c #181818",
";  c #191919",
":  c #1A1A1A",
">  c #1B1B1B",
",  c #1C1C1C",
"<  c #1D1D1D",
"1  c #1E1E1E",
"2  c #1F1F1F",
"3  c #202020",
"4  c #212121",
"5  c #222222",
"6  c #232323",
"7  c #242424",
"8  c #252525",
"9  c #262626",
"0  c #272727",
"q  c #292929",
"w  c #2A2A2A",
"e  c #2C2C2C",
"r  c #2D2D2D",
"t  c #2E2E2E",
"y  c #2F2F2F",
"u  c #303030",
"i  c #313131",
"p  c #323232",
"a  c #333333",
"s  c #343434",
"d  c #353535",
"f  c #363636",
"g  c #373737",
"h  c #393939",
"j  c #3A3A3A",
"k  c #3C3C3C",
"l  c #3D3D3D",
"z  c #3E3E3E",
"x  c #3F3F3F",
"c  c #404040",
"v  c #414141",
"b  c #424242",
"n  c #434343",
"m  c #444444",
"M  c #464646",
"N  c #474747",
"B  c #484848",
"V  c #494949",
"C  c #4C4C4C",
"Z  c #4C4C4C",
"A  c #4E4E4E",
"S  c #505050",
"D  c #515151",
"F  c #525252",
"G  c #535353",
"H  c #545454",
"J  c #555555",
"K  c #575757",
"L  c #585858",
"P  c #5B5B5B",
"I  c #5C5C5C",
"U  c #5D5D5D",
"Y  c #5E5E5E",
"T  c #5F5F5F",
"R  c #606060",
"E  c #616161",
"W  c #626262",
"Q  c #636363",
"!  c #646464",
"~  c #656565",
"^  c #666666",
"/  c #686868",
"(  c #6A6A6A",
")  c #6B6B6B",
"_  c #6E6E6E",
"`  c #6F6F6F",
"'  c #727272",
"]  c #737373",
"[  c #757575",
"{  c #797979",
"}  c #7A7A7A",
"|  c #7B7B7B",
" . c #7C7C7C",
".. c #7E7E7E",
"X. c #808080",
"o. c #808080",
"O. c #828282",
"+. c #848484",
"@. c #858585",
"#. c #868686",
"$. c #878787",
"%. c #898989",
"&. c #8C8C8C",
"*. c #8D8D8D",
"=. c #8E8E8E",
"-. c #8F8F8F",
";. c #909090",
":. c #919191",
">. c #929292",
",. c #939393",
"<. c #949494",
"1. c #959595",
"2. c #989898",
"3. c #999999",
"4. c #9A9A9A",
"5. c #9C9C9C",
"6. c #9E9E9E",
"7. c #9F9F9F",
"8. c #A0A0A0",
"9. c #A1A1A1",
"0. c #A2A2A2",
"q. c #A3A3A3",
"w. c #A7A7A7",
"e. c #A8A8A8",
"r. c #AAAAAA",
"t. c #ABABAB",
"y. c #ACACAC",
"u. c #ADADAD",
"i. c #AFAFAF",
"p. c #B0B0B0",
"a. c #B5B5B5",
"s. c #B7B7B7",
"d. c #B8B8B8",
"f. c #B9B9B9",
"g. c #BABABA",
"h. c #BBBBBB",
"j. c #BCBCBC",
"k. c #BDBDBD",
"l. c #808080",
"z. c #BFBFBF",
"x. c #C0C0C0",
"c. c #C1C1C1",
"v. c #C2C2C2",
"b. c #C6C6C6",
"n. c #C8C8C8",
"m. c #CACACA",
"M. c #CBCBCB",
"N. c #CCCCCC",
"B. c #CECECE",
"V. c #CFCFCF",
"C. c #D0D0D0",
"Z. c #D1D1D1",
"A. c #D2D2D2",
"S. c #D4D4D4",
"D. c #D5D5D5",
"F. c #D6D6D6",
"G. c #D7D7D7",
"H. c #D8D8D8",
"J. c #D9D9D9",
"K. c #DADADA",
"L. c #DBDBDB",
"P. c #DCDCDC",
"I. c #DDDDDD",
"U. c #DEDEDE",
"Y. c #DFDFDF",
"T. c #E0E0E0",
"R. c #E2E2E2",
"E. c #E3E3E3",
"W. c #E4E4E4",
"Q. c #E6E6E6",
"!. c #E6E6E6",
"~. c #E7E7E7",
"^. c #E8E8E8",
"/. c #E9E9E9",
"(. c #EAEAEA",
"). c #EBEBEB",
"_. c #ECECEC",
"`. c #EDEDED",
"'. c #EEEEEE",
"]. c #EFEFEF",
"[. c #F0F0F0",
"{. c #F1F1F1",
"}. c #F2F2F2",
"|. c #F3F3F3",
" X c #F4F4F4",
".X c #F5F5F5",
"XX c #F6F6F6",
"oX c #F7F7F7",
"OX c #F8F8F8",
"+X c #F9F9F9",
"@X c #FAFAFA",
"#X c #FBFBFB",
"$X c #FCFCFC",
"%X c #FDFDFD",
"&X c #FEFEFE",
"*X c #FFFFF1",
/* pixels */
"                                                                                                                                                                                                                                                                ",
"                                                                                                                                                                                                                                                                ",
"                                                                                                                                                                                                                                                                ",
"                                                                                                                                                                                                                                                                ",
"                                                                                                                                                                                                                                                                ",
"                                                                                                                                                                                                                                                                ",
"                                                                                                                                                                                                                                                                ",
"                                                                                                                                                                                                                                                                ",
"                                                                                                                                                                                                                                                                ",
"                                                                                                                                                                                                                                                                ",
"                                                                                                                                                                                                                                                                ",
"                                                                                                                                                                                                                                                                ",
"                                                                5 j J         p R                                                                                                                                                                               ",
"                                                          # # # # # # 5 5 # # # # , , , y Y                                                                                                                                                                     ",
"                                                    7.C , # # , J p , # , # # # # # # # # y j , 5 v Y                                                                                                                                                           ",
"                                                [.[.[.].M._ , p W.].8.J f.*.v # # # O # # # # # # # # 5 j ..                                                                                                                                                    ",
"                                                [.@X].f.].@X+.7.@X@XG._ ].@X7.C *.*.R p , # # # # # # # # , +.                                                                                                                                                  ",
"                                                ].W.].G.].@XW.G.@X@X[.M.G.H.7.G.@X@X@XW.f.R , # # # # # # # v                                                                                                                                                   ",
"                                                [.].G.+.H.@X].:.].@X@X].[.@X7.*.G.[.H.H.@X[.:., # # # # # # p                                                                                                                                                   ",
"                                                  @X[.H.].@X].:.].@XH.:.[.@Xi.7.H.W.i.7.[.@X].v # # # # # # v     # , j                                                                                                                                         ",
"                                                    [.@X@X@XH.G.@X@XM.R [.@XG.[.@X@X@X@X@X@X[.Y O # # # # # , # # # # # , , p J                                                                                                                                 ",
"                                                              [.@X@Xf.R [.@XH.[.@X@XW.W.[.@XW.j O 5 7.p.J 5 , # # # # # # # # , C , 5 v R                                                                                                                       ",
"                                                                        @X@Xf.H.@X@X:._ G.f.R # O Y @X@XW.f.f.+.5 # # # O # # # # # # # # 5 R         # # 5 p J                                                                                                 ",
"                                                                            8.  @X@X[.W.[.].G.J O _ @X@X].[.@X[.R :.f.8._ y # # # # # # p y , 5 O # # # # # # # , 5 J                                                                                           ",
"                                                                                  [.[.@X@X@X[.J O Y [.@X7.M.@X[.f.@X@X@X@XH.[ # # 5 # # 7.W.i.Y C 5 # # # # # # # # p                                                                                           ",
"                                                                                          [.              [.@X[.H.@X@Xp.i.@X[._ ..G.i.v 8.@X[.v.[.G.J # # # # # # # p                                                                                           ",
"                                                                                                          @X@X[.M.@X@XY p W.@XM.H.@X@XH.M.@X].f.@X@X_ O # # # # # # 5 C O , y # # # # # 5 p _                                                                   ",
"                                                                                                            @X[.*.].@Xp.[ ].@X].].@X[.W.[.@X].f.@X@X_ # 5 , # # # y +.J y # # # # # # # # # y _   , J                                                           ",
"                                                                                                                    @X@X[.@X@XG.H.@XH.j v.@X].f.@X[.+.8.H.v.:.v # j [.[.H.+.# # , # O # # # # # # # # , y *.                                                    ",
"                                                                                                                        [.@X[.7.W.@XM.5 8.@X].f.@X[.M.@X@X].].].+.v [.@X@XH.y y f.i._ j # # # # # # # # # ..                                                    ",
"                                                                                                                                [.@XM.5 i.@X].v.@X[.H.[.@XG.v.@X[.:.].@X@X@XR [ @X@X@XW.p # # # O # O # # v 5 # # # # , y v ..                                  ",
"                                                                                                                                          @X].v.@X[.M.W.H.v.G.@X@XG.[.@X@X@Xv.M.@X@X@X].j # # j +.*._ j , O # # # # # # # # , J                                 ",
"                                                                                                                                                [.[.8.].@Xv.i.[.@XH.[.@X[.[.@X@X@X@X@X].j O p G.@X@X@X].f.Y # # # # # # # # # # Y                               ",
"                                                                                                                                                        @X@X@X@X[.f.[.@XH.G.@X@X[.[.@X].j O _ @X@X@X@X@X@X[...# # # # # # # # # , 8.                            ",
"                                                                                                                                                            [.[.].  [.@XM.+.@X@XM.W.@X].j O ..@X@XH.[ :.].@X].C # # # # # # # # # [                             ",
"                                                                                                                                                                      @XG.J [.[._ G.@X].j O [ @X@X8.O # +.@X@X7.# # # # # # # # # R                             ",
"                                                                                                                                                                              H.  W.@X].j O C [.@XM.p O R @X@Xp.# # # # # # # # # _                             ",
"                                                                                                                                                                                    [.].v #   ].@X@XM.*.M.@X@Xf., # # # # # # # , :.                            ",
"                                                                                                                                                                                                [.@X@X@X@X@X@X8.# # # # # # # # v                               ",
"                                                                                                                                                                                                    [.@X@X@XW.J # # #                                           ",
"                                                                                                                                                                                                                                                                ",
"                                                                                                                                                                                                                                                                ",
"                                                                                                                                                                                                                                                                ",
"                                                                                                                                                                                                                                                                ",
"                                                                                                                                                                                                                                                                ",
"                                                                                                                                                                                                                                                                ",
"                                                                                                                                                                                                                                                                ",
"                                                                                                                                                                                                                                                                ",
"                                                                                                                                                                                                                                                                ",
"                                                                                                                                                                                                                                                                ",
"                                                                                                                                                                                                                                                                ",
"                                                                                                                                                                                                                                                                ",
"                                                                                                                                                                                                                                                                ",
"                                                                                                                                                                                                                                                                "
};
