/* XPM */
static char *oms_069[] = {
/* columns rows colors chars-per-pixel */
"128 54 175 2 ",
"   c #FF00FF",
".  c #0C0C0C",
"X  c #0D0D0D",
"o  c #0F0F0F",
"O  c #101010",
"+  c #111111",
"@  c #121212",
"#  c #131313",
"$  c #141414",
"%  c #151515",
"&  c #161616",
"*  c #171717",
"=  c #181818",
"-  c #191919",
";  c #1A1A1A",
":  c #1B1B1B",
">  c #1C1C1C",
",  c #1E1E1E",
"<  c #1F1F1F",
"1  c #202020",
"2  c #212121",
"3  c #222222",
"4  c #232323",
"5  c #242424",
"6  c #252525",
"7  c #272727",
"8  c #282828",
"9  c #292929",
"0  c #2B2B2B",
"q  c #2C2C2C",
"w  c #2D2D2D",
"e  c #2F2F2F",
"r  c #303030",
"t  c #343434",
"y  c #353535",
"u  c #363636",
"i  c #393939",
"p  c #3C3C3C",
"a  c #3E3E3E",
"s  c #3F3F3F",
"d  c #404040",
"f  c #414141",
"g  c #444444",
"h  c #454545",
"j  c #464646",
"k  c #474747",
"l  c #484848",
"z  c #4A4A4A",
"x  c #4B4B4B",
"c  c #4C4C4C",
"v  c #4F4F4F",
"b  c #505050",
"n  c #515151",
"m  c #525252",
"M  c #535353",
"N  c #555555",
"B  c #575757",
"V  c #585858",
"C  c #5A5A5A",
"Z  c #5B5B5B",
"A  c #5C5C5C",
"S  c #5E5E5E",
"D  c #5F5F5F",
"F  c #616161",
"G  c #626262",
"H  c #646464",
"J  c #676767",
"K  c #686868",
"L  c #6A6A6A",
"P  c #6B6B6B",
"I  c #6C6C6C",
"U  c #6D6D6D",
"Y  c #707070",
"T  c #747474",
"R  c #757575",
"E  c #777777",
"W  c #797979",
"Q  c #7A7A7A",
"!  c #7B7B7B",
"~  c #7C7C7C",
"^  c #7D7D7D",
"/  c #808080",
"(  c #838383",
")  c #848484",
"_  c #858585",
"`  c #8C8C8C",
"'  c #8D8D8D",
"]  c #919191",
"[  c #949494",
"{  c #969696",
"}  c #989898",
"|  c #9C9C9C",
" . c #9D9D9D",
".. c #9E9E9E",
"X. c #A3A3A3",
"o. c #A4A4A4",
"O. c #A5A5A5",
"+. c #A6A6A6",
"@. c #A9A9A9",
"#. c #AAAAAA",
"$. c #ABABAB",
"%. c #ADADAD",
"&. c #AEAEAE",
"*. c #B0B0B0",
"=. c #B2B2B2",
"-. c #B2B2B2",
";. c #B5B5B5",
":. c #B6B6B6",
">. c #B7B7B7",
",. c #BBBBBB",
"<. c #BCBCBC",
"1. c #BDBDBD",
"2. c #808080",
"3. c #BFBFBF",
"4. c #C0C0C0",
"5. c #C1C1C1",
"6. c #C2C2C2",
"7. c #C3C3C3",
"8. c #C4C4C4",
"9. c #C5C5C5",
"0. c #C6C6C6",
"q. c #C7C7C7",
"w. c #C8C8C8",
"e. c #C9C9C9",
"r. c #CACACA",
"t. c #CBCBCB",
"y. c #CCCCCC",
"u. c #CDCDCD",
"i. c #CFCFCF",
"p. c #D1D1D1",
"a. c #D2D2D2",
"s. c #D3D3D3",
"d. c #D4D4D4",
"f. c #D5D5D5",
"g. c #D6D6D6",
"h. c #D7D7D7",
"j. c #D9D9D9",
"k. c #DADADA",
"l. c #DBDBDB",
"z. c #DCDCDC",
"x. c #DDDDDD",
"c. c #DEDEDE",
"v. c #DFDFDF",
"b. c #E0E0E0",
"n. c #E1E1E1",
"m. c #E2E2E2",
"M. c #E3E3E3",
"N. c #E4E4E4",
"B. c #E6E6E6",
"V. c #E6E6E6",
"C. c #E7E7E7",
"Z. c #E8E8E8",
"A. c #E9E9E9",
"S. c #EAEAEA",
"D. c #EBEBEB",
"F. c #ECECEC",
"G. c #EDEDED",
"H. c #EEEEEE",
"J. c #EFEFEF",
"K. c #F0F0F0",
"L. c #F1F1F1",
"P. c #F2F2F2",
"I. c #F3F3F3",
"U. c #F4F4F4",
"Y. c #F5F5F5",
"T. c #F6F6F6",
"R. c #F7F7F7",
"E. c #F8F8F8",
"W. c #F9F9F9",
"Q. c #FAFAFA",
"!. c #FBFBFB",
"~. c #FCFCFC",
"^. c #FDFDFD",
"/. c #FEFEFE",
"(. c #FFFFF1",
/* pixels */
"                                                                                                                                                                                                                                                                ",
"                                                                                                                                                                                                                                                                ",
"                                                                                                                                                                                                                                                                ",
"                                                                                                                                                                                                                                                                ",
"                                                                                                                                                                                                                                                                ",
"                                                                                                                                                                                                                                                                ",
"                                                                                                                                                                                                                                                                ",
"                                                                                                                                                                                                                                                                ",
"                                                                                                                                                                                                                                                                ",
"                                                                                                                                                                                                                                                                ",
"                                                                                                                                                                                                                                                                ",
"                                                                                                                                                                                                                                                                ",
"                                                                                                                                                                                                                                                                ",
"                                                                                                                                                                                                                                                                ",
"                                                                                                                                                                                                                                                                ",
"                                                                                                                                                                                                                                                                ",
"                                                                                                                                                                                                                                                                ",
"                                                                                                                                                                                                                                                                ",
"                                                                                                                                                              0 @ @ @ @ @ @ o @ ; @ ( ;.( G.                                                                    ",
"                                                                                                                                                      u ; @ @ @ @ @ @ @ @ ; D #.9.W t.f.o.Y.m G C.!.Y.                                                          ",
"                                                                                                                                                    x @ @ @ @ @ @ @ @ @ @ W Y.!.!.k.2.9.f.!.;.k.C.G.Y.                                                          ",
"                                                                                                                                                    u @ @ @ @ @ @ @ @ @ 7 f.Y.;.k.} t.Y.!.!.C.Y.k.G.Y.                                                          ",
"                                                                                                                                                  G 7 @ @ @ @ @ @ @ ; @ u C.Y.9.C.o.t.Y.C.G.;.Y.9.9.Y.                                                          ",
"                                                                                                                                          7 ; 7 ; @ @ @ @ o o ; s D ;.h 0 C.!.!.!.G.G.f.#.Y.9.Y.t.C.Y.                                                          ",
"                                                                                                                    G ; @ @ @ @ @ @ @ @ 7 x W 9.x o @ @ u R G I G.C.!.W @ o.G.k.Y.Y.Y.f.o.!.t.G.!.!.                                                            ",
"                                                                                                                    m @ @ @ @ @ @ @ @ @ m G.k.!.D s 0 x k.!.G.;.Y.G.!.` ; W 9.W G.G.C.f.} !.9.  Y.                                                              ",
"                                                                                                      R 7 @ @ @ @ ; ; o @ @ h W 0 @ @ o D Y.k.Y.#.G.#.;.Y.f.Y.k.Y.} f.I u G.!.G.!.9.t.G.                                                                        ",
"                                                                                                s ; @ ; @ @ @ @ @ @ 0 D s h G.G.s ; x h G Y.k.Y.!.!.C.G.2.G Y.C.Y.R 0 @ 7 t.!.!.Y.                                                                              ",
"                                                                                      h ; @ @ s 7 @ @ @ @ @ 7 @ @ 7 t.!.} I !.G.m o.Y.G.o.Y.k.Y.9.C.Y.!.2.W Y.f.Y.                                                                                              ",
"                                                                                    h @ @ @ @ @ @ @ @ @ h #.f.} ; 7 C.!.9.o.!.C.} Y.f.Y.k.Y.k.Y.I 9.G.G.Y.G.G.o.Y.                                                                                              ",
"                                                                                  ( ; @ @ @ @ @ @ @ @ s k.!.!.Y.D 7 C.!.G.C.!.G.f.Y.C.G.f.Y.k.Y.G 2.k.2.!.!.C.                                                                                                  ",
"                                                                                  D @ @ @ @ @ @ @ @ @ { !.G.Y.!.( 7 C.!.!.!.Y.G.k.G.#.t.t.Y.k.Y.I 9.G.                                                                                                          ",
"                                                                                  m @ @ @ @ @ @ @ @ ; t.Y.D ( !.{ 7 C.Y.Y.Y.k.G.k.Y.t.Y.2.Y.k.Y.                                                                                                                ",
"                                                                                  x @ @ @ @ @ @ @ @ 0 k.t.; D !.` 7 C.C.C.k.9.G.#.Y.!.Y.                                                                                                                        ",
"                                                                                  m @ @ @ @ @ @ @ @ 0 C.f.0 ` !.W 7 C.t.;.9.#.Y.                                                                                                                                ",
"                                                                                  G @ @ @ @ @ @ @ @ 7 f.Y.t.G.Y.m 7 C.f.{                                                                                                                                       ",
"                                                                                    0 @ @ @ @ @ @ @ ; 2.!.!.!.G.                                                                                                                                                ",
"                                                                                                @ @ @ R Y.!.Y.                                                                                                                                                  ",
"                                                                                                                                                                                                                                                                ",
"                                                                                                                                                                                                                                                                ",
"                                                                                                                                                                                                                                                                ",
"                                                                                                                                                                                                                                                                ",
"                                                                                                                                                                                                                                                                ",
"                                                                                                                                                                                                                                                                ",
"                                                                                                                                                                                                                                                                ",
"                                                                                                                                                                                                                                                                ",
"                                                                                                                                                                                                                                                                ",
"                                                                                                                                                                                                                                                                ",
"                                                                                                                                                                                                                                                                ",
"                                                                                                                                                                                                                                                                ",
"                                                                                                                                                                                                                                                                ",
"                                                                                                                                                                                                                                                                ",
"                                                                                                                                                                                                                                                                ",
"                                                                                                                                                                                                                                                                "
};
