/* XPM */
static char *oms_288[] = {
/* columns rows colors chars-per-pixel */
"128 54 159 2 ",
"   c #FF00FF",
".  c #0D0D0D",
"X  c #0E0E0E",
"o  c #0F0F0F",
"O  c #101010",
"+  c #111111",
"@  c #121212",
"#  c #131313",
"$  c #141414",
"%  c #151515",
"&  c #161616",
"*  c #171717",
"=  c #181818",
"-  c #191919",
";  c #1A1A1A",
":  c #1B1B1B",
">  c #1C1C1C",
",  c #1E1E1E",
"<  c #1F1F1F",
"1  c #202020",
"2  c #212121",
"3  c #232323",
"4  c #242424",
"5  c #252525",
"6  c #262626",
"7  c #272727",
"8  c #292929",
"9  c #2A2A2A",
"0  c #2B2B2B",
"q  c #2C2C2C",
"w  c #2D2D2D",
"e  c #313131",
"r  c #323232",
"t  c #343434",
"y  c #353535",
"u  c #373737",
"i  c #383838",
"p  c #393939",
"a  c #3A3A3A",
"s  c #3C3C3C",
"d  c #404040",
"f  c #414141",
"g  c #424242",
"h  c #434343",
"j  c #444444",
"k  c #464646",
"l  c #474747",
"z  c #484848",
"x  c #494949",
"c  c #4B4B4B",
"v  c #505050",
"b  c #515151",
"n  c #535353",
"m  c #545454",
"M  c #555555",
"N  c #575757",
"B  c #626262",
"V  c #646464",
"C  c #686868",
"Z  c #696969",
"A  c #6A6A6A",
"S  c #6F6F6F",
"D  c #707070",
"F  c #717171",
"G  c #727272",
"H  c #737373",
"J  c #747474",
"K  c #757575",
"L  c #767676",
"P  c #787878",
"I  c #7B7B7B",
"U  c #7C7C7C",
"Y  c #7E7E7E",
"T  c #858585",
"R  c #8C8C8C",
"E  c #8D8D8D",
"W  c #8E8E8E",
"Q  c #909090",
"!  c #919191",
"~  c #939393",
"^  c #949494",
"/  c #969696",
"(  c #989898",
")  c #9E9E9E",
"_  c #A0A0A0",
"`  c #A3A3A3",
"'  c #A7A7A7",
"]  c #ACACAC",
"[  c #ADADAD",
"{  c #AEAEAE",
"}  c #B1B1B1",
"|  c #B2B2B2",
" . c #B4B4B4",
".. c #B5B5B5",
"X. c #B6B6B6",
"o. c #B8B8B8",
"O. c #BBBBBB",
"+. c #BCBCBC",
"@. c #BDBDBD",
"#. c #808080",
"$. c #BFBFBF",
"%. c #C0C0C0",
"&. c #C1C1C1",
"*. c #C2C2C2",
"=. c #C3C3C3",
"-. c #C4C4C4",
";. c #C6C6C6",
":. c #C7C7C7",
">. c #C8C8C8",
",. c #C9C9C9",
"<. c #CACACA",
"1. c #CCCCCC",
"2. c #CDCDCD",
"3. c #CECECE",
"4. c #CFCFCF",
"5. c #D0D0D0",
"6. c #D1D1D1",
"7. c #D2D2D2",
"8. c #D4D4D4",
"9. c #D5D5D5",
"0. c #D6D6D6",
"q. c #D7D7D7",
"w. c #D8D8D8",
"e. c #D9D9D9",
"r. c #DADADA",
"t. c #DCDCDC",
"y. c #DDDDDD",
"u. c #DEDEDE",
"i. c #DFDFDF",
"p. c #E0E0E0",
"a. c #E1E1E1",
"s. c #E2E2E2",
"d. c #E3E3E3",
"f. c #E4E4E4",
"g. c #E6E6E6",
"h. c #E6E6E6",
"j. c #E7E7E7",
"k. c #E8E8E8",
"l. c #E9E9E9",
"z. c #EAEAEA",
"x. c #EBEBEB",
"c. c #EDEDED",
"v. c #EEEEEE",
"b. c #F0F0F0",
"n. c #F1F1F1",
"m. c #F2F2F2",
"M. c #F3F3F3",
"N. c #F4F4F4",
"B. c #F5F5F5",
"V. c #F6F6F6",
"C. c #F7F7F7",
"Z. c #F8F8F8",
"A. c #F9F9F9",
"S. c #FAFAFA",
"D. c #FBFBFB",
"F. c #FCFCFC",
"G. c #FDFDFD",
"H. c #FEFEFE",
"J. c #FFFFF1",
/* pixels */
"                                                                                                                                                                                                                                                                ",
"                                                                                                                                                                                                                                                                ",
"                                                                                                                                                                                                                                                                ",
"                                                                                                                                                                                                                                                                ",
"                                                                                                                                                                                                                                                                ",
"                                                                                                                                                                                                                                                                ",
"                                                                                                                                                                                                                                                                ",
"                                                                                                                                                                                                                                                                ",
"                                                                                                                                                                                                                                                                ",
"                                                                                                                                                                                                                                                                ",
"                                                                                                                                                                                                                                                                ",
"                                                                                                                                                                                                                                                                ",
"                                                                                                                                                                                                                                                                ",
"                                                                                                                                                                                                                                                                ",
"                                                                                                                                                                                                                                                                ",
"                                                                          C.X.1 @ @ @ @ @ @ @ @ @ ; A                                                                                                                                                           ",
"                                                                          H.C.K @ @ @ @ @ @ @ @ @ @ 1 /                                                                                                                                                         ",
"                                                                          H.H.=.8 T g @ @ @ @ @ @ @ @ 1 @ g                                                                                                                                                     ",
"                                                                          5.) u.g >.#.a g @ @ @ @ @ @ @ @ @ u u                                                                                                                                                 ",
"                                                                          X.a u.n >.>.W j.u @ @ @ @ @ @ @ @ @ @ A                                                                                                                                               ",
"                                                                          >.g 5.n >.j.#.c.g . @ 1 @ @ @ @ @ @ @ g                                                                                                                                               ",
"                                                                          c.#.j.n =.C.c.c.g ; ; ' K 1 @ @ @ @ @ @ @ @ @ 8 K                                                                                                                                     ",
"                                                                          C.H.c.x =.H.H.c.' =.n =.j.K . @ @ @ @ @ @ @ @ . n                                                                                                                                     ",
"                                                                            H.>.u =.j.C.j.u.C.#.>.j.U . @ @ @ @ @ @ @ @ . n                                                                                                                                     ",
"                                                                                  j.=.5.u.j.u.u.u.j./ a @ @ @ @ @ @ @ @ @ 1 x                                                                                                                                   ",
"                                                                                  C.X.X.5.j.j.j.j.j.c.>.a a @ @ @ @ @ @ @ @ @ 8 1                                                                                                                               ",
"                                                                                      ' 5.>.#.=.j.j.C.j.X.c.K ; @ @ @ 8 ; @ @ @ @ u g     @ ;                                                                                                                   ",
"                                                                                          =.H.c.u.j.' 5.j.C.5.) B 1 u 5.X.u . @ @ @ @ @ @ @ @ 1 A                                                                                                               ",
"                                                                                            C.u.u.j./ >.j.) 5.j.c.W x C.H.' A 8 @ @ @ @ @ @ @ @ @ 8                                                                                                             ",
"                                                                                                  c./ >.j.W >.j.C.#.n j.=.j.u.U 8 @ @ @ @ @ @ @ @ @ 1 T                                                                                                         ",
"                                                                                                      5.=.u.j.j.=.=.x j.u.#.#.' ' ; @ @ @ @ @ @ @ @ @ K                                                                                                         ",
"                                                                                                          H.c.u./ / 8 #.H.=.=.u.>.; . @ @ @ @ @ @ @ @ g                                                                                                         ",
"                                                                                                            5.u.K @ g =.5.c.j.C.j.B n @ @ @ @ @ @ @ @ @ @ g                                                                                                     ",
"                                                                                                                      c.X.C.C.u.c.5.C.B @ @ @ @ @ @ @ @ @ ; /                                                                                                   ",
"                                                                                                                      H.C.C.C.X.u.j.u.X.; @ @ @ @ @ @ @ @ @ K                                                                                                   ",
"                                                                                                                        H.j.u.X.5.u.c.5.1 @ @ @ @ @ @ @ @ @ U                                                                                                   ",
"                                                                                                                            j.' c.c.=.#.8 @ @ @ @ @ @ @ @ @ U                                                                                                   ",
"                                                                                                                                j.5.u.#.1 @ @ @ @ @ @ @ @ @ U                                                                                                   ",
"                                                                                                                                    H.>.1 @ @ @ @ @ @                                                                                                           ",
"                                                                                                                                                                                                                                                                ",
"                                                                                                                                                                                                                                                                ",
"                                                                                                                                                                                                                                                                ",
"                                                                                                                                                                                                                                                                ",
"                                                                                                                                                                                                                                                                ",
"                                                                                                                                                                                                                                                                ",
"                                                                                                                                                                                                                                                                ",
"                                                                                                                                                                                                                                                                ",
"                                                                                                                                                                                                                                                                ",
"                                                                                                                                                                                                                                                                ",
"                                                                                                                                                                                                                                                                ",
"                                                                                                                                                                                                                                                                ",
"                                                                                                                                                                                                                                                                ",
"                                                                                                                                                                                                                                                                ",
"                                                                                                                                                                                                                                                                "
};
