/* XPM */
static char *oms_159[] = {
/* columns rows colors chars-per-pixel */
"128 54 196 2 ",
"   c #FF00FF",
".  c #0B0B0B",
"X  c #0E0E0E",
"o  c #0F0F0F",
"O  c #101010",
"+  c #111111",
"@  c #121212",
"#  c #131313",
"$  c #141414",
"%  c #151515",
"&  c #161616",
"*  c #171717",
"=  c #181818",
"-  c #191919",
";  c #1A1A1A",
":  c #1B1B1B",
">  c #1C1C1C",
",  c #1D1D1D",
"<  c #1E1E1E",
"1  c #1F1F1F",
"2  c #202020",
"3  c #212121",
"4  c #222222",
"5  c #232323",
"6  c #242424",
"7  c #252525",
"8  c #262626",
"9  c #272727",
"0  c #282828",
"q  c #292929",
"w  c #2A2A2A",
"e  c #2B2B2B",
"r  c #2C2C2C",
"t  c #2D2D2D",
"y  c #2E2E2E",
"u  c #2F2F2F",
"i  c #303030",
"p  c #313131",
"a  c #323232",
"s  c #333333",
"d  c #343434",
"f  c #353535",
"g  c #363636",
"h  c #373737",
"j  c #383838",
"k  c #393939",
"l  c #3A3A3A",
"z  c #3B3B3B",
"x  c #3C3C3C",
"c  c #3D3D3D",
"v  c #3E3E3E",
"b  c #3F3F3F",
"n  c #424242",
"m  c #434343",
"M  c #444444",
"N  c #454545",
"B  c #464646",
"V  c #474747",
"C  c #484848",
"Z  c #494949",
"A  c #4B4B4B",
"S  c #4C4C4C",
"D  c #4C4C4C",
"F  c #4E4E4E",
"G  c #505050",
"H  c #515151",
"J  c #535353",
"K  c #545454",
"L  c #555555",
"P  c #575757",
"I  c #585858",
"U  c #5A5A5A",
"Y  c #5B5B5B",
"T  c #5C5C5C",
"R  c #5D5D5D",
"E  c #616161",
"W  c #636363",
"Q  c #656565",
"!  c #676767",
"~  c #696969",
"^  c #6A6A6A",
"/  c #6B6B6B",
"(  c #707070",
")  c #717171",
"_  c #737373",
"`  c #767676",
"'  c #777777",
"]  c #787878",
"[  c #7A7A7A",
"{  c #7B7B7B",
"}  c #7D7D7D",
"|  c #818181",
" . c #828282",
".. c #848484",
"X. c #858585",
"o. c #878787",
"O. c #888888",
"+. c #898989",
"@. c #8B8B8B",
"#. c #8C8C8C",
"$. c #8E8E8E",
"%. c #919191",
"&. c #939393",
"*. c #949494",
"=. c #959595",
"-. c #969696",
";. c #989898",
":. c #9A9A9A",
">. c #9B9B9B",
",. c #9C9C9C",
"<. c #9D9D9D",
"1. c #A3A3A3",
"2. c #A4A4A4",
"3. c #A6A6A6",
"4. c #A7A7A7",
"5. c #A9A9A9",
"6. c #ACACAC",
"7. c #ADADAD",
"8. c #AEAEAE",
"9. c #AFAFAF",
"0. c #B0B0B0",
"q. c #B1B1B1",
"w. c #B2B2B2",
"e. c #B2B2B2",
"r. c #B4B4B4",
"t. c #B6B6B6",
"y. c #B7B7B7",
"u. c #B8B8B8",
"i. c #B9B9B9",
"p. c #BBBBBB",
"a. c #BCBCBC",
"s. c #BDBDBD",
"d. c #808080",
"f. c #BFBFBF",
"g. c #C1C1C1",
"h. c #C2C2C2",
"j. c #C3C3C3",
"k. c #C5C5C5",
"l. c #C6C6C6",
"z. c #C7C7C7",
"x. c #C8C8C8",
"c. c #C9C9C9",
"v. c #CACACA",
"b. c #CBCBCB",
"n. c #CCCCCC",
"m. c #CDCDCD",
"M. c #CECECE",
"N. c #CFCFCF",
"B. c #D0D0D0",
"V. c #D1D1D1",
"C. c #D2D2D2",
"Z. c #D3D3D3",
"A. c #D4D4D4",
"S. c #D5D5D5",
"D. c #D6D6D6",
"F. c #D7D7D7",
"G. c #D8D8D8",
"H. c #D9D9D9",
"J. c #DADADA",
"K. c #DBDBDB",
"L. c #DCDCDC",
"P. c #DDDDDD",
"I. c #DEDEDE",
"U. c #DFDFDF",
"Y. c #E0E0E0",
"T. c #E1E1E1",
"R. c #E2E2E2",
"E. c #E3E3E3",
"W. c #E4E4E4",
"Q. c #E6E6E6",
"!. c #E6E6E6",
"~. c #E7E7E7",
"^. c #E8E8E8",
"/. c #E9E9E9",
"(. c #EAEAEA",
"). c #EBEBEB",
"_. c #ECECEC",
"`. c #EDEDED",
"'. c #EEEEEE",
"]. c #EFEFEF",
"[. c #F0F0F0",
"{. c #F1F1F1",
"}. c #F2F2F2",
"|. c #F3F3F3",
" X c #F4F4F4",
".X c #F5F5F5",
"XX c #F6F6F6",
"oX c #F7F7F7",
"OX c #F8F8F8",
"+X c #F9F9F9",
"@X c #FAFAFA",
"#X c #FBFBFB",
"$X c #FCFCFC",
"%X c #FDFDFD",
"&X c #FEFEFE",
"*X c #FFFFF1",
/* pixels */
"                                                                                                                                                                                                                                                                ",
"                                                                                                                                                                                                                                                                ",
"                                                                                                                                                                                                                                                                ",
"                                                                                                                                                                                                                                                                ",
"                                                                                                                                                                                                                                                                ",
"                                                                                                                                                                                                                                                                ",
"                                                                                                                                                                                                                                                                ",
"                                                                                                                                                                                                                                                                ",
"                                                                                                                                                                                                                                                                ",
"                                                                                                                                                                                                                                                                ",
"                                                                                                                                                                                                                                                                ",
"                                                                                                                                                                                                                                                                ",
"                                                                                                                                                                                                                                                                ",
"                                                                                                                                                                                                                                                                ",
"                                                  i m S     b S W                                                                                                                                                                                               ",
"                              < < < 3 3 i K     + + + + u 3 + + + i     i b m m Y                                                                                                                                                                               ",
"                            + + + + + + + + 3 + + + + + + + + + + 3 u + + + + + + < 3 i ~                                                                                                                                                                       ",
"                          < 3 < + + + + + 3 ~ Y m 3 3 K m u < + o + o o + + + + + + + + < W                                                                                                                                                                     ",
"                        j.j.V.m.u.$.K < + m E.@XoX>.m `.oXE.| < S _ ] ~ K b 3 + + + + + + i                                                                                                                                                                     ",
"                        @X@X@XE.E.@XoX0.S j.oX@X@Xm.~ V.E.`.%.%.oX@X@X@X@X`.V.6.Y < + + + u         3 i K                                                                                                                                                       ",
"                      `.oXoXoXV.u.oX@X@Xu.E.@X@X@X@X`.`.E.E.%.>.V.E.oXE.u.E.@X@XoX$.+ + +         + + + + 3 < 3 3 m         ~                         i S K                                                                                                     ",
"                        E.H.H.6.0.`.@X@XV.] `.@X@X`.H.oX@X@X>.Y 0.V.E.j.| j.@X@X@XH.u + b       o + + + + + + + + 3 S + + + < < 3 b ~             + + + + + < < 3 u Y                                                                                           ",
"                        @X@XoXj.6.oX@X@XV.$.`.@X@X0.K oX@X@Xj.E.@X@X@X@X@X@X@X@X@XE.u + + m j.>.W 3 u 3 < + + + o + + + + + + + + + + S   + < < + + + + + + + + + o b                                                                                           ",
"                          oXoX@X@X@X@X@XE.@X@X@X@X6.K oX@X@XH.oX@X@X@XE.V.E.`.`.H.] + + + 6.@X@XoXu.V.H.j.| + i K Y S i < + + + + + + + + i >.| W b i u < + + + + + b                   + + < 3 u b %.                                                          ",
"                                          @X@X@X@Xm.  @X@X@X0.V.@X@X@Xu.K >.H.j.%.Y 3 +   @X@X@XoXE.@X@X@Xj.] E.oXoXoX`.m.%.b + + u i 3 o S oX@X@X0.H.H.m._ + + + + i   + < < 3 u b < + + + + + + + S     + < u i b Y                                           ",
"                                                      oXoX@X0.  @X@X@X@X`.oX@X@X@X`.S     oXoX@XV.  @X@X@XV.H.@X@XoXm.H.@X@XH.S _ E.`.V.$.W oX@X@Xu.`.@X@X3.+ + + + + + + + + i K b u < + + + + + + + < + + + + + + u               b m Y                       ",
"                                                                    oXoXoX@XoXoX@X                  @X@X@XH.E.@X@Xm.3 b E.@X@Xj.V.@X@X@X@XE.oX@X@Xu.`.@X@X3.+ u b b i < + + + ] oX`.H.m._ + + 3 m i 3 < + + + + + + u         + + + + + + < 3 b _               ",
"                                                                                                    @X@X@Xm.u.@X@XE.K S E.@X@XoXoX@X@X`.>.m.@X@X@Xu.`.@X@X3._ H.`.`.E.V.3.K + ] @X@X@X@XE.i o $.oXE.V.j.%.3 + + + + 3     + o o + + + + + + + + < K             ",
"                                                                                                    oX@X@Xm.  @X@X@X`.E.@X@X@XH.E.@X@Xm.< K oX@X@Xu.`.@X@Xm.E.@X@XE.u.`.@XoX| | @X@X@X@X@X| b E.@X@X@X@XH.u + + + i | u.6.>.| W b < + + + + + + + + ~           ",
"                                                                                                                  oXoX@XoXoXoX  oX@X@Xj.< K oX@X@Xu.`.@X@XH.H.`.oX`.V.E.@X@X`.0.@X@X@X@X@XH.u.@X@X@X@X@XH.u + + m H.@X@X@X@X@X@X`.0.K + + + + + + + b           ",
"                                                                                                                                  oX@Xm.    @X@X@Xu.`.@X@Xm.H.`.E.u.| m.@X@XoXV.@X@X@XE.oX@X@X@X@X@X@X@XH.u + + 3.@X@X@XoX`.`.@X@X@X`.~ + + + + + + u           ",
"                                                                                                                                                oXm.`.@X@Xu.u.@X@XoXm.E.@X@X`.u.@X@X@X>.H.@X@X@XE.`.@X@XH.u + + j.@X@X@X>.i b $.`.@X@XH.i + + + + + i           ",
"                                                                                                                                                                oX@X@X@X@XoXE.m.@X@X@X_ $.@X@XoX] V.@X@XH.u + + u.@X@XoXY o o + 0.@X@XoXY o + + + + S           ",
"                                                                                                                                                                                oXoX@X$.  @X@Xj.i E.@X@XH.u + + 3.@X@X@Xj.m 3 b V.@X@X@X~ o + + + <             ",
"                                                                                                                                                                                                  oXoX@XH.i       oX@X@X@X`.V.E.@X@X@XoXK o +                   ",
"                                                                                                                                                                                                                    oXoX@X@X@X@X@X@X@Xm.u                       ",
"                                                                                                                                                                                                                          oXoX@X@XoX                            ",
"                                                                                                                                                                                                                                                                ",
"                                                                                                                                                                                                                                                                ",
"                                                                                                                                                                                                                                                                ",
"                                                                                                                                                                                                                                                                ",
"                                                                                                                                                                                                                                                                ",
"                                                                                                                                                                                                                                                                ",
"                                                                                                                                                                                                                                                                ",
"                                                                                                                                                                                                                                                                ",
"                                                                                                                                                                                                                                                                ",
"                                                                                                                                                                                                                                                                ",
"                                                                                                                                                                                                                                                                ",
"                                                                                                                                                                                                                                                                ",
"                                                                                                                                                                                                                                                                ",
"                                                                                                                                                                                                                                                                ",
"                                                                                                                                                                                                                                                                ",
"                                                                                                                                                                                                                                                                ",
"                                                                                                                                                                                                                                                                "
};
