/* XPM */
static char *oms_300[] = {
/* columns rows colors chars-per-pixel */
"128 54 181 2 ",
"   c #FF00FF",
".  c #0C0C0C",
"X  c #0E0E0E",
"o  c #0F0F0F",
"O  c #101010",
"+  c #111111",
"@  c #121212",
"#  c #131313",
"$  c #141414",
"%  c #151515",
"&  c #161616",
"*  c #171717",
"=  c #181818",
"-  c #191919",
";  c #1A1A1A",
":  c #1B1B1B",
">  c #1C1C1C",
",  c #1D1D1D",
"<  c #1E1E1E",
"1  c #1F1F1F",
"2  c #202020",
"3  c #212121",
"4  c #222222",
"5  c #232323",
"6  c #242424",
"7  c #252525",
"8  c #272727",
"9  c #282828",
"0  c #292929",
"q  c #2A2A2A",
"w  c #2B2B2B",
"e  c #2C2C2C",
"r  c #2E2E2E",
"t  c #2F2F2F",
"y  c #303030",
"u  c #313131",
"i  c #333333",
"p  c #343434",
"a  c #353535",
"s  c #363636",
"d  c #373737",
"f  c #393939",
"g  c #3A3A3A",
"h  c #3C3C3C",
"j  c #3D3D3D",
"k  c #3E3E3E",
"l  c #3F3F3F",
"z  c #404040",
"x  c #434343",
"c  c #444444",
"v  c #454545",
"b  c #484848",
"n  c #494949",
"m  c #4A4A4A",
"M  c #4B4B4B",
"N  c #4C4C4C",
"B  c #4C4C4C",
"V  c #4E4E4E",
"C  c #565656",
"Z  c #575757",
"A  c #595959",
"S  c #5B5B5B",
"D  c #5C5C5C",
"F  c #5D5D5D",
"G  c #5E5E5E",
"H  c #5F5F5F",
"J  c #646464",
"K  c #656565",
"L  c #666666",
"P  c #686868",
"I  c #696969",
"U  c #6A6A6A",
"Y  c #6C6C6C",
"T  c #6E6E6E",
"R  c #717171",
"E  c #737373",
"W  c #747474",
"Q  c #757575",
"!  c #767676",
"~  c #797979",
"^  c #7C7C7C",
"/  c #818181",
"(  c #828282",
")  c #838383",
"_  c #848484",
"`  c #868686",
"'  c #878787",
"]  c #898989",
"[  c #8A8A8A",
"{  c #8C8C8C",
"}  c #8E8E8E",
"|  c #8F8F8F",
" . c #909090",
".. c #919191",
"X. c #979797",
"o. c #999999",
"O. c #9C9C9C",
"+. c #9D9D9D",
"@. c #A0A0A0",
"#. c #A1A1A1",
"$. c #A2A2A2",
"%. c #A4A4A4",
"&. c #A7A7A7",
"*. c #A9A9A9",
"=. c #AAAAAA",
"-. c #ABABAB",
";. c #AFAFAF",
":. c #B0B0B0",
">. c #B2B2B2",
",. c #B7B7B7",
"<. c #B8B8B8",
"1. c #BABABA",
"2. c #BBBBBB",
"3. c #BCBCBC",
"4. c #BDBDBD",
"5. c #808080",
"6. c #BFBFBF",
"7. c #C0C0C0",
"8. c #C1C1C1",
"9. c #C2C2C2",
"0. c #C3C3C3",
"q. c #C4C4C4",
"w. c #C5C5C5",
"e. c #C6C6C6",
"r. c #C7C7C7",
"t. c #C8C8C8",
"y. c #C9C9C9",
"u. c #CACACA",
"i. c #CBCBCB",
"p. c #CCCCCC",
"a. c #CDCDCD",
"s. c #CECECE",
"d. c #CFCFCF",
"f. c #D0D0D0",
"g. c #D1D1D1",
"h. c #D2D2D2",
"j. c #D3D3D3",
"k. c #D4D4D4",
"l. c #D5D5D5",
"z. c #D6D6D6",
"x. c #D7D7D7",
"c. c #D8D8D8",
"v. c #D9D9D9",
"b. c #DADADA",
"n. c #DBDBDB",
"m. c #DCDCDC",
"M. c #DDDDDD",
"N. c #DEDEDE",
"B. c #DFDFDF",
"V. c #E0E0E0",
"C. c #E1E1E1",
"Z. c #E2E2E2",
"A. c #E3E3E3",
"S. c #E4E4E4",
"D. c #E6E6E6",
"F. c #E6E6E6",
"G. c #E7E7E7",
"H. c #E8E8E8",
"J. c #E9E9E9",
"K. c #EAEAEA",
"L. c #EBEBEB",
"P. c #ECECEC",
"I. c #EDEDED",
"U. c #EEEEEE",
"Y. c #EFEFEF",
"T. c #F0F0F0",
"R. c #F1F1F1",
"E. c #F2F2F2",
"W. c #F3F3F3",
"Q. c #F4F4F4",
"!. c #F5F5F5",
"~. c #F6F6F6",
"^. c #F7F7F7",
"/. c #F8F8F8",
"(. c #F9F9F9",
"). c #FAFAFA",
"_. c #FBFBFB",
"`. c #FCFCFC",
"'. c #FDFDFD",
"]. c #FEFEFE",
"[. c #FFFFF1",
/* pixels */
"                                                                                                                                                                                                                                                                ",
"                                                                                                                                                                                                                                                                ",
"                                                                                                                                                                                                                                                                ",
"                                                                                                                                                                                                                                                                ",
"                                                                                                                                                                                                                                                                ",
"                                                                                                                                                                                                                                                                ",
"                                                                                                                                                                                                                                                                ",
"                                                                                                                                                                                                                                                                ",
"                                                                                                                                                                                                                                                                ",
"                                                                                                                                                                                                                                                                ",
"                                                                                                                                                                                                                                                                ",
"                                                                                                                                                                                                                                                                ",
"                                                                                                                                                                                                                                                                ",
"                                                                                                                                                                                                                                                                ",
"                                                                                                                                                                                                                                                                ",
"                                                                                                                                                                                                                                                                ",
"                                                                                                                                                                                                                                                                ",
"                                                      ^.^.8.x + + + + + + + + + > G                                                                                                                                                                             ",
"                                                    ^./././.f.k + 8 x w + + + + + + k > + 8                                                                                                                                                                     ",
"                                                    /./.^.^./.*.+ k C.C.^ + k u > + + + + + + u 8 > u                                                                                                                                                           ",
"                                                    /.P.L ` ^.b.w k P./.8.w d.C.@.> + + + + + o + + + G                                                                                                                                                         ",
"                                                    /.b.8 8 b.P.k k P./.b.L P./.d.8 + + + > G k > + + 8 8 + + + + 8 u                                                                                                                                           ",
"                                                    /.P.b w b.^.x k P./.^.1.^./.d.8 w 8 + w b.C.1.@.8 + + + + + + + + + !                                                                                                                                       ",
"                                                    /./.f.1.^.P.k k P.^.^.^././.d.} C.f.` k b.P.P.P.k o + + + + + + + + !                                                                                                                                       ",
"                                                      /./././.b.w k P.C.C./.^.^.b.C.^.C.^. .b.P.P.C.x 8 + + + + + + + + u 8 L                                                                                                                                   ",
"                                                        ^./.^. .+ x P.f.1./.8.P.C.P.^.8.^.b.C.P.C.P.1.f.I + u u > + + + + + > w + > k                                                                                                                           ",
"                                                                    /.d.} ^.} P.C.P.^.d.C.P.^.P.C./././.d.! C.P.1.x w w + + + + w +.1.*.G > + o + + + + + > u                                                                                                   ",
"                                                                        ` b.I ^.f.d.^.@.d.f.^.P.C.^.+.P.P.f./.P./.8.+.b.` ` u o I /././.P.` C ` u + + + + + + + + w I                                                                                           ",
"                                                                                8. ./././.b.P.P.C.P.b d.^.P.^.! 8.^.d./.^./.@.+ ^ /.C.1./.C.*./.` G b > + + + + + + + + !                                                                                       ",
"                                                                                      ^.^.*.P.P.P.P.b d.P.b.^.b *./.b./.b.^.d.> I /.P.*.f.8.@.b.` f.C.w + + + + + + + + G                                                                                       ",
"                                                                                                P.C.b f.C.>./.8.b.^.b./.} b.C.8 u f././.^.*.} P.8.P.^.b + > + + + + + + > w + w                                                                                 ",
"                                                                                                        b.^ ^././.C.1./.! b ! > b @.f.b./.^.8./.C././.@.+.d.+.k + + + + + + + + 8  .                                                                            ",
"                                                                                                                ^.  1./.I o + o } /.f.! P./.b./.1.C./.C.^.^.^.d.w + + + + + + + + G                                                                             ",
"                                                                                                                                  /.^.C.^.^.b./.} d.P.*./.f.d./.L o + + + + + + + b                                                                             ",
"                                                                                                                                    ^././.C.>./.} d.^.8./.C.C.^.` + + + + + + + + C                                                                             ",
"                                                                                                                                              /.} d./.C.^.8.+.f.I + + + + + + + + C                                                                             ",
"                                                                                                                                                    /.>.b./.^./.! o + + + + + + >                                                                               ",
"                                                                                                                                                          ^.^.P.b                                                                                               ",
"                                                                                                                                                                                                                                                                ",
"                                                                                                                                                                                                                                                                ",
"                                                                                                                                                                                                                                                                ",
"                                                                                                                                                                                                                                                                ",
"                                                                                                                                                                                                                                                                ",
"                                                                                                                                                                                                                                                                ",
"                                                                                                                                                                                                                                                                ",
"                                                                                                                                                                                                                                                                ",
"                                                                                                                                                                                                                                                                ",
"                                                                                                                                                                                                                                                                ",
"                                                                                                                                                                                                                                                                ",
"                                                                                                                                                                                                                                                                ",
"                                                                                                                                                                                                                                                                ",
"                                                                                                                                                                                                                                                                ",
"                                                                                                                                                                                                                                                                ",
"                                                                                                                                                                                                                                                                "
};
