/* XPM */
static char *oms_224[] = {
/* columns rows colors chars-per-pixel */
"128 54 208 2 ",
"   c #FF00FF",
".  c #0B0B0B",
"X  c #0C0C0C",
"o  c #0D0D0D",
"O  c #0E0E0E",
"+  c #0F0F0F",
"@  c #101010",
"#  c #111111",
"$  c #121212",
"%  c #131313",
"&  c #141414",
"*  c #151515",
"=  c #161616",
"-  c #171717",
";  c #181818",
":  c #191919",
">  c #1A1A1A",
",  c #1B1B1B",
"<  c #1C1C1C",
"1  c #1D1D1D",
"2  c #1E1E1E",
"3  c #1F1F1F",
"4  c #202020",
"5  c #212121",
"6  c #222222",
"7  c #232323",
"8  c #242424",
"9  c #252525",
"0  c #262626",
"q  c #272727",
"w  c #282828",
"e  c #292929",
"r  c #2B2B2B",
"t  c #2C2C2C",
"y  c #2D2D2D",
"u  c #2E2E2E",
"i  c #303030",
"p  c #313131",
"a  c #323232",
"s  c #333333",
"d  c #343434",
"f  c #353535",
"g  c #383838",
"h  c #393939",
"j  c #3A3A3A",
"k  c #3B3B3B",
"l  c #3C3C3C",
"z  c #3D3D3D",
"x  c #3E3E3E",
"c  c #404040",
"v  c #414141",
"b  c #434343",
"n  c #444444",
"m  c #454545",
"M  c #464646",
"N  c #484848",
"B  c #494949",
"V  c #4A4A4A",
"C  c #4B4B4B",
"Z  c #4C4C4C",
"A  c #4C4C4C",
"S  c #4E4E4E",
"D  c #505050",
"F  c #515151",
"G  c #525252",
"H  c #535353",
"J  c #545454",
"K  c #555555",
"L  c #565656",
"P  c #575757",
"I  c #585858",
"U  c #595959",
"Y  c #5A5A5A",
"T  c #5B5B5B",
"R  c #5C5C5C",
"E  c #5D5D5D",
"W  c #616161",
"Q  c #636363",
"!  c #666666",
"~  c #676767",
"^  c #686868",
"/  c #6A6A6A",
"(  c #6B6B6B",
")  c #6C6C6C",
"_  c #6D6D6D",
"`  c #6F6F6F",
"'  c #707070",
"]  c #717171",
"[  c #737373",
"{  c #747474",
"}  c #757575",
"|  c #777777",
" . c #797979",
".. c #7A7A7A",
"X. c #7C7C7C",
"o. c #808080",
"O. c #818181",
"+. c #828282",
"@. c #838383",
"#. c #848484",
"$. c #858585",
"%. c #868686",
"&. c #878787",
"*. c #888888",
"=. c #8A8A8A",
"-. c #8B8B8B",
";. c #8C8C8C",
":. c #8F8F8F",
">. c #909090",
",. c #919191",
"<. c #929292",
"1. c #939393",
"2. c #949494",
"3. c #959595",
"4. c #969696",
"5. c #979797",
"6. c #9A9A9A",
"7. c #9B9B9B",
"8. c #9C9C9C",
"9. c #9D9D9D",
"0. c #9E9E9E",
"q. c #A0A0A0",
"w. c #A1A1A1",
"e. c #A2A2A2",
"r. c #A3A3A3",
"t. c #A4A4A4",
"y. c #A5A5A5",
"u. c #A7A7A7",
"i. c #A8A8A8",
"p. c #A9A9A9",
"a. c #AAAAAA",
"s. c #ABABAB",
"d. c #AEAEAE",
"f. c #AFAFAF",
"g. c #B0B0B0",
"h. c #B1B1B1",
"j. c #B2B2B2",
"k. c #B2B2B2",
"l. c #B4B4B4",
"z. c #B5B5B5",
"x. c #B6B6B6",
"c. c #B7B7B7",
"v. c #B8B8B8",
"b. c #B9B9B9",
"n. c #BABABA",
"m. c #BCBCBC",
"M. c #BDBDBD",
"N. c #BFBFBF",
"B. c #C0C0C0",
"V. c #C1C1C1",
"C. c #C2C2C2",
"Z. c #C3C3C3",
"A. c #C4C4C4",
"S. c #C5C5C5",
"D. c #C6C6C6",
"F. c #C7C7C7",
"G. c #C9C9C9",
"H. c #CACACA",
"J. c #CBCBCB",
"K. c #CCCCCC",
"L. c #CDCDCD",
"P. c #CECECE",
"I. c #CFCFCF",
"U. c #D0D0D0",
"Y. c #D1D1D1",
"T. c #D3D3D3",
"R. c #D4D4D4",
"E. c #D5D5D5",
"W. c #D6D6D6",
"Q. c #D7D7D7",
"!. c #D8D8D8",
"~. c #D9D9D9",
"^. c #DADADA",
"/. c #DBDBDB",
"(. c #DCDCDC",
"). c #DDDDDD",
"_. c #DEDEDE",
"`. c #DFDFDF",
"'. c #E0E0E0",
"]. c #E1E1E1",
"[. c #E3E3E3",
"{. c #E4E4E4",
"}. c #E6E6E6",
"|. c #E6E6E6",
" X c #E7E7E7",
".X c #E8E8E8",
"XX c #E9E9E9",
"oX c #EBEBEB",
"OX c #ECECEC",
"+X c #EDEDED",
"@X c #EEEEEE",
"#X c #EFEFEF",
"$X c #F0F0F0",
"%X c #F1F1F1",
"&X c #F2F2F2",
"*X c #F3F3F3",
"=X c #F4F4F4",
"-X c #F5F5F5",
";X c #F6F6F6",
":X c #F7F7F7",
">X c #F8F8F8",
",X c #F9F9F9",
"<X c #FAFAFA",
"1X c #FBFBFB",
"2X c #FCFCFC",
"3X c #FDFDFD",
"4X c #FEFEFE",
"5X c #FFFFF1",
/* pixels */
"                                                                                                                                                                                                                                                                ",
"                                                                                                                                                                                                                                                                ",
"                                                                                                                                                                                                                                                                ",
"                                                                                                                                                                                                                                                                ",
"                                                                                                                                                                                                                                                                ",
"                                                                                                                                                                                                                                                                ",
"                                                                                                                                                                                                                                                                ",
"                                                                                                                                                                                                                                                                ",
"                                                                                                                                                                                                                                                                ",
"                                                                                                                                                                                                                                                                ",
"                                                                                                                                                                                                                                                                ",
"                                                                                                                                                                                          { x 5 < % % % %                                                       ",
"                                                                                                                                                                                        V < % % % % % % % + %                                                   ",
"                                                                                                                                                                        Q m d 5 %     Y % % % % % % % % x ( 8.S./.=X                                            ",
"                                                                                                                                                                      Y % % % % % % < < % + % % % % t 1.{.3X3X3X3X3X=X                                          ",
"                                                                                                                                                          x t < % % t 5 % % % % % % % 5 m { m % % t m.3X3X=X{.=X3X3X=X                                          ",
"                                                                                                                                                        ( % % % % % % % + + < < % < 1.U.oX3X{ + % +.3X3X/.Q d +.3X3X=X                                          ",
"                                                                                                                                                        ( % % % % % % t Y :.m.:.% V =X3X3X3X{ + < S.3X3X+.+ + Y 3X3X=X                                          ",
"                                                                                                                              J m d 5 % % %     J x t   J % % % % % % 1.3X3X3X{.d 1.3X3X3X3X{ + 5 U.3X3X1.< x m.3X3X=X                                          ",
"                                                                                                                          Y < % % % % % % % % % % % 5 < % % % % + + % 8.3X3X3X3Xi.U.3X3X3X3X{ + < U.3X3X=XP.{.3X3X=X                                            ",
"                                                                                                                          J % % % % % % % < d m { g.U.V + % < x J J 5 8.3X3X3X3X=X3X=XoX3X3Xm.+ % y.3X3X3X3X3X3X=X                                              ",
"                                                                                                                          m % % % % % % x m.{.P./.3X=XJ 5 ..P.oX=X=Xi.i.3X3X=X3X3X3XP.S.3X3X        =X=X=X=X=X                                                  ",
"                                                                                                                  Y 5 % % < % % % % % + J =X3XU.U.3X=XQ i.3X{.S.=X3XoXP.3X3Xm./.3X3X+.g.3X3X                                                                    ",
"                                                                                                      V d 5 % % V < % % % % % % % % t t Y =X3XU.U.3XoXi.=X3X{.U.=X3XoXU.3X3X1.+.3X=XJ m.3X=X                                                                    ",
"                                                                                                  V < % % % % % % % % + % < % % t y.{.{.P.=X3XU.U.3X=XU.oX{.g.1.oX3XU.g.3X3XP.  oX                                                                              ",
"                                                                  m d 5 % %             V 5 < % % % % % % % % % % % m ..i.m.y.x 8.3X3XoXoX3X3XU.U.3X=XP.{.oXU.U.3X3Xy.i.3X                                                                                      ",
"                                                            m 5 < % % % % % % % < t % % % % % % % % + % % < x d t y.oX3X3X3X3XS./.3X=X( ( =X3XU.U.3X=XS.=X3X3X3X=X                                                                                              ",
"                                                  V d < < 5 % % % % % % % % % < m ( 8.m.g.J % % % 5 Y J ( P.oXy.g.3X=X8.y.3X3X=X=X3XoXx J =X3XU.U.3X=X                                                                                                          ",
"                                                J % % % % % % % % % % 5 < < ( S.oX3X3X3X3XS.< % 5 g.=X=XoX3X3XU.oX3X/.< Y =X3X/.oX3XoXV J =X3X{.                                                                                                                ",
"                                        ..5 % % % % % % % % % + % V y.P...+.3X3XoXi.{.3X3XU.5 + ( 3X3X/./.3X3XoX=X3XoX..m.3X3X1./.3X=X                                                                                                                          ",
"                                        Y % % % % % % % % 5 m { m 1.3X=X8.U.{.{.S.y.oX3X3X8.% % :.3X3X+.1.3X3XP.oX3X3X3X3X=X=X                                                                                                                                  ",
"                                      ( < % % % % % % % % 1.=X3X:.+././.+.{ S.oX3X3X3XoXP.  < % ..8.Q 5 1.3X3XU.  =X=X=X                                                                                                                                        ",
"                          Q d 5 % % % % % % % % % + % + 5 m.3X3X{.P.=X3X8.S.3X3XoXm.P.U.P.oX          + 8.3X=X                                                                                                                                                  ",
"                        J % % % % % % % % % % t Y +.:.J { 3X3X3XoXU.3X3XP.=X3X3Xg.( /.3X3X=X                                                                                                                                                                    ",
"                      :.< % % % % % % % % 5 :./.=X3X3XoXg.=X3X3X8.y.3X3XP.=X3X3X=X=X3X3X=X                                                                                                                                                                      ",
"                      { % % % % % % % % < y.3X=Xg.{.3X3X:.g.3X3X..1.3X3Xg./.3X=X3X=X=X                                                                                                                                                                          ",
"                      ..< % % % % % % % m oX3X=X/.oX3X=Xi./.3X3X{ 1.3X3X                                                                                                                                                                                        ",
"                      { < % % % % % % % J {.{.S...U.3X{.g.3X3X=X                                                                                                                                                                                                ",
"                            % % % % % % V {.=X=X{.=X3XP.1.                                                                                                                                                                                                      ",
"                                        x {.=X=X=X=X                                                                                                                                                                                                            ",
"                                                                                                                                                                                                                                                                ",
"                                                                                                                                                                                                                                                                ",
"                                                                                                                                                                                                                                                                ",
"                                                                                                                                                                                                                                                                ",
"                                                                                                                                                                                                                                                                ",
"                                                                                                                                                                                                                                                                ",
"                                                                                                                                                                                                                                                                ",
"                                                                                                                                                                                                                                                                ",
"                                                                                                                                                                                                                                                                ",
"                                                                                                                                                                                                                                                                ",
"                                                                                                                                                                                                                                                                ",
"                                                                                                                                                                                                                                                                ",
"                                                                                                                                                                                                                                                                ",
"                                                                                                                                                                                                                                                                "
};
