/* XPM */
static char *oms_221[] = {
/* columns rows colors chars-per-pixel */
"128 54 196 2 ",
"   c #FF00FF",
".  c #0B0B0B",
"X  c #0C0C0C",
"o  c #0D0D0D",
"O  c #0E0E0E",
"+  c #0F0F0F",
"@  c #101010",
"#  c #111111",
"$  c #121212",
"%  c #131313",
"&  c #141414",
"*  c #151515",
"=  c #161616",
"-  c #171717",
";  c #181818",
":  c #191919",
">  c #1A1A1A",
",  c #1B1B1B",
"<  c #1C1C1C",
"1  c #1D1D1D",
"2  c #1E1E1E",
"3  c #1F1F1F",
"4  c #202020",
"5  c #212121",
"6  c #222222",
"7  c #232323",
"8  c #242424",
"9  c #252525",
"0  c #262626",
"q  c #272727",
"w  c #282828",
"e  c #292929",
"r  c #2B2B2B",
"t  c #2C2C2C",
"y  c #2D2D2D",
"u  c #2E2E2E",
"i  c #2F2F2F",
"p  c #303030",
"a  c #313131",
"s  c #323232",
"d  c #333333",
"f  c #343434",
"g  c #353535",
"h  c #363636",
"j  c #373737",
"k  c #383838",
"l  c #393939",
"z  c #3A3A3A",
"x  c #3B3B3B",
"c  c #3C3C3C",
"v  c #3D3D3D",
"b  c #3E3E3E",
"n  c #3F3F3F",
"m  c #404040",
"M  c #414141",
"N  c #424242",
"B  c #434343",
"V  c #444444",
"C  c #454545",
"Z  c #474747",
"A  c #4C4C4C",
"S  c #4F4F4F",
"D  c #505050",
"F  c #515151",
"G  c #525252",
"H  c #535353",
"J  c #545454",
"K  c #555555",
"L  c #565656",
"P  c #575757",
"I  c #585858",
"U  c #5B5B5B",
"Y  c #5C5C5C",
"T  c #5D5D5D",
"R  c #5E5E5E",
"E  c #5F5F5F",
"W  c #616161",
"Q  c #626262",
"!  c #646464",
"~  c #656565",
"^  c #696969",
"/  c #6B6B6B",
"(  c #6C6C6C",
")  c #6D6D6D",
"_  c #6E6E6E",
"`  c #6F6F6F",
"'  c #737373",
"]  c #747474",
"[  c #777777",
"{  c #787878",
"}  c #7A7A7A",
"|  c #7D7D7D",
" . c #7E7E7E",
".. c #808080",
"X. c #828282",
"o. c #848484",
"O. c #858585",
"+. c #868686",
"@. c #888888",
"#. c #898989",
"$. c #8B8B8B",
"%. c #8C8C8C",
"&. c #8D8D8D",
"*. c #8E8E8E",
"=. c #8F8F8F",
"-. c #919191",
";. c #929292",
":. c #949494",
">. c #959595",
",. c #979797",
"<. c #9A9A9A",
"1. c #9B9B9B",
"2. c #9C9C9C",
"3. c #9E9E9E",
"4. c #9F9F9F",
"5. c #A3A3A3",
"6. c #A4A4A4",
"7. c #A7A7A7",
"8. c #ACACAC",
"9. c #ADADAD",
"0. c #AEAEAE",
"q. c #AFAFAF",
"w. c #B1B1B1",
"e. c #B2B2B2",
"r. c #B2B2B2",
"t. c #B4B4B4",
"y. c #B5B5B5",
"u. c #B6B6B6",
"i. c #B7B7B7",
"p. c #B8B8B8",
"a. c #B9B9B9",
"s. c #BABABA",
"d. c #BBBBBB",
"f. c #BCBCBC",
"g. c #BDBDBD",
"h. c #808080",
"j. c #BFBFBF",
"k. c #C0C0C0",
"l. c #C3C3C3",
"z. c #C5C5C5",
"x. c #C6C6C6",
"c. c #C7C7C7",
"v. c #C8C8C8",
"b. c #CBCBCB",
"n. c #CCCCCC",
"m. c #CDCDCD",
"M. c #CECECE",
"N. c #CFCFCF",
"B. c #D0D0D0",
"V. c #D1D1D1",
"C. c #D2D2D2",
"Z. c #D3D3D3",
"A. c #D4D4D4",
"S. c #D5D5D5",
"D. c #D6D6D6",
"F. c #D7D7D7",
"G. c #D8D8D8",
"H. c #D9D9D9",
"J. c #DADADA",
"K. c #DBDBDB",
"L. c #DCDCDC",
"P. c #DDDDDD",
"I. c #DEDEDE",
"U. c #DFDFDF",
"Y. c #E0E0E0",
"T. c #E1E1E1",
"R. c #E2E2E2",
"E. c #E3E3E3",
"W. c #E4E4E4",
"Q. c #E6E6E6",
"!. c #E6E6E6",
"~. c #E7E7E7",
"^. c #E8E8E8",
"/. c #E9E9E9",
"(. c #EAEAEA",
"). c #EBEBEB",
"_. c #ECECEC",
"`. c #EDEDED",
"'. c #EEEEEE",
"]. c #EFEFEF",
"[. c #F0F0F0",
"{. c #F1F1F1",
"}. c #F2F2F2",
"|. c #F3F3F3",
" X c #F4F4F4",
".X c #F5F5F5",
"XX c #F6F6F6",
"oX c #F7F7F7",
"OX c #F8F8F8",
"+X c #F9F9F9",
"@X c #FAFAFA",
"#X c #FBFBFB",
"$X c #FCFCFC",
"%X c #FDFDFD",
"&X c #FEFEFE",
"*X c #FFFFF1",
/* pixels */
"                                                                                                                                                                                                                                                                ",
"                                                                                                                                                                                                                                                                ",
"                                                                                                                                                                                                                                                                ",
"                                                                                                                                                                                                                                                                ",
"                                                                                                                                                                                                                                                                ",
"                                                                                                                                                                                                                                                                ",
"                                                                                                                                                                                                                                                                ",
"                                                                                                                                                                                                                                                                ",
"                                                                                                                                                                                                                                                                ",
"                                                                                                                                                                                                                                                                ",
"                                                                                                                                                                                                                                                                ",
"                                                                                                                                                                                                K n 0 ; ; $ $                                                   ",
"                                                                                                                                                                                            / i $ $ $ $ $ $ $ $ +                                               ",
"                                                                                                                                                                              K n 0       [ ; $ $ $ $ $ $ $ ; n I { t.                                          ",
"                                                                                                                                                                          n ; $ $ $ $ $ i i + $ $ $ $ $ i { n.(.[.&X&X[.                                        ",
"                                                                                                                                                            K a 0 ; $ $ B ; $ $ $ $ $ $ $ ; a n $ $ $ n k.&X&X&X&X&X&X&X[.                                      ",
"                                                                                                                                                            0 $ $ $ $ $ $ + + $ $ $ $ K 3.k.Q.t.; $ 0 f.&X&XQ.>.{ F.&X&X[.                                      ",
"                                                                                                                                                            0 $ $ $ $ $ ; n ~ >./ $ i U.&X&X&Xf.; + K [.&X[.I + + ..&X&X[.                                      ",
"                                                                                                                              I B a i ; $ $ $     I B i     0 $ $ $ $ $ 3.(.[.&XU.i ~ [.&X&X&Xf.; + [ &X&X(.a + 0 f.&X&X[.                                      ",
"                                                                                                                            n $ $ $ $ $ $ $ $ $ $ $ ; ; $ ; $ $ $ $ $ ; f.&X&X&X&X>.t.&X&X&X&Xf.; + [ &X&X[.t.&.k.[.&X&X                                        ",
"                                                                                                                            a $ $ $ $ $ $ $ 0 a A &.f.>.$ $ $ ; i n a ; f.&X&X&X&X[.[.&X[.&X&XQ.  + K [.&X&X&X&X&X&X[.                                          ",
"                                                                                                                            i $ $ $ $ $ 0 3.F.U.f.&X&Xt.$ a ..k.Q.(.Q...f.&X&X[.&X&X&X(.k.&X&X&X      U.&X&X&X&X[.[.                                            ",
"                                                                                                                  ..i $ $ $ $ $ $ $ $ + a Q.&X(.f.&X&X9.A U.&XU.U.&X&XQ.F.&X&Xf.U.&X&X9.>.&X&X[.                                                                ",
"                                                                                                    / n i ; $ $ i i $ $ $ $ $ $ $ $ i i n Q.&X(.f.&X&Xf.k.&X&Xn.U.&X&X(.U.&X&X>.>.&X&X[ >.&X[.[.                                                                ",
"                                                                                            A 0   n ; $ $ $ $ $ $ $ + $ $ ; $ $ i 3.U.Q.k.(.&X(.f.&X&XU.Q.(.Q.9.t.[.&Xn.k.&X&Xk.K [.[.                                                                          ",
"                                                            ~ B a 0 ; $ $ $       ~ i 0 n ; $ $ $ $ $ $ $ $ $ $ $ 0 K &.t.k.6.n 3.&X&X[.(.&X&X(.f.&X&XF.F.Q.Q.f.F.&X&X&.f.&X[.                                                                                  ",
"                                                        / a ; $ $ $ $ $ $ $ $ + 0 0 0 0 $ $ $ $ $ $ + $ ; a K 0 K n.[.&X&X&X&Xk.U.&X&X&.K (.&X(.f.&X&XF.Q.&X&X&X&X[.                                                                                            ",
"                                                i ; $ $ $ $ $ $ $ $ $ $ $ $ n / 3.k.U.F.&.; $ $ ; I { I t.Q.[...U.&X(...t.&X&X[.[.&X&XI i Q.&X(.f.&X&X[.                                                                                                        ",
"                                        B a ; 0 $ $ $ $ $ $ $ $ ; i B 0 a 6.(.&X&X&X&X&X(.n $ $ >.[.&X[.[.&X[.F.&X&Xt.+ [ &X&XF.Q.&X&X/ a Q.&X[.k.                                                                                                              ",
"                                      I $ $ $ $ $ $ $ $ + $ $ 0 6.U.(./ k.&X&XF.&.U.&X&XQ.a + n (.&X[.t.[.&X[.(.&X&XF.{ n.&X[.&.U.&X&X                                                                                                                          ",
"                                      i $ $ $ $ $ $ $ 0 / 3.9.B U.(.U.&.n.F.Q.n.k.[.&X&Xf.; + K [.&Xn.B Q.&X[.f.[.&X&X&X&X&X                                                                                                                                    ",
"                          A a 0 ; ; i $ $ $ $ $ $ $ + B [.&X(...k.Q.Q.~ ..Q.[.&X&X[.Q.f.        6.~ a a Q.&X[.  Q.[.[.[.                                                                                                                                        ",
"                      A ; $ $ $ $ $ $ $ $ $ $ ; 0 ; ; >.[.&X&X(.[.&X[.6.(.&X&XU.>.k.U.U.(.            a (.&X                                                                                                                                                    ",
"                    ~ $ $ $ $ $ $ $ $ $ 0 I 3.k.n.f./ Q.&X&X[.n.(.&X[.U.&X&X&Xt.&.Q.&X&X[.                                                                                                                                                                      ",
"                    a $ $ $ $ $ $ $ $ n k.[.(.(.&X&XF.f.[.&XQ.K U.&X[.n.[.&X&X&X&X&X[.[.                                                                                                                                                                        ",
"                    a $ $ $ $ $ $ $ ; f.&X[.f.F.&X&XU./ [.&XU.B U.&X[.t.(.&X[.[.[.                                                                                                                                                                              ",
"                    a $ $ $ $ $ $ $ B (.[.(.k.F.&X&XF.F.&X&XU.B U.&X[.                                                                                                                                                                                          ",
"                      $ $ $ $ $ $ $ B U.Q.U.>.n.&X[.>.U.&X[.                                                                                                                                                                                                    ",
"                              $ $ $ n Q.&X&X&X&X[.                                                                                                                                                                                                              ",
"                                        [.[.[.                                                                                                                                                                                                                  ",
"                                                                                                                                                                                                                                                                ",
"                                                                                                                                                                                                                                                                ",
"                                                                                                                                                                                                                                                                ",
"                                                                                                                                                                                                                                                                ",
"                                                                                                                                                                                                                                                                ",
"                                                                                                                                                                                                                                                                ",
"                                                                                                                                                                                                                                                                ",
"                                                                                                                                                                                                                                                                ",
"                                                                                                                                                                                                                                                                ",
"                                                                                                                                                                                                                                                                ",
"                                                                                                                                                                                                                                                                ",
"                                                                                                                                                                                                                                                                ",
"                                                                                                                                                                                                                                                                ",
"                                                                                                                                                                                                                                                                "
};
