/* XPM */
static char *oms_241[] = {
/* columns rows colors chars-per-pixel */
"128 54 183 2 ",
"   c #FF00FF",
".  c #0B0B0B",
"X  c #0C0C0C",
"o  c #0E0E0E",
"O  c #0F0F0F",
"+  c #101010",
"@  c #111111",
"#  c #121212",
"$  c #131313",
"%  c #141414",
"&  c #151515",
"*  c #161616",
"=  c #171717",
"-  c #181818",
";  c #191919",
":  c #1A1A1A",
">  c #1B1B1B",
",  c #1C1C1C",
"<  c #1D1D1D",
"1  c #1E1E1E",
"2  c #1F1F1F",
"3  c #202020",
"4  c #212121",
"5  c #242424",
"6  c #252525",
"7  c #262626",
"8  c #282828",
"9  c #2A2A2A",
"0  c #2B2B2B",
"q  c #2C2C2C",
"w  c #2D2D2D",
"e  c #2E2E2E",
"r  c #2F2F2F",
"t  c #303030",
"y  c #313131",
"u  c #323232",
"i  c #343434",
"p  c #353535",
"a  c #383838",
"s  c #393939",
"d  c #3B3B3B",
"f  c #3D3D3D",
"g  c #3E3E3E",
"h  c #3F3F3F",
"j  c #414141",
"k  c #424242",
"l  c #434343",
"z  c #444444",
"x  c #454545",
"c  c #464646",
"v  c #484848",
"b  c #4A4A4A",
"n  c #4B4B4B",
"m  c #4C4C4C",
"M  c #4C4C4C",
"N  c #4F4F4F",
"B  c #505050",
"V  c #535353",
"C  c #545454",
"Z  c #555555",
"A  c #565656",
"S  c #575757",
"D  c #585858",
"F  c #595959",
"G  c #5A5A5A",
"H  c #5B5B5B",
"J  c #5E5E5E",
"K  c #5F5F5F",
"L  c #606060",
"P  c #616161",
"I  c #626262",
"U  c #676767",
"Y  c #696969",
"T  c #6A6A6A",
"R  c #6C6C6C",
"E  c #6F6F6F",
"W  c #707070",
"Q  c #717171",
"!  c #737373",
"~  c #767676",
"^  c #7A7A7A",
"/  c #7C7C7C",
"(  c #7E7E7E",
")  c #808080",
"_  c #808080",
"`  c #818181",
"'  c #838383",
"]  c #848484",
"[  c #878787",
"{  c #898989",
"}  c #8C8C8C",
"|  c #8E8E8E",
" . c #8F8F8F",
".. c #909090",
"X. c #919191",
"o. c #969696",
"O. c #979797",
"+. c #989898",
"@. c #999999",
"#. c #9B9B9B",
"$. c #9C9C9C",
"%. c #9D9D9D",
"&. c #9F9F9F",
"*. c #A0A0A0",
"=. c #A4A4A4",
"-. c #A5A5A5",
";. c #A6A6A6",
":. c #A7A7A7",
">. c #A9A9A9",
",. c #AAAAAA",
"<. c #ABABAB",
"1. c #ACACAC",
"2. c #ADADAD",
"3. c #AEAEAE",
"4. c #B0B0B0",
"5. c #B2B2B2",
"6. c #B2B2B2",
"7. c #B5B5B5",
"8. c #B6B6B6",
"9. c #B8B8B8",
"0. c #B9B9B9",
"q. c #BABABA",
"w. c #BCBCBC",
"e. c #BFBFBF",
"r. c #C0C0C0",
"t. c #C1C1C1",
"y. c #C2C2C2",
"u. c #C3C3C3",
"i. c #C4C4C4",
"p. c #C5C5C5",
"a. c #C7C7C7",
"s. c #C8C8C8",
"d. c #C9C9C9",
"f. c #CACACA",
"g. c #CBCBCB",
"h. c #CCCCCC",
"j. c #CDCDCD",
"k. c #CECECE",
"l. c #CFCFCF",
"z. c #D0D0D0",
"x. c #D1D1D1",
"c. c #D5D5D5",
"v. c #D6D6D6",
"b. c #D7D7D7",
"n. c #D8D8D8",
"m. c #D9D9D9",
"M. c #DBDBDB",
"N. c #DCDCDC",
"B. c #DDDDDD",
"V. c #DEDEDE",
"C. c #DFDFDF",
"Z. c #E0E0E0",
"A. c #E1E1E1",
"S. c #E2E2E2",
"D. c #E3E3E3",
"F. c #E4E4E4",
"G. c #E6E6E6",
"H. c #E6E6E6",
"J. c #E7E7E7",
"K. c #E8E8E8",
"L. c #E9E9E9",
"P. c #EAEAEA",
"I. c #EBEBEB",
"U. c #ECECEC",
"Y. c #EDEDED",
"T. c #EEEEEE",
"R. c #EFEFEF",
"E. c #F0F0F0",
"W. c #F1F1F1",
"Q. c #F2F2F2",
"!. c #F3F3F3",
"~. c #F4F4F4",
"^. c #F5F5F5",
"/. c #F6F6F6",
"(. c #F7F7F7",
"). c #F8F8F8",
"_. c #F9F9F9",
"`. c #FAFAFA",
"'. c #FBFBFB",
"]. c #FCFCFC",
"[. c #FDFDFD",
"{. c #FEFEFE",
"}. c #FFFFF1",
/* pixels */
"                                                                                                                                                                                                                                                                ",
"                                                                                                                                                                                                                                                                ",
"                                                                                                                                                                                                                                                                ",
"                                                                                                                                                                                                                                                                ",
"                                                                                                                                                                                                                                                                ",
"                                                                                                                                                                                                                                                                ",
"                                                                                                                                                                                                                                                                ",
"                                                                                                                                                                                                                                                                ",
"                                                                                                                                                                                                                                                                ",
"                                                                                                                                                                                                                                                                ",
"                                                                                                                                                                    a 6 & &                                                                                     ",
"                                                                                                                                                                A - & & & & & & & &                                                                             ",
"                                                                                                                                                              K & & & & & & & & & a &.C././.                                                                    ",
"                                                                                                                                                    A y & & r - & & & & O & & & K Z.}.}.}./.                                                                    ",
"                                                                                                                                                  m & & & & & & & & & - A j O y C.}.Z.x./.}.                                                                    ",
"                                                                                                                                          j 6 & - - & & & & & O & & K k./.' O ! }.Z.m a Z.}.                                                                    ",
"                                                                                                                                        U & & & & & & & & & r Y U - w.}.}.^ O &.}.2.O y Z.}.                                                                    ",
"                                                                                                                                        U & & & & & & & O m C.}.k.j Z.}.}.' O 2.}.y.a X.}./.                                                                    ",
"                                                                                                                          j - &         m & & O & & & & O Y }.}.K.&./.}.}.' O -.}./.Z./.}./.                                                                    ",
"                                                                                                                    A y - & & & & & & & & & r m - & O & & Y }.}.}.K././.}.' O ^ }.}.}.}./.                                                                      ",
"                                                                                                                  ' - & & & & & & & & - m ^ C.y.- 6 ! w.-.{ }./.}.}.Z.Z.}.y.  j Z.}./.                                                                          ",
"                                                                                                                  ' - & & & & & & & & { /.C.}.k.a w./.}.}.C.}.K.Z.}.w.k.}.                                                                                      ",
"                                                                                                                  j & & & & & & & & & 2.}.C./.k.-.}.y.Z.}.}.}.x.-.}.{ y.}.                                                                                      ",
"                                                                                                            X.r & & & & & & & & & r a 2.}.C./.C.C.}.C.K./.C.}.C.! /.                                                                                            ",
"                                                                                                    U y & & 6 & & & & & O & & O m x.K.K.}.C./.Z.C.C.X.C.K.2././.                                                                                                ",
"                                                                                                  m & & & & & & & & & & j { -.A w.}.Z./.}.C./.Z.C././.}.K.                                                                                                      ",
"                                                                                            a - & & & & & & & & & - - { K.}.}.x.Z.}.Y 6.}.C./.C.x.}./.                                                                                                          ",
"                                                                        ! a 6 & & & & - - - & O - a r & & & - 6 ' 2.' /.x.y.}.K.K./.m -.}.C././.                                                                                                                ",
"                                                                      A - & & & & & & & & & r ^ y.K.k.r O j y.y./.Z.k.}.! K }.C.Z./.A -.}.                                                                                                                      ",
"                                                                j - & & & & & & & & & - 6 j k.}.}.}./.m & 6.}./.}.K.K.}.X.&.}.6.C.}.                                                                                                                            ",
"                                                              j & & & & & & & & O & K k.&.y.}.y.6.}.K.j 6 C./.&./.K.Z.}././.}.                                                                                                                                  ",
"                                                        w.r & & & & & & & & & - j A &./.w.k.C.k.Z.}.y.- r x.6.K /.Z.6.}././.                                                                                                                                    ",
"                                                        2.- & & & & & & & & O U /.6.X.C.X.X.K.}.}.C.' y - a - j /./.                                                                                                                                            ",
"                                                        j & & & & & & & O O & { }.K.Z.}.y.Z.}.k.-.C.K.                                                                                                                                                          ",
"                                                K 6 & & & & & & & & & - j K j x.}./.K.}.K./.}.6.w.}./.                                                                                                                                                          ",
"                                              K & & & & & & & & & & a 6.K./.y.Z.}.y.6.}.K./.}.}.}./.                                                                                                                                                            ",
"                                            &.- & & & & & & & & & 6 k.K.x.}.C.-.}.2.&.}.k.Z.}././.                                                                                                                                                              ",
"                                            ^ & & & & & & & & & O Y }.Z.C.}.C.y.}.2.-.}.                                                                                                                                                                        ",
"                                            ' - & & & & & & & & & { /.y.6.}.x.K.}.y.                                                                                                                                                                            ",
"                                            ' & & & & & & & & & & ^ K.C.C.}.2.C.                                                                                                                                                                                ",
"                                              6 & & & & & & & & & ^ }.}.}.                                                                                                                                                                                      ",
"                                                                                                                                                                                                                                                                ",
"                                                                                                                                                                                                                                                                ",
"                                                                                                                                                                                                                                                                ",
"                                                                                                                                                                                                                                                                ",
"                                                                                                                                                                                                                                                                ",
"                                                                                                                                                                                                                                                                ",
"                                                                                                                                                                                                                                                                ",
"                                                                                                                                                                                                                                                                ",
"                                                                                                                                                                                                                                                                ",
"                                                                                                                                                                                                                                                                ",
"                                                                                                                                                                                                                                                                ",
"                                                                                                                                                                                                                                                                ",
"                                                                                                                                                                                                                                                                "
};
