/* XPM */
static char *oms_222[] = {
/* columns rows colors chars-per-pixel */
"128 54 202 2 ",
"   c #FF00FF",
".  c #0B0B0B",
"X  c #0C0C0C",
"o  c #0D0D0D",
"O  c #0E0E0E",
"+  c #0F0F0F",
"@  c #101010",
"#  c #111111",
"$  c #121212",
"%  c #131313",
"&  c #141414",
"*  c #151515",
"=  c #161616",
"-  c #171717",
";  c #181818",
":  c #191919",
">  c #1A1A1A",
",  c #1B1B1B",
"<  c #1C1C1C",
"1  c #1D1D1D",
"2  c #1E1E1E",
"3  c #1F1F1F",
"4  c #202020",
"5  c #212121",
"6  c #222222",
"7  c #232323",
"8  c #242424",
"9  c #262626",
"0  c #272727",
"q  c #282828",
"w  c #292929",
"e  c #2A2A2A",
"r  c #2B2B2B",
"t  c #2C2C2C",
"y  c #2D2D2D",
"u  c #2E2E2E",
"i  c #2F2F2F",
"p  c #303030",
"a  c #313131",
"s  c #323232",
"d  c #333333",
"f  c #363636",
"g  c #373737",
"h  c #393939",
"j  c #3A3A3A",
"k  c #3B3B3B",
"l  c #3C3C3C",
"z  c #3D3D3D",
"x  c #3E3E3E",
"c  c #3F3F3F",
"v  c #404040",
"b  c #414141",
"n  c #424242",
"m  c #434343",
"M  c #444444",
"N  c #454545",
"B  c #464646",
"V  c #474747",
"C  c #494949",
"Z  c #4A4A4A",
"A  c #4B4B4B",
"S  c #4C4C4C",
"D  c #4E4E4E",
"F  c #515151",
"G  c #525252",
"H  c #535353",
"J  c #545454",
"K  c #555555",
"L  c #565656",
"P  c #585858",
"I  c #595959",
"U  c #5A5A5A",
"Y  c #5B5B5B",
"T  c #5C5C5C",
"R  c #5E5E5E",
"E  c #606060",
"W  c #616161",
"Q  c #656565",
"!  c #676767",
"~  c #6A6A6A",
"^  c #6B6B6B",
"/  c #6C6C6C",
"(  c #6D6D6D",
")  c #6E6E6E",
"_  c #6F6F6F",
"`  c #707070",
"'  c #727272",
"]  c #737373",
"[  c #747474",
"{  c #757575",
"}  c #767676",
"|  c #777777",
" . c #787878",
".. c #7B7B7B",
"X. c #7C7C7C",
"o. c #7D7D7D",
"O. c #7E7E7E",
"+. c #808080",
"@. c #818181",
"#. c #828282",
"$. c #838383",
"%. c #858585",
"&. c #868686",
"*. c #898989",
"=. c #8A8A8A",
"-. c #8C8C8C",
";. c #8D8D8D",
":. c #909090",
">. c #919191",
",. c #929292",
"<. c #939393",
"1. c #959595",
"2. c #969696",
"3. c #989898",
"4. c #999999",
"5. c #9A9A9A",
"6. c #9C9C9C",
"7. c #9E9E9E",
"8. c #A0A0A0",
"9. c #A2A2A2",
"0. c #A3A3A3",
"q. c #A4A4A4",
"w. c #A6A6A6",
"e. c #A8A8A8",
"r. c #A9A9A9",
"t. c #AAAAAA",
"y. c #ABABAB",
"u. c #ACACAC",
"i. c #ADADAD",
"p. c #AEAEAE",
"a. c #AFAFAF",
"s. c #B1B1B1",
"d. c #B2B2B2",
"f. c #B5B5B5",
"g. c #B6B6B6",
"h. c #B8B8B8",
"j. c #B9B9B9",
"k. c #BABABA",
"l. c #BBBBBB",
"z. c #BCBCBC",
"x. c #BDBDBD",
"c. c #808080",
"v. c #BFBFBF",
"b. c #C0C0C0",
"n. c #C1C1C1",
"m. c #C2C2C2",
"M. c #C3C3C3",
"N. c #C4C4C4",
"B. c #C5C5C5",
"V. c #C6C6C6",
"C. c #C7C7C7",
"Z. c #C8C8C8",
"A. c #C9C9C9",
"S. c #CACACA",
"D. c #CBCBCB",
"F. c #CCCCCC",
"G. c #CECECE",
"H. c #CFCFCF",
"J. c #D0D0D0",
"K. c #D1D1D1",
"L. c #D2D2D2",
"P. c #D3D3D3",
"I. c #D6D6D6",
"U. c #D8D8D8",
"Y. c #D9D9D9",
"T. c #DADADA",
"R. c #DBDBDB",
"E. c #DCDCDC",
"W. c #DDDDDD",
"Q. c #DEDEDE",
"!. c #DFDFDF",
"~. c #E0E0E0",
"^. c #E1E1E1",
"/. c #E2E2E2",
"(. c #E3E3E3",
"). c #E4E4E4",
"_. c #E6E6E6",
"`. c #E7E7E7",
"'. c #E8E8E8",
"]. c #E9E9E9",
"[. c #EAEAEA",
"{. c #EBEBEB",
"}. c #ECECEC",
"|. c #EDEDED",
" X c #EEEEEE",
".X c #EFEFEF",
"XX c #F0F0F0",
"oX c #F1F1F1",
"OX c #F2F2F2",
"+X c #F3F3F3",
"@X c #F4F4F4",
"#X c #F5F5F5",
"$X c #F6F6F6",
"%X c #F7F7F7",
"&X c #F8F8F8",
"*X c #F9F9F9",
"=X c #FAFAFA",
"-X c #FBFBFB",
";X c #FCFCFC",
":X c #FDFDFD",
">X c #FEFEFE",
",X c #FFFFF1",
/* pixels */
"                                                                                                                                                                                                                                                                ",
"                                                                                                                                                                                                                                                                ",
"                                                                                                                                                                                                                                                                ",
"                                                                                                                                                                                                                                                                ",
"                                                                                                                                                                                                                                                                ",
"                                                                                                                                                                                                                                                                ",
"                                                                                                                                                                                                                                                                ",
"                                                                                                                                                                                                                                                                ",
"                                                                                                                                                                                                                                                                ",
"                                                                                                                                                                                                                                                                ",
"                                                                                                                                                                                                                                                                ",
"                                                                                                                                                                                              K s 4 2 $ $ $                                                     ",
"                                                                                                                                                                                          ~ w $ $ $ $ $ $ $ + +                                                 ",
"                                                                                                                                                                            K l 4 $       4 $ $ $ $ $ $ $ 4 N ~ >.h.                                            ",
"                                                                                                                                                                        T 2 $ $ $ $ $ 2 4 $ $ $ $ $ $ 2 [ H.+X:X:X:X:X+X                                        ",
"                                                                                                                                                            l w 2 $ $ w 4 $ $ $ $ $ $ $ 2 s K w $ $ 4 p.:X:X:X+X:X:X:X:X                                        ",
"                                                                                                                                                          N $ $ $ $ $ $ $ + + $ $ $ w >.N.~.+XK + $ $.:X:X X>.K 3.:X:X:X                                        ",
"                                                                                                                                                          N $ $ $ $ $ $ s T $.p.N +  .:X:X:X+XK + 4 H.:X:X>.$ + N +X:X:X                                        ",
"                                                                                                                              T N s 4 2 $ $ $     S s 4   l $ $ $ $ $ s K.+X:X:X9.2 N.:X:X:X:XK + w ~.:X:X$.$ 2 >.:X:X+X                                        ",
"                                                                                                                          ;.4 $ $ $ $ $ $ $ $ $ $ $ 2 2 $ $ $ $ $ $ + l  X:X:X:X~.$. X:X:X:X:XK + w U.:X:X~.p.N.+X:X:X                                          ",
"                                                                                                                          $.2 $ $ $ $ $ $ $ 4 l T 3.H. .$ $ $ 4 l S w l  X:X:X:X:X+X:X+X+X:X:X>.+ 2 h.:X:X:X:X:X:X+X+X                                          ",
"                                                                                                                          ! 2 $ $ $ $ $ w p.U.U.H.:X:X>.+ S 9.U. X+XU. .~.:X+X+X:X:X:Xh.~.:X:X        +X:X:X+X+X+X                                              ",
"                                                                                                                  [ 4 $ $ $ $ $ $ $ $ + l  X:X XH.:X:X>.~  X:XH.~.:X:XH. X:X+Xs.+X:X X~ U.:X:X                                                                  ",
"                                                                                                      N s 4 2 $ l 4 $ $ $ $ $ $ $ $ w w N  X:X~.H.:X:Xh.U.:X+XH. X:X:XK. X:X+XT H.:XU.N ~.:X+X                                                                  ",
"                                                                                                  N 2 $ $ $ $ $ $ $ $ $ $ 2 $ $ w 9.U.~.N.+X:X XH.:X:X~. X XU.3.H.:X+Xp.~.:X+X  9.:X                                                                            ",
"                                                              T N w 4 2 $ $         l 4 N 2 $ $ $ $ $ $ $ $ $ $ $ 2 S $.s.h.9.l 3.:X:X+X X:X:X XH.:X:X~.U. X~.N. X:X X[ ~.:X                                                                                    ",
"                                                          K 4 $ $ $ $ $ $ $ $ + 4 4 2 2 $ $ $ $ $ $ + $ 2 w S w N h.+X:X:X:X:XN.U.:X:X .T +X:X XH.:X:XK. X:X:X:X:X+X                                                                                            ",
"                                                K 4 2 $ 2 $ $ $ $ $ $ $ $ $ 2 N [ 9.N.K.9.w $ $ $ N [ K 3.U.+X$.H.:X X;.p.:X:X+X+X:X+XS l  X:X XH.:X:X                                                                                                          ",
"                                          S w s 4 $ $ $ $ $ $ $ $ $ w s $ ! N.+X:X:X:X:X:X~ + $ ! ~.:X+X+X:X+XH.+X:XN.$ ~ :X:XU.~.:X+XT N  X:X X                                                                                                                ",
"                                      9.4 $ $ $ $ $ $ $ $ + $ $ S h.~.s.~ +X:X+Xp.h.:X:X:X~ + 2 N.:X:XN. X:X+XU.:X:X~. .H.:X+X>.U.:X+X                                                                                                                          ",
"                                      ! $ $ $ $ $ $ $ $ w ! 3.~ [ :X Xs.s.U.U.U.p.U.:X:X~.l + w U.:X~.S N.:X+Xh.+X:X:X:X:X+X                                                                                                                                    ",
"                            K l w $ N 2 $ $ $ $ $ $ $ + ;.:X:Xh.$.K.U.p.K h. X:X:X:X+XK.p.    w 9. .N 4 h.:X:Xs.U.+X+X+X                                                                                                                                        ",
"                        N 4 $ $ $ $ $ $ $ $ $ $ $ $ + s h.:X:X+X X:X:XN.s.:X:X+Xh.p.U.K.~.            2 N.:X+X                                                                                                                                                  ",
"                      N $ $ $ $ $ $ $ $ $ 4 K ;.p.s. .$.:X:X:X XU.:X:X~. X:X:X~.[ h.:X:X:X                                                                                                                                                                      ",
"                    ;.2 $ $ $ $ $ $ $ $ N N.+X+X:X:X+Xh.~.:X:Xp.$.:X:XU. X:X:X:X:X:X:X+X                                                                                                                                                                        ",
"                     .$ $ $ $ $ $ $ $ w K.:X~.p.~.:X:X>.9.:X:X3.[ :X:XK.h.:X+X:X+X+X                                                                                                                                                                            ",
"                    $.2 $ $ $ $ $ $ + ~ :X+X XK. X:X:XN.~.:X:X>.[ :X+X+X                                                                                                                                                                                        ",
"                      4 $ $ $ $ $ $ $ ~ ~.U.h.$.~.:X~.9.:X:X+X                                                                                                                                                                                                  ",
"                              $ $ $ + ! +X:X+X+X:X:X                                                                                                                                                                                                            ",
"                                         X+X+X+X                                                                                                                                                                                                                ",
"                                                                                                                                                                                                                                                                ",
"                                                                                                                                                                                                                                                                ",
"                                                                                                                                                                                                                                                                ",
"                                                                                                                                                                                                                                                                ",
"                                                                                                                                                                                                                                                                ",
"                                                                                                                                                                                                                                                                ",
"                                                                                                                                                                                                                                                                ",
"                                                                                                                                                                                                                                                                ",
"                                                                                                                                                                                                                                                                ",
"                                                                                                                                                                                                                                                                ",
"                                                                                                                                                                                                                                                                ",
"                                                                                                                                                                                                                                                                ",
"                                                                                                                                                                                                                                                                ",
"                                                                                                                                                                                                                                                                "
};
