/* XPM */
static char *oms_092[] = {
/* columns rows colors chars-per-pixel */
"128 54 83 1 ",
"  c #FF00FF",
". c #101010",
"X c #111111",
"o c #121212",
"O c #131313",
"+ c #141414",
"@ c #151515",
"# c #161616",
"$ c #171717",
"% c #181818",
"& c #191919",
"* c #1A1A1A",
"= c #1B1B1B",
"- c #1C1C1C",
"; c #1D1D1D",
": c #1E1E1E",
"> c #1F1F1F",
", c #202020",
"< c #212121",
"1 c #222222",
"2 c #232323",
"3 c #242424",
"4 c #252525",
"5 c #262626",
"6 c #272727",
"7 c #282828",
"8 c #292929",
"9 c #2A2A2A",
"0 c #2B2B2B",
"q c #2C2C2C",
"w c #2D2D2D",
"e c #2E2E2E",
"r c #2F2F2F",
"t c #323232",
"y c #343434",
"u c #353535",
"i c #373737",
"p c #383838",
"a c #3A3A3A",
"s c #3B3B3B",
"d c #3C3C3C",
"f c #3D3D3D",
"g c #3E3E3E",
"h c #424242",
"j c #444444",
"k c #454545",
"l c #464646",
"z c #474747",
"x c #484848",
"c c #4A4A4A",
"v c #525252",
"b c #555555",
"n c #565656",
"m c #5E5E5E",
"M c #606060",
"N c #616161",
"B c #636363",
"V c #666666",
"C c #6E6E6E",
"Z c #757575",
"A c #767676",
"S c #787878",
"D c #7C7C7C",
"F c #808080",
"G c #858585",
"H c #868686",
"J c #888888",
"K c #8B8B8B",
"L c #8E8E8E",
"P c #929292",
"I c #959595",
"U c #979797",
"Y c #989898",
"T c #9C9C9C",
"R c #A0A0A0",
"E c #A5A5A5",
"W c #A6A6A6",
"Q c #B1B1B1",
"! c #B2B2B2",
"~ c #B5B5B5",
"^ c #B8B8B8",
"/ c #C6C6C6",
"( c #D4D4D4",
/* pixels */
"                                                                                                                                ",
"                                                                                                                                ",
"                                                                                                                                ",
"                                                                                                                                ",
"                                                                                                                                ",
"                                                                                                                                ",
"                                                                                                                                ",
"                                                                                                                                ",
"                                                                                                                                ",
"                                                                                                                                ",
"                                                                                                                                ",
"                                                                                                                                ",
"                                                                                                                                ",
"                                                                                                                                ",
"                                                                                                                                ",
"                                                                                                                                ",
"                                                                       x   v                                                    ",
"                                                                !t =9= =9229I                                                   ",
"                                                                E9==9=..=2==Y                                                   ",
"                                                                L=. a92t. 99^                                                   ",
"                                                                H=..====..=2Y                                                   ",
"                                                                H==2=.=..==9Y                                                   ",
"                                                                L9thh=  9a2a!                                                   ",
"                                                                H99ah=. aa=9/                                                   ",
"                                                                M..==.=.==.h(                                                   ",
"                                                                v=..=.2=..=M                                                    ",
"                                                                h=.2t=2==2=A                                                    ",
"                                                                a..=2...=.=S                                                    ",
"                                                               Ea9......9..H                                                    ",
"                                                               L2=......==.H                                                    ",
"                                                               L9=..2...=..S                                                    ",
"                                                               C=.........=I                                                    ",
"                                                               M=...==....2E                                                    ",
"                                                                ....9t...2a!                                                    ",
"                                                                h2..= =2==x                                                     ",
"                                                                 a=.  2 t v                                                     ",
"                                                                   .  a   m                                                     ",
"                                                                      a   M                                                     ",
"                                                                     M    A                                                     ",
"                                                                                                                                ",
"                                                                                                                                ",
"                                                                                                                                ",
"                                                                                                                                ",
"                                                                                                                                ",
"                                                                                                                                ",
"                                                                                                                                ",
"                                                                                                                                ",
"                                                                                                                                ",
"                                                                                                                                ",
"                                                                                                                                ",
"                                                                                                                                ",
"                                                                                                                                ",
"                                                                                                                                ",
"                                                                                                                                "
};
