/* XPM */
static char *oms_173[] = {
/* columns rows colors chars-per-pixel */
"128 54 204 2 ",
"   c #FF00FF",
".  c #0C0C0C",
"X  c #0D0D0D",
"o  c #0E0E0E",
"O  c #0F0F0F",
"+  c #101010",
"@  c #111111",
"#  c #121212",
"$  c #131313",
"%  c #141414",
"&  c #151515",
"*  c #161616",
"=  c #171717",
"-  c #181818",
";  c #191919",
":  c #1A1A1A",
">  c #1B1B1B",
",  c #1C1C1C",
"<  c #1D1D1D",
"1  c #1E1E1E",
"2  c #1F1F1F",
"3  c #202020",
"4  c #212121",
"5  c #222222",
"6  c #232323",
"7  c #242424",
"8  c #252525",
"9  c #262626",
"0  c #272727",
"q  c #282828",
"w  c #292929",
"e  c #2A2A2A",
"r  c #2C2C2C",
"t  c #2D2D2D",
"y  c #2E2E2E",
"u  c #2F2F2F",
"i  c #303030",
"p  c #313131",
"a  c #323232",
"s  c #333333",
"d  c #343434",
"f  c #363636",
"g  c #373737",
"h  c #383838",
"j  c #393939",
"k  c #3A3A3A",
"l  c #3B3B3B",
"z  c #3C3C3C",
"x  c #3D3D3D",
"c  c #3E3E3E",
"v  c #3F3F3F",
"b  c #404040",
"n  c #414141",
"m  c #424242",
"M  c #434343",
"N  c #444444",
"B  c #464646",
"V  c #484848",
"C  c #4A4A4A",
"Z  c #4B4B4B",
"A  c #4C4C4C",
"S  c #4E4E4E",
"D  c #4F4F4F",
"F  c #505050",
"G  c #515151",
"H  c #525252",
"J  c #535353",
"K  c #545454",
"L  c #575757",
"P  c #585858",
"I  c #595959",
"U  c #5A5A5A",
"Y  c #5B5B5B",
"T  c #5C5C5C",
"R  c #5D5D5D",
"E  c #5E5E5E",
"W  c #5F5F5F",
"Q  c #616161",
"!  c #626262",
"~  c #636363",
"^  c #656565",
"/  c #666666",
"(  c #676767",
")  c #696969",
"_  c #6D6D6D",
"`  c #6E6E6E",
"'  c #6F6F6F",
"]  c #707070",
"[  c #717171",
"{  c #727272",
"}  c #737373",
"|  c #747474",
" . c #757575",
".. c #767676",
"X. c #787878",
"o. c #797979",
"O. c #7C7C7C",
"+. c #7D7D7D",
"@. c #808080",
"#. c #848484",
"$. c #858585",
"%. c #868686",
"&. c #898989",
"*. c #909090",
"=. c #919191",
"-. c #929292",
";. c #939393",
":. c #959595",
">. c #969696",
",. c #999999",
"<. c #9A9A9A",
"1. c #9C9C9C",
"2. c #9E9E9E",
"3. c #9F9F9F",
"4. c #A0A0A0",
"5. c #A1A1A1",
"6. c #A2A2A2",
"7. c #A4A4A4",
"8. c #A5A5A5",
"9. c #A6A6A6",
"0. c #A7A7A7",
"q. c #A8A8A8",
"w. c #A9A9A9",
"e. c #ABABAB",
"r. c #ACACAC",
"t. c #ADADAD",
"y. c #AEAEAE",
"u. c #AFAFAF",
"i. c #B0B0B0",
"p. c #B1B1B1",
"a. c #B2B2B2",
"s. c #B2B2B2",
"d. c #B6B6B6",
"f. c #B8B8B8",
"g. c #B9B9B9",
"h. c #BABABA",
"j. c #BBBBBB",
"k. c #BCBCBC",
"l. c #BDBDBD",
"z. c #808080",
"x. c #BFBFBF",
"c. c #C0C0C0",
"v. c #C1C1C1",
"b. c #C2C2C2",
"n. c #C3C3C3",
"m. c #C4C4C4",
"M. c #C5C5C5",
"N. c #C6C6C6",
"B. c #C7C7C7",
"V. c #C8C8C8",
"C. c #C9C9C9",
"Z. c #CACACA",
"A. c #CBCBCB",
"S. c #CCCCCC",
"D. c #CDCDCD",
"F. c #CECECE",
"G. c #CFCFCF",
"H. c #D0D0D0",
"J. c #D1D1D1",
"K. c #D2D2D2",
"L. c #D3D3D3",
"P. c #D4D4D4",
"I. c #D5D5D5",
"U. c #D6D6D6",
"Y. c #D7D7D7",
"T. c #D8D8D8",
"R. c #D9D9D9",
"E. c #DADADA",
"W. c #DBDBDB",
"Q. c #DCDCDC",
"!. c #DDDDDD",
"~. c #DEDEDE",
"^. c #DFDFDF",
"/. c #E0E0E0",
"(. c #E1E1E1",
"). c #E2E2E2",
"_. c #E3E3E3",
"`. c #E6E6E6",
"'. c #E6E6E6",
"]. c #E7E7E7",
"[. c #E8E8E8",
"{. c #E9E9E9",
"}. c #EAEAEA",
"|. c #EBEBEB",
" X c #ECECEC",
".X c #EDEDED",
"XX c #EEEEEE",
"oX c #EFEFEF",
"OX c #F0F0F0",
"+X c #F1F1F1",
"@X c #F2F2F2",
"#X c #F3F3F3",
"$X c #F4F4F4",
"%X c #F5F5F5",
"&X c #F6F6F6",
"*X c #F7F7F7",
"=X c #F8F8F8",
"-X c #F9F9F9",
";X c #FAFAFA",
":X c #FBFBFB",
">X c #FCFCFC",
",X c #FDFDFD",
"<X c #FEFEFE",
"1X c #FFFFF1",
/* pixels */
"                                                                                                                                                                                                                                                                ",
"                                                                                                                                                                                                                                                                ",
"                                                                                                                                                                                                                                                                ",
"                                                                                                                                                                                                                                                                ",
"                                                                                                                                                                                                                                                                ",
"                                                                                                                                                                                                                                                                ",
"                                                                                                                                                                                                                                                                ",
"                                                                                                                                                                                                                                                                ",
"                                                                                                                                                                                                                                                                ",
"                                                                                                                                                                                                                                                                ",
"                                                                                                                                                                                                                                                                ",
"                                                                                                                                                                                                                                                                ",
"                                                                                                                                                                                                                                                                ",
"                                                                                                                                                                                                                                                                ",
"                                                                                                                                                                                                                                                                ",
"                                                                                                                                                                                                                                                                ",
"                                                  P H                                                                                                                                                                                                           ",
"                                      > > > >   $ $ $ $ t   d t 9 > 9 t t t x P                                                                                                                                                                                 ",
"                x 9 > > > 9 t M     t $ $ $ $ M 9 $ $ $ t > $ $ $ $ $ $ $ $ $ $ t                                                                                                                                                                               ",
"                $ $ $ $ $ $ $ $ 9 M $ O O O $ $ $ $ $ $ 9 > $ $ O O O $ $ $ $ $ $ M                                                               x d C   C   P                                                                                                 ",
"              $ $ $ O O O O $ $ $ $ d #.+.` C 9 7.w.7.#.x > x P / / P C M t $ $ $           9 9 t C x t d M             P                       $ $ $ $ > $ $ $ >                       x H H M H                                                               ",
"              $ 9 H ..+.../ C 9 $ $ / -X-X-Xh.t R.-X-X`.P d.XX*X-X-X-X*XXXR.d.H $         $ $ $ $ $ $ $ $ $ d   > $ $ $ $ > > d /     t d d x > $ $ $ $ $ $ $ $ >                       $ $ $ $ $ 9       $ 9 9 9 d x                   P                       ",
"              x h.*X-X-X*X-X*XJ...P R.-X-X-X`.2.C.J.J.h.+.`.XXXX*XR.w.R.-X-X-X`.H         O O $ $ $ $ $ $ $ t $ $ $ $ $ $ $ $ $ > H > $ $ $ t d t 9 > > > $ $ $ >     t t t t d x H   $ $ $ $ $ $ $ M   $ $ $ $ $ $ $           > > $ $ $ $ > > t M             ",
"              J.-X-X-XR.7.R.-X-X*Xd.*X-X-X-X-X*X*X-X-X`.C ..h.J.R.M.-.C.-X-X-X-X..>     C ..+.H 9 x x d 9 $ $ $ > > > $ $ O $ $ $ $ $ O $ $ d.XXR.J.&.M.h.d...$ > d $ $ $ $ $ $ $ 9 t 9 > > $ $ $ $ $ 9 O O O $ $ $ $         $ $ $ $ $ $ $ $ $ $ $ 9 `         ",
"                `.`.XXJ.J.`.-X-X-XM.#.*X-X-XXX`.*X-X-X`.2.XX-X-X-X-X-X-X-X-X-XXXC       XX-X-X*Xh.R.XX`.C.d P w.C.C.C.h.2.` t $ $ x H C d $ h.-X-X*Xw.-X-X-Xw.$ $ $ O O O $ $ $ $ -.`.J.C.M.-.> $ > ` +...` P M $ $ $       $ > > > $ $ O $ $ $ $ $ $ 9         ",
"                XXXXXXd...C.-X-X-XC.7.-X-X-XXX  *X-X-XXXR.-X-X-X-XR.h.J.XXR.d.P >       -X-X-X*X-X-X-X-X`.-.*X-X-X-XXX-X-X-XC.M ..XX*X*XR.2.J.-X-X*X7.*X-X-Xw.$ d P ` ` / C t $ $ 7.-X-X-X-X*XP O P *X-X-X-X-XM.> $ $     2.w.M.C.h.h.7.+.M > $ $ $ $ $ H       ",
"                -X-X-X-X*X-X-X-X*XXX-X-X-X-XXX  *X-X-XXXC.-X-X-X-Xw.P w.XX`.C.h.7.      *X-X-XXX  -X-X-XXXR.-X-X-X2.d -.-X-X-XM.J.-X-X-X*X*X*X-X-XXXw.*X-X-Xw.` `.*X-X-X*X*X`.7.d 7.-X-X-X-X-XM.t M.-X-X-X-X-XC.> $ $   -X-X-X-X-X-X-X-X-XXXw.d $ $ $ $ M       ",
"                        -X*X*X      *X-X*X*X    *X*X-XXX  *X-X-X-X-X*X-X-X-X-X-X                  -X-X-XXXJ.-X-X-X#.O P *X-X-X*X*X-X-X*X+.P *X-X-XXXw.*X-X-XC.R.-X-X*Xd.h.*X-X-Xd.w.-X-X-X-X-X*XM.*X-X-X-X-X-XC.> $ $ d.-X-X-X-XR.M.J.*X-X-X-Xh.> $ $ $         ",
"                                                                *X-X*X*X*X-X*X                    -X-X-XXXw.-X-X-XXXh.R.-X-X-X*X*X-X-X*XM   *X-X-XXX7.*X-X-XJ.J.XX`.`.J.R.*X-X-XXXC.-X-X-XXX*X-X-X-X-X*X-X-X-XC.> $ $ h.-X-X-XM.t > 9 ..*X-X-X*XC $ $ >         ",
"                                                                                                    *X*X*X    *X*X-X-X-X-X*X*X  *X-X-X*X/   *X-X-XXXw.*X-X-XC.C.*X`.R.#.-.*X-X-XXXJ.-X-X-Xw.C.-X-X-XXXd.-X-X-XM.> $ $ R.-X-X-Xd.$ $ O d `.-X-X-X/ O $           ",
"                                                                                                                                              *X*X*XM.*X*X-XC.M.-X-X-X*X*X-X-X-XXXXX-X-X-X-...-X-X-Xd.2.-X-X-XM.> $     -X-X-X*X2.P P w.*X-X-X*XP               ",
"                                                                                                                                                                      *X-X*X*X    XX-X-X-Xh.  -X-X*X    -X-X-XC.>       *X-X-X-X-X-X*X-X-X-X-XXX                ",
"                                                                                                                                                                                                            *X              *X*X-X-X-X-X-X*X*X                  ",
"                                                                                                                                                                                                                                                                ",
"                                                                                                                                                                                                                                                                ",
"                                                                                                                                                                                                                                                                ",
"                                                                                                                                                                                                                                                                ",
"                                                                                                                                                                                                                                                                ",
"                                                                                                                                                                                                                                                                ",
"                                                                                                                                                                                                                                                                ",
"                                                                                                                                                                                                                                                                ",
"                                                                                                                                                                                                                                                                ",
"                                                                                                                                                                                                                                                                ",
"                                                                                                                                                                                                                                                                ",
"                                                                                                                                                                                                                                                                ",
"                                                                                                                                                                                                                                                                ",
"                                                                                                                                                                                                                                                                ",
"                                                                                                                                                                                                                                                                ",
"                                                                                                                                                                                                                                                                ",
"                                                                                                                                                                                                                                                                ",
"                                                                                                                                                                                                                                                                ",
"                                                                                                                                                                                                                                                                ",
"                                                                                                                                                                                                                                                                ",
"                                                                                                                                                                                                                                                                "
};
