/* XPM */
static char *oms_177[] = {
/* columns rows colors chars-per-pixel */
"128 54 203 2 ",
"   c #FF00FF",
".  c #070707",
"X  c #0E0E0E",
"o  c #0F0F0F",
"O  c #101010",
"+  c #111111",
"@  c #121212",
"#  c #131313",
"$  c #141414",
"%  c #151515",
"&  c #161616",
"*  c #171717",
"=  c #181818",
"-  c #191919",
";  c #1A1A1A",
":  c #1B1B1B",
">  c #1C1C1C",
",  c #1D1D1D",
"<  c #1E1E1E",
"1  c #1F1F1F",
"2  c #202020",
"3  c #212121",
"4  c #222222",
"5  c #232323",
"6  c #242424",
"7  c #252525",
"8  c #262626",
"9  c #272727",
"0  c #282828",
"q  c #292929",
"w  c #2A2A2A",
"e  c #2B2B2B",
"r  c #2C2C2C",
"t  c #2D2D2D",
"y  c #2E2E2E",
"u  c #2F2F2F",
"i  c #303030",
"p  c #313131",
"a  c #323232",
"s  c #333333",
"d  c #343434",
"f  c #363636",
"g  c #373737",
"h  c #383838",
"j  c #393939",
"k  c #3A3A3A",
"l  c #3B3B3B",
"z  c #3C3C3C",
"x  c #3D3D3D",
"c  c #3E3E3E",
"v  c #404040",
"b  c #414141",
"n  c #424242",
"m  c #434343",
"M  c #444444",
"N  c #454545",
"B  c #464646",
"V  c #484848",
"C  c #494949",
"Z  c #4A4A4A",
"A  c #4B4B4B",
"S  c #4C4C4C",
"D  c #4C4C4C",
"F  c #4F4F4F",
"G  c #505050",
"H  c #525252",
"J  c #535353",
"K  c #545454",
"L  c #555555",
"P  c #565656",
"I  c #595959",
"U  c #5A5A5A",
"Y  c #5B5B5B",
"T  c #5C5C5C",
"R  c #5D5D5D",
"E  c #5E5E5E",
"W  c #616161",
"Q  c #626262",
"!  c #636363",
"~  c #646464",
"^  c #656565",
"/  c #666666",
"(  c #6B6B6B",
")  c #6E6E6E",
"_  c #6F6F6F",
"`  c #717171",
"'  c #727272",
"]  c #737373",
"[  c #757575",
"{  c #767676",
"}  c #787878",
"|  c #797979",
" . c #7B7B7B",
".. c #7C7C7C",
"X. c #7E7E7E",
"o. c #818181",
"O. c #828282",
"+. c #848484",
"@. c #868686",
"#. c #898989",
"$. c #8A8A8A",
"%. c #8C8C8C",
"&. c #8D8D8D",
"*. c #8E8E8E",
"=. c #8F8F8F",
"-. c #909090",
";. c #929292",
":. c #939393",
">. c #949494",
",. c #959595",
"<. c #969696",
"1. c #979797",
"2. c #989898",
"3. c #999999",
"4. c #9A9A9A",
"5. c #9B9B9B",
"6. c #9D9D9D",
"7. c #9E9E9E",
"8. c #A0A0A0",
"9. c #A1A1A1",
"0. c #A3A3A3",
"q. c #A5A5A5",
"w. c #A6A6A6",
"e. c #A7A7A7",
"r. c #A9A9A9",
"t. c #AAAAAA",
"y. c #ABABAB",
"u. c #B0B0B0",
"i. c #B1B1B1",
"p. c #B2B2B2",
"a. c #B2B2B2",
"s. c #B4B4B4",
"d. c #B5B5B5",
"f. c #B6B6B6",
"g. c #B8B8B8",
"h. c #B9B9B9",
"j. c #BBBBBB",
"k. c #BCBCBC",
"l. c #BDBDBD",
"z. c #808080",
"x. c #BFBFBF",
"c. c #C0C0C0",
"v. c #C2C2C2",
"b. c #C3C3C3",
"n. c #C4C4C4",
"m. c #C5C5C5",
"M. c #C6C6C6",
"N. c #C7C7C7",
"B. c #C8C8C8",
"V. c #CACACA",
"C. c #CBCBCB",
"Z. c #CCCCCC",
"A. c #CDCDCD",
"S. c #CECECE",
"D. c #CFCFCF",
"F. c #D0D0D0",
"G. c #D1D1D1",
"H. c #D2D2D2",
"J. c #D3D3D3",
"K. c #D4D4D4",
"L. c #D5D5D5",
"P. c #D6D6D6",
"I. c #D7D7D7",
"U. c #D8D8D8",
"Y. c #D9D9D9",
"T. c #DADADA",
"R. c #DBDBDB",
"E. c #DCDCDC",
"W. c #DDDDDD",
"Q. c #DEDEDE",
"!. c #DFDFDF",
"~. c #E0E0E0",
"^. c #E1E1E1",
"/. c #E2E2E2",
"(. c #E3E3E3",
"). c #E4E4E4",
"_. c #E6E6E6",
"`. c #E6E6E6",
"'. c #E7E7E7",
"]. c #E8E8E8",
"[. c #E9E9E9",
"{. c #EAEAEA",
"}. c #EBEBEB",
"|. c #ECECEC",
" X c #EDEDED",
".X c #EEEEEE",
"XX c #EFEFEF",
"oX c #F0F0F0",
"OX c #F1F1F1",
"+X c #F2F2F2",
"@X c #F3F3F3",
"#X c #F4F4F4",
"$X c #F5F5F5",
"%X c #F6F6F6",
"&X c #F7F7F7",
"*X c #F8F8F8",
"=X c #F9F9F9",
"-X c #FAFAFA",
";X c #FBFBFB",
":X c #FCFCFC",
">X c #FDFDFD",
",X c #FEFEFE",
"<X c #FFFFF1",
/* pixels */
"                                                                                                                                                                                                                                                                ",
"                                                                                                                                                                                                                                                                ",
"                                                                                                                                                                                                                                                                ",
"                                                                                                                                                                                                                                                                ",
"                                                                                                                                                                                                                                                                ",
"                                                                                                                                                                                                                                                                ",
"                                                                                                                                                                                                                                                                ",
"                                                                                                                                                                                                                                                                ",
"                                                                                                                                                                                                                                                                ",
"                                                                                                                                                                                                                                                                ",
"                                                                                                                                                                                                                                                                ",
"                                                                                                                                                                                                                                                                ",
"                                                                                                                                                                                                                                                                ",
"                                                                                                                                                                                                                                                                ",
"                                                                                                                                                                                                                                                                ",
"                                                                                                                                                                                                                                                                ",
"                                                                                                                                                                                                                                                                ",
"                                                s c D         H U ! !                                                                                                                                                                                           ",
"                                    , , , 5   $ $ $ $ ,   q , $ $ $ $ $ , , q U                                                                                                                                                                                 ",
"              m q 5 5 q q s D     5 $ $ $ $ s $ $ $ $ $ $ $ $ $ $ $ $ $ $ $ $ ,                                                                 5 q q s q s s c !                       U _                                                                     ",
"            5 $ $ $ $ $ $ $ $ q q $ $ o o o $ , , $ $ 5 $ $ o $ $ $ $ $ o o $ $           c s c     D c           H   H !                     $ $ $ $ $ $ $ $ $ m                     $ $ , , , , D       , q q 5 5 m               m s q s m H                 ",
"            $ $ $ $ $ $ $ $ $ $ , $ U X.] _ q U j.j.j.5., m X.<.w.w.5.<.O.! s $         , $ $ $ , , $ $ $ q   5 , $ $ $ $ , 5 D     5 5 5 q s $ $ $ $ $ $ $ $ $ m       c D D H       $ $ $ $ $ $ 5     $ $ $ $ $ $ q           , $ $ $ $ $ $ $ , q U           ",
"            $ $ , c D H D c 5 $ , 5 f.*X*X*X! ! $X$X$Xf.] XX*X*X*X*X*X*X*X*X~.X.        $ $ $ $ $ $ $ $ $ 5 $ $ $ $ $ $ $ $ $ $ m 5 $ $ $ $ c H D m q c s s 5 $ m   , $ $ $ $ $ , q , o $ $ $ $ $ $ c q o $ $ $ $ $ q         $ $ $ $ $ $ $ $ $ $ $ $ H         ",
"            $ H N.XX$X$X$XXXQ.5.c 5.XX*X*X*XS.5.J.J.Q.<.*.J.~.~.~.5.O.~.*X*X*XXXX.      $ q s , $ , , $ $ , $ $ $ $ $ $ $ o $ $ , $ o o $ $ t.$X$XXX5.Q.XXXXt., s $ $ $ $ $ $ $ $ m 5.<.*.O.] 5 $ $ c ! H H D m , $ q       $ , 5 5 5 5 , $ $ $ $ $ $ 5         ",
"            s J.*X*X$Xf.j.$X*X*XN.S.*X*X*X*X*XS.$X*X*Xj.D t.Q.~.~.S.J.$X*X*X*XXX        w.~.~.j.] j.j.j.5.5 m *.w.f.f.w.*.U 5 $ $ m ! ! m , t.*X*X$Xw.$X*X*XN., $ $ , , , $ $ $ o ] *X*X*X*X*XX.o , j.*X$X$X$XXXm o q     X.w.N.Q.~.J.S.j.<.H , $ $ $ ,         ",
"              ~.XX$XXXQ.Q.$X*X*XXX_ S.*X*X*XXXN.$X*X*XJ.J.*X*X*X*X*X*X*X*X$XXX<.        *X*X*X*X$X*X*X*XQ.X.XX*X*X*X*X*X*X$XS.m ] XX*X*XXXf.S.*X*X$Xw.XX*X*XN.5 ! t.N.S.S.f.5.U , _ *X*X*X*X*XQ.q _ $X*X*X*X*X$XD o q     $X*X*X*X*X*X*X*X*X$Xw.5 $ $ ,         ",
"              Q.XXXXS.X.*.$X*X*XXXO.J.*X*X$X  f.$X*X*XXX$X*X*X*X$X5.X.N.J.j.*.H         *X*X*X$X  *X*X*X~.Q.*X*X*Xw.D w.*X*X*XN.J.*X*X*XXXXX*X*X*X$Xw.XX*X*XS.<.$X*X*XQ.J.$X*X$Xw.X.*X*X*X*X*X*Xt.J.*X*X*X*X*X$XD o q   *X*X*X*X~.f.w.S.$X*X*X*X*.$ $ ,         ",
"              *X*X*X*XXXXX*X*X*XXXXX*X*X*X*X    $X*X*XXX$X*X*X*X$Xf.5.~.$X$X$XXX                  *X*X*X~.Q.*X*X*X_ . ! *X*X*XXXXX*X*X$XX.  *X*X*X$Xw.XX*X*XQ.Q.*X*X*XJ.N.$X*X*X$Xj.*X*X*X$X$X*X*X*X*X*X*X*X*X$XD o 5   *X*X*X$XU $ $ 5 t.*X*X*XS., $           ",
"                    $X*X*X*X$X    $X*X$X$X$X    *X*X*XXX  $X*X*X*X*X*X*X*X*X*X$X                  *X*X*X~.J.*X*X*XQ.w.J.*X*X*XXX$X*X*X$XH   *X*X*X$Xw.XX*X*XQ.N.J.~.XXw.5.~.*X*X$XJ.$X*X*XJ.j.*X*X*X*XJ.XX*X*X$XD $     $X*X*X$XH o $ $ <.*X*X*XJ.5             ",
"                                                                                                  $X$X$X$X    $X*X*X*X*X*X*X$X  $X*X*X$X    *X*X*X$Xf.$X*X*XJ.S.*X*X$XS.j.$X*X*X$XXX*X*X*XN.U $X*X*XXX  $X*X*X$XD $     $X*X*X*XQ.<.X.5.XX*X*X*XS.              ",
"                                                                                                                                              $X$X$X  $X*X*X~.    $X$X*X*X*X$X$X    *X*X*XJ.  *X*X*XXX  $X*X*X$XU         *X*X*X*X*X*X*X*X*X*X$X                ",
"                                                                                                                                                                                                          $X$X$X            $X$X$X*X*X*X*X$X$X                  ",
"                                                                                                                                                                                                                                                                ",
"                                                                                                                                                                                                                                                                ",
"                                                                                                                                                                                                                                                                ",
"                                                                                                                                                                                                                                                                ",
"                                                                                                                                                                                                                                                                ",
"                                                                                                                                                                                                                                                                ",
"                                                                                                                                                                                                                                                                ",
"                                                                                                                                                                                                                                                                ",
"                                                                                                                                                                                                                                                                ",
"                                                                                                                                                                                                                                                                ",
"                                                                                                                                                                                                                                                                ",
"                                                                                                                                                                                                                                                                ",
"                                                                                                                                                                                                                                                                ",
"                                                                                                                                                                                                                                                                ",
"                                                                                                                                                                                                                                                                ",
"                                                                                                                                                                                                                                                                ",
"                                                                                                                                                                                                                                                                ",
"                                                                                                                                                                                                                                                                ",
"                                                                                                                                                                                                                                                                ",
"                                                                                                                                                                                                                                                                ",
"                                                                                                                                                                                                                                                                ",
"                                                                                                                                                                                                                                                                "
};
