/* XPM */
static char *oms_276[] = {
/* columns rows colors chars-per-pixel */
"128 54 93 2 ",
"   c #FF00FF",
".  c #0F0F0F",
"X  c #101010",
"o  c #111111",
"O  c #121212",
"+  c #131313",
"@  c #141414",
"#  c #151515",
"$  c #161616",
"%  c #171717",
"&  c #181818",
"*  c #191919",
"=  c #1A1A1A",
"-  c #1C1C1C",
";  c #1D1D1D",
":  c #1E1E1E",
">  c #1F1F1F",
",  c #202020",
"<  c #212121",
"1  c #232323",
"2  c #242424",
"3  c #262626",
"4  c #292929",
"5  c #2A2A2A",
"6  c #2B2B2B",
"7  c #2D2D2D",
"8  c #2E2E2E",
"9  c #2F2F2F",
"0  c #323232",
"q  c #333333",
"w  c #363636",
"e  c #393939",
"r  c #3A3A3A",
"t  c #3B3B3B",
"y  c #3C3C3C",
"u  c #3F3F3F",
"i  c #414141",
"p  c #434343",
"a  c #444444",
"s  c #484848",
"d  c #494949",
"f  c #4F4F4F",
"g  c #515151",
"h  c #535353",
"j  c #555555",
"k  c #585858",
"l  c #5A5A5A",
"z  c #5B5B5B",
"x  c #5E5E5E",
"c  c #5F5F5F",
"v  c #606060",
"b  c #616161",
"n  c #626262",
"m  c #656565",
"M  c #666666",
"N  c #6C6C6C",
"B  c #6E6E6E",
"V  c #707070",
"C  c #747474",
"Z  c #787878",
"A  c #7E7E7E",
"S  c #838383",
"D  c #878787",
"F  c #939393",
"G  c #9A9A9A",
"H  c #9B9B9B",
"J  c #A7A7A7",
"K  c #ADADAD",
"L  c #B2B2B2",
"P  c #B6B6B6",
"I  c #B8B8B8",
"U  c #BABABA",
"Y  c #BFBFBF",
"T  c #C4C4C4",
"R  c #C6C6C6",
"E  c #C7C7C7",
"W  c #CCCCCC",
"Q  c #CECECE",
"!  c #D0D0D0",
"~  c #D2D2D2",
"^  c #D5D5D5",
"/  c #D8D8D8",
"(  c #D9D9D9",
")  c #DBDBDB",
"_  c #DCDCDC",
"`  c #DFDFDF",
"'  c #E2E2E2",
"]  c #E3E3E3",
"[  c #E4E4E4",
"{  c #E9E9E9",
"}  c #EDEDED",
"|  c #EEEEEE",
" . c #EFEFEF",
/* pixels */
"                                                                                                                                                                                                                                                                ",
"                                                                                                                                                                                                                                                                ",
"                                                                                                                                                                                                                                                                ",
"                                                                                                                                                                                                                                                                ",
"                                                                                                                                                                                                                                                                ",
"                                                                                                                                                                                                                                                                ",
"                                                                                                                                                                                                                                                                ",
"                                                                                                                                                                                                                                                                ",
"                                                                                                                                                                                                                                                                ",
"                                                                                                                                                                                                                                                                ",
"                                                                                                                                                                                                                                                                ",
"                                                                                                                                                                                                                                                                ",
"                                                                                                                                                                                                                                                                ",
"                                                                                                                                                                                                                                                                ",
"                                                                                                  y X X X * * * X X X X b                                                                                                                                       ",
"                                                                                                  a X X X X X X X X X X d                                                                                                                                       ",
"                                                                                                ] F X * 7 * X X , 7 7 , 7                                                                                                                                       ",
"                                                                                                  /   0 d     7 y d                                                                                                                                             ",
"                                                                                                    B 0 0   * 0 y 0 X                                                                                                                                           ",
"                                                                                                  / c , * X X , 7 * X X * 0                                                                                                                                     ",
"                                                                                                  R Z , X X X X X X X X X 7                                                                                                                                     ",
"                                                                                                  Q R c X X X X X X X X X X 0 Y                                                                                                                                 ",
"                                                                                                  ] { B . X X X X X X X X X 7 Y                                                                                                                                 ",
"                                                                                                    ] C . X X X X X X X X X 7 Y                                                                                                                                 ",
"                                                                                                    { H X X X X X X X X X X * H                                                                                                                                 ",
"                                                                                                    ] R 7 X X X X X X X X X X b                                                                                                                                 ",
"                                                                                                      ] c . X X X X X X X X X 0                                                                                                                                 ",
"                                                                                                      / F y X X X X X X X X X * d J                                                                                                                             ",
"                                                                                                      ! R H * X X X X X X X X X * D                                                                                                                             ",
"                                                                                                      ! Q Q a X X X X X X X X X . c                                                                                                                             ",
"                                                                                                        / R j X X X X X X X X X * j                                                                                                                             ",
"                                                                                                        Q P C X X X X X X X X X X y                                                                                                                             ",
"                                                                                                          R D X X X X X X X X X X 7 P                                                                                                                           ",
"                                                                                                          { K * X X X X X X X X X , Z                                                                                                                           ",
"                                                                                                          { ! y X X X X X X X X X X b                                                                                                                           ",
"                                                                                                          { Q a X X X X X X X X X X c                                                                                                                           ",
"                                                                                                            R d X X X X X X X X X X b                                                                                                                           ",
"                                                                                                            ] j X X X X X X X X X X b                                                                                                                           ",
"                                                                                                            / j X X * X X X X * * * b                                                                                                                           ",
"                                                                                                              c 7 , X X X , 0 y y a C                                                                                                                           ",
"                                                                                                                                                                                                                                                                ",
"                                                                                                                                                                                                                                                                ",
"                                                                                                                                                                                                                                                                ",
"                                                                                                                                                                                                                                                                ",
"                                                                                                                                                                                                                                                                ",
"                                                                                                                                                                                                                                                                ",
"                                                                                                                                                                                                                                                                ",
"                                                                                                                                                                                                                                                                ",
"                                                                                                                                                                                                                                                                ",
"                                                                                                                                                                                                                                                                ",
"                                                                                                                                                                                                                                                                ",
"                                                                                                                                                                                                                                                                ",
"                                                                                                                                                                                                                                                                ",
"                                                                                                                                                                                                                                                                "
};
