/* XPM */
static char *oms_196[] = {
/* columns rows colors chars-per-pixel */
"128 54 204 2 ",
"   c #FF00FF",
".  c #0D0D0D",
"X  c #0E0E0E",
"o  c #0F0F0F",
"O  c #101010",
"+  c #111111",
"@  c #121212",
"#  c #131313",
"$  c #141414",
"%  c #151515",
"&  c #161616",
"*  c #171717",
"=  c #181818",
"-  c #191919",
";  c #1A1A1A",
":  c #1B1B1B",
">  c #1C1C1C",
",  c #1D1D1D",
"<  c #1E1E1E",
"1  c #1F1F1F",
"2  c #202020",
"3  c #212121",
"4  c #222222",
"5  c #232323",
"6  c #242424",
"7  c #252525",
"8  c #262626",
"9  c #272727",
"0  c #282828",
"q  c #292929",
"w  c #2A2A2A",
"e  c #2B2B2B",
"r  c #2C2C2C",
"t  c #2D2D2D",
"y  c #2E2E2E",
"u  c #2F2F2F",
"i  c #303030",
"p  c #313131",
"a  c #323232",
"s  c #333333",
"d  c #343434",
"f  c #363636",
"g  c #373737",
"h  c #383838",
"j  c #393939",
"k  c #3A3A3A",
"l  c #3B3B3B",
"z  c #3C3C3C",
"x  c #3D3D3D",
"c  c #3E3E3E",
"v  c #3F3F3F",
"b  c #404040",
"n  c #434343",
"m  c #444444",
"M  c #454545",
"N  c #464646",
"B  c #474747",
"V  c #484848",
"C  c #494949",
"Z  c #4A4A4A",
"A  c #4B4B4B",
"S  c #4C4C4C",
"D  c #4E4E4E",
"F  c #4F4F4F",
"G  c #505050",
"H  c #515151",
"J  c #525252",
"K  c #545454",
"L  c #555555",
"P  c #565656",
"I  c #5A5A5A",
"U  c #5B5B5B",
"Y  c #5E5E5E",
"T  c #5F5F5F",
"R  c #606060",
"E  c #616161",
"W  c #626262",
"Q  c #646464",
"!  c #656565",
"~  c #666666",
"^  c #686868",
"/  c #6C6C6C",
"(  c #6E6E6E",
")  c #717171",
"_  c #737373",
"`  c #747474",
"'  c #767676",
"]  c #787878",
"[  c #7A7A7A",
"{  c #7C7C7C",
"}  c #808080",
"|  c #808080",
" . c #818181",
".. c #828282",
"X. c #838383",
"o. c #848484",
"O. c #858585",
"+. c #868686",
"@. c #878787",
"#. c #898989",
"$. c #8A8A8A",
"%. c #8B8B8B",
"&. c #8C8C8C",
"*. c #8D8D8D",
"=. c #8E8E8E",
"-. c #919191",
";. c #929292",
":. c #939393",
">. c #949494",
",. c #969696",
"<. c #979797",
"1. c #999999",
"2. c #9A9A9A",
"3. c #9B9B9B",
"4. c #9C9C9C",
"5. c #9E9E9E",
"6. c #9F9F9F",
"7. c #A0A0A0",
"8. c #A3A3A3",
"9. c #A4A4A4",
"0. c #A6A6A6",
"q. c #A8A8A8",
"w. c #A9A9A9",
"e. c #AAAAAA",
"r. c #ABABAB",
"t. c #ACACAC",
"y. c #ADADAD",
"u. c #AEAEAE",
"i. c #AFAFAF",
"p. c #B0B0B0",
"a. c #B1B1B1",
"s. c #B2B2B2",
"d. c #B2B2B2",
"f. c #B4B4B4",
"g. c #B5B5B5",
"h. c #B7B7B7",
"j. c #B8B8B8",
"k. c #B9B9B9",
"l. c #BABABA",
"z. c #BDBDBD",
"x. c #BFBFBF",
"c. c #C0C0C0",
"v. c #C1C1C1",
"b. c #C3C3C3",
"n. c #C4C4C4",
"m. c #C5C5C5",
"M. c #C6C6C6",
"N. c #C7C7C7",
"B. c #C8C8C8",
"V. c #C9C9C9",
"C. c #CACACA",
"Z. c #CBCBCB",
"A. c #CCCCCC",
"S. c #CDCDCD",
"D. c #CECECE",
"F. c #CFCFCF",
"G. c #D0D0D0",
"H. c #D1D1D1",
"J. c #D2D2D2",
"K. c #D3D3D3",
"L. c #D4D4D4",
"P. c #D5D5D5",
"I. c #D6D6D6",
"U. c #D7D7D7",
"Y. c #D8D8D8",
"T. c #D9D9D9",
"R. c #DADADA",
"E. c #DBDBDB",
"W. c #DCDCDC",
"Q. c #DDDDDD",
"!. c #DEDEDE",
"~. c #DFDFDF",
"^. c #E0E0E0",
"/. c #E1E1E1",
"(. c #E2E2E2",
"). c #E3E3E3",
"_. c #E4E4E4",
"`. c #E6E6E6",
"'. c #E6E6E6",
"]. c #E7E7E7",
"[. c #E8E8E8",
"{. c #E9E9E9",
"}. c #EAEAEA",
"|. c #EBEBEB",
" X c #ECECEC",
".X c #EDEDED",
"XX c #EEEEEE",
"oX c #EFEFEF",
"OX c #F0F0F0",
"+X c #F1F1F1",
"@X c #F2F2F2",
"#X c #F3F3F3",
"$X c #F4F4F4",
"%X c #F5F5F5",
"&X c #F6F6F6",
"*X c #F7F7F7",
"=X c #F8F8F8",
"-X c #F9F9F9",
";X c #FAFAFA",
":X c #FBFBFB",
">X c #FCFCFC",
",X c #FDFDFD",
"<X c #FEFEFE",
"1X c #FFFFF1",
/* pixels */
"                                                                                                                                                                                                                                                                ",
"                                                                                                                                                                                                                                                                ",
"                                                                                                                                                                                                                                                                ",
"                                                                                                                                                                                                                                                                ",
"                                                                                                                                                                                                                                                                ",
"                                                                                                                                                                                                                                                                ",
"                                                                                                                                                                                                                                                                ",
"                                                                                                                                                                                                                                                                ",
"                                                                                                                                                                                                                                                                ",
"                                                                                                                                                                                                                                                                ",
"                                                                                                                                                                                                                                                                ",
"                                                                                                                                                                                                                                                                ",
"                                                                                                                                                                                                                                                                ",
"                                                                                                                                                                                                                                                                ",
"                                                                                                                                                                                                                                                                ",
"                                                                                                                                                                                                                          F j a 0 6 6 0 a J                     ",
"                                                                                                                                                                                                  N j 0 0 0           N 6 @ @ @ @ @ @ @ @ @ j                   ",
"                                                                                                                                                                                6 : : : :       : @ @ @ @ @ :       a @ @ @ @ @ @ o o o @ @ @                   ",
"                                                                                                                                        F j j a 0 0 0 6 :                       @ @ @ @ @ :     @ @ @ @ @ o @       : @ @ @ : a N J T T N 6 @                   ",
"                                                                                                                                        : @ @ @ @ @ @ @ @         F J J F       @ @ o @ @ @ 0 6 @ @ 0 j N J R       @ @ 0 +.M._.&X&X<X<X&XJ.'                   ",
"                                                                                                                                        : @ @ @ @ @ @ o o : a : : @ @ @ @ : 0   : T } +.<.0.R @ o T ~. X X&X&X      @ F J.<X<X<X<X<X<X<X<X<X&Xt.                ",
"                                                      T j a 0 6 6 6 6 6                                     J F F N N       F 0 : : 6 j @ @ 6 a j N j R ' +.J @ @ @ @ @ @ @ @ @ 6 J.<X<X<X<XJ.0 : M.<X<X<X<X<X      6 z.<X<X<X~.+.R } _.<X<X<X X                ",
"                                        j 6 : : @ j 0 @ @ @ @ @ @ @ @ @ @           F N j   j 0 a 6   J 0 : @ @ @ @ @ @ :   : @ @ @ @ @ @ : t._. X_.h.&X<X<X<.o @ @ : 6 0 0 : @ 6 J.<X<X<X<X<X$.R &X<X<X<X<X<X        _.<X<X&XJ o o o <.<X<X<X&X                ",
"                              0 : : @ : 6 @ @ @ @ @ @ @ @ @ @ @ @ o o @ @ @       a @ @ @ : @ @ @ @ @ @ @ @ @ @ @ @ @ @ @ : @ @ @ @ @ @ @ : M.<X<X Xz.<X<X<X<.@ J 2.M.~.~.~.B.<.j J.<X<X<X<X<X X_.<X<X<X<X<X<X        &X<X<X&XR @ @ a M.<X<X<X&X                ",
"                            J : @ @ @ @ @ @ @ @ @ @ @ : @ @ @ a J ^ } $.2.2.+.    @ @ @ @ @ @ @ @ o o o o @ @ @ : 0 j N N a : o : R 2.t.2.T B.<X<X Xh.&X<X<X2.$.&X<X&XB.~.<X<X<Xt.J.<X<X<X&X<X<X<X<X_.~.<X<X<X        &X<X<X<X Xh.h.~.<X<X<X&X                  ",
"          J a 6 : : : : :   : @ @ @ @ @ : : 6 @ T t.z.B.R a 0._.&X<X<X<X<X<X<X<X$.@ @ @ @ 0 N N : N R ' } 6 a <.B._. X&X X_.h.j } &X<X<X<X&X&X<X<X Xh.&X<X<XM. X<X<X&XB.~.<X<X<XJ.~.<X<X<X&X&X<X&X<Xt.h.<X<X<X          <X<X<X<X<X<X<X<X<X&X                    ",
"        a @ @ @ @ @ @ @ @ : @ @ @ @ @ $.M.J.B.j <.<X&X&X} z.<X&X&X_.2.t.&X<X<X<XJ.@ @ @ T J.&X Xz.~.<X<X&X' J.<X<X&XB.~.<X<X<XM.J.<X<X<Xh.<. X<X<X Xh.&X<X<X~.~._.~.B.$.t.&X<X<XM.J.<X<X<X  &X<X<X<X  B.<X<X<X            &X&X&X&X&X&X&X                        ",
"      F @ @ @ @ @ @ o @ @ : : @ @ @ 0 M.<X<X&X$.2.J.J.~.' } 0.B._.J.h.J.<X<X<X<X    @ 6 J.<X<X&X_.&X<X<X XB.<X<X<X<.@ T &X<X<X X X<X<X<X^ : M.<X<X Xh.&X<X<X_. X&X&X XM.~.<X<X<Xt.~.<X<X<X    &X&X      &X&X                                                    ",
"      j @ @ @ @ @ 0 ^ 2.h.B.B.z.+.a t.&X<X<X<X<X&X<X<X<X+.$._.&X<X<X<X<X&X&X~.0.      F  X<X<XJ.N ~.<X<X&X~.<X<X<X0.0 +.&X<X<XB.~.<X<X&X  : M.<X<X&Xz.&X<X<X&X  <X&X&X<X<X&X&X                                                                                  ",
"      a @ @ @ @ F J.<X<X_.~.<X<X<XM.B.&X<X<X&XB.J.<X<X&Xz.&X<X<X<X_.0.2.J.B.h.0.M.              : J.<X<X&X_.<X<X<X&X_.&X<X<X&X  ~.<X<X&X    ~.<X<X&X                                                                                                            ",
"        @ @ @ : z.<X<X&XM.M.&X<X<X XR B.<X<X XF <.<X<X&XM.&X<X<X<XJ.} t.&X&X<X<X&X                J.<X<X&X    &X<X<X<X&X&X                                                                                                                                      ",
"            @ 0 B. X_.~.h.t. X<X<X X<._.<X<X&XN <.<X<X<XJ.&X<X<X<X<X<X<X<X&X&X&X                                                                                                                                                                                ",
"              0 M. X X Xh.z.&X<X<Xt.B.<X<X<X&X  t.<X<X&X      &X&X&X&X&X&X                                                                                                                                                                                      ",
"                  &X<X<X<X<X<X&X    J.<X&X                                                                                                                                                                                                                      ",
"                                                                                                                                                                                                                                                                ",
"                                                                                                                                                                                                                                                                ",
"                                                                                                                                                                                                                                                                ",
"                                                                                                                                                                                                                                                                ",
"                                                                                                                                                                                                                                                                ",
"                                                                                                                                                                                                                                                                ",
"                                                                                                                                                                                                                                                                ",
"                                                                                                                                                                                                                                                                ",
"                                                                                                                                                                                                                                                                ",
"                                                                                                                                                                                                                                                                ",
"                                                                                                                                                                                                                                                                ",
"                                                                                                                                                                                                                                                                ",
"                                                                                                                                                                                                                                                                ",
"                                                                                                                                                                                                                                                                ",
"                                                                                                                                                                                                                                                                ",
"                                                                                                                                                                                                                                                                ",
"                                                                                                                                                                                                                                                                ",
"                                                                                                                                                                                                                                                                ",
"                                                                                                                                                                                                                                                                ",
"                                                                                                                                                                                                                                                                "
};
