/* XPM */
static char *oms_271[] = {
/* columns rows colors chars-per-pixel */
"128 54 92 1 ",
"  c #FF00FF",
". c #0D0D0D",
"X c #0F0F0F",
"o c #101010",
"O c #111111",
"+ c #121212",
"@ c #131313",
"# c #141414",
"$ c #151515",
"% c #161616",
"& c #171717",
"* c #181818",
"= c #191919",
"- c #1A1A1A",
"; c #1B1B1B",
": c #1C1C1C",
"> c #1D1D1D",
", c #1E1E1E",
"< c #1F1F1F",
"1 c #212121",
"2 c #222222",
"3 c #252525",
"4 c #262626",
"5 c #272727",
"6 c #282828",
"7 c #292929",
"8 c #2B2B2B",
"9 c #2D2D2D",
"0 c #303030",
"q c #313131",
"w c #333333",
"e c #343434",
"r c #363636",
"t c #383838",
"y c #3A3A3A",
"u c #3B3B3B",
"i c #3C3C3C",
"p c #3D3D3D",
"a c #3E3E3E",
"s c #434343",
"d c #444444",
"f c #454545",
"g c #474747",
"h c #494949",
"j c #4B4B4B",
"k c #4C4C4C",
"l c #4E4E4E",
"z c #4F4F4F",
"x c #525252",
"c c #565656",
"v c #5C5C5C",
"b c #606060",
"n c #616161",
"m c #646464",
"M c #656565",
"N c #696969",
"B c #6E6E6E",
"V c #717171",
"C c #747474",
"Z c #797979",
"A c #7B7B7B",
"S c #848484",
"D c #868686",
"F c #878787",
"G c #8C8C8C",
"H c #8F8F8F",
"J c #989898",
"K c #9F9F9F",
"L c #A0A0A0",
"P c #A1A1A1",
"I c #AEAEAE",
"U c #B0B0B0",
"Y c #B6B6B6",
"T c #B7B7B7",
"R c #808080",
"E c #C2C2C2",
"W c #C3C3C3",
"Q c #C4C4C4",
"! c #CCCCCC",
"~ c #CDCDCD",
"^ c #CFCFCF",
"/ c #D2D2D2",
"( c #D3D3D3",
") c #D6D6D6",
"_ c #D7D7D7",
"` c #D9D9D9",
"' c #DDDDDD",
"] c #E4E4E4",
"[ c #E7E7E7",
"{ c #E9E9E9",
"} c #EBEBEB",
"| c #EEEEEE",
/* pixels */
"                                                                                                                                ",
"                                                                                                                                ",
"                                                                                                                                ",
"                                                                                                                                ",
"                                                                                                                                ",
"                                                                                                                                ",
"                                                                                                                                ",
"                                                                                                                                ",
"                                                                                                                                ",
"                                                                                                                                ",
"                                                                                                                                ",
"                                                                                                                                ",
"                                                                                                                                ",
"                                                      vx   s                                                                    ",
"                                                      le+ 4epp4                                                                 ",
"                                                      e4+++;e9+++K                                                              ",
"                                                     A4+++++;;++;U                                                              ",
"                                                     C;+++++++++9R                                                              ",
"                                                     M++++++++++p~                                                              ",
"                                                     x++++++++++s`                                                              ",
"                                                     s++++++++++M[                                                              ",
"                                                    D;+++++++++;P}                                                              ",
"                                                    D++++++++++;I}                                                              ",
"                                                    G++++++++++;U                                                               ",
"                                                    N++++++++++9U                                                               ",
"                                                    l++++++++++x~                                                               ",
"                                                    9+++++++++XA}                                                               ",
"                                                   P4+++++++++4K[                                                               ",
"                                                   M++++++++++xQ                                                                ",
"                                                  Qs++++++++++C`                                                                ",
"                                                  Up++++++++++D/                                                                ",
"                                                  Pe+++++++++;D~                                                                ",
"                                                  G4++;;+++++;I                                                                 ",
"                                                  A++++++++++4Q                                                                 ",
"                                                  M++++++++++p/                                                                 ",
"                                                  l++++++++++s/                                                                 ",
"                                                  l++++++++++s/                                                                 ",
"                                                  lX+;++++;4;l                                                                  ",
"                                                  M+;94++;;psN                                                                  ",
"                                                  C;+pl4+;9                                                                     ",
"                                                                                                                                ",
"                                                                                                                                ",
"                                                                                                                                ",
"                                                                                                                                ",
"                                                                                                                                ",
"                                                                                                                                ",
"                                                                                                                                ",
"                                                                                                                                ",
"                                                                                                                                ",
"                                                                                                                                ",
"                                                                                                                                ",
"                                                                                                                                ",
"                                                                                                                                ",
"                                                                                                                                "
};
