/* XPM */
static char *oms_228[] = {
/* columns rows colors chars-per-pixel */
"128 54 199 2 ",
"   c #FF00FF",
".  c #0B0B0B",
"X  c #0C0C0C",
"o  c #0D0D0D",
"O  c #0E0E0E",
"+  c #0F0F0F",
"@  c #101010",
"#  c #111111",
"$  c #121212",
"%  c #131313",
"&  c #141414",
"*  c #151515",
"=  c #161616",
"-  c #171717",
";  c #181818",
":  c #191919",
">  c #1A1A1A",
",  c #1C1C1C",
"<  c #1D1D1D",
"1  c #1E1E1E",
"2  c #202020",
"3  c #212121",
"4  c #222222",
"5  c #232323",
"6  c #242424",
"7  c #252525",
"8  c #262626",
"9  c #272727",
"0  c #282828",
"q  c #292929",
"w  c #2A2A2A",
"e  c #2B2B2B",
"r  c #2C2C2C",
"t  c #2D2D2D",
"y  c #2E2E2E",
"u  c #2F2F2F",
"i  c #313131",
"p  c #323232",
"a  c #333333",
"s  c #343434",
"d  c #353535",
"f  c #373737",
"g  c #383838",
"h  c #393939",
"j  c #3A3A3A",
"k  c #3B3B3B",
"l  c #3C3C3C",
"z  c #3D3D3D",
"x  c #3E3E3E",
"c  c #404040",
"v  c #414141",
"b  c #424242",
"n  c #434343",
"m  c #454545",
"M  c #464646",
"N  c #474747",
"B  c #484848",
"V  c #494949",
"C  c #4A4A4A",
"Z  c #4B4B4B",
"A  c #4C4C4C",
"S  c #4C4C4C",
"D  c #4E4E4E",
"F  c #4F4F4F",
"G  c #505050",
"H  c #545454",
"J  c #565656",
"K  c #575757",
"L  c #585858",
"P  c #595959",
"I  c #5A5A5A",
"U  c #5B5B5B",
"Y  c #5C5C5C",
"T  c #5D5D5D",
"R  c #5F5F5F",
"E  c #616161",
"W  c #626262",
"Q  c #666666",
"!  c #676767",
"~  c #6A6A6A",
"^  c #6B6B6B",
"/  c #6C6C6C",
"(  c #6D6D6D",
")  c #6E6E6E",
"_  c #6F6F6F",
"`  c #707070",
"'  c #717171",
"]  c #727272",
"[  c #757575",
"{  c #767676",
"}  c #797979",
"|  c #7B7B7B",
" . c #7D7D7D",
".. c #7E7E7E",
"X. c #808080",
"o. c #818181",
"O. c #858585",
"+. c #878787",
"@. c #888888",
"#. c #8A8A8A",
"$. c #8B8B8B",
"%. c #8D8D8D",
"&. c #8E8E8E",
"*. c #909090",
"=. c #919191",
"-. c #929292",
";. c #939393",
":. c #959595",
">. c #969696",
",. c #979797",
"<. c #989898",
"1. c #999999",
"2. c #9A9A9A",
"3. c #9B9B9B",
"4. c #9C9C9C",
"5. c #9D9D9D",
"6. c #9E9E9E",
"7. c #9F9F9F",
"8. c #A0A0A0",
"9. c #A3A3A3",
"0. c #A4A4A4",
"q. c #A5A5A5",
"w. c #A6A6A6",
"e. c #A8A8A8",
"r. c #AAAAAA",
"t. c #ABABAB",
"y. c #AEAEAE",
"u. c #AFAFAF",
"i. c #B0B0B0",
"p. c #B1B1B1",
"a. c #B2B2B2",
"s. c #B4B4B4",
"d. c #B5B5B5",
"f. c #B6B6B6",
"g. c #B7B7B7",
"h. c #B8B8B8",
"j. c #B9B9B9",
"k. c #BBBBBB",
"l. c #BCBCBC",
"z. c #BDBDBD",
"x. c #808080",
"c. c #BFBFBF",
"v. c #C2C2C2",
"b. c #C4C4C4",
"n. c #C5C5C5",
"m. c #C6C6C6",
"M. c #C7C7C7",
"N. c #C8C8C8",
"B. c #C9C9C9",
"V. c #CACACA",
"C. c #CCCCCC",
"Z. c #D0D0D0",
"A. c #D1D1D1",
"S. c #D2D2D2",
"D. c #D3D3D3",
"F. c #D4D4D4",
"G. c #D5D5D5",
"H. c #D6D6D6",
"J. c #D7D7D7",
"K. c #D8D8D8",
"L. c #D9D9D9",
"P. c #DADADA",
"I. c #DBDBDB",
"U. c #DCDCDC",
"Y. c #DDDDDD",
"T. c #DEDEDE",
"R. c #DFDFDF",
"E. c #E0E0E0",
"W. c #E1E1E1",
"Q. c #E2E2E2",
"!. c #E3E3E3",
"~. c #E4E4E4",
"^. c #E6E6E6",
"/. c #E6E6E6",
"(. c #E7E7E7",
"). c #E8E8E8",
"_. c #E9E9E9",
"`. c #EAEAEA",
"'. c #EBEBEB",
"]. c #ECECEC",
"[. c #EDEDED",
"{. c #EEEEEE",
"}. c #EFEFEF",
"|. c #F0F0F0",
" X c #F1F1F1",
".X c #F2F2F2",
"XX c #F3F3F3",
"oX c #F4F4F4",
"OX c #F5F5F5",
"+X c #F6F6F6",
"@X c #F7F7F7",
"#X c #F8F8F8",
"$X c #F9F9F9",
"%X c #FAFAFA",
"&X c #FBFBFB",
"*X c #FCFCFC",
"=X c #FDFDFD",
"-X c #FEFEFE",
";X c #FFFFF1",
/* pixels */
"                                                                                                                                                                                                                                                                ",
"                                                                                                                                                                                                                                                                ",
"                                                                                                                                                                                                                                                                ",
"                                                                                                                                                                                                                                                                ",
"                                                                                                                                                                                                                                                                ",
"                                                                                                                                                                                                                                                                ",
"                                                                                                                                                                                                                                                                ",
"                                                                                                                                                                                                                                                                ",
"                                                                                                                                                                                                                                                                ",
"                                                                                                                                                                                                                                                                ",
"                                                                                                                                                                                          c r 3                                                                 ",
"                                                                                                                                                                                    G r # # # # # # #                                                           ",
"                                                                                                                                                                                  c # # # # # # # # # r Y                                                       ",
"                                                                                                                                                                    c i 3 # #   D # # # # # # # # G w.I.'.oXoXoX                                                ",
"                                                                                                                                                                  r # # # # # # # # # # , # # , &.'.=X=X=X=X=XoX                                                ",
"                                                                                                                                                      x r , # # 3 # # # # # # # 3 D  .f.Y # # ' oX=X'.f.f.oX=XoX                                                ",
"                                                                                                                                                    ^ # # # # # # # # # 3 i # # 2.oX=X=X^ + 3 N.=XoX^ # 3 S.=XoX                                                ",
"                                                                                                                                                    ^ # # # # # # , Y w.N.I.c r ~.=X=X=X^ + i ~.=X~.r + x ~.=XoX                                                ",
"                                                                                                                              c i 3 # # #     c r   D # # # # # # 3 S.=X=X=X;.^ =X=X=X=X^ + x '.=XoXO.E m.=X=XoX                                                ",
"                                                                                                                        ' 3 , # # # # # # # # # # r r # # # + + + 3 S.=X=X=X~.S.=X=X=X=X^ + i ~.=X=X=X=X=X=XoX                                                  ",
"                                                                                                                        Y + # # # # # # # r D E f.~. .+ # r Y  .' x S.=X=X=X=X=XoXI.=X=Xf.  , r.=X=X=X=XoXoX                                                    ",
"                                                                                                                        G # # # # # # # ' I.'.I.=X=X .3 &.I.oX=X=Xf.S.=XoX'.=X=XS.r.=X=X          oXoX                                                          ",
"                                                                                                                  x , , , # # # # # # + 2.=XoXI.=X=X&.w.=XI.k.oX=XI.~.=X'.w.oX=X;.;.=XoX                                                                        ",
"                                                                                                      E c r #   x # # # # # # # # , i r 2.=XoXI.=X=Xk.'.=X'.I.oX=XI.I.=X'.Y S.=X&.2.=X                                                                          ",
"                                                                                                  E r , # # # # # # # # # # # # i f.~.~.~.=XoXI.oXoXI.~.~.r.&.oX=Xr.S.=XoX                                                                                      ",
"                                                                                          c r , 3 # # # # # # # # # 3 Y ;.f.w.c w.=X=X~.oX=XoXI.oX=XS.~.oX~.'.=XoX  S.                                                                                          ",
"                                                                G i 3 # # # # # # D r # , # + # # # # # # # , i , Y S.=X=X=X=XN.I.=X'.D r.=XoXI.=X=XN.'.=X=XoX                                                                                                  ",
"                                                            Y r # # # # # # # # # # r G  .&.D # # # , c x ' m.S.' ~.=Xm.2.oX=X'.'.=XI.3 ;.=XoXI.oXoX                                                                                                            ",
"                                                    G , # # # # # # # # + # # # G r.I.oX=X=XI.r # , 2.'.~.~.=X'.m.=XoXY r '.=XS.~.=X~.r 2.=XoX                                                                                                                  ",
"                                              D r 3 , # # # # # # # # r Y ;.D O.oX=X~.I.=X=X'.x + Y =X=X~.'.=X'.I.=X=X;.;.oX=X;.S.=XoX                                                                                                                          ",
"                                            D # # # # # # # # # # r r ;.=XoX;.'.oX~.;.f.=X=XS.3 + O.=X=X' k.=X'.m.=X=X=X=X=XoX                                                                                                                                  ",
"                                            i # # # # # # # # x f.~.&.&.I.S.O.2.N.'.oX=X=X'. .# # ' f. .r f.=X'.2.oX=XoXoX                                                                                                                                      ",
"                                  G i , 3 x # # # # # # # # + ^ =X=XS.m.'.oX .k.=X=XoXI.S.k.S.      , + # k.=XoX                                                                                                                                                ",
"                              Y 3 # # # # # # # # # # 3 i r r m.=X=X=XoX=XoXm.=X=XoX .;.oXoX=X                                                                                                                                                                  ",
"                            E # # # # # # # # # # D w.S.'.I.;.'.=X=XN.m.=XoXI.=X=XoXI.oX=XoX                                                                                                                                                                    ",
"                            r # # # # # # # # # ' '.'.I.=X=XS.f.=X=X&.2.=XoXk.oX=X=X=XoXoX                                                                                                                                                                      ",
"                            3 # # # # # # # # x ~.=XI.N.oX=XN.;.=X=X&.2.=XoXk.  =X                                                                                                                                                                              ",
"                            r # # # # # # # + ^ oX'.N.f.oX=XS.'.=X=X&.w.=X                                                                                                                                                                                      ",
"                            i # # # # # # # # E ~.~.k.m.=XoX;.~.=X                                                                                                                                                                                              ",
"                                    # # # # + Y oX=X=X=XoX                                                                                                                                                                                                      ",
"                                                  oX                                                                                                                                                                                                            ",
"                                                                                                                                                                                                                                                                ",
"                                                                                                                                                                                                                                                                ",
"                                                                                                                                                                                                                                                                ",
"                                                                                                                                                                                                                                                                ",
"                                                                                                                                                                                                                                                                ",
"                                                                                                                                                                                                                                                                ",
"                                                                                                                                                                                                                                                                ",
"                                                                                                                                                                                                                                                                ",
"                                                                                                                                                                                                                                                                ",
"                                                                                                                                                                                                                                                                ",
"                                                                                                                                                                                                                                                                ",
"                                                                                                                                                                                                                                                                ",
"                                                                                                                                                                                                                                                                "
};
