/* XPM */
static char *oms_034[] = {
/* columns rows colors chars-per-pixel */
"128 54 193 2 ",
"   c #FF00FF",
".  c #0B0B0B",
"X  c #0D0D0D",
"o  c #0E0E0E",
"O  c #0F0F0F",
"+  c #101010",
"@  c #111111",
"#  c #121212",
"$  c #131313",
"%  c #141414",
"&  c #151515",
"*  c #161616",
"=  c #171717",
"-  c #181818",
";  c #191919",
":  c #1A1A1A",
">  c #1C1C1C",
",  c #1D1D1D",
"<  c #1E1E1E",
"1  c #1F1F1F",
"2  c #202020",
"3  c #212121",
"4  c #222222",
"5  c #232323",
"6  c #242424",
"7  c #252525",
"8  c #262626",
"9  c #292929",
"0  c #2B2B2B",
"q  c #2C2C2C",
"w  c #2E2E2E",
"e  c #313131",
"r  c #323232",
"t  c #353535",
"y  c #363636",
"u  c #373737",
"i  c #383838",
"p  c #393939",
"a  c #3B3B3B",
"s  c #3C3C3C",
"d  c #3E3E3E",
"f  c #3F3F3F",
"g  c #424242",
"h  c #434343",
"j  c #464646",
"k  c #474747",
"l  c #494949",
"z  c #4A4A4A",
"x  c #4B4B4B",
"c  c #4C4C4C",
"v  c #4E4E4E",
"b  c #4F4F4F",
"n  c #505050",
"m  c #545454",
"M  c #555555",
"N  c #565656",
"B  c #585858",
"V  c #5B5B5B",
"C  c #5D5D5D",
"Z  c #5E5E5E",
"A  c #5F5F5F",
"S  c #606060",
"D  c #646464",
"F  c #656565",
"G  c #666666",
"H  c #676767",
"J  c #686868",
"K  c #696969",
"L  c #6A6A6A",
"P  c #6D6D6D",
"I  c #6E6E6E",
"U  c #6F6F6F",
"Y  c #707070",
"T  c #717171",
"R  c #727272",
"E  c #737373",
"W  c #747474",
"Q  c #757575",
"!  c #767676",
"~  c #787878",
"^  c #797979",
"/  c #7B7B7B",
"(  c #7D7D7D",
")  c #7E7E7E",
"_  c #808080",
"`  c #828282",
"'  c #838383",
"]  c #848484",
"[  c #858585",
"{  c #868686",
"}  c #878787",
"|  c #888888",
" . c #898989",
".. c #8B8B8B",
"X. c #8C8C8C",
"o. c #8E8E8E",
"O. c #929292",
"+. c #939393",
"@. c #949494",
"#. c #969696",
"$. c #989898",
"%. c #9B9B9B",
"&. c #9C9C9C",
"*. c #9E9E9E",
"=. c #9F9F9F",
"-. c #A0A0A0",
";. c #A1A1A1",
":. c #A2A2A2",
">. c #A3A3A3",
",. c #A5A5A5",
"<. c #A6A6A6",
"1. c #A7A7A7",
"2. c #A8A8A8",
"3. c #A9A9A9",
"4. c #AAAAAA",
"5. c #ABABAB",
"6. c #ACACAC",
"7. c #ADADAD",
"8. c #AEAEAE",
"9. c #AFAFAF",
"0. c #B0B0B0",
"q. c #B1B1B1",
"w. c #B2B2B2",
"e. c #B2B2B2",
"r. c #B7B7B7",
"t. c #BABABA",
"y. c #BBBBBB",
"u. c #BDBDBD",
"i. c #808080",
"p. c #BFBFBF",
"a. c #C0C0C0",
"s. c #C1C1C1",
"d. c #C2C2C2",
"f. c #C3C3C3",
"g. c #C4C4C4",
"h. c #C5C5C5",
"j. c #C6C6C6",
"k. c #C7C7C7",
"l. c #C8C8C8",
"z. c #C9C9C9",
"x. c #CACACA",
"c. c #CBCBCB",
"v. c #CCCCCC",
"b. c #CDCDCD",
"n. c #CECECE",
"m. c #CFCFCF",
"M. c #D0D0D0",
"N. c #D1D1D1",
"B. c #D2D2D2",
"V. c #D3D3D3",
"C. c #D4D4D4",
"Z. c #D5D5D5",
"A. c #D6D6D6",
"S. c #D7D7D7",
"D. c #D8D8D8",
"F. c #D9D9D9",
"G. c #DADADA",
"H. c #DBDBDB",
"J. c #DCDCDC",
"K. c #DDDDDD",
"L. c #DEDEDE",
"P. c #DFDFDF",
"I. c #E0E0E0",
"U. c #E1E1E1",
"Y. c #E2E2E2",
"T. c #E4E4E4",
"R. c #E6E6E6",
"E. c #E6E6E6",
"W. c #E7E7E7",
"Q. c #E8E8E8",
"!. c #E9E9E9",
"~. c #EAEAEA",
"^. c #EBEBEB",
"/. c #ECECEC",
"(. c #EDEDED",
"). c #EEEEEE",
"_. c #EFEFEF",
"`. c #F0F0F0",
"'. c #F1F1F1",
"]. c #F2F2F2",
"[. c #F3F3F3",
"{. c #F4F4F4",
"}. c #F5F5F5",
"|. c #F6F6F6",
" X c #F7F7F7",
".X c #F8F8F8",
"XX c #F9F9F9",
"oX c #FAFAFA",
"OX c #FBFBFB",
"+X c #FCFCFC",
"@X c #FDFDFD",
"#X c #FEFEFE",
"$X c #FFFFF1",
/* pixels */
"                                                                                                                                                                                                                                                                ",
"                                                                                                                                                                                                                                                                ",
"                                                                                                                                                                                                                                                                ",
"                                                                                                                                                                                                                                                                ",
"                                                                                                                                                                                                                                                                ",
"                                                                                                                                                                                                                                                                ",
"                                                                                                                                                                                                                                                                ",
"                                                                                                                                                                                                                                                                ",
"                                                                                                                                                                                                                                                                ",
"                                                                                                                                                                                                                                                                ",
"                                                                                                                                                                                                                                                                ",
"                                                                                                                                                                                                                                                                ",
"                                                                                                                                                                                                                                                                ",
"                                                                                                                                                                                                                                                                ",
"                                                                                                                                                                                                                                                                ",
"                                                                                                                                                                                                                                                                ",
"                                                                                                                                                                                                                                                                ",
"                                                                                                                                                                                                                                                                ",
"                                                                                                                                                                                                                                                                ",
"                                                                                                                                                                                                                                                                ",
"                                                                                                                                                                                                                                                                ",
"                                                                                                                                                                                                    w                                                           ",
"                                                                                                                                                                            - $ $ $ $ $ a { w.A.A.A.A.f.=.a x W.`.@X) g f.P.`.                                  ",
"                                                                            $ $ $ -                   u $ $ $ $ M {  . .{ f.W._.                                          w o $ $ $ $ g P.@X@X@X@X@X@X@X@XA.Q W.`._.P P @X@X@X{ $ o                             ",
"                                  $ $ $ - x ) <.f.W.      - $ $ $ Q y.f.A.b.Q $ $ P P.P.W.`._.        u o $ $ $ 7.@X@X_.f.@X@X`.                        -   - - 6 6 u   x g a - $ $ $  .@X@X@XW.) #.P.W.A.y.) b.A.A.<.A.@X@X@XP.x S b._.`.@X@X`.`.              ",
"                              6 $ $ $ M f._.@X@X`.`.@X@XW.u $ $ $ 7.@X@X@X@XP.w 6 A.@X@X@X@X<.o o   P x u w $ o 7.@X@X_.f.@X@XW.x S #. .M $ $ x =.f.b.b.f.<.x u y.b.b.=.w._._.7.6 $ $  .@X@X@X`.A.b.P.W.f.Q C `.@X`.P.@X@X@X@X@Xw._.@X@Xf.y.`.@X@X              ",
"                              $ $ $ x W.@X@X@X@X@X@X@X@X@X=.$ $ $ 7.@X@X@X@X@XQ P `.@X@X@X@X .6 { f.W._._.P.<.a 7.@X@X_.f.@X@X_.y._.@X@X_.S P _.@X@X@X@X@X@XW.) _.@X@X`.@X@X@X`.C o $ g P.@X@X@X@X@X@X@X@X`.<.`.@X@Xw.f.@X@X@X7.f.@X@X`.P.P.`.@X@X`.            ",
"                            6 $ $ $ <.@X@X@Xb.Q S <.`.@X@XW.w $ $ 7.@X@X@X@X@XA.A.@X@X@X@X@X=.7.@X@X_.y._.@X@Xy.y.@X@X_.f.@X@X@X_._.@X@X@Xy.A.@X@XP.C  .`.@X@Xb._.@X@Xb.=.@X@X@X) o $ 6 C 7.b.A.<.y.`.@X@X@XA.`.@X@XQ S @X@X@X) 7.@X@X`.<. .b.A.W.`.            ",
"                            $ $ $ - b.@X@X`.x o o 6 A.@X@X_.a o $ 7.@X@X`.`.@X@X@X@X`.`.@X@Xy.W.@X@XW.f.W.@X@X_.A.@X@XW.f.@X@X`.P M _.@X@XA._.@X@Xw.o a _.@X@XP._.@X@Xy.C b.w.<.x $ $ #.W.W._.P.P { `.@X@X@Xf._.@X@XQ S @X@X@X_.f.`.@X@Xf.f.`.`.`.`.            ",
"                            w $ $ - b.@X@X`.x o o u P.@X@XW.u $ $ 7.@X@X_.b.`.@X@X`.7.`.@X@Xf._.@X@XA.<.f.A.b.f.A.@X@XW.f.@X@XW.u w P.@X@Xf.P.@X@XW.Q <.`.@X@X7._.@X@X`.    6 $ $ $ $ S `.@X@X@X`.`.@X@X@Xb.Q `.@X@XQ x `.@X@X`.) 7.`.@X@X@X@X`.`.              ",
"                              - $ $ w.@X@X@XA.{ { b.@X@X@Xf.- $ $ 7.@X@X_.P W.@X@Xf.P `.@X@X7.P.@X@XP.#.A._.`.P.b.@X@XW.f.@X@XW.a w P.@X@X7.{ `.@X@X@X@X@X@Xf.C _.@X`.`.              - <.`.@X`.`.@X`.`.    C _._.                                              ",
"                                $ $ S `.@X@X@X@X@X@X@X@X`.P o $ $ 7.@X@X`.g #.@X@XP M `.@X@X=.{ `.`.@X@X@X@X`.{ w.@X`.W.f.@X@X_.x u P.`.`.      `.`.`.@X`.                                                                                                      ",
"                                      =.`.@X@X@X@X@X`.`.        $ w.@X@X`.    `.`.    _._._.        _._.                                                                                                                                                        ",
"                                                                                                                                                                                                                                                                ",
"                                                                                                                                                                                                                                                                ",
"                                                                                                                                                                                                                                                                ",
"                                                                                                                                                                                                                                                                ",
"                                                                                                                                                                                                                                                                ",
"                                                                                                                                                                                                                                                                ",
"                                                                                                                                                                                                                                                                ",
"                                                                                                                                                                                                                                                                ",
"                                                                                                                                                                                                                                                                ",
"                                                                                                                                                                                                                                                                ",
"                                                                                                                                                                                                                                                                ",
"                                                                                                                                                                                                                                                                ",
"                                                                                                                                                                                                                                                                ",
"                                                                                                                                                                                                                                                                ",
"                                                                                                                                                                                                                                                                ",
"                                                                                                                                                                                                                                                                ",
"                                                                                                                                                                                                                                                                ",
"                                                                                                                                                                                                                                                                ",
"                                                                                                                                                                                                                                                                ",
"                                                                                                                                                                                                                                                                ",
"                                                                                                                                                                                                                                                                "
};
