/* XPM */
static char *oms_198[] = {
/* columns rows colors chars-per-pixel */
"128 54 202 2 ",
"   c #FF00FF",
".  c #0D0D0D",
"X  c #0E0E0E",
"o  c #0F0F0F",
"O  c #101010",
"+  c #111111",
"@  c #121212",
"#  c #131313",
"$  c #141414",
"%  c #151515",
"&  c #161616",
"*  c #171717",
"=  c #181818",
"-  c #191919",
";  c #1A1A1A",
":  c #1B1B1B",
">  c #1C1C1C",
",  c #1D1D1D",
"<  c #1E1E1E",
"1  c #1F1F1F",
"2  c #202020",
"3  c #212121",
"4  c #222222",
"5  c #232323",
"6  c #242424",
"7  c #252525",
"8  c #262626",
"9  c #272727",
"0  c #282828",
"q  c #292929",
"w  c #2A2A2A",
"e  c #2B2B2B",
"r  c #2C2C2C",
"t  c #2D2D2D",
"y  c #2E2E2E",
"u  c #2F2F2F",
"i  c #313131",
"p  c #323232",
"a  c #333333",
"s  c #343434",
"d  c #353535",
"f  c #363636",
"g  c #373737",
"h  c #383838",
"j  c #393939",
"k  c #3A3A3A",
"l  c #3B3B3B",
"z  c #3C3C3C",
"x  c #3D3D3D",
"c  c #3E3E3E",
"v  c #3F3F3F",
"b  c #404040",
"n  c #414141",
"m  c #424242",
"M  c #434343",
"N  c #444444",
"B  c #454545",
"V  c #464646",
"C  c #474747",
"Z  c #484848",
"A  c #494949",
"S  c #4A4A4A",
"D  c #4B4B4B",
"F  c #4C4C4C",
"G  c #4C4C4C",
"H  c #4E4E4E",
"J  c #4F4F4F",
"K  c #505050",
"L  c #515151",
"P  c #525252",
"I  c #535353",
"U  c #545454",
"Y  c #555555",
"T  c #575757",
"R  c #585858",
"E  c #5B5B5B",
"W  c #5C5C5C",
"Q  c #5E5E5E",
"!  c #5F5F5F",
"~  c #606060",
"^  c #616161",
"/  c #626262",
"(  c #666666",
")  c #676767",
"_  c #686868",
"`  c #6B6B6B",
"'  c #6C6C6C",
"]  c #6E6E6E",
"[  c #6F6F6F",
"{  c #707070",
"}  c #737373",
"|  c #747474",
" . c #787878",
".. c #7B7B7B",
"X. c #7C7C7C",
"o. c #808080",
"O. c #808080",
"+. c #818181",
"@. c #828282",
"#. c #838383",
"$. c #848484",
"%. c #8A8A8A",
"&. c #8B8B8B",
"*. c #8C8C8C",
"=. c #8F8F8F",
"-. c #919191",
";. c #939393",
":. c #959595",
">. c #9B9B9B",
",. c #9C9C9C",
"<. c #9D9D9D",
"1. c #9E9E9E",
"2. c #9F9F9F",
"3. c #A1A1A1",
"4. c #A2A2A2",
"5. c #A3A3A3",
"6. c #A4A4A4",
"7. c #A6A6A6",
"8. c #A7A7A7",
"9. c #A8A8A8",
"0. c #A9A9A9",
"q. c #AAAAAA",
"w. c #ACACAC",
"e. c #ADADAD",
"r. c #AEAEAE",
"t. c #AFAFAF",
"y. c #B0B0B0",
"u. c #B1B1B1",
"i. c #B2B2B2",
"p. c #B4B4B4",
"a. c #B5B5B5",
"s. c #B6B6B6",
"d. c #B7B7B7",
"f. c #B8B8B8",
"g. c #B9B9B9",
"h. c #BABABA",
"j. c #BBBBBB",
"k. c #BCBCBC",
"l. c #BDBDBD",
"z. c #808080",
"x. c #BFBFBF",
"c. c #C0C0C0",
"v. c #C1C1C1",
"b. c #C2C2C2",
"n. c #C4C4C4",
"m. c #C5C5C5",
"M. c #C6C6C6",
"N. c #C7C7C7",
"B. c #C8C8C8",
"V. c #C9C9C9",
"C. c #CACACA",
"Z. c #CCCCCC",
"A. c #CDCDCD",
"S. c #CECECE",
"D. c #D0D0D0",
"F. c #D1D1D1",
"G. c #D2D2D2",
"H. c #D3D3D3",
"J. c #D4D4D4",
"K. c #D5D5D5",
"L. c #D6D6D6",
"P. c #D7D7D7",
"I. c #D8D8D8",
"U. c #D9D9D9",
"Y. c #DADADA",
"T. c #DBDBDB",
"R. c #DCDCDC",
"E. c #DDDDDD",
"W. c #DEDEDE",
"Q. c #DFDFDF",
"!. c #E0E0E0",
"~. c #E1E1E1",
"^. c #E2E2E2",
"/. c #E3E3E3",
"(. c #E4E4E4",
"). c #E6E6E6",
"_. c #E6E6E6",
"`. c #E7E7E7",
"'. c #E8E8E8",
"]. c #E9E9E9",
"[. c #EAEAEA",
"{. c #EBEBEB",
"}. c #ECECEC",
"|. c #EDEDED",
" X c #EEEEEE",
".X c #EFEFEF",
"XX c #F0F0F0",
"oX c #F1F1F1",
"OX c #F2F2F2",
"+X c #F3F3F3",
"@X c #F4F4F4",
"#X c #F5F5F5",
"$X c #F6F6F6",
"%X c #F7F7F7",
"&X c #F8F8F8",
"*X c #F9F9F9",
"=X c #FAFAFA",
"-X c #FBFBFB",
";X c #FCFCFC",
":X c #FDFDFD",
">X c #FEFEFE",
",X c #FFFFF1",
/* pixels */
"                                                                                                                                                                                                                                                                ",
"                                                                                                                                                                                                                                                                ",
"                                                                                                                                                                                                                                                                ",
"                                                                                                                                                                                                                                                                ",
"                                                                                                                                                                                                                                                                ",
"                                                                                                                                                                                                                                                                ",
"                                                                                                                                                                                                                                                                ",
"                                                                                                                                                                                                                                                                ",
"                                                                                                                                                                                                                                                                ",
"                                                                                                                                                                                                                                                                ",
"                                                                                                                                                                                                                                                                ",
"                                                                                                                                                                                                                                                                ",
"                                                                                                                                                                                                                                                                ",
"                                                                                                                                                                                                                                                                ",
"                                                                                                                                                                                                                            ~ H x x b                           ",
"                                                                                                                                                                                                        Q             b r ; $ $ $ $ $ ; r                       ",
"                                                                                                                                                                                  Q H x         6 ; ; ; $ $         r $ $ $ $ $ $ $ $ $ $ ;                     ",
"                                                                                                                                                                              ; $ $ $ $ $     6 $ $ $ $ $ $       r $ $ $ $ $ $ ; 6 6 ; $ $                     ",
"                                                                                                                                        x x x r r 6 ; ;                       $ $ $ $ $ $     $ $ $ o $ $ $ ;     $ $ $ ; L %.i.m.L.I.L.i.~ r                   ",
"                                                                                                                                      $ $ $ $ $ $ $ $ $ $       b p x p b     $ $ $ ; ; 6 p ; $ $ b #.-.6.i.V.    $ $ b h.$X;X;X;X;X;X;X;X$Xh.                  ",
"                                                                                                                                      $ $ $ $ $ $ $ o o $ 6 6 $ $ $ $ $ $ ;   $ p 6.h.V.I.I.Q o 6 m.;X;X;X;X$X    o p I.;X;X;X).m.h.).;X;X;X$X                  ",
"                                                          ~ b H b b x                                       ~ L x           b 6 ; 6 r ; $ $ r b L L L #.-.6.L $ $ $ $ $ o o $ $ H $X;X;X;X;Xm.6 _ $X;X;X;X;X$X       .;X;X;XL.b $ $ L .X;X;X$X                  ",
"                                          b b p     L r ; $ $ $ $ $ $ $ $                   b x b r   Q r ; ; $ $ $ $ ;   p $ $ $ $ $ $ $ ; m.$X$X).h.;X;X;X_ o $ 6 p H L L x $ b .X;X;X;X;X$X-.V.;X;X;X;X;X$X      r.;X;X;Xr.o o o H .X;X;X$X                  ",
"                              H b b r   b $ $ $ $ ; $ $ $ $ $ $ $ $ $ $ o o       x ; $ ; 6 $ $ $ $ ; ; $ $ $ $ $ $ $ $ $ $ $ $ $ $ $ $ $ ; L.;X;X).h.;X;X;X_ r %.V.).$X$X$X.Xr.Q .X;X;X;X;X;X$X$X;X$X$X;X;X$X      I.;X;X;X).#.Q  .L.;X;X;X$X                  ",
"                              6 $ $ $ $ ; $ $ $ $ $ o o $ $ $ $ ; r p b L L L   H $ $ $ $ $ $ $ $ $ $ o o $ $ o $ 6 p x x r ; $ ; ~ 6.i.6._ I.;X;X).h.;X;X;X#.h.;X;X).r.I.;X;X;Xr..X;X;X$X$X;X;X;X$Xr..X;X;X$X        $X;X;X;X;X$X;X;X;X;X$X                    ",
"                  Q H       b $ $ $ $ $ o o o $ ; b L _ Q $ x %.h.I..X$X$X$X$X.X .$ $ $ $ $ 6 r $ r b L ~ 6 6 } i.L.)..X.X).i.x #.$X;X;X;X;X$X;X;X).h.;X;X$Xh.$X$X$X.XL..X;X;X;Xm..X;X;X$X  $X;X;X.X~ ).;X;X$X          $X;X;X;X;X;X;X$X$X                      ",
"          b 6 ; $ $ $ $ $ r ; $ $ $ $ 6 H Q } H x ).$X;Xh.Q ).;X;X;XI.V.$X;X;X;XL.; $ $ r ,.L.I.6.m.$X$X$X_ h.;X;X$XL.).;X;X;Xm.L.;X;X$X,.%.$X;X;X).h.;X;X$Xm.I.I.I.i.} m.;X;X$X,..X;X;X$X  $X;X$X    .X;X;X$X                                                  ",
"        r $ $ $ $ $ $ $ $ $ o $ $ $ o Q $X;X;X6.b L.I.I.6.-.L.L.I.).%.%..X;X;X;X$X  $ $ ,.;X;X;X$X$X;X;X$Xm.$X;X;Xr.; Q $X;X;X.X.X;X;X$Xx ; L.;X;X).h.;X;X;X).$X$X;X$X).$X;X;X$X  .X;X;X$X    $X                                                                ",
"      L $ $ $ $ $ $ $ ; r b H H p $ p r.;X;X;X).m.)..X$Xh.b ,.I..X$X$X;X;X;X$X).      ; V.;X;X.X~ V.;X;X$X).;X;X;Xr.6 } $X;X;XV.).;X;X;X  6 L.;X;X.Xm.;X;X;X    $X$X$X$X$X$X                                                                                    ",
"      L $ $ $ $ $ r #.m.)..X$X$X.X6.#.;X;X;X;X;X).$X;X;Xm.i.;X;X;X;X).L.I.I.i.#.,.      ).;X$X6.; i.;X;X$XL.$X;X;X$XI.$X;X;X$X-.I.;X;X$X    ).;X$X                                                                                                              ",
"        $ $ $ $ 6 h.;X;X).r.I.;X;X;Xi.V.;X;X;Xm.} .X;X;XL.I.;X;X;X.X_ ~ L..X.X$X$X              $ i.;X;X;X    $X$X$X;X;X$X                                                                                                                                      ",
"          $ $ o Q $X;X;X.XL.).;X;X;X,. .;X;X;X,.x .X;X;XI.I.;X;X;X$X)..X;X;X;X$X                    $X                                                                                                                                                          ",
"            $ o Q ).I.I.h.} h.;X;X$Xh.).;X;X;Xr.b .X;X;X$X  $X$X;X;X;X$X$X$X                                                                                                                                                                                    ",
"                _ $X$X$X.XI.$X;X;XL.%.$X;X$X$X    .X;X$X                                                                                                                                                                                                        ",
"                    $X$X$X;X$X$X                                                                                                                                                                                                                                ",
"                                                                                                                                                                                                                                                                ",
"                                                                                                                                                                                                                                                                ",
"                                                                                                                                                                                                                                                                ",
"                                                                                                                                                                                                                                                                ",
"                                                                                                                                                                                                                                                                ",
"                                                                                                                                                                                                                                                                ",
"                                                                                                                                                                                                                                                                ",
"                                                                                                                                                                                                                                                                ",
"                                                                                                                                                                                                                                                                ",
"                                                                                                                                                                                                                                                                ",
"                                                                                                                                                                                                                                                                ",
"                                                                                                                                                                                                                                                                ",
"                                                                                                                                                                                                                                                                ",
"                                                                                                                                                                                                                                                                ",
"                                                                                                                                                                                                                                                                ",
"                                                                                                                                                                                                                                                                ",
"                                                                                                                                                                                                                                                                ",
"                                                                                                                                                                                                                                                                ",
"                                                                                                                                                                                                                                                                "
};
