/* XPM */
static char *oms_230[] = {
/* columns rows colors chars-per-pixel */
"128 54 199 2 ",
"   c #FF00FF",
".  c #0B0B0B",
"X  c #0C0C0C",
"o  c #0D0D0D",
"O  c #0E0E0E",
"+  c #0F0F0F",
"@  c #101010",
"#  c #111111",
"$  c #121212",
"%  c #131313",
"&  c #141414",
"*  c #151515",
"=  c #161616",
"-  c #171717",
";  c #181818",
":  c #191919",
">  c #1A1A1A",
",  c #1B1B1B",
"<  c #1C1C1C",
"1  c #1D1D1D",
"2  c #1E1E1E",
"3  c #1F1F1F",
"4  c #202020",
"5  c #212121",
"6  c #222222",
"7  c #232323",
"8  c #242424",
"9  c #252525",
"0  c #262626",
"q  c #272727",
"w  c #282828",
"e  c #292929",
"r  c #2A2A2A",
"t  c #2C2C2C",
"y  c #2D2D2D",
"u  c #2E2E2E",
"i  c #2F2F2F",
"p  c #303030",
"a  c #313131",
"s  c #323232",
"d  c #333333",
"f  c #343434",
"g  c #363636",
"h  c #373737",
"j  c #383838",
"k  c #393939",
"l  c #3A3A3A",
"z  c #3B3B3B",
"x  c #3C3C3C",
"c  c #3D3D3D",
"v  c #3E3E3E",
"b  c #3F3F3F",
"n  c #414141",
"m  c #424242",
"M  c #434343",
"N  c #444444",
"B  c #454545",
"V  c #464646",
"C  c #474747",
"Z  c #484848",
"A  c #494949",
"S  c #4B4B4B",
"D  c #4C4C4C",
"F  c #4C4C4C",
"G  c #4E4E4E",
"H  c #4F4F4F",
"J  c #505050",
"K  c #525252",
"L  c #545454",
"P  c #565656",
"I  c #575757",
"U  c #595959",
"Y  c #5A5A5A",
"T  c #5B5B5B",
"R  c #5E5E5E",
"E  c #606060",
"W  c #666666",
"Q  c #6A6A6A",
"!  c #6C6C6C",
"~  c #737373",
"^  c #747474",
"/  c #767676",
"(  c #777777",
")  c #787878",
"_  c #797979",
"`  c #7A7A7A",
"'  c #7B7B7B",
"]  c #7C7C7C",
"[  c #7D7D7D",
"{  c #7E7E7E",
"}  c #808080",
"|  c #808080",
" . c #818181",
".. c #828282",
"X. c #838383",
"o. c #848484",
"O. c #858585",
"+. c #868686",
"@. c #888888",
"#. c #898989",
"$. c #8A8A8A",
"%. c #8B8B8B",
"&. c #8C8C8C",
"*. c #8D8D8D",
"=. c #8E8E8E",
"-. c #8F8F8F",
";. c #919191",
":. c #939393",
">. c #959595",
",. c #979797",
"<. c #989898",
"1. c #999999",
"2. c #9A9A9A",
"3. c #9D9D9D",
"4. c #9E9E9E",
"5. c #A0A0A0",
"6. c #A1A1A1",
"7. c #A2A2A2",
"8. c #A3A3A3",
"9. c #A4A4A4",
"0. c #A5A5A5",
"q. c #A6A6A6",
"w. c #A7A7A7",
"e. c #A9A9A9",
"r. c #AAAAAA",
"t. c #ABABAB",
"y. c #ADADAD",
"u. c #AEAEAE",
"i. c #AFAFAF",
"p. c #B1B1B1",
"a. c #B2B2B2",
"s. c #B2B2B2",
"d. c #B5B5B5",
"f. c #B6B6B6",
"g. c #B7B7B7",
"h. c #B9B9B9",
"j. c #BBBBBB",
"k. c #BCBCBC",
"l. c #BDBDBD",
"z. c #808080",
"x. c #C0C0C0",
"c. c #C2C2C2",
"v. c #C3C3C3",
"b. c #C4C4C4",
"n. c #C5C5C5",
"m. c #C6C6C6",
"M. c #C7C7C7",
"N. c #C9C9C9",
"B. c #CACACA",
"V. c #CBCBCB",
"C. c #CCCCCC",
"Z. c #CECECE",
"A. c #CFCFCF",
"S. c #D0D0D0",
"D. c #D1D1D1",
"F. c #D2D2D2",
"G. c #D3D3D3",
"H. c #D4D4D4",
"J. c #D5D5D5",
"K. c #D6D6D6",
"L. c #D7D7D7",
"P. c #D8D8D8",
"I. c #DADADA",
"U. c #DBDBDB",
"Y. c #DCDCDC",
"T. c #DDDDDD",
"R. c #DEDEDE",
"E. c #DFDFDF",
"W. c #E0E0E0",
"Q. c #E1E1E1",
"!. c #E2E2E2",
"~. c #E3E3E3",
"^. c #E4E4E4",
"/. c #E6E6E6",
"(. c #E7E7E7",
"). c #E8E8E8",
"_. c #E9E9E9",
"`. c #EAEAEA",
"'. c #EBEBEB",
"]. c #ECECEC",
"[. c #EDEDED",
"{. c #EEEEEE",
"}. c #EFEFEF",
"|. c #F0F0F0",
" X c #F1F1F1",
".X c #F2F2F2",
"XX c #F3F3F3",
"oX c #F4F4F4",
"OX c #F5F5F5",
"+X c #F6F6F6",
"@X c #F7F7F7",
"#X c #F8F8F8",
"$X c #F9F9F9",
"%X c #FAFAFA",
"&X c #FBFBFB",
"*X c #FCFCFC",
"=X c #FDFDFD",
"-X c #FEFEFE",
";X c #FFFFF1",
/* pixels */
"                                                                                                                                                                                                                                                                ",
"                                                                                                                                                                                                                                                                ",
"                                                                                                                                                                                                                                                                ",
"                                                                                                                                                                                                                                                                ",
"                                                                                                                                                                                                                                                                ",
"                                                                                                                                                                                                                                                                ",
"                                                                                                                                                                                                                                                                ",
"                                                                                                                                                                                                                                                                ",
"                                                                                                                                                                                                                                                                ",
"                                                                                                                                                                                                                                                                ",
"                                                                                                                                                                                      H s : *                                                                   ",
"                                                                                                                                                                                  z : * * * * * * *                                                             ",
"                                                                                                                                                                              ` q * * * * * * * * q B ..K.                                                      ",
"                                                                                                                                                                  B w : * * z s * * * * * * * : ( B.'.oX;XoX                                                    ",
"                                                                                                                                                                w * * * * * * * * * : : * * q e.;X;X;X;X;X;XoX                                                  ",
"                                                                                                                                                    B w : * * q * * * * + * * q K %.m.` * * ..;X;XK.%.q.oX;XoX                                                  ",
"                                                                                                                                                  %.* * * * * * * * * q B q + ` oX;X;X%.+ q K.;XQ.B + z '.;XoX                                                  ",
"                                                                                                                                                  >.* * * * * * * B 1.B.'.` : m.;X;X;X%.+ z Q.;XK.q + Q oX;XoX                                                  ",
"                                                                                                                              B w : * * *   H s   K * * * * * * + %.;X;X;XB.R '.;X;X;X%.+ z '.;XoX1.%.Q.;XoX                                                    ",
"                                                                                                                        B q * * * * * * * * * * : z q * * + + + + %.;X;X;XoXK.;XoX;X;X%.+ w E.;X;X;X;X;XoXoX                                                    ",
"                                                                                                                        w * * * * * * * : s K ..B.E.B + : H ` %.K %.;X;X;X;X;XoXK.oX;XB.  * e.;X;X;X;XoX                                                        ",
"                                                                                                                        w * * * * * * * %.Q.'.Q.;X'.B H m.oX;X;XQ.k.;XoXQ.;X;XQ.1.oX;X                                                                          ",
"                                                                                                                ` s : : : * * * * * * * a.;XoXE.;X'.( Q.;Xk.K.;XoXE.;X;X1.Q.;Xa.( oXoX                                                                          ",
"                                                                                                        B q     w * * * * * * * * : s s a.;XoXE.;X'.m.;XoXE.'.;XoXK.;X;X( q.;Xa.                                                                                ",
"                                                                                                  Q w : * * * * * * * * + * * + s a.'.E.Q.;XoXE.;XoXE.Q.K...m.;XE.e.;X;X                                                                                        ",
"                                                                                          K s : w : * * * * * * * * : H %.a.q.B q.;X;XQ.oX;X'.E.;XoXK.'.oXQ.oX;X                                                                                                ",
"                                                                  K s q * * * * *   z : : * + * * * * * * * * w q z k.oX;X;X;XB.E.;XE.B k.;X'.E.;X'.m.;X;X;XoX                                                                                                  ",
"                                                              R q * * * * * * * * * * w K ` Q q * * * w z H e.E.` m.;XK.1.'.;X'.'.;XB.: e.;XoXQ.;XoX                                                                                                            ",
"                                                      B q * : * * * * * * * * * : R e.E.oX;X;X..* * K K.'.E.;XoXk.oX;X( q E.;XE.Q.;XK.: a.;XoX                                                                                                                  ",
"                                                R s z : * * * * * * * * q H ` s >.oX;XQ.'.;X;Xq.* : m.;XoX'.;XoXK.oX;Xq.` oX;X1.K.;XoX                                                                                                                          ",
"                                              z * * * * * * * * * * : : >.oX'.%.oXoXK...E.;X;X..+ s '.;Xk.%.;XoXm.oX;XoX;X;XoX                                                                                                                                  ",
"                                              q * * * * * * * * s >.B.` >.Q.B...e.K.Q.'.;X;XB.s + s m.q.H ` ;XoXe.Q.;XoXoX                                                                                                                                      ",
"                                            B * * * * * * * * + E ;X;Xm.k.'.'.Q B.;X;X'.Q.B.a.a.    w * + ..;XoX                                                                                                                                                ",
"                                ..z : * * * * * * * * + * q : q e.;X;X;XoX;X'.B.;X;XE.E k.oX;X;X                                                                                                                                                                ",
"                              %.q * * * * * * * * * q Q a.K.B...Q.;X;XK.K.;XoX'.;X;X'.B.oX;XoX                                                                                                                                                                  ",
"                              B + * * * * * * * * z m.oX'.oX;XE.k.oX;X%.q.;XoXB.;X;X;X;XoXoX                                                                                                                                                                    ",
"                              w * * * * * * * * : a.;XQ.k.oX;XK.%.;X;X..1.;XoXq.'.oXoX                                                                                                                                                                          ",
"                              z * * * * * * * * s Q.oXQ.m.'.;XE.Q.;X;X` q.;X                                                                                                                                                                                    ",
"                              z * * * * * * * * s K.Q.m.1.oX;Xq.Q.;XoX                                                                                                                                                                                          ",
"                                    * * * * * * s Q.;X;X;X;X                                                                                                                                                                                                    ",
"                                                  m.oXoX                                                                                                                                                                                                        ",
"                                                                                                                                                                                                                                                                ",
"                                                                                                                                                                                                                                                                ",
"                                                                                                                                                                                                                                                                ",
"                                                                                                                                                                                                                                                                ",
"                                                                                                                                                                                                                                                                ",
"                                                                                                                                                                                                                                                                ",
"                                                                                                                                                                                                                                                                ",
"                                                                                                                                                                                                                                                                ",
"                                                                                                                                                                                                                                                                ",
"                                                                                                                                                                                                                                                                ",
"                                                                                                                                                                                                                                                                ",
"                                                                                                                                                                                                                                                                ",
"                                                                                                                                                                                                                                                                "
};
