/* XPM */
static char *oms_109[] = {
/* columns rows colors chars-per-pixel */
"128 54 158 2 ",
"   c #FF00FF",
".  c #0F0F0F",
"X  c #101010",
"o  c #111111",
"O  c #121212",
"+  c #131313",
"@  c #141414",
"#  c #151515",
"$  c #161616",
"%  c #171717",
"&  c #181818",
"*  c #191919",
"=  c #1A1A1A",
"-  c #1B1B1B",
";  c #1C1C1C",
":  c #1D1D1D",
">  c #1E1E1E",
",  c #202020",
"<  c #232323",
"1  c #252525",
"2  c #262626",
"3  c #272727",
"4  c #282828",
"5  c #2A2A2A",
"6  c #2B2B2B",
"7  c #2C2C2C",
"8  c #2D2D2D",
"9  c #2E2E2E",
"0  c #2F2F2F",
"q  c #303030",
"w  c #323232",
"e  c #333333",
"r  c #343434",
"t  c #353535",
"y  c #363636",
"u  c #393939",
"i  c #3A3A3A",
"p  c #3B3B3B",
"a  c #3E3E3E",
"s  c #404040",
"d  c #444444",
"f  c #454545",
"g  c #484848",
"h  c #4B4B4B",
"j  c #4C4C4C",
"k  c #4C4C4C",
"l  c #4E4E4E",
"z  c #4F4F4F",
"x  c #505050",
"c  c #575757",
"v  c #585858",
"b  c #5C5C5C",
"n  c #5D5D5D",
"m  c #5E5E5E",
"M  c #5F5F5F",
"N  c #656565",
"B  c #676767",
"V  c #686868",
"C  c #6B6B6B",
"Z  c #6C6C6C",
"A  c #6D6D6D",
"S  c #727272",
"D  c #747474",
"F  c #767676",
"G  c #777777",
"H  c #7A7A7A",
"J  c #7D7D7D",
"K  c #808080",
"L  c #828282",
"P  c #838383",
"I  c #878787",
"U  c #888888",
"Y  c #898989",
"T  c #8C8C8C",
"R  c #8F8F8F",
"E  c #929292",
"W  c #939393",
"Q  c #949494",
"!  c #959595",
"~  c #969696",
"^  c #999999",
"/  c #9B9B9B",
"(  c #A0A0A0",
")  c #A1A1A1",
"_  c #A2A2A2",
"`  c #A3A3A3",
"'  c #A5A5A5",
"]  c #A6A6A6",
"[  c #A7A7A7",
"{  c #A8A8A8",
"}  c #AAAAAA",
"|  c #ABABAB",
" . c #ADADAD",
".. c #AEAEAE",
"X. c #B1B1B1",
"o. c #B2B2B2",
"O. c #B2B2B2",
"+. c #B4B4B4",
"@. c #B5B5B5",
"#. c #B6B6B6",
"$. c #B9B9B9",
"%. c #BABABA",
"&. c #BBBBBB",
"*. c #BCBCBC",
"=. c #BDBDBD",
"-. c #BFBFBF",
";. c #C2C2C2",
":. c #C3C3C3",
">. c #C4C4C4",
",. c #C7C7C7",
"<. c #CACACA",
"1. c #CCCCCC",
"2. c #CDCDCD",
"3. c #CECECE",
"4. c #CFCFCF",
"5. c #D0D0D0",
"6. c #D2D2D2",
"7. c #D3D3D3",
"8. c #D4D4D4",
"9. c #D5D5D5",
"0. c #D6D6D6",
"q. c #D7D7D7",
"w. c #D8D8D8",
"e. c #D9D9D9",
"r. c #DADADA",
"t. c #DBDBDB",
"y. c #DCDCDC",
"u. c #DDDDDD",
"i. c #DEDEDE",
"p. c #DFDFDF",
"a. c #E0E0E0",
"s. c #E1E1E1",
"d. c #E2E2E2",
"f. c #E3E3E3",
"g. c #E4E4E4",
"h. c #E6E6E6",
"j. c #E6E6E6",
"k. c #E7E7E7",
"l. c #E8E8E8",
"z. c #E9E9E9",
"x. c #EBEBEB",
"c. c #ECECEC",
"v. c #EDEDED",
"b. c #EEEEEE",
"n. c #EFEFEF",
"m. c #F0F0F0",
"M. c #F1F1F1",
"N. c #F3F3F3",
"B. c #F4F4F4",
"V. c #F5F5F5",
"C. c #F6F6F6",
"Z. c #F7F7F7",
"A. c #F8F8F8",
"S. c #F9F9F9",
"D. c #FAFAFA",
"F. c #FCFCFC",
"G. c #FDFDFD",
"H. c #FFFFF1",
/* pixels */
"                                                                                                                                                                                                                                                                ",
"                                                                                                                                                                                                                                                                ",
"                                                                                                                                                                                                                                                                ",
"                                                                                                                                                                                                                                                                ",
"                                                                                                                                                                                                                                                                ",
"                                                                                                                                                                                                                                                                ",
"                                                                                                                                                                                                                                                                ",
"                                                                                                                                                                                                                                                                ",
"                                                                                                                                                                                                                                                                ",
"                                                                                                                                                                                                                                                                ",
"                                                                                                                                                                                                                                                                ",
"                                                                                                                                                                                                                                                                ",
"                                                                                                                                                                                                                                                                ",
"                                                                                                                o o o > r o v                                                                                                                                   ",
"                                                                                                  3.r H v 7 o o o o o o o o o > S                                                                                                                               ",
"                                                                                                M.M.^ $.:.@.7 o o o o o o o o o < r S                                                                                                                           ",
"                                                                                                b.u.u.a.3.:.@.) 7 o o o o o o o o o > I                                                                                                                         ",
"                                                                                                a.8.b.b.M.8.a.S. .> o o o o o o o o o i 3.                                                                                                                      ",
"                                                                                                M.3.u.3.M.u.) 3.a.g o o o o o o o o o <  .                                                                                                                      ",
"                                                                                                  S.b.a.:.a.u.8.b.N o o o o o o o o o > )                                                                                                                       ",
"                                                                                                    u.b.$.b.M.S.S.N o o o o o o o o o o f 7                                                                                                                     ",
"                                                                                                      M.$.b.M.u.a.x H A > o o o o o o o o o i I                                                                                                                 ",
"                                                                                                          u.u.$.) 7  .M.~ > o o o o o o o o o r N                                                                                                               ",
"                                                                                                            a.S.M.A  .M.8.) H > o > > o o o o o o r v                                                                                                           ",
"                                                                                                              M.M.v A @.a.b.M.v o v ~ < o o o o o o o o o < A                                                                                                   ",
"                                                                                                                        b.a.3.@.~ R a.@.< o o o o o o o o o >  .                                                                                                ",
"                                                                                                                        a.8.H a.b.u.a.8.7 o o o o o o o o o > )                                                                                                 ",
"                                                                                                                        u.8.@.M.S.M.a.8.7 . > 7 o o o o o o > v                                                                                                 ",
"                                                                                                                          b.S.S.a. .a.8.R A r $.g o o o o o o o o o o g                                                                                         ",
"                                                                                                                            M.u.u.R a.a.a.b.S u.~ f 7 o o o o o o o o > r v                                                                                     ",
"                                                                                                                                u.R a.a.b.u.:.a.@.@.$.< o o o o o o o o o o I                                                                                   ",
"                                                                                                                                    a.a.8.a.a.b.8.u.a.r > > o o o o o o o o v                                                                                   ",
"                                                                                                                                      a.u.$.b.b.M.S.u.r ~ $.i o o o o o o o o o o g                                                                             ",
"                                                                                                                                        b.M.b.a.b.S.u.f 8.S.$.> o o o o o o o o o o S                                                                           ",
"                                                                                                                                          S.8.u.3.M.u.g u.M.b.g o o o o o o o o o o i 3.                                                                        ",
"                                                                                                                                              u.@.8.8.g 8.S 3.H o o o o o o o o o o < @.                                                                        ",
"                                                                                                                                                  @.8.g 8.g ) ~ o o o o o o o o o o > )                                                                         ",
"                                                                                                                                                    8.f 3.H  .) o o o o o o o o o o o )                                                                         ",
"                                                                                                                                                        a.b.M.^ o o o o o o o o o o > )                                                                         ",
"                                                                                                                                                          S.S.I o o o o o o o o o o >  .                                                                        ",
"                                                                                                                                                          M.M.v o o o o o o o o o o r                                                                           ",
"                                                                                                                                                                                                                                                                ",
"                                                                                                                                                                                                                                                                ",
"                                                                                                                                                                                                                                                                ",
"                                                                                                                                                                                                                                                                ",
"                                                                                                                                                                                                                                                                ",
"                                                                                                                                                                                                                                                                ",
"                                                                                                                                                                                                                                                                ",
"                                                                                                                                                                                                                                                                ",
"                                                                                                                                                                                                                                                                ",
"                                                                                                                                                                                                                                                                ",
"                                                                                                                                                                                                                                                                ",
"                                                                                                                                                                                                                                                                ",
"                                                                                                                                                                                                                                                                "
};
