/* XPM */
static char *oms_243[] = {
/* columns rows colors chars-per-pixel */
"128 54 177 2 ",
"   c #FF00FF",
".  c #0F0F0F",
"X  c #101010",
"o  c #111111",
"O  c #121212",
"+  c #131313",
"@  c #141414",
"#  c #151515",
"$  c #161616",
"%  c #171717",
"&  c #181818",
"*  c #191919",
"=  c #1A1A1A",
"-  c #1B1B1B",
";  c #1C1C1C",
":  c #1D1D1D",
">  c #1E1E1E",
",  c #1F1F1F",
"<  c #202020",
"1  c #212121",
"2  c #222222",
"3  c #232323",
"4  c #242424",
"5  c #252525",
"6  c #262626",
"7  c #272727",
"8  c #282828",
"9  c #292929",
"0  c #2A2A2A",
"q  c #2B2B2B",
"w  c #2C2C2C",
"e  c #2D2D2D",
"r  c #2F2F2F",
"t  c #303030",
"y  c #333333",
"u  c #343434",
"i  c #353535",
"p  c #383838",
"a  c #3D3D3D",
"s  c #404040",
"d  c #414141",
"f  c #424242",
"g  c #434343",
"h  c #454545",
"j  c #464646",
"k  c #474747",
"l  c #484848",
"z  c #494949",
"x  c #4A4A4A",
"c  c #4B4B4B",
"v  c #4C4C4C",
"b  c #4F4F4F",
"n  c #505050",
"m  c #535353",
"M  c #555555",
"N  c #565656",
"B  c #585858",
"V  c #595959",
"C  c #5B5B5B",
"Z  c #5D5D5D",
"A  c #5E5E5E",
"S  c #5F5F5F",
"D  c #606060",
"F  c #616161",
"G  c #636363",
"H  c #656565",
"J  c #686868",
"K  c #696969",
"L  c #6A6A6A",
"P  c #6D6D6D",
"I  c #6E6E6E",
"U  c #6F6F6F",
"Y  c #707070",
"T  c #727272",
"R  c #737373",
"E  c #747474",
"W  c #767676",
"Q  c #797979",
"!  c #7B7B7B",
"~  c #7D7D7D",
"^  c #808080",
"/  c #808080",
"(  c #838383",
")  c #848484",
"_  c #858585",
"`  c #878787",
"'  c #888888",
"]  c #898989",
"[  c #8A8A8A",
"{  c #8C8C8C",
"}  c #929292",
"|  c #939393",
" . c #999999",
".. c #9C9C9C",
"X. c #9D9D9D",
"o. c #9E9E9E",
"O. c #A0A0A0",
"+. c #A3A3A3",
"@. c #A4A4A4",
"#. c #A5A5A5",
"$. c #A6A6A6",
"%. c #A7A7A7",
"&. c #A8A8A8",
"*. c #A9A9A9",
"=. c #ABABAB",
"-. c #ACACAC",
";. c #AFAFAF",
":. c #B0B0B0",
">. c #B2B2B2",
",. c #B4B4B4",
"<. c #B5B5B5",
"1. c #B6B6B6",
"2. c #B7B7B7",
"3. c #B8B8B8",
"4. c #B9B9B9",
"5. c #BABABA",
"6. c #BBBBBB",
"7. c #BCBCBC",
"8. c #BDBDBD",
"9. c #C0C0C0",
"0. c #C2C2C2",
"q. c #C5C5C5",
"w. c #C7C7C7",
"e. c #C8C8C8",
"r. c #C9C9C9",
"t. c #CCCCCC",
"y. c #CDCDCD",
"u. c #CECECE",
"i. c #CFCFCF",
"p. c #D0D0D0",
"a. c #D1D1D1",
"s. c #D2D2D2",
"d. c #D3D3D3",
"f. c #D4D4D4",
"g. c #D5D5D5",
"h. c #D6D6D6",
"j. c #D7D7D7",
"k. c #D8D8D8",
"l. c #D9D9D9",
"z. c #DADADA",
"x. c #DBDBDB",
"c. c #DCDCDC",
"v. c #DDDDDD",
"b. c #DEDEDE",
"n. c #DFDFDF",
"m. c #E0E0E0",
"M. c #E1E1E1",
"N. c #E2E2E2",
"B. c #E3E3E3",
"V. c #E4E4E4",
"C. c #E6E6E6",
"Z. c #E6E6E6",
"A. c #E7E7E7",
"S. c #E8E8E8",
"D. c #E9E9E9",
"F. c #EAEAEA",
"G. c #EBEBEB",
"H. c #ECECEC",
"J. c #EDEDED",
"K. c #EEEEEE",
"L. c #EFEFEF",
"P. c #F0F0F0",
"I. c #F1F1F1",
"U. c #F2F2F2",
"Y. c #F3F3F3",
"T. c #F4F4F4",
"R. c #F5F5F5",
"E. c #F6F6F6",
"W. c #F7F7F7",
"Q. c #F8F8F8",
"!. c #F9F9F9",
"~. c #FAFAFA",
"^. c #FBFBFB",
"/. c #FCFCFC",
"(. c #FDFDFD",
"). c #FEFEFE",
"_. c #FFFFF1",
/* pixels */
"                                                                                                                                                                                                                                                                ",
"                                                                                                                                                                                                                                                                ",
"                                                                                                                                                                                                                                                                ",
"                                                                                                                                                                                                                                                                ",
"                                                                                                                                                                                                                                                                ",
"                                                                                                                                                                                                                                                                ",
"                                                                                                                                                                                                                                                                ",
"                                                                                                                                                                                                                                                                ",
"                                                                                                                                                                                                                                                                ",
"                                                                                                                                                                                                                                                                ",
"                                                                                                                                                                a , O                                                                                           ",
"                                                                                                                                                            M , O O O O O O O O                                                                                 ",
"                                                                                                                                                          F O O O O O O O O O e | z.W.W.                                                                        ",
"                                                                                                                                                T j , O e 5 O O O O O O O O y t._._._._.                                                                        ",
"                                                                                                                                              _ 5 O O O O O O O O O y F 5 O %._.D.t.W._.                                                                        ",
"                                                                                                                                        j , O 5 O O O O O O . O , ' N.z.e y N.W.F e g._.                                                                        ",
"                                                                                                                                      j O O O O O O O O O e T M y N._.z.5 x W.g.5 5 z._.                                                                        ",
"                                                                                                                                      j O O O O O O O O j z._.;.C W._.z.5 M _.N.M ' W.W.                                                                        ",
"                                                                                                                        C 5 O         a O O O O O O O . C _._.N.;._._.z.5 x W._.D.W._.W.                                                                        ",
"                                                                                                                    j e O O O O O O O O . , j y O O O O C W._._.W.W._.z.e y N._._._.W.                                                                          ",
"                                                                                                                  j O O O O O O O O O e C %.D.P O C 1.1._ W._._._.z.W.D.  O 1._.W.                                                                              ",
"                                                                                                                  j O O O O O O O O , 7.W.N._.P ' W.W._.t.W.N.N.W.%.D._.                                                                                        ",
"                                                                                                                  e O O O O O O O . , z.W.N.W.%.D.g.g._.z.W.t.1.W.! D._.                                                                                        ",
"                                                                                                            ! , O O O O O O O O O y j z.W.N.W.g._.N.N._.t.W.g._ W.                                                                                              ",
"                                                                                                      j , 5 5 O O O O O O O O . C z.D.W.W.N.W.z.N.;.w.W.%.W.W.                                                                                                  ",
"                                                                                                  F , O O O O O O O O O y ! %.C 7._.N.W.W.N.W.z.W.W._.W.                                                                                                        ",
"                                                                                            F e , O O O O O O O O O , C z._._.g.N.D.F z.W.N.W.w.W.W.                                                                                                            ",
"                                                                            x 5 O O O O , , , O . , y 5 O O O , j %._ g.D.7.W.D.D.N.j g.W.N._.                                                                                                                  ",
"                                                                        P 5 O O O O O O O O O , P 7.D.1.5 O P w.g._.t._.%.x W.N.D.N.x g.W.                                                                                                                      ",
"                                                                  P e , , O O O O O O O O 5 e ;._._._.D.y e z._.W.W.z._.1.' _.7.z.W.                                                                                                                            ",
"                                                                  5 O O O O O O O O . 5 ..;..._.g.1._.N.e x W.t.1._.z.W.W.W.W.                                                                                                                                  ",
"                                                            P , O O O O O O O O O 5 M F D.t.7.z.t.z._.;.O M N._ .._.7.D._.W.                                                                                                                                    ",
"                                                            M . O O O O O O O O O %.D._ t.1.T z._._.g.! 5 e a O .._.                                                                                                                                            ",
"                                                          ' 5 O O O O O O O O . 5 t._.z.W.g.w._.g.;.z.D.                                                                                                                                                        ",
"                                                    C e O , O O O O O O O , a j F W._.N.W.N.D._.7.7._.W.                                                                                                                                                        ",
"                                                  M O O O O O O O O O O y ;.D.D.7.W.W...D.N.D._._._.W.                                                                                                                                                          ",
"                                                | , O O O O O O O O O 5 w.D.z._.7.g.W.! D.z.t._.W.W.                                                                                                                                                            ",
"                                                P O O O O O O O O O . C _.N.N._.w.z.D.! D.D.                                                                                                                                                                    ",
"                                                P O O O O O O O O O O _ W.w.w._.g.W.W.'                                                                                                                                                                         ",
"                                                T O O O O O O O O O O T D.t.z.W.;.W.                                                                                                                                                                            ",
"                                                _ , O O O O O O O O . T _._._.                                                                                                                                                                                  ",
"                                                                                                                                                                                                                                                                ",
"                                                                                                                                                                                                                                                                ",
"                                                                                                                                                                                                                                                                ",
"                                                                                                                                                                                                                                                                ",
"                                                                                                                                                                                                                                                                ",
"                                                                                                                                                                                                                                                                ",
"                                                                                                                                                                                                                                                                ",
"                                                                                                                                                                                                                                                                ",
"                                                                                                                                                                                                                                                                ",
"                                                                                                                                                                                                                                                                ",
"                                                                                                                                                                                                                                                                ",
"                                                                                                                                                                                                                                                                ",
"                                                                                                                                                                                                                                                                "
};
