/* XPM */
static char *oms_251[] = {
/* columns rows colors chars-per-pixel */
"128 54 174 2 ",
"   c #FF00FF",
".  c #0D0D0D",
"X  c #0F0F0F",
"o  c #101010",
"O  c #111111",
"+  c #121212",
"@  c #131313",
"#  c #141414",
"$  c #151515",
"%  c #161616",
"&  c #171717",
"*  c #181818",
"=  c #1A1A1A",
"-  c #1B1B1B",
";  c #1D1D1D",
":  c #1E1E1E",
">  c #1F1F1F",
",  c #202020",
"<  c #212121",
"1  c #222222",
"2  c #242424",
"3  c #252525",
"4  c #262626",
"5  c #272727",
"6  c #292929",
"7  c #2A2A2A",
"8  c #2B2B2B",
"9  c #2C2C2C",
"0  c #2D2D2D",
"q  c #2E2E2E",
"w  c #2F2F2F",
"e  c #323232",
"r  c #343434",
"t  c #353535",
"y  c #363636",
"u  c #373737",
"i  c #3A3A3A",
"p  c #3B3B3B",
"a  c #3C3C3C",
"s  c #3D3D3D",
"d  c #3E3E3E",
"f  c #3F3F3F",
"g  c #404040",
"h  c #414141",
"j  c #424242",
"k  c #454545",
"l  c #464646",
"z  c #494949",
"x  c #4A4A4A",
"c  c #4F4F4F",
"v  c #505050",
"b  c #515151",
"n  c #525252",
"m  c #535353",
"M  c #545454",
"N  c #555555",
"B  c #585858",
"V  c #5A5A5A",
"C  c #5B5B5B",
"Z  c #5D5D5D",
"A  c #5E5E5E",
"S  c #5F5F5F",
"D  c #606060",
"F  c #626262",
"G  c #636363",
"H  c #676767",
"J  c #6C6C6C",
"K  c #6E6E6E",
"L  c #707070",
"P  c #727272",
"I  c #747474",
"U  c #757575",
"Y  c #767676",
"T  c #797979",
"R  c #7A7A7A",
"E  c #7C7C7C",
"W  c #7D7D7D",
"Q  c #808080",
"!  c #828282",
"~  c #858585",
"^  c #878787",
"/  c #898989",
"(  c #8B8B8B",
")  c #8E8E8E",
"_  c #909090",
"`  c #949494",
"'  c #969696",
"]  c #979797",
"[  c #989898",
"{  c #9A9A9A",
"}  c #9B9B9B",
"|  c #9C9C9C",
" . c #9D9D9D",
".. c #9E9E9E",
"X. c #9F9F9F",
"o. c #A1A1A1",
"O. c #A2A2A2",
"+. c #A3A3A3",
"@. c #A4A4A4",
"#. c #A7A7A7",
"$. c #A9A9A9",
"%. c #AAAAAA",
"&. c #ABABAB",
"*. c #ACACAC",
"=. c #AEAEAE",
"-. c #AFAFAF",
";. c #B0B0B0",
":. c #B2B2B2",
">. c #B2B2B2",
",. c #B4B4B4",
"<. c #B5B5B5",
"1. c #B7B7B7",
"2. c #B8B8B8",
"3. c #B9B9B9",
"4. c #BBBBBB",
"5. c #BCBCBC",
"6. c #BDBDBD",
"7. c #808080",
"8. c #C1C1C1",
"9. c #C2C2C2",
"0. c #C3C3C3",
"q. c #C6C6C6",
"w. c #C7C7C7",
"e. c #C9C9C9",
"r. c #CACACA",
"t. c #CCCCCC",
"y. c #CDCDCD",
"u. c #CECECE",
"i. c #CFCFCF",
"p. c #D0D0D0",
"a. c #D2D2D2",
"s. c #D3D3D3",
"d. c #D6D6D6",
"f. c #D7D7D7",
"g. c #D8D8D8",
"h. c #D9D9D9",
"j. c #DADADA",
"k. c #DBDBDB",
"l. c #DCDCDC",
"z. c #DDDDDD",
"x. c #DEDEDE",
"c. c #DFDFDF",
"v. c #E0E0E0",
"b. c #E1E1E1",
"n. c #E2E2E2",
"m. c #E3E3E3",
"M. c #E4E4E4",
"N. c #E6E6E6",
"B. c #E6E6E6",
"V. c #E7E7E7",
"C. c #E8E8E8",
"Z. c #E9E9E9",
"A. c #EAEAEA",
"S. c #EBEBEB",
"D. c #ECECEC",
"F. c #EDEDED",
"G. c #EEEEEE",
"H. c #EFEFEF",
"J. c #F0F0F0",
"K. c #F1F1F1",
"L. c #F2F2F2",
"P. c #F3F3F3",
"I. c #F4F4F4",
"U. c #F5F5F5",
"Y. c #F6F6F6",
"T. c #F7F7F7",
"R. c #F8F8F8",
"E. c #F9F9F9",
"W. c #FAFAFA",
"Q. c #FBFBFB",
"!. c #FCFCFC",
"~. c #FDFDFD",
"^. c #FEFEFE",
"/. c #FFFFF1",
/* pixels */
"                                                                                                                                                                                                                                                                ",
"                                                                                                                                                                                                                                                                ",
"                                                                                                                                                                                                                                                                ",
"                                                                                                                                                                                                                                                                ",
"                                                                                                                                                                                                                                                                ",
"                                                                                                                                                                                                                                                                ",
"                                                                                                                                                                                                                                                                ",
"                                                                                                                                                                                                                                                                ",
"                                                                                                                                                                                                                                                                ",
"                                                                                                                                                                                                                                                                ",
"                                                                                                                                                                                                                                                                ",
"                                                                                                                                                i @ @ @ @ @ @ @ @                                                                                               ",
"                                                                                                                                              l @ @ @ @ @ @ @ @ @ , [ S.K.                                                                                      ",
"                                                                                                                                        l   z : @ @ @ @ @ @ @ @ : o./././.                                                                                      ",
"                                                                                                                                    ] 8 @ @ @ @ @ @ @ @ @ , v : z K.M.z./.                                                                                      ",
"                                                                                                                                B , e @ @ @ @ @ @ @ @ @ 8 4.z.8 ~ K.B P /.                                                                                      ",
"                                                                                                                              B @ @ @ @ @ @ @ @ @ : v B v /.z.8 [ M.8 P /.                                                                                      ",
"                                                                                                                              l @ @ @ @ @ @ @ @ @ D K.8.~ /.z.8 o.S.B 4./.                                                                                      ",
"                                                                                                                              i @ @ @ @ @ @ @ @ X W /.M.8./.z.8 o./.K./.K.                                                                                      ",
"                                                                                                                  v : @ @ @ : : @ @ @ @ 8 i @ @ @ W /./.K./.z.8 ~ /./.K.                                                                                        ",
"                                                                                                              [ , @ @ @ @ @ @ @ @ @ , D y.~ , ( >.[ /./.K.z.M.i v K.K.                                                                                          ",
"                                                                                                              ( @ @ @ @ @ @ @ @ @ @ [ M.S.] [ K./.f.S.M.M.4.K.                                                                                                  ",
"                                                                                                              W @ @ @ @ @ @ @ @ @ @ >.M.S.4.M.f.K.M.M.>.f.$./.                                                                                                  ",
"                                                                                                            i , @ @ @ @ @ @ @ @ : e >.M.S.z.K.M.K.z.S.] M.                                                                                                      ",
"                                                                                                          z @ @ @ @ @ @ @ @ @ @ W M.S.M.S.M.f.$.M.4.K.                                                                                                          ",
"                                                                                                    z : @ @ @ @ @ @ @ @ @ l ] J y.K.K.M.S.M.K.K.S.                                                                                                              ",
"                                                                                                  l @ @ @ @ @ @ @ @ @ @ v M./.z.S.o.4.M.S.z.K.K.                                                                                                                ",
"                                                                                    8 @ @ @ , e @ @ @ @ @ 8 8 @ @ : D [ 8.z.z.S.K.( $.M.M.                                                                                                                      ",
"                                                                                J , @ @ @ @ @ @ @ @ @ , ~ z.4.: i 4.M.z.S.~ $.S.S.] $.K.                                                                                                                        ",
"                                                                            v l : @ @ @ @ @ @ @ @ : , [ /./.z.8 ( /./.M.K.o.y.y.M.                                                                                                                              ",
"                                                                          P @ @ @ @ @ @ @ @ @ X 8 $.[ S.8.M.z.8 >.z.f.M.S.K.K.                                                                                                                                  ",
"                                                                        e , @ @ @ @ @ @ @ @ @ i P M.4.z.y.K.>.: $.[ 8.f.z./.                                                                                                                                    ",
"                                                                      J @ @ @ @ @ @ @ @ @ @ i z.o.y.( f./.S.~ , e : 4.K.                                                                                                                                        ",
"                                                                      v @ @ @ @ @ @ @ @ @ X v K.M.S.8.K.8.y.M.                                                                                                                                                  ",
"                                                                  e 8 : @ @ @ @ @ @ @ @ 8 l ] /.S.K.z./.$.M./.                                                                                                                                                  ",
"                                                              $.e @ @ @ @ @ @ @ @ @ @ B z.S.z./.4.S.M./././.                                                                                                                                                    ",
"                                                              D @ @ @ @ @ @ @ @ @ @ 8 f.M.K.4.S.o.S.y.K.K.                                                                                                                                                      ",
"                                                              i @ @ @ @ @ @ @ @ @ X D K.z.K.8.S.[ S.                                                                                                                                                            ",
"                                                              e @ @ @ @ @ @ @ @ @ X W S.4.K.S.K.$.                                                                                                                                                              ",
"                                                              i @ @ @ @ @ @ @ @ @ @ P M.f.M.8.                                                                                                                                                                  ",
"                                                              i @ @ @ @ @ @ @ @ @ X P /./.                                                                                                                                                                      ",
"                                                                                      S.                                                                                                                                                                        ",
"                                                                                                                                                                                                                                                                ",
"                                                                                                                                                                                                                                                                ",
"                                                                                                                                                                                                                                                                ",
"                                                                                                                                                                                                                                                                ",
"                                                                                                                                                                                                                                                                ",
"                                                                                                                                                                                                                                                                ",
"                                                                                                                                                                                                                                                                ",
"                                                                                                                                                                                                                                                                ",
"                                                                                                                                                                                                                                                                ",
"                                                                                                                                                                                                                                                                ",
"                                                                                                                                                                                                                                                                ",
"                                                                                                                                                                                                                                                                "
};
