/* XPM */
static char *oms_312[] = {
/* columns rows colors chars-per-pixel */
"128 54 197 2 ",
"   c #FF00FF",
".  c #0B0B0B",
"X  c #0C0C0C",
"o  c #0D0D0D",
"O  c #0E0E0E",
"+  c #0F0F0F",
"@  c #101010",
"#  c #111111",
"$  c #121212",
"%  c #131313",
"&  c #141414",
"*  c #151515",
"=  c #161616",
"-  c #171717",
";  c #181818",
":  c #191919",
">  c #1A1A1A",
",  c #1B1B1B",
"<  c #1C1C1C",
"1  c #1D1D1D",
"2  c #1E1E1E",
"3  c #1F1F1F",
"4  c #202020",
"5  c #212121",
"6  c #222222",
"7  c #232323",
"8  c #252525",
"9  c #262626",
"0  c #282828",
"q  c #292929",
"w  c #2A2A2A",
"e  c #2D2D2D",
"r  c #2F2F2F",
"t  c #303030",
"y  c #313131",
"u  c #333333",
"i  c #343434",
"p  c #363636",
"a  c #373737",
"s  c #383838",
"d  c #3A3A3A",
"f  c #3B3B3B",
"g  c #3D3D3D",
"h  c #3E3E3E",
"j  c #3F3F3F",
"k  c #414141",
"l  c #424242",
"z  c #434343",
"x  c #444444",
"c  c #464646",
"v  c #474747",
"b  c #484848",
"n  c #494949",
"m  c #4A4A4A",
"M  c #4B4B4B",
"N  c #4E4E4E",
"B  c #505050",
"V  c #515151",
"C  c #525252",
"Z  c #535353",
"A  c #545454",
"S  c #555555",
"D  c #565656",
"F  c #575757",
"G  c #585858",
"H  c #5B5B5B",
"J  c #5C5C5C",
"K  c #606060",
"L  c #626262",
"P  c #636363",
"I  c #646464",
"U  c #656565",
"Y  c #666666",
"T  c #676767",
"R  c #686868",
"E  c #696969",
"W  c #6A6A6A",
"Q  c #6C6C6C",
"!  c #6D6D6D",
"~  c #6E6E6E",
"^  c #707070",
"/  c #737373",
"(  c #767676",
")  c #787878",
"_  c #7D7D7D",
"`  c #7E7E7E",
"'  c #808080",
"]  c #808080",
"[  c #818181",
"{  c #828282",
"}  c #848484",
"|  c #858585",
" . c #868686",
".. c #878787",
"X. c #888888",
"o. c #898989",
"O. c #8A8A8A",
"+. c #8B8B8B",
"@. c #8C8C8C",
"#. c #8D8D8D",
"$. c #8E8E8E",
"%. c #8F8F8F",
"&. c #909090",
"*. c #939393",
"=. c #949494",
"-. c #959595",
";. c #969696",
":. c #979797",
">. c #989898",
",. c #999999",
"<. c #9A9A9A",
"1. c #9B9B9B",
"2. c #9D9D9D",
"3. c #9E9E9E",
"4. c #9F9F9F",
"5. c #A0A0A0",
"6. c #A2A2A2",
"7. c #A3A3A3",
"8. c #A5A5A5",
"9. c #A6A6A6",
"0. c #A7A7A7",
"q. c #AAAAAA",
"w. c #ACACAC",
"e. c #ADADAD",
"r. c #AEAEAE",
"t. c #B0B0B0",
"y. c #B1B1B1",
"u. c #B2B2B2",
"i. c #B2B2B2",
"p. c #B4B4B4",
"a. c #B5B5B5",
"s. c #B6B6B6",
"d. c #B7B7B7",
"f. c #B8B8B8",
"g. c #BABABA",
"h. c #BBBBBB",
"j. c #BDBDBD",
"k. c #808080",
"l. c #C0C0C0",
"z. c #C1C1C1",
"x. c #C2C2C2",
"c. c #C3C3C3",
"v. c #C5C5C5",
"b. c #C7C7C7",
"n. c #C8C8C8",
"m. c #C9C9C9",
"M. c #CACACA",
"N. c #CBCBCB",
"B. c #CCCCCC",
"V. c #CDCDCD",
"C. c #CECECE",
"Z. c #CFCFCF",
"A. c #D0D0D0",
"S. c #D1D1D1",
"D. c #D2D2D2",
"F. c #D3D3D3",
"G. c #D4D4D4",
"H. c #D6D6D6",
"J. c #D8D8D8",
"K. c #D9D9D9",
"L. c #DADADA",
"P. c #DBDBDB",
"I. c #DCDCDC",
"U. c #DDDDDD",
"Y. c #DEDEDE",
"T. c #DFDFDF",
"R. c #E0E0E0",
"E. c #E2E2E2",
"W. c #E3E3E3",
"Q. c #E4E4E4",
"!. c #E6E6E6",
"~. c #E6E6E6",
"^. c #E7E7E7",
"/. c #E8E8E8",
"(. c #E9E9E9",
"). c #EAEAEA",
"_. c #EBEBEB",
"`. c #ECECEC",
"'. c #EDEDED",
"]. c #EEEEEE",
"[. c #EFEFEF",
"{. c #F0F0F0",
"}. c #F1F1F1",
"|. c #F2F2F2",
" X c #F3F3F3",
".X c #F4F4F4",
"XX c #F5F5F5",
"oX c #F6F6F6",
"OX c #F7F7F7",
"+X c #F8F8F8",
"@X c #F9F9F9",
"#X c #FAFAFA",
"$X c #FBFBFB",
"%X c #FCFCFC",
"&X c #FDFDFD",
"*X c #FEFEFE",
"=X c #FFFFF1",
/* pixels */
"                                                                                                                                                                                                                                                                ",
"                                                                                                                                                                                                                                                                ",
"                                                                                                                                                                                                                                                                ",
"                                                                                                                                                                                                                                                                ",
"                                                                                                                                                                                                                                                                ",
"                                                                                                                                                                                                                                                                ",
"                                                                                                                                                                                                                                                                ",
"                                                                                                                                                                                                                                                                ",
"                                                                                                                                                                                                                                                                ",
"                                                                                                                                                                                                                                                                ",
"                                                                                                                                                                                                                                                                ",
"                                                                                                                                                                                                                                                                ",
"                                                                                                                                                                                                                                                                ",
"                                                                                                                                                                                                                                                                ",
"                                                                                                                                                                                                                                                                ",
"                                                                                                                                                                                                                                                                ",
"                                                                                                                                                                                                                                                                ",
"                                                                                                                                                                                                                                                                ",
"                                                                                                                                                                                                                                                                ",
"                                    XX+XXXV.O.y $ $ $ $ $ $ $ $ 1 b                                                                                                                                                                                             ",
"                                  +X+X+X+X+X+XS.x $ $ F k.9.O.j $ 1 y 6 1 $ $ $ 1 y $ $ 6 $                                                                                                                                                                     ",
"                                  +X+XXXQ.XX+X+Xk.1 X Q +X+X+X9.$ I Q.I.V.F $ $ $ $ $ $ $ $ y                                                                                                                                                                   ",
"                                +X+X+X9.y J Q.+X'.j X Q +X+X+XI.y u.+X+X+X^ X $ $ $ $ $ F b.e.O.} I q $ $ $ $ $ $ $ 1 O.                                                                                                                                        ",
"                                +X+X+XQ X $ u.+XXXF X Q +X+X+XXXO.Q.+X+X+XQ 1 j x y 1 X Q +X+XI.+XXXI X $ $ $ $ $ $ $ O.                                                                                                                                        ",
"                                  +X+Xe.6 6 b.+XXXF X Q +X+X+X+X'.+X+X+X+X) 9.'.XX'.k.b Q +XXXI.+X+XI X $ $ $ $ $ $ $ x   q                                                                                                                                     ",
"                                  +X+XXXV.V.XX+XXXx X Q +X+XI.XX+X+XXX+XXXu.XX+XS.S.+XS.O.XX+XI.+XXXO.>.u.Q $ 1 j x j 6 $ $ 6 1 X $ $ 1 y       XXXXV.O.b $ $ 1 $ $ $ $ 1 y $ 1 6                                                                               ",
"                                    +X+X+X+X+X+Xb.6 X Q +X+X9.Q.+XXXV.+XXXV.XX+XI.I.+X+Xb.XXXXI.+X+XXX+X+X'.F =.'.XX'.S.) 6 I I j 6 y 1 $ $ F XX+X+X+X+X'.=.x u.u.I 1 1 $ $ $ $ $ q 1 1                                                                         ",
"                                      XXXXXXXXI.F $ X O.+X+X} u.+XV.=.+XXXb.XX+Xb.e.I.I.V.XXXXI.+X+XV.b.+X+Xu.'.+X'.Q.+XXXO.Q.+XS.V.'.=.1 X ) +X+XQ.u.'.+X+X=.Q.+X>.Q b.9.y $ $ $ $ $ $ y                                                                       ",
"                                                        XX+X) } +XO.} +XXX>.I.+XV.k.Q.Q.b.XXXXI.+X+XQ F XX+XI.+X+X=.b Q.+XI.'.+X+X+X+X'.x X Q +X+X'.>.b.S.k.O.b.S.O.>.+X+XF X $ $ X $ $ 1 F                                                                     ",
"                                                                      XX+X^ e.+X+X+X+X'.9.XXXXI.+X+XI b XX+XV.XX+X} q I.+XQ.'.+XS.9.+X+XJ X y S.+X+X+X+XXXk.I Q.XXS.'.+X+Xu.q Q O.} J 6 $ $ $ $ $ $ 1 I                                                         ",
"                                                                                          XXXXI.XX+XI F XX+X>.S.+XQ.k.XX+XI.'.+Xk.b k.V.F X y ^ b.I.I.XX+X+Xb.'.+XI.'.+X+XQ.u.+X+X+XXXk.y $ $ $ $ $ $ q                                                         ",
"                                                                                                        XX+X} >.+X+X+X+XXX=.Q.+Xb.$ 1 6 1 X } XX'.V.F V.+X+XQ.'.+Xe.9.+XXXb.'.+XQ.e.XX+X=.$ $ $ $ $ $ 1 }                                                       ",
"                                                                                                                            '.+Xb.1 $ $       +X+XXXI.'.+X+XI.'.+X>.} +XXX} Q.+XXXQ.XX+Xb.1 $ $ $ $ $ 1                                                         ",
"                                                                                                                                                XX+X+X+X+X'.=.'.+X>.) +X+XQ.'.+XI.) k.S.e.1 $ $ $ $ $ 1 O.                                                      ",
"                                                                                                                                                              XX+X>.Q +X+XI.9.+XXXI.XXXXk.1 $ $ $ $ $ j                                                         ",
"                                                                                                                                                                                XX+X+XXX) $                                                                     ",
"                                                                                                                                                                                                                                                                ",
"                                                                                                                                                                                                                                                                ",
"                                                                                                                                                                                                                                                                ",
"                                                                                                                                                                                                                                                                ",
"                                                                                                                                                                                                                                                                ",
"                                                                                                                                                                                                                                                                ",
"                                                                                                                                                                                                                                                                ",
"                                                                                                                                                                                                                                                                ",
"                                                                                                                                                                                                                                                                ",
"                                                                                                                                                                                                                                                                ",
"                                                                                                                                                                                                                                                                ",
"                                                                                                                                                                                                                                                                ",
"                                                                                                                                                                                                                                                                ",
"                                                                                                                                                                                                                                                                ",
"                                                                                                                                                                                                                                                                ",
"                                                                                                                                                                                                                                                                ",
"                                                                                                                                                                                                                                                                ",
"                                                                                                                                                                                                                                                                "
};
