/* XPM */
static char *oms_280[] = {
/* columns rows colors chars-per-pixel */
"128 54 121 2 ",
"   c #FF00FF",
".  c #0F0F0F",
"X  c #101010",
"o  c #111111",
"O  c #121212",
"+  c #131313",
"@  c #141414",
"#  c #151515",
"$  c #171717",
"%  c #191919",
"&  c #1A1A1A",
"*  c #1B1B1B",
"=  c #1C1C1C",
"-  c #1D1D1D",
";  c #1E1E1E",
":  c #1F1F1F",
">  c #202020",
",  c #212121",
"<  c #222222",
"1  c #272727",
"2  c #292929",
"3  c #2A2A2A",
"4  c #2C2C2C",
"5  c #2E2E2E",
"6  c #2F2F2F",
"7  c #333333",
"8  c #343434",
"9  c #353535",
"0  c #373737",
"q  c #393939",
"w  c #3B3B3B",
"e  c #3D3D3D",
"r  c #3F3F3F",
"t  c #404040",
"y  c #414141",
"u  c #434343",
"i  c #444444",
"p  c #464646",
"a  c #474747",
"s  c #4A4A4A",
"d  c #4E4E4E",
"f  c #535353",
"g  c #555555",
"h  c #565656",
"j  c #595959",
"k  c #5B5B5B",
"l  c #626262",
"z  c #646464",
"x  c #696969",
"c  c #737373",
"v  c #767676",
"b  c #787878",
"n  c #7A7A7A",
"m  c #808080",
"M  c #808080",
"N  c #838383",
"B  c #868686",
"V  c #8A8A8A",
"C  c #8C8C8C",
"Z  c #8E8E8E",
"A  c #919191",
"S  c #929292",
"D  c #969696",
"F  c #979797",
"G  c #989898",
"H  c #999999",
"J  c #9D9D9D",
"K  c #9E9E9E",
"L  c #A0A0A0",
"P  c #A1A1A1",
"I  c #A2A2A2",
"U  c #A5A5A5",
"Y  c #A6A6A6",
"T  c #A7A7A7",
"R  c #AAAAAA",
"E  c #AEAEAE",
"W  c #B0B0B0",
"Q  c #B2B2B2",
"!  c #BABABA",
"~  c #BCBCBC",
"^  c #BDBDBD",
"/  c #C0C0C0",
"(  c #C1C1C1",
")  c #C3C3C3",
"_  c #C5C5C5",
"`  c #C7C7C7",
"'  c #C8C8C8",
"]  c #C9C9C9",
"[  c #CACACA",
"{  c #CBCBCB",
"}  c #CDCDCD",
"|  c #CECECE",
" . c #D0D0D0",
".. c #D1D1D1",
"X. c #D2D2D2",
"o. c #D4D4D4",
"O. c #D5D5D5",
"+. c #D6D6D6",
"@. c #D7D7D7",
"#. c #D8D8D8",
"$. c #D9D9D9",
"%. c #DADADA",
"&. c #DCDCDC",
"*. c #DDDDDD",
"=. c #DEDEDE",
"-. c #E2E2E2",
";. c #E3E3E3",
":. c #E4E4E4",
">. c #E6E6E6",
",. c #E6E6E6",
"<. c #E7E7E7",
"1. c #E8E8E8",
"2. c #E9E9E9",
"3. c #EAEAEA",
"4. c #EBEBEB",
"5. c #ECECEC",
"6. c #EEEEEE",
"7. c #F0F0F0",
"8. c #F4F4F4",
"9. c #F5F5F5",
"0. c #F6F6F6",
/* pixels */
"                                                                                                                                                                                                                                                                ",
"                                                                                                                                                                                                                                                                ",
"                                                                                                                                                                                                                                                                ",
"                                                                                                                                                                                                                                                                ",
"                                                                                                                                                                                                                                                                ",
"                                                                                                                                                                                                                                                                ",
"                                                                                                                                                                                                                                                                ",
"                                                                                                                                                                                                                                                                ",
"                                                                                                                                                                                                                                                                ",
"                                                                                                                                                                                                                                                                ",
"                                                                                                                                                                                                                                                                ",
"                                                                                                                                                                                                                                                                ",
"                                                                                                                                                                                                                                                                ",
"                                                                                                                                                                                                                                                                ",
"                                                                                          / > X X X X X X X X X X c                                                                                                                                             ",
"                                                                                          <.t X X X X X X X X X X t                                                                                                                                             ",
"                                                                                          3.B t X X X X X X X X X > h                                                                                                                                           ",
"                                                                                          R F V : X X X X X X X X X : n                                                                                                                                         ",
"                                                                                          F K ^ n X X X X X X X X X X : F                                                                                                                                       ",
"                                                                                          P P | F X X X X X X X X X X X V                                                                                                                                       ",
"                                                                                          3.R 3.P : 7 X X X X X X X X X t                                                                                                                                       ",
"                                                                                          9.P 3./ z P 3 X X X X X X X X X X c                                                                                                                                   ",
"                                                                                          3.F 3.<./ | q X X X X X X X X X X k                                                                                                                                   ",
"                                                                                              %.@.@.%.q X X X X X X X X X X k                                                                                                                                   ",
"                                                                                              %.@.<.3.c X X X X X X X X X X 3 R                                                                                                                                 ",
"                                                                                                <.^ 3.| t X X X X X X X X X X t                                                                                                                                 ",
"                                                                                                  %.<.<./ 3 X X X X X X X X X X z                                                                                                                               ",
"                                                                                                  3.%.@.3.V 7 x : X X X X X X X : : > P                                                                                                                         ",
"                                                                                                    3.| / %.B @.t X X X X X X X X X X h                                                                                                                         ",
"                                                                                                      %.^ <.K @.K > X X X X X X X X X : K                                                                                                                       ",
"                                                                                                        <.%.K / / h X X X X X X X X X X d                                                                                                                       ",
"                                                                                                        9.@.n | Q B X X X X X X X X X X 7                                                                                                                       ",
"                                                                                                          Q q | %.P X X X X X X X X X X 3 K                                                                                                                     ",
"                                                                                                            n | %.%.d X X X X X X X X X X q                                                                                                                     ",
"                                                                                                              3.@.9.^ : X X X X X X X X X > P                                                                                                                   ",
"                                                                                                              9.@.| / 3 X X X X X X X X X : K                                                                                                                   ",
"                                                                                                                @.@.%.7 X X X X X X X X X > K                                                                                                                   ",
"                                                                                                                  3.^ 3 X X X X X X X X X > P                                                                                                                   ",
"                                                                                                                    @.7 X X X X X X X X X : K                                                                                                                   ",
"                                                                                                                    %.q X X X X X X                                                                                                                             ",
"                                                                                                                                                                                                                                                                ",
"                                                                                                                                                                                                                                                                ",
"                                                                                                                                                                                                                                                                ",
"                                                                                                                                                                                                                                                                ",
"                                                                                                                                                                                                                                                                ",
"                                                                                                                                                                                                                                                                ",
"                                                                                                                                                                                                                                                                ",
"                                                                                                                                                                                                                                                                ",
"                                                                                                                                                                                                                                                                ",
"                                                                                                                                                                                                                                                                ",
"                                                                                                                                                                                                                                                                ",
"                                                                                                                                                                                                                                                                ",
"                                                                                                                                                                                                                                                                ",
"                                                                                                                                                                                                                                                                "
};
