/* XPM */
static char *oms_220[] = {
/* columns rows colors chars-per-pixel */
"128 54 199 2 ",
"   c #FF00FF",
".  c #090909",
"X  c #0C0C0C",
"o  c #0E0E0E",
"O  c #0F0F0F",
"+  c #101010",
"@  c #111111",
"#  c #121212",
"$  c #131313",
"%  c #141414",
"&  c #151515",
"*  c #161616",
"=  c #171717",
"-  c #181818",
";  c #191919",
":  c #1A1A1A",
">  c #1B1B1B",
",  c #1C1C1C",
"<  c #1D1D1D",
"1  c #1E1E1E",
"2  c #1F1F1F",
"3  c #202020",
"4  c #212121",
"5  c #222222",
"6  c #232323",
"7  c #242424",
"8  c #252525",
"9  c #262626",
"0  c #272727",
"q  c #282828",
"w  c #292929",
"e  c #2A2A2A",
"r  c #2B2B2B",
"t  c #2C2C2C",
"y  c #2D2D2D",
"u  c #2E2E2E",
"i  c #2F2F2F",
"p  c #303030",
"a  c #313131",
"s  c #323232",
"d  c #333333",
"f  c #343434",
"g  c #353535",
"h  c #373737",
"j  c #393939",
"k  c #3A3A3A",
"l  c #3B3B3B",
"z  c #3E3E3E",
"x  c #414141",
"c  c #424242",
"v  c #434343",
"b  c #444444",
"n  c #464646",
"m  c #474747",
"M  c #494949",
"N  c #4B4B4B",
"B  c #4C4C4C",
"V  c #4C4C4C",
"C  c #4E4E4E",
"Z  c #4F4F4F",
"A  c #505050",
"S  c #515151",
"D  c #525252",
"F  c #535353",
"G  c #545454",
"H  c #565656",
"J  c #5A5A5A",
"K  c #5B5B5B",
"L  c #5C5C5C",
"P  c #5D5D5D",
"I  c #5E5E5E",
"U  c #606060",
"Y  c #616161",
"T  c #626262",
"R  c #646464",
"E  c #656565",
"W  c #666666",
"Q  c #676767",
"!  c #686868",
"~  c #6A6A6A",
"^  c #6B6B6B",
"/  c #6D6D6D",
"(  c #6F6F6F",
")  c #707070",
"_  c #717171",
"`  c #757575",
"'  c #767676",
"]  c #777777",
"[  c #787878",
"{  c #7D7D7D",
"}  c #7E7E7E",
"|  c #808080",
" . c #808080",
".. c #818181",
"X. c #828282",
"o. c #848484",
"O. c #858585",
"+. c #868686",
"@. c #878787",
"#. c #898989",
"$. c #8B8B8B",
"%. c #8C8C8C",
"&. c #8F8F8F",
"*. c #919191",
"=. c #929292",
"-. c #949494",
";. c #969696",
":. c #999999",
">. c #9A9A9A",
",. c #9B9B9B",
"<. c #9C9C9C",
"1. c #9D9D9D",
"2. c #9F9F9F",
"3. c #A1A1A1",
"4. c #A2A2A2",
"5. c #A3A3A3",
"6. c #A5A5A5",
"7. c #A7A7A7",
"8. c #A8A8A8",
"9. c #A9A9A9",
"0. c #ABABAB",
"q. c #ACACAC",
"w. c #ADADAD",
"e. c #AEAEAE",
"r. c #AFAFAF",
"t. c #B2B2B2",
"y. c #B2B2B2",
"u. c #B5B5B5",
"i. c #B6B6B6",
"p. c #B7B7B7",
"a. c #B8B8B8",
"s. c #B9B9B9",
"d. c #BBBBBB",
"f. c #BCBCBC",
"g. c #BDBDBD",
"h. c #808080",
"j. c #BFBFBF",
"k. c #C0C0C0",
"l. c #C1C1C1",
"z. c #C2C2C2",
"x. c #C3C3C3",
"c. c #C4C4C4",
"v. c #C5C5C5",
"b. c #C6C6C6",
"n. c #C7C7C7",
"m. c #C8C8C8",
"M. c #C9C9C9",
"N. c #CACACA",
"B. c #CBCBCB",
"V. c #CDCDCD",
"C. c #CECECE",
"Z. c #CFCFCF",
"A. c #D0D0D0",
"S. c #D1D1D1",
"D. c #D2D2D2",
"F. c #D3D3D3",
"G. c #D4D4D4",
"H. c #D5D5D5",
"J. c #D6D6D6",
"K. c #D7D7D7",
"L. c #D8D8D8",
"P. c #D9D9D9",
"I. c #DADADA",
"U. c #DBDBDB",
"Y. c #DCDCDC",
"T. c #DDDDDD",
"R. c #DEDEDE",
"E. c #DFDFDF",
"W. c #E0E0E0",
"Q. c #E1E1E1",
"!. c #E2E2E2",
"~. c #E4E4E4",
"^. c #E6E6E6",
"/. c #E6E6E6",
"(. c #E7E7E7",
"). c #E8E8E8",
"_. c #E9E9E9",
"`. c #EAEAEA",
"'. c #EBEBEB",
"]. c #ECECEC",
"[. c #EDEDED",
"{. c #EEEEEE",
"}. c #EFEFEF",
"|. c #F0F0F0",
" X c #F1F1F1",
".X c #F2F2F2",
"XX c #F3F3F3",
"oX c #F4F4F4",
"OX c #F5F5F5",
"+X c #F6F6F6",
"@X c #F7F7F7",
"#X c #F8F8F8",
"$X c #F9F9F9",
"%X c #FAFAFA",
"&X c #FBFBFB",
"*X c #FCFCFC",
"=X c #FDFDFD",
"-X c #FEFEFE",
";X c #FFFFF1",
/* pixels */
"                                                                                                                                                                                                                                                                ",
"                                                                                                                                                                                                                                                                ",
"                                                                                                                                                                                                                                                                ",
"                                                                                                                                                                                                                                                                ",
"                                                                                                                                                                                                                                                                ",
"                                                                                                                                                                                                                                                                ",
"                                                                                                                                                                                                                                                                ",
"                                                                                                                                                                                                                                                                ",
"                                                                                                                                                                                                                                                                ",
"                                                                                                                                                                                                                                                                ",
"                                                                                                                                                                                                                                                                ",
"                                                                                                                                                                                                  P j t 3 - - #                                                 ",
"                                                                                                                                                                                              Y t # # # # # # # #                                               ",
"                                                                                                                                                                                V j -       P - # # # # # # # - s V ~                                           ",
"                                                                                                                                                                            t - # # # # # b 3 # # # # # # s +.d.P. X X X X                                      ",
"                                                                                                                                                              b s 3 - #   j # # # # # # O # - t - # # # P P.;X;X;X;X;X;X;X X                                    ",
"                                                                                                                                                            D # # # # # # # O O # # # 3 ~ :.x.!.P # # V !.;X;XP.7.8. X;X;X X                                    ",
"                                                                                                                                                            D # # # # # # 3 b ~ +.3 O [ ;X;X;X;XY O # 7.;X;XA.j O - x.;X;X X                                    ",
"                                                                                                                                V s t - # # #       V s 3   V # # # # # Y P.[.;X;X~ - V.;X X;X;XY O - x.;X;X8.O O s P.;X;X X                                    ",
"                                                                                                                            D # # # # # # # # # # # # - # # - # # # # O +.;X;X;X;XV.~  X;X X;X;XY O 3 V.;X;X!.[ ] V.;X;X X                                      ",
"                                                                                                                            V # # # # # # # - s b [ 8.8.3 # # # 3 s t # [ ;X;X;X;X X!.;X;X;X;X;X:.O # u.;X;X;X;X;X;X;X X                                        ",
"                                                                                                                            j # # # # # - -.V.P.u. X;XA.3 3 Y 8.A.!.!.:.-.;X;X;X;X;X;X;XA. X;X;X      &. X;X;X;X;X X X                                          ",
"                                                                                                                    s # # # # # # # # # 3 !.;X Xu. X;XA.b d.;X[.A. X;X XV. X;X[.A.;X;X[.[ [.;X;X                                                                ",
"                                                                                                    Y j t - - # - s # # # # # # # # t t t !.;X Xu. X;XA.8.;X;XP.V. X;X XA. X;XP.~ [.;XV.V [.;X X                                                                ",
"                                                                                            b 3 s j # # # # # # # # O # # - # # t :.P.P.x.[.;X Xu. X;X!.P. X[.x.8.[.;X[.d.;X;X[.V V.;X                                                                          ",
"                                                            V s 3 - # # # #       D 3 3 s # # # # # # # # O O # # t Y -.d.x.7.j :.;X;X X[. X;X Xu. X;X!.A.!.!.d.d. X;Xx.:.;X X X                                                                                ",
"                                                  V 3   V - # # # # # # # # O # 3 t t 3 # # # # # O # # 3 b P 3 ~ A.;X;X;X;X;Xx.P.;X;X-.V !.;X Xu. X;X!.A.;X;X;X;X X                                                                                            ",
"                                              P - # # # # # # # # # # # # t Y -.d.P.!.P.~ # # # t ] +.~ V.[.[.+.[.;X!.] d.;X;X X X;X;XP 3 !.;X Xu. X;X X                                                                                                        ",
"                                      b t - - - # # # # # # # - t V D - [ P.;X;X;X;X;X;Xx.- # t x.;X;X X;X;X[.P.;X;X7.O +.;X;XA.!.;X;X] 3 !.;X Xx.                                                                                                              ",
"                                      3 # # # # # # # # # - - Y !. Xd.[ ;X;X X7.-. X;X;Xu.# O ~ ;X;X!.u. X;X X X;X;XA.[ P.;X X&.P.;X X                                                                                                                          ",
"                                    V # # # # # # # # Y 8.A.] [ [.!.8.:.x.A.!.V.!.;X;X;X+.O O +.;X X7.D  X;X[.x.;X;X;X;X;X X                                                                                                                                    ",
"                        b t 3 - # 3 - # # # # # # # - d.;X;Xx.7.!.[.u.D x. X;X;X;X[.A.8.        -.V 3 D  X;X X  [. X X X                                                                                                                                        ",
"                    Y - # # # # # # # # # # 3 s t # Y !.;X;X;X;X;X;XV.x.;X;X X8.+.P.P.[. X            P  X X                                                                                                                                                    ",
"                  &.- # # # # # # # # 3 ~ 8.A.!.!.:.8.;X;X;XP.V.;X;XP.[.;X;X X:.d.;X;X;X                                                                                                                                                                        ",
"                  Y # # # # # # # # s d.;X[.A. X;X X7.P.;X;X&.[ ;X;XA.P.;X;X;X;X;X;X X                                                                                                                                                                          ",
"                  ] # # # # # # # # 7.;X;XP.V. X;X;X[ V.;X;X+.[ ;X;XP.8. X X X X                                                                                                                                                                                ",
"                  Y # # # # # # # 3 V. X[.x.8.[.;X[.V.;X;X;X[ +.;X X                                                                                                                                                                                            ",
"                      # # # # # # 3 d.!.[.d.d. X;Xd.8.;X X                                                                                                                                                                                                      ",
"                              # # - d.;X;X;X;X X                                                                                                                                                                                                                ",
"                                                                                                                                                                                                                                                                ",
"                                                                                                                                                                                                                                                                ",
"                                                                                                                                                                                                                                                                ",
"                                                                                                                                                                                                                                                                ",
"                                                                                                                                                                                                                                                                ",
"                                                                                                                                                                                                                                                                ",
"                                                                                                                                                                                                                                                                ",
"                                                                                                                                                                                                                                                                ",
"                                                                                                                                                                                                                                                                ",
"                                                                                                                                                                                                                                                                ",
"                                                                                                                                                                                                                                                                ",
"                                                                                                                                                                                                                                                                ",
"                                                                                                                                                                                                                                                                ",
"                                                                                                                                                                                                                                                                ",
"                                                                                                                                                                                                                                                                "
};
