/* XPM */
static char *oms_239[] = {
/* columns rows colors chars-per-pixel */
"128 54 199 2 ",
"   c #FF00FF",
".  c #0C0C0C",
"X  c #0D0D0D",
"o  c #0E0E0E",
"O  c #0F0F0F",
"+  c #101010",
"@  c #111111",
"#  c #121212",
"$  c #131313",
"%  c #141414",
"&  c #151515",
"*  c #161616",
"=  c #171717",
"-  c #181818",
";  c #191919",
":  c #1A1A1A",
">  c #1B1B1B",
",  c #1C1C1C",
"<  c #1D1D1D",
"1  c #1E1E1E",
"2  c #1F1F1F",
"3  c #202020",
"4  c #222222",
"5  c #232323",
"6  c #242424",
"7  c #252525",
"8  c #262626",
"9  c #272727",
"0  c #282828",
"q  c #292929",
"w  c #2A2A2A",
"e  c #2B2B2B",
"r  c #2C2C2C",
"t  c #2D2D2D",
"y  c #2E2E2E",
"u  c #323232",
"i  c #333333",
"p  c #353535",
"a  c #363636",
"s  c #383838",
"d  c #393939",
"f  c #3D3D3D",
"g  c #3E3E3E",
"h  c #404040",
"j  c #414141",
"k  c #424242",
"l  c #434343",
"z  c #444444",
"x  c #454545",
"c  c #474747",
"v  c #484848",
"b  c #494949",
"n  c #4A4A4A",
"m  c #4C4C4C",
"M  c #4C4C4C",
"N  c #4E4E4E",
"B  c #4F4F4F",
"V  c #505050",
"C  c #525252",
"Z  c #545454",
"A  c #555555",
"S  c #565656",
"D  c #575757",
"F  c #585858",
"G  c #595959",
"H  c #5A5A5A",
"J  c #5B5B5B",
"K  c #5C5C5C",
"L  c #5D5D5D",
"P  c #5E5E5E",
"I  c #5F5F5F",
"U  c #616161",
"Y  c #626262",
"T  c #666666",
"R  c #686868",
"E  c #696969",
"W  c #6B6B6B",
"Q  c #6D6D6D",
"!  c #717171",
"~  c #727272",
"^  c #747474",
"/  c #767676",
"(  c #777777",
")  c #787878",
"_  c #797979",
"`  c #7A7A7A",
"'  c #7B7B7B",
"]  c #7C7C7C",
"[  c #7D7D7D",
"{  c #7E7E7E",
"}  c #808080",
"|  c #828282",
" . c #838383",
".. c #848484",
"X. c #858585",
"o. c #868686",
"O. c #878787",
"+. c #8B8B8B",
"@. c #8C8C8C",
"#. c #8D8D8D",
"$. c #8E8E8E",
"%. c #919191",
"&. c #939393",
"*. c #949494",
"=. c #959595",
"-. c #969696",
";. c #989898",
":. c #999999",
">. c #9B9B9B",
",. c #9C9C9C",
"<. c #9D9D9D",
"1. c #9E9E9E",
"2. c #9F9F9F",
"3. c #A0A0A0",
"4. c #A1A1A1",
"5. c #A2A2A2",
"6. c #A3A3A3",
"7. c #A4A4A4",
"8. c #A5A5A5",
"9. c #A7A7A7",
"0. c #A9A9A9",
"q. c #AAAAAA",
"w. c #ABABAB",
"e. c #ACACAC",
"r. c #ADADAD",
"t. c #AEAEAE",
"y. c #AFAFAF",
"u. c #B1B1B1",
"i. c #B2B2B2",
"p. c #B4B4B4",
"a. c #B5B5B5",
"s. c #B6B6B6",
"d. c #B8B8B8",
"f. c #B9B9B9",
"g. c #BABABA",
"h. c #BBBBBB",
"j. c #BCBCBC",
"k. c #BDBDBD",
"l. c #BFBFBF",
"z. c #C0C0C0",
"x. c #C1C1C1",
"c. c #C2C2C2",
"v. c #C4C4C4",
"b. c #C5C5C5",
"n. c #C7C7C7",
"m. c #C8C8C8",
"M. c #C9C9C9",
"N. c #CACACA",
"B. c #CBCBCB",
"V. c #CCCCCC",
"C. c #CDCDCD",
"Z. c #CECECE",
"A. c #CFCFCF",
"S. c #D0D0D0",
"D. c #D1D1D1",
"F. c #D2D2D2",
"G. c #D4D4D4",
"H. c #D5D5D5",
"J. c #D6D6D6",
"K. c #D7D7D7",
"L. c #D8D8D8",
"P. c #D9D9D9",
"I. c #DADADA",
"U. c #DBDBDB",
"Y. c #DCDCDC",
"T. c #DDDDDD",
"R. c #DEDEDE",
"E. c #DFDFDF",
"W. c #E0E0E0",
"Q. c #E2E2E2",
"!. c #E3E3E3",
"~. c #E4E4E4",
"^. c #E6E6E6",
"/. c #E6E6E6",
"(. c #E7E7E7",
"). c #E8E8E8",
"_. c #E9E9E9",
"`. c #EAEAEA",
"'. c #EBEBEB",
"]. c #ECECEC",
"[. c #EDEDED",
"{. c #EEEEEE",
"}. c #EFEFEF",
"|. c #F0F0F0",
" X c #F1F1F1",
".X c #F2F2F2",
"XX c #F3F3F3",
"oX c #F4F4F4",
"OX c #F5F5F5",
"+X c #F6F6F6",
"@X c #F7F7F7",
"#X c #F8F8F8",
"$X c #F9F9F9",
"%X c #FAFAFA",
"&X c #FBFBFB",
"*X c #FCFCFC",
"=X c #FDFDFD",
"-X c #FEFEFE",
";X c #FFFFF1",
/* pixels */
"                                                                                                                                                                                                                                                                ",
"                                                                                                                                                                                                                                                                ",
"                                                                                                                                                                                                                                                                ",
"                                                                                                                                                                                                                                                                ",
"                                                                                                                                                                                                                                                                ",
"                                                                                                                                                                                                                                                                ",
"                                                                                                                                                                                                                                                                ",
"                                                                                                                                                                                                                                                                ",
"                                                                                                                                                                                                                                                                ",
"                                                                                                                                                                                                                                                                ",
"                                                                                                                                                                      Z u 1 $                                                                                   ",
"                                                                                                                                                                  [ e $ $ $ $ $ $ $ $ O                                                                         ",
"                                                                                                                                                                #.7 $ $ $ $ $ $ $ $ 7 / n.'.OX                                                                  ",
"                                                                                                                                                      Z u 1 $ 7 e $ $ $ $ $ $ $ $ u n.=X=X=X=XOX                                                                ",
"                                                                                                                                                    Z $ $ $ $ $ $ $ $ $ 1 B j $ 1 s.=XOXR.OX=XOX                                                                ",
"                                                                                                                                          [ d 7 $ 1 1 $ $ $ $ $ $ $ $ U n.OXo.O B OXOXo.7 w.=X=X                                                                ",
"                                                                                                                                          B $ $ $ $ $ $ $ $ $ u / B 1 A.=X=Xo.O [ =XR.7 O 7.=XOX                                                                ",
"                                                                                                                                          B $ $ $ $ $ $ $ $ [ !.=Xw.j '.=X=Xo.O #.=X!.j Z !.=XOX                                                                ",
"                                                                                                                          Z e $ $         d $ $ $ $ $ $ $ $ w.=X=XR.2.OX=X=Xo.O o.=X=X!.'.=XOX                                                                  ",
"                                                                                                                    E u 7 $ $ $ $ $ $ $ $ $ 1 B e $ O $ 1 $ w.=X=XOX'.OXOX=Xo.O U OX=X=X=XOX                                                                    ",
"                                                                                                                    d O $ $ $ $ $ $ $ 1 j E k.'.Z $ j =.k.o.s.=X=X=X=XR.R.=Xn.  e H.=XOXOX                                                                      ",
"                                                                                                                    d $ $ $ $ $ $ $ $ E '.R.'.=XH / '.OX=X'.H.=XH.'.=Xw.A.=X'.                                                                                  ",
"                                                                                                                e j 7 $ $ $ $ $ $ $ O o.=XR.'.OX=.'.!.k.=X'.R.=Xs.k.=X[ n.=X                                                                                    ",
"                                                                                                              u $ $ $ $ $ $ $ $ $ e d #.=XR.'.OXR.=X'.R.OX'.H.=Xs.o.OX                                                                                          ",
"                                                                                                    H u 1 $ 7 $ $ $ $ $ $ $ $ O B H.'.!.=XR.'.=X'.!.k.2.=XA.k.=X                                                                                                ",
"                                                                                                  j $ $ $ $ $ $ $ $ $ 1 Z =.7.B s.=X'.'.=XR.'.=X!.OXOXOX=X                                                                                                      ",
"                                                                                          H e $ $ $ $ $ $ $ $ $ $ 1 e w.OX=X=XA.R.=X[ =.=XR.'.OXA.OXOXOX                                                                                                        ",
"                                                                      [ d 7 $ $ $ $ $ 1 $ $ O 1 u d 1 $ $ $ 1 j 7.7.7.=XA.n.=X'.'.=XH o.=XR.'.OX                                                                                                                ",
"                                                                    H 1 $ $ $ $ $ $ $ $ $ 7 / k.!.'.E $ 1 =.H.R.=X!.'.OXZ / =XR.!.=XU o.=X                                                                                                                      ",
"                                                              j 1 $ $ $ $ $ $ $ $ $ 7 7 d n.=X=X=X=X2.O Z OX=XOX=XOXOXOX[ s.=Xw.R.=X                                                                                                                            ",
"                                                          j u $ $ $ $ $ $ $ $ $ O E H.7.k.=XH.2.OX=X#.O o.=XA.w.=X'.OX=XOX=X=X                                                                                                                                  ",
"                                                      2.7 $ $ $ $ $ $ $ $ $ 7 H H w.OXs.A.H.H.R.=X!.j O #.R./ #.=XH.A.=XOXOX                                                                                                                                    ",
"                                                      o.1 $ $ $ $ $ $ $ $ $ =.=Xw.2.R.2.o.'.=X=X!.2.Z $ u e $ #.=X'.                                                                                                                                            ",
"                                                    H u $ $ $ $ $ $ $ O O 1 s.=X'.'.=Xn.R.=XR.2.R.'.'.                                                                                                                                                          ",
"                                            o.d 1 $ $ $ $ $ $ $ $ $ e H H H '.=XOX'.=XOXOX=Xn.w.=X=X                                                                                                                                                            ",
"                                          7.e $ $ $ $ $ $ $ $ $ 1 [ R.=XOXk.'.=Xs.k.=XOXOX=X=X=X=X                                                                                                                                                              ",
"                                          H $ $ $ $ $ $ $ $ $ $ / OXH.!.=Xk.k.=X2.w.=XA.R.=XOXOX                                                                                                                                                                ",
"                                          j $ $ $ $ $ $ $ $ $ 7 A.=XR.'.=XA.H.=X2.w.=X                                                                                                                                                                          ",
"                                          Z $ $ $ $ $ $ $ $ $ u R.!.7.H.=Xn.OX=X                                                                                                                                                                                ",
"                                          B $ $ $ $ $ $ $ $ $ e A.'.H.'.OX=.'.                                                                                                                                                                                  ",
"                                            $ $ $ $ $ $ $ $ $ e H.=X=XOX                                                                                                                                                                                        ",
"                                                                                                                                                                                                                                                                ",
"                                                                                                                                                                                                                                                                ",
"                                                                                                                                                                                                                                                                ",
"                                                                                                                                                                                                                                                                ",
"                                                                                                                                                                                                                                                                ",
"                                                                                                                                                                                                                                                                ",
"                                                                                                                                                                                                                                                                ",
"                                                                                                                                                                                                                                                                ",
"                                                                                                                                                                                                                                                                ",
"                                                                                                                                                                                                                                                                ",
"                                                                                                                                                                                                                                                                ",
"                                                                                                                                                                                                                                                                ",
"                                                                                                                                                                                                                                                                "
};
