/* XPM */
static char *oms_326[] = {
/* columns rows colors chars-per-pixel */
"128 54 192 2 ",
"   c #FF00FF",
".  c #0C0C0C",
"X  c #0E0E0E",
"o  c #0F0F0F",
"O  c #101010",
"+  c #111111",
"@  c #121212",
"#  c #131313",
"$  c #141414",
"%  c #151515",
"&  c #161616",
"*  c #171717",
"=  c #181818",
"-  c #191919",
";  c #1A1A1A",
":  c #1B1B1B",
">  c #1C1C1C",
",  c #1D1D1D",
"<  c #1E1E1E",
"1  c #1F1F1F",
"2  c #202020",
"3  c #222222",
"4  c #232323",
"5  c #242424",
"6  c #252525",
"7  c #262626",
"8  c #272727",
"9  c #282828",
"0  c #292929",
"q  c #2B2B2B",
"w  c #2D2D2D",
"e  c #2E2E2E",
"r  c #2F2F2F",
"t  c #303030",
"y  c #313131",
"u  c #333333",
"i  c #343434",
"p  c #353535",
"a  c #373737",
"s  c #393939",
"d  c #3A3A3A",
"f  c #3C3C3C",
"g  c #3D3D3D",
"h  c #404040",
"j  c #414141",
"k  c #424242",
"l  c #434343",
"z  c #444444",
"x  c #454545",
"c  c #484848",
"v  c #494949",
"b  c #4A4A4A",
"n  c #4B4B4B",
"m  c #4C4C4C",
"M  c #4E4E4E",
"N  c #4F4F4F",
"B  c #525252",
"V  c #535353",
"C  c #545454",
"Z  c #555555",
"A  c #565656",
"S  c #575757",
"D  c #585858",
"F  c #5B5B5B",
"G  c #5C5C5C",
"H  c #5E5E5E",
"J  c #5F5F5F",
"K  c #606060",
"L  c #626262",
"P  c #636363",
"I  c #646464",
"U  c #656565",
"Y  c #666666",
"T  c #676767",
"R  c #686868",
"E  c #696969",
"W  c #6A6A6A",
"Q  c #6B6B6B",
"!  c #6C6C6C",
"~  c #6E6E6E",
"^  c #707070",
"/  c #727272",
"(  c #737373",
")  c #747474",
"_  c #767676",
"`  c #777777",
"'  c #787878",
"]  c #7A7A7A",
"[  c #7B7B7B",
"{  c #7C7C7C",
"}  c #808080",
"|  c #808080",
" . c #848484",
".. c #858585",
"X. c #868686",
"o. c #898989",
"O. c #8B8B8B",
"+. c #8C8C8C",
"@. c #8D8D8D",
"#. c #8F8F8F",
"$. c #929292",
"%. c #949494",
"&. c #999999",
"*. c #9A9A9A",
"=. c #9C9C9C",
"-. c #9D9D9D",
";. c #A0A0A0",
":. c #A1A1A1",
">. c #A3A3A3",
",. c #A5A5A5",
"<. c #A6A6A6",
"1. c #A7A7A7",
"2. c #A8A8A8",
"3. c #A9A9A9",
"4. c #AAAAAA",
"5. c #ACACAC",
"6. c #ADADAD",
"7. c #AFAFAF",
"8. c #B0B0B0",
"9. c #B1B1B1",
"0. c #B2B2B2",
"q. c #B2B2B2",
"w. c #B4B4B4",
"e. c #B5B5B5",
"r. c #B6B6B6",
"t. c #B7B7B7",
"y. c #B8B8B8",
"u. c #B9B9B9",
"i. c #BDBDBD",
"p. c #BFBFBF",
"a. c #C0C0C0",
"s. c #C1C1C1",
"d. c #C2C2C2",
"f. c #C3C3C3",
"g. c #C4C4C4",
"h. c #C5C5C5",
"j. c #C6C6C6",
"k. c #C8C8C8",
"l. c #C9C9C9",
"z. c #CACACA",
"x. c #CBCBCB",
"c. c #CCCCCC",
"v. c #CDCDCD",
"b. c #CECECE",
"n. c #CFCFCF",
"m. c #D0D0D0",
"M. c #D1D1D1",
"N. c #D2D2D2",
"B. c #D3D3D3",
"V. c #D4D4D4",
"C. c #D6D6D6",
"Z. c #D7D7D7",
"A. c #D8D8D8",
"S. c #D9D9D9",
"D. c #DADADA",
"F. c #DBDBDB",
"G. c #DCDCDC",
"H. c #DDDDDD",
"J. c #DEDEDE",
"K. c #DFDFDF",
"L. c #E0E0E0",
"P. c #E1E1E1",
"I. c #E2E2E2",
"U. c #E3E3E3",
"Y. c #E4E4E4",
"T. c #E6E6E6",
"R. c #E6E6E6",
"E. c #E7E7E7",
"W. c #E8E8E8",
"Q. c #E9E9E9",
"!. c #EAEAEA",
"~. c #EBEBEB",
"^. c #ECECEC",
"/. c #EDEDED",
"(. c #EEEEEE",
"). c #EFEFEF",
"_. c #F0F0F0",
"`. c #F1F1F1",
"'. c #F2F2F2",
"]. c #F3F3F3",
"[. c #F4F4F4",
"{. c #F5F5F5",
"}. c #F6F6F6",
"|. c #F7F7F7",
" X c #F8F8F8",
".X c #F9F9F9",
"XX c #FAFAFA",
"oX c #FBFBFB",
"OX c #FCFCFC",
"+X c #FDFDFD",
"@X c #FEFEFE",
"#X c #FFFFF1",
/* pixels */
"                                                                                                                                                                                                                                                                ",
"                                                                                                                                                                                                                                                                ",
"                                                                                                                                                                                                                                                                ",
"                                                                                                                                                                                                                                                                ",
"                                                                                                                                                                                                                                                                ",
"                                                                                                                                                                                                                                                                ",
"                                                                                                                                                                                                                                                                ",
"                                                                                                                                                                                                                                                                ",
"                                                                                                                                                                                                                                                                ",
"                                                                                                                                                                                                                                                                ",
"                                                                                                                                                                                                                                                                ",
"                                                                                                                                                                                                                                                                ",
"                                                                                                                                                                                                                                                                ",
"                                                                                                                                                                                                                                                                ",
"                                                                                                                                                                                                                                                                ",
"                                                                                                                                                                                                                                                                ",
"                                                                                                                                                                                                                                                                ",
"                                                                                                                                                                                                                                                                ",
"                                                                                                                                                                                                                                                                ",
"                                                                                                                                                                                                                                                                ",
"                            |..XB.%.N @ @ @ @ @ , , , u                                                                                                                                                                                                         ",
"                        |..X.X.X.X.XY.*.6 @ @ 6 t.s.y.4.! @ @ N Y V N q , 6 @ @ @ , @ g                                                                                                                                                                         ",
"                      |..X.X.X|..X.X.X.X*.@ @ 6 Y..X.X.Xc.6 q B..X|.|.*.@ @ @ @ @ @ @ g D.  t.! Y V g @ @ @ @ , @ @ H                                                                                                                                           ",
"                      .X.X.Xt.V Y c..X.XY.u @ 6 Y..X.X.X|.V ! .X.X.X.X<.@ @ @ @ @ . . u D..X|.B.^.|.B.6 @ @ @ @ @ @ V                                                                                                                                           ",
"                      .X.X|.V . . Y .X.X|.N . 6 Y..X.X.X.Xt.s..X.X.X.X<.6 _ <.t.*._ u , s..X.XD.|..XY.6 @ @ @ @ @ @ u                                           _ N , @ @ @ , @ 6                                                                               ",
"                      .X.X.X} @ . ! .X.X|.V . 6 Y..X.X.X.X|.|..X.X.X.X4.4..X.X|.|..XD.H y..X.XB.|..XY.Y *.4.} 6 @ q V Y V h u , @ @ @ @ @ ,           D..X.X.X.X|.Y.s.V g t.t.%.6 6 , , @ @ u @ @ @                                                             ",
"                      .X.X.X^.<.*.Y..X.X^.g . 6 Y..X.XD.|..X.X|.^..X.XB.^..X|.t.y..X.Xc.c..X.XB.|..X|.|..X.X.XO.N B.|..X.X|.B.! g t.4.O.N | | u @ @ q Y..X.X|.c.^..X.XY.} ^..XY.h t.B.s.N . @ @ @ @ V                                                           ",
"                        .X.X.X.X.X.X.X.Xt., @ 6 Y..X.X%.D..X.Xs.c..X.XD.|..X.XY.Y.^.|.Y.D..X.XB.|..X|.s.D..X.Xc.s..X.XY.c.|..X^.%.|..X|.Y..X.Xs.6 @ u Y..X.XY.} 4.D.B.s.| s.B.y.Y D..X.X_ @ @ @ , , , u   @ @ , 6                                               ",
"                          |.|..X.X.X|.B.h @ @ q ^..X.X_ %..X|.! y..X.Xs.D..X|.O.| B.B.s.D..X.XB.|..XY.q } .X.XY.Y..X.X| , s..X.XB.|..X|.D.|..X|.N . , t..X.X.X.X|.^.D.O.H ^.|.Y.B..X.X.XD.h ! t.c.s.<.Y , @ @ @ @ , V                                           ",
"                                                  .X|._ H .XD.q s..X.X<.O..X.X|.|..X.Xc.B..X.XB.|..XY.6 Y .X.XD.D..X.XO., s..X.XD.|..X^.V B..X.XH . @ N y.Y.^.|..X.X.X|.4.^..X^.B..X.X.X|.t.|..X|.Y..X.X<., @ @ @ @ q                                           ",
"                                                                            |.|..X|.^.! c..X.XB.|..XY.6 ! .X.Xc.%.|..X^.c.|..X|.y.|..X^.u N Y _ q . g c.B.D.y.H 4..X.X.XD.|..XY.! D..X.Xt.B..X.XD.<.^..X|.N @ @ @ @ ,                                           ",
"                                                                                                          .X.Xc.h D..X.X.X.X.Xs._ |..X^.u . . . @ @ g |..X.X|.t.B..X.X.XB.^..XY.h c..X.XO.s..X.XY.B.Y.^.^.Y . @ @ @ ,                                           ",
"                                                                                                                                    |.Y.                |..X.X.X.X.X.XY.O.^..XY.h c..X.X^.B..X.Xs._ s.D.B.H @ @ @ @ q                                           ",
"                                                                                                                                                              |..X.X      |..XY.g s..X.X|.} D..X.X|..X.X^.N @ @ @                                               ",
"                                                                                                                                                                                                |.|.|.|.                                                        ",
"                                                                                                                                                                                                                                                                ",
"                                                                                                                                                                                                                                                                ",
"                                                                                                                                                                                                                                                                ",
"                                                                                                                                                                                                                                                                ",
"                                                                                                                                                                                                                                                                ",
"                                                                                                                                                                                                                                                                ",
"                                                                                                                                                                                                                                                                ",
"                                                                                                                                                                                                                                                                ",
"                                                                                                                                                                                                                                                                ",
"                                                                                                                                                                                                                                                                ",
"                                                                                                                                                                                                                                                                ",
"                                                                                                                                                                                                                                                                ",
"                                                                                                                                                                                                                                                                ",
"                                                                                                                                                                                                                                                                ",
"                                                                                                                                                                                                                                                                ",
"                                                                                                                                                                                                                                                                ",
"                                                                                                                                                                                                                                                                ",
"                                                                                                                                                                                                                                                                ",
"                                                                                                                                                                                                                                                                "
};
