/* XPM */
static char *oms_336[] = {
/* columns rows colors chars-per-pixel */
"128 54 199 2 ",
"   c #FF00FF",
".  c #0B0B0B",
"X  c #0C0C0C",
"o  c #0E0E0E",
"O  c #0F0F0F",
"+  c #101010",
"@  c #111111",
"#  c #121212",
"$  c #131313",
"%  c #141414",
"&  c #151515",
"*  c #161616",
"=  c #171717",
"-  c #181818",
";  c #191919",
":  c #1A1A1A",
">  c #1B1B1B",
",  c #1C1C1C",
"<  c #1D1D1D",
"1  c #1E1E1E",
"2  c #1F1F1F",
"3  c #202020",
"4  c #232323",
"5  c #242424",
"6  c #252525",
"7  c #262626",
"8  c #272727",
"9  c #282828",
"0  c #292929",
"q  c #2B2B2B",
"w  c #2C2C2C",
"e  c #2D2D2D",
"r  c #2E2E2E",
"t  c #2F2F2F",
"y  c #303030",
"u  c #323232",
"i  c #333333",
"p  c #353535",
"a  c #373737",
"s  c #383838",
"d  c #393939",
"f  c #3C3C3C",
"g  c #3D3D3D",
"h  c #3E3E3E",
"j  c #3F3F3F",
"k  c #414141",
"l  c #424242",
"z  c #434343",
"x  c #444444",
"c  c #484848",
"v  c #494949",
"b  c #4B4B4B",
"n  c #4C4C4C",
"m  c #4C4C4C",
"M  c #4E4E4E",
"N  c #505050",
"B  c #515151",
"V  c #525252",
"C  c #535353",
"Z  c #545454",
"A  c #575757",
"S  c #585858",
"D  c #5A5A5A",
"F  c #5B5B5B",
"G  c #5C5C5C",
"H  c #5E5E5E",
"J  c #5F5F5F",
"K  c #606060",
"L  c #616161",
"P  c #626262",
"I  c #666666",
"U  c #686868",
"Y  c #6A6A6A",
"T  c #6C6C6C",
"R  c #6E6E6E",
"E  c #707070",
"W  c #727272",
"Q  c #737373",
"!  c #747474",
"~  c #777777",
"^  c #787878",
"/  c #7A7A7A",
"(  c #7C7C7C",
")  c #7D7D7D",
"_  c #808080",
"`  c #808080",
"'  c #818181",
"]  c #828282",
"[  c #848484",
"{  c #898989",
"}  c #8A8A8A",
"|  c #8B8B8B",
" . c #8D8D8D",
".. c #8E8E8E",
"X. c #8F8F8F",
"o. c #909090",
"O. c #919191",
"+. c #929292",
"@. c #949494",
"#. c #959595",
"$. c #969696",
"%. c #979797",
"&. c #989898",
"*. c #999999",
"=. c #9A9A9A",
"-. c #9B9B9B",
";. c #9C9C9C",
":. c #9D9D9D",
">. c #9E9E9E",
",. c #A1A1A1",
"<. c #A3A3A3",
"1. c #A4A4A4",
"2. c #A5A5A5",
"3. c #A6A6A6",
"4. c #A7A7A7",
"5. c #A8A8A8",
"6. c #A9A9A9",
"7. c #AAAAAA",
"8. c #ABABAB",
"9. c #AEAEAE",
"0. c #AFAFAF",
"q. c #B0B0B0",
"w. c #B1B1B1",
"e. c #B2B2B2",
"r. c #B2B2B2",
"t. c #B4B4B4",
"y. c #B5B5B5",
"u. c #B6B6B6",
"i. c #B7B7B7",
"p. c #B8B8B8",
"a. c #B9B9B9",
"s. c #BABABA",
"d. c #BBBBBB",
"f. c #BCBCBC",
"g. c #BDBDBD",
"h. c #BFBFBF",
"j. c #C0C0C0",
"k. c #C1C1C1",
"l. c #C3C3C3",
"z. c #C4C4C4",
"x. c #C5C5C5",
"c. c #C6C6C6",
"v. c #C7C7C7",
"b. c #C8C8C8",
"n. c #C9C9C9",
"m. c #CACACA",
"M. c #CBCBCB",
"N. c #CCCCCC",
"B. c #CDCDCD",
"V. c #CECECE",
"C. c #CFCFCF",
"Z. c #D0D0D0",
"A. c #D1D1D1",
"S. c #D2D2D2",
"D. c #D3D3D3",
"F. c #D4D4D4",
"G. c #D5D5D5",
"H. c #D6D6D6",
"J. c #D7D7D7",
"K. c #D8D8D8",
"L. c #D9D9D9",
"P. c #DADADA",
"I. c #DBDBDB",
"U. c #DCDCDC",
"Y. c #DDDDDD",
"T. c #DEDEDE",
"R. c #DFDFDF",
"E. c #E0E0E0",
"W. c #E1E1E1",
"Q. c #E2E2E2",
"!. c #E3E3E3",
"~. c #E4E4E4",
"^. c #E6E6E6",
"/. c #E6E6E6",
"(. c #E7E7E7",
"). c #E8E8E8",
"_. c #E9E9E9",
"`. c #EAEAEA",
"'. c #EBEBEB",
"]. c #ECECEC",
"[. c #EDEDED",
"{. c #EEEEEE",
"}. c #EFEFEF",
"|. c #F0F0F0",
" X c #F1F1F1",
".X c #F2F2F2",
"XX c #F3F3F3",
"oX c #F4F4F4",
"OX c #F5F5F5",
"+X c #F6F6F6",
"@X c #F7F7F7",
"#X c #F8F8F8",
"$X c #F9F9F9",
"%X c #FAFAFA",
"&X c #FBFBFB",
"*X c #FCFCFC",
"=X c #FDFDFD",
"-X c #FEFEFE",
";X c #FFFFF1",
/* pixels */
"                                                                                                                                                                                                                                                                ",
"                                                                                                                                                                                                                                                                ",
"                                                                                                                                                                                                                                                                ",
"                                                                                                                                                                                                                                                                ",
"                                                                                                                                                                                                                                                                ",
"                                                                                                                                                                                                                                                                ",
"                                                                                                                                                                                                                                                                ",
"                                                                                                                                                                                                                                                                ",
"                                                                                                                                                                                                                                                                ",
"                                                                                                                                                                                                                                                                ",
"                                                                                                                                                                                                                                                                ",
"                                                                                                                                                                                                                                                                ",
"                                                                                                                                                                                                                                                                ",
"                                                                                                                                                                                                                                                                ",
"                                                                                                                                                                                                                                                                ",
"                                                                                                                                                                                                                                                                ",
"                                                                                                                                                                                                                                                                ",
"                                                                                                                                                                                                                                                                ",
"                                                                                                                                                                                                                                                                ",
"                                                                                                                                                                                                                                                                ",
"                                                                                                                                                                                                                                                                ",
"                    }.OX}.p.] l % % % % % y A           % % -                                                                                                                                                                                                   ",
"                #X#X#X#X#X#XOX~.%.3 % % % ] ~.}.}.L.%.% % A z.p.i.i.~ % % % % % - /             m I m y % % - - % 3                                                                                                                                             ",
"              #X#X#X#X#X#X#X#X#X#X>.% % % %.#X#X#X#X~.d - p.#X#X#X#X>.% % % X X % ~     }.OXOXJ.i.}.}.J.e % % % % 3                                                         y - X % %                                                                           ",
"              #X#X#XV.I A %.OX#X#X}.d % % %.#X#X#X#X#X .A OX#X#X#X#X>.% 3 m S I A A - % 9.#X#XL.p.#X#X}.y % % % % -                                             OXOX#XOX}.~.J.i.~ - S i.9.2.e - e 3 d 3 % % %                                                   ",
"              #X#X#XY X X % p.#X#XOXA X %  .#X#X#X#X#X~.V.#X#X#X#X#X>.S J.OXOX#XOX~.9.d 2.#X#XL.p.#X#X}.S  .p.2.S % % d ~  .9.p./ d % - d d l e 3 l y % % % % i.#X#X#XOX}.OX#X#X#X>.%.#X#X}.d >.~.J.p.3 % % %                                                   ",
"              #X#X#X .% X 3 z.#X#XOXS X %  .#X#XOXOX#X#X#X#X#X#X#X#Xi.J.#X#XL.2.~.#X#Xp.i.#X#XL.p.#X#XOX}.#X#X#XOXS ~ ~.#X#X#X#XOX~./ S }.~.~.%.p.~.J.Y % % % z.#X#X#XJ.I 9.~.~.L.i. .J.J.p.S z.#X#X}.l % % 3 m     3 % % % -                                   ",
"              #X#X#X}.9. .p.OX#X#X}.d % %  .#X#XOXi.OX#X#XOXV.OX#X#XV.}.#X#X}.J.}.#X#X~.V.#X#XL.p.#X#X#XV.V.#X#X#Xi.L.#X#X~.>.J.#X#XOX9.OX#X#X#X#X#X#XL.y % % >.#X#X#XOX~.}.~.L.i.m %.#XOX~.V.#X#X#X#XV.d >.L.~.}.~.V. .e % % % l                               ",
"              OX#X#X#X#X#X#X#X#X#X2.- % %  .#X#XOXY V.#X#XL.Y OX#X#Xz.~.#X#XJ./ 9.V.J.z.V.#X#XL.p.#X#X}.d l }.#X#XJ.}.#X#X2.X S OX#X#XJ.OX#X#Xi.i.#X#XOXm % % y z.OXOX#X#X#X#X#X#XV.i.#X#X}.z.OX#X#X#X~.z.#X#XOXz.~.#X#Xi.- % % 3                               ",
"                  OX#X#XOX#X#X}.9.e % % X i.#X#XOXA ~ #X#X .m OX#X#X2.9.#X#X}.z.~.OXOXL.z.#X#XL.p.#X#X}.e y }.#X#Xz.~.#X#Xz.y ] #X#X#XJ.OX#X#X~ A V.V.z.A %   %.p.z.V.i.] p.#X#X#XOX}.#X#X}.S z.#X#X}.] ~.#X#XOXz.L.#X#XOXm % % -                               ",
"                                                }.    OX}.m   OXOX#X>.l ~.#X#X#X#X#XOX .i.#X#XL.p.#X#X}.y y }.#X#X>.>.#X#X#X}.OX#X#X~.>.OX#X#X/ % - - - l     #X#X#X#XL./ i.#X#X#XOX~.#X#X}.d 9.#X#X}./ ~.#X#X~.2.z.L.J.L.m % % -                               ",
"                                                                                                            OX#X#X>.    OXOX#XOXOXOX%.~ OX#X#X/ X % %           OX#X#X#X#X#X#X#X#Xp.9.#X#X}.d 2.#X#X#X~.V.#X#X}.%.p.}.}.~.m % % e                               ",
"                                                                                                                                                                    OXOXOXOXOXOX      #X#X}.l ] #X#X#XL.I ~.#X#X#X#X#X#XV.e %                                   ",
"                                                                                                                                                                                                                }.}.                                            ",
"                                                                                                                                                                                                                                                                ",
"                                                                                                                                                                                                                                                                ",
"                                                                                                                                                                                                                                                                ",
"                                                                                                                                                                                                                                                                ",
"                                                                                                                                                                                                                                                                ",
"                                                                                                                                                                                                                                                                ",
"                                                                                                                                                                                                                                                                ",
"                                                                                                                                                                                                                                                                ",
"                                                                                                                                                                                                                                                                ",
"                                                                                                                                                                                                                                                                ",
"                                                                                                                                                                                                                                                                ",
"                                                                                                                                                                                                                                                                ",
"                                                                                                                                                                                                                                                                ",
"                                                                                                                                                                                                                                                                ",
"                                                                                                                                                                                                                                                                ",
"                                                                                                                                                                                                                                                                ",
"                                                                                                                                                                                                                                                                ",
"                                                                                                                                                                                                                                                                ",
"                                                                                                                                                                                                                                                                ",
"                                                                                                                                                                                                                                                                "
};
