/* XPM */
static char *oms_123[] = {
/* columns rows colors chars-per-pixel */
"128 54 185 2 ",
"   c #FF00FF",
".  c #090909",
"X  c #0D0D0D",
"o  c #0E0E0E",
"O  c #0F0F0F",
"+  c #101010",
"@  c #111111",
"#  c #121212",
"$  c #131313",
"%  c #141414",
"&  c #151515",
"*  c #161616",
"=  c #171717",
"-  c #181818",
";  c #191919",
":  c #1A1A1A",
">  c #1B1B1B",
",  c #1C1C1C",
"<  c #1D1D1D",
"1  c #1E1E1E",
"2  c #1F1F1F",
"3  c #202020",
"4  c #212121",
"5  c #262626",
"6  c #282828",
"7  c #292929",
"8  c #2A2A2A",
"9  c #2B2B2B",
"0  c #2C2C2C",
"q  c #2D2D2D",
"w  c #2E2E2E",
"e  c #2F2F2F",
"r  c #313131",
"t  c #323232",
"y  c #343434",
"u  c #353535",
"i  c #363636",
"p  c #373737",
"a  c #383838",
"s  c #3C3C3C",
"d  c #3D3D3D",
"f  c #3E3E3E",
"g  c #3F3F3F",
"h  c #424242",
"j  c #444444",
"k  c #454545",
"l  c #464646",
"z  c #474747",
"x  c #4A4A4A",
"c  c #4B4B4B",
"v  c #4C4C4C",
"b  c #4E4E4E",
"n  c #4F4F4F",
"m  c #505050",
"M  c #515151",
"N  c #535353",
"B  c #565656",
"V  c #575757",
"C  c #585858",
"Z  c #595959",
"A  c #5A5A5A",
"S  c #5C5C5C",
"D  c #606060",
"F  c #616161",
"G  c #626262",
"H  c #636363",
"J  c #646464",
"K  c #656565",
"L  c #676767",
"P  c #696969",
"I  c #6E6E6E",
"U  c #6F6F6F",
"Y  c #707070",
"T  c #747474",
"R  c #757575",
"E  c #767676",
"W  c #787878",
"Q  c #797979",
"!  c #7A7A7A",
"~  c #7B7B7B",
"^  c #808080",
"/  c #808080",
"(  c #828282",
")  c #858585",
"_  c #878787",
"`  c #888888",
"'  c #898989",
"]  c #8B8B8B",
"[  c #8C8C8C",
"{  c #8D8D8D",
"}  c #8E8E8E",
"|  c #8F8F8F",
" . c #909090",
".. c #919191",
"X. c #929292",
"o. c #939393",
"O. c #949494",
"+. c #959595",
"@. c #969696",
"#. c #9F9F9F",
"$. c #A1A1A1",
"%. c #A2A2A2",
"&. c #A4A4A4",
"*. c #A6A6A6",
"=. c #A8A8A8",
"-. c #A9A9A9",
";. c #AAAAAA",
":. c #ABABAB",
">. c #ACACAC",
",. c #ADADAD",
"<. c #AEAEAE",
"1. c #AFAFAF",
"2. c #B0B0B0",
"3. c #B1B1B1",
"4. c #B2B2B2",
"5. c #B2B2B2",
"6. c #B5B5B5",
"7. c #B6B6B6",
"8. c #B7B7B7",
"9. c #B8B8B8",
"0. c #B9B9B9",
"q. c #BABABA",
"w. c #BBBBBB",
"e. c #BCBCBC",
"r. c #BFBFBF",
"t. c #C0C0C0",
"y. c #C1C1C1",
"u. c #C3C3C3",
"i. c #C4C4C4",
"p. c #C5C5C5",
"a. c #C6C6C6",
"s. c #C7C7C7",
"d. c #C8C8C8",
"f. c #C9C9C9",
"g. c #CACACA",
"h. c #CBCBCB",
"j. c #CCCCCC",
"k. c #CDCDCD",
"l. c #CECECE",
"z. c #CFCFCF",
"x. c #D0D0D0",
"c. c #D1D1D1",
"v. c #D2D2D2",
"b. c #D3D3D3",
"n. c #D5D5D5",
"m. c #D7D7D7",
"M. c #D8D8D8",
"N. c #D9D9D9",
"B. c #DADADA",
"V. c #DBDBDB",
"C. c #DCDCDC",
"Z. c #DDDDDD",
"A. c #DEDEDE",
"S. c #DFDFDF",
"D. c #E0E0E0",
"F. c #E1E1E1",
"G. c #E2E2E2",
"H. c #E3E3E3",
"J. c #E4E4E4",
"K. c #E6E6E6",
"L. c #E6E6E6",
"P. c #E7E7E7",
"I. c #E8E8E8",
"U. c #E9E9E9",
"Y. c #EAEAEA",
"T. c #EBEBEB",
"R. c #ECECEC",
"E. c #EDEDED",
"W. c #EEEEEE",
"Q. c #F0F0F0",
"!. c #F1F1F1",
"~. c #F2F2F2",
"^. c #F3F3F3",
"/. c #F4F4F4",
"(. c #F5F5F5",
"). c #F6F6F6",
"_. c #F7F7F7",
"`. c #F8F8F8",
"'. c #F9F9F9",
"]. c #FAFAFA",
"[. c #FBFBFB",
"{. c #FCFCFC",
"}. c #FDFDFD",
"|. c #FEFEFE",
" X c #FFFFF1",
/* pixels */
"                                                                                                                                                                                                                                                                ",
"                                                                                                                                                                                                                                                                ",
"                                                                                                                                                                                                                                                                ",
"                                                                                                                                                                                                                                                                ",
"                                                                                                                                                                                                                                                                ",
"                                                                                                                                                                                                                                                                ",
"                                                                                                                                                                                                                                                                ",
"                                                                                                                                                                                                                                                                ",
"                                                                                                                                                                                                                                                                ",
"                                                                                                                                                                                                                                                                ",
"                                                                                                                                                                                                                                                                ",
"                                                                                                                                                                                                                                                                ",
"                                                                                        @ - m       x                                                                                                                                                           ",
"                                                                            O @ - 3 @ @ @ @ @ @ @ @ @ - - r T                                                                                                                                                   ",
"                                                                      '.).V.Q - x s.U x m - @ @ @ @ @ @ @ @ w x - A                                                                                                                                             ",
"                                                                      '.).V.)._ | '.s.O.).Q 3 w - @ @ @ @ @ @ @ @ @ w F                                                                                                                                         ",
"                                                                      ).Y.n.).D.D.'.D.:.D.$.0.D.7.F - @ @ @ @ @ @ @ @ @ A                                                                                                                                       ",
"                                                                      ).V.:.Y.).k.).'.D.D.7.D.'.'.'.7.w @ @ @ @ @ @ @ @ 3 $.                                                                                                                                    ",
"                                                                      '.).k.Y.Y.O.).D.k.'.$._ V.:.n.'.| @ @ @ @ @ @ @ @ @ |                                                                                                                                     ",
"                                                                        ).'.'.Y.V.'.s.O.'.n.Y.).n.D.'.s.- @ @ @ @ @ @ @ @ T                                                                                                                                     ",
"                                                                                Y.'.s.O.'.).'.'.'.'.'.k.- @ w - @ @ @ @ @ - @ @ - m                                                                                                                             ",
"                                                                                  '.0.:.'.D.).).0.k.Y.| @ z V.O.g - @ @ @ @ @ @ @ @ @ r                                                                                                                         ",
"                                                                                        '.7.D.'.:.7.s.m @ T '.).D.s.g - - @ @ @ @ @ @ @ - @ 3 m                                                                                                                 ",
"                                                                                              ).'.'.'.k.- Q '.D.Y.'.| 7.0.T 3 @ @ @ @ w @ @ @ @ w - @ @ @ - r F                                                                                                 ",
"                                                                                                ).).'.7.@ g V.7.n.).n.'.'.'.7.3 @ @ - 7.$.x 3 @ @ @ @ @ @ @ @ @ 3 T                                                                                             ",
"                                                                                                                '.).V.'.s.7.'.| | 7.x k.).s.k.m @ @ @ @ @ @ @ @ O A                                                                                             ",
"                                                                                                                '.).n.'.O.x '.V.D.'.n.V.).k.'._ @ @ @ @ @ @ @ @ @ A                                                                                             ",
"                                                                                                                  ).$.).k.O.'.Y.Y.'.Y.'.Y.k.'._ O @ @ @ - r @ @ @ w w @ @ @ @ @ w A                                                                             ",
"                                                                                                                      ).'.'.'.V.D.Y.U V.).k.'.O._ O.x @ r n.:.x @ @ @ @ @ @ @ @ @ @ U                                                                           ",
"                                                                                                                          ).'.0.D.D.z k.).k.'.k.).'.).O.g D.'.s.- z g @ @ @ @ @ @ @ @ @ - w A                                                                   ",
"                                                                                                                                '.D.z k.).k.'.D.).D.k.).| D.'.D.g 0.Y.:.g @ @ @ @ @ @ @ @ @ w 0.                                                                ",
"                                                                                                                                      Y.Y.k.'.V.V.V.D.'.k.D.'.).| D.'.'.F @ @ - - @ @ @ @ @ - m   @ @ g U                                                       ",
"                                                                                                                                          V.'.s.Y.s.:.'.D.Y.'.).Y.).'.'.F O g 7.0.Q w @ @ @ @ @ @ @ @ @ - z :.                                                  ",
"                                                                                                                                                Y.).).'.V.Y.Y.D.'.'.'.'.F @ $.'.'.'.n.x @ @ @ @ @ @ @ @ @ @ z                                                   ",
"                                                                                                                                                    ).'.:.D.D.7.'.Y.D.'.F - s.'.).).'.n.w @ @ @ @ @ @ @ @ @ @ _                                                 ",
"                                                                                                                                                          ).D.Q ).s.k.'.F - k.'.O.A V.'.Q @ @ @ @ @ @ @ @ @ O A                                                 ",
"                                                                                                                                                                ).| s.'.F - s.'.F O _ '.:.@ @ @ @ @ @ @ @ @ @ z                                                 ",
"                                                                                                                                                                    D.'.F @ $.'.:.- _ '.s.- @ @ @ @ @ @ @ @ @ g                                                 ",
"                                                                                                                                                                              '.).s.D.'.s.- @ @ @ @ @ @ @ @ @ x                                                 ",
"                                                                                                                                                                              ).'.'.'.'.:.@ @ @ @ @ @ @ @ @ @ T                                                 ",
"                                                                                                                                                                                  ).'.).F @ @ @ @ @ @ @ @ @ r                                                   ",
"                                                                                                                                                                                                                                                                ",
"                                                                                                                                                                                                                                                                ",
"                                                                                                                                                                                                                                                                ",
"                                                                                                                                                                                                                                                                ",
"                                                                                                                                                                                                                                                                ",
"                                                                                                                                                                                                                                                                ",
"                                                                                                                                                                                                                                                                ",
"                                                                                                                                                                                                                                                                ",
"                                                                                                                                                                                                                                                                ",
"                                                                                                                                                                                                                                                                ",
"                                                                                                                                                                                                                                                                ",
"                                                                                                                                                                                                                                                                ",
"                                                                                                                                                                                                                                                                "
};
