/* XPM */
static char *oms_088[] = {
/* columns rows colors chars-per-pixel */
"128 54 102 2 ",
"   c #FF00FF",
".  c #0D0D0D",
"X  c #0F0F0F",
"o  c #101010",
"O  c #111111",
"+  c #121212",
"@  c #131313",
"#  c #141414",
"$  c #151515",
"%  c #161616",
"&  c #171717",
"*  c #181818",
"=  c #191919",
"-  c #1A1A1A",
";  c #1D1D1D",
":  c #1F1F1F",
">  c #232323",
",  c #252525",
"<  c #262626",
"1  c #2C2C2C",
"2  c #2F2F2F",
"3  c #313131",
"4  c #323232",
"5  c #393939",
"6  c #3A3A3A",
"7  c #3B3B3B",
"8  c #3C3C3C",
"9  c #434343",
"0  c #444444",
"q  c #4A4A4A",
"w  c #4C4C4C",
"e  c #4E4E4E",
"r  c #535353",
"t  c #545454",
"y  c #555555",
"u  c #575757",
"i  c #585858",
"p  c #5A5A5A",
"a  c #5C5C5C",
"s  c #626262",
"d  c #636363",
"f  c #656565",
"g  c #666666",
"h  c #696969",
"j  c #6A6A6A",
"k  c #717171",
"l  c #737373",
"z  c #7C7C7C",
"x  c #808080",
"c  c #808080",
"v  c #828282",
"b  c #838383",
"n  c #848484",
"m  c #8A8A8A",
"M  c #8C8C8C",
"N  c #8E8E8E",
"B  c #909090",
"V  c #999999",
"C  c #9A9A9A",
"Z  c #9C9C9C",
"A  c #9D9D9D",
"S  c #9F9F9F",
"D  c #A3A3A3",
"F  c #A8A8A8",
"G  c #ABABAB",
"H  c #ADADAD",
"J  c #AFAFAF",
"K  c #B0B0B0",
"L  c #B4B4B4",
"P  c #B8B8B8",
"I  c #BDBDBD",
"U  c #BFBFBF",
"Y  c #C0C0C0",
"T  c #C2C2C2",
"R  c #C4C4C4",
"E  c #C6C6C6",
"W  c #C8C8C8",
"Q  c #CACACA",
"!  c #CCCCCC",
"~  c #CDCDCD",
"^  c #D2D2D2",
"/  c #D8D8D8",
"(  c #D9D9D9",
")  c #DBDBDB",
"_  c #DCDCDC",
"`  c #DDDDDD",
"'  c #DEDEDE",
"]  c #E0E0E0",
"[  c #E2E2E2",
"{  c #E4E4E4",
"}  c #E6E6E6",
"|  c #E6E6E6",
" . c #E7E7E7",
".. c #E8E8E8",
"X. c #E9E9E9",
"o. c #EBEBEB",
"O. c #ECECEC",
"+. c #EEEEEE",
"@. c #EFEFEF",
"#. c #F1F1F1",
"$. c #F3F3F3",
"%. c #F5F5F5",
/* pixels */
"                                                                                                                                                                                                                                                                ",
"                                                                                                                                                                                                                                                                ",
"                                                                                                                                                                                                                                                                ",
"                                                                                                                                                                                                                                                                ",
"                                                                                                                                                                                                                                                                ",
"                                                                                                                                                                                                                                                                ",
"                                                                                                                                                                                                                                                                ",
"                                                                                                                                                                                                                                                                ",
"                                                                                                                                                                                                                                                                ",
"                                                                                                                                                                                                                                                                ",
"                                                                                                                                                                                                                                                                ",
"                                                                                                                                                                                                                                                                ",
"                                                                                                                                                                                                                                                                ",
"                                                                                                                                                                                                                                                                ",
"                                                                                                                                                                                                                                                                ",
"                                                                                                                                                                                                                                                                ",
"                                                                                                                                        4 @ @ @ @ @ @ @ @ @ @ b L                                                                                               ",
"                                                                                                                                      5 = @ @ @ @ @ @ @ @ @ u Y '                                                                                               ",
"                                                                                                                                    N = @ @ @ @ @ @ @ @ @ @ D ] %.                                                                                              ",
"                                                                                                                                    b = @ @ @ @ @ @ @ @ @ = L ] ..                                                                                              ",
"                                                                                                                                    z @ @ @ @ @ @ @ @ @ @ = U ' ]                                                                                               ",
"                                                                                                                                    h @ @ @ @ @ @ @ @ @ @ < ! ' ..                                                                                              ",
"                                                                                                                                  N 4 @ @ @ @ @ @ @ @ @ = h ! ] ..                                                                                              ",
"                                                                                                                                  0 @ @ @ @ @ @ @ @ @ @ w H H ..                                                                                                ",
"                                                                                                                              h 2 @ @ @ @ @ @ @ @ @ 2 w H Y ! %.                                                                                                ",
"                                                                                                                              5 X @ @ @ @ @ @ @ @ @ f S ' S Y                                                                                                   ",
"                                                                                                                              4 @ @ @ @ @ @ @ @ @ @ l ' ! S                                                                                                     ",
"                                                                                                                          B 5 = @ @ @ @ @ @ @ @ = 5 l ..'                                                                                                       ",
"                                                                                                                          i @ @ @ @ @ @ @ @ @ @ 4 N H ^ ..                                                                                                      ",
"                                                                                                                        S = @ @ @ @ @ @ @ @ @ = b Y ] Y ]                                                                                                       ",
"                                                                                                                        i @ @ @ @ @ @ @ @ @ @ < H ' ] '                                                                                                         ",
"                                                                                                                      z @ @ @ @ @ @ @ @ @ @ < b U %.] ]                                                                                                         ",
"                                                                                                                      f @ @ @ @ @ @ @ @ @ @ 0 Y Y ..]                                                                                                           ",
"                                                                                                                      u @ @ @ @ @ @ @ @ @ X u ! U ....                                                                                                          ",
"                                                                                                                      f @ @ @ @ @ @ @ @ @ @ i S U ]                                                                                                             ",
"                                                                                                                      f @ @ @ @ @ @ @ @ @ @ w b H                                                                                                               ",
"                                                                                                                      i @ @ @ @ @ @ @ @ @ @ u S L                                                                                                               ",
"                                                                                                                      u @ @ @ @ @ @ @ @ @ X f !                                                                                                                 ",
"                                                                                                                      i @ @ @ @ @ @ @ @ @ X h %.                                                                                                                ",
"                                                                                                                                @ = = @ @ X i                                                                                                                   ",
"                                                                                                                                                                                                                                                                ",
"                                                                                                                                                                                                                                                                ",
"                                                                                                                                                                                                                                                                ",
"                                                                                                                                                                                                                                                                ",
"                                                                                                                                                                                                                                                                ",
"                                                                                                                                                                                                                                                                ",
"                                                                                                                                                                                                                                                                ",
"                                                                                                                                                                                                                                                                ",
"                                                                                                                                                                                                                                                                ",
"                                                                                                                                                                                                                                                                ",
"                                                                                                                                                                                                                                                                ",
"                                                                                                                                                                                                                                                                ",
"                                                                                                                                                                                                                                                                ",
"                                                                                                                                                                                                                                                                "
};
