/* XPM */
static char *oms_139[] = {
/* columns rows colors chars-per-pixel */
"128 54 199 2 ",
"   c #FF00FF",
".  c #0C0C0C",
"X  c #0D0D0D",
"o  c #0E0E0E",
"O  c #0F0F0F",
"+  c #101010",
"@  c #111111",
"#  c #121212",
"$  c #131313",
"%  c #141414",
"&  c #151515",
"*  c #161616",
"=  c #171717",
"-  c #181818",
";  c #191919",
":  c #1A1A1A",
">  c #1B1B1B",
",  c #1C1C1C",
"<  c #1D1D1D",
"1  c #1E1E1E",
"2  c #1F1F1F",
"3  c #202020",
"4  c #212121",
"5  c #222222",
"6  c #232323",
"7  c #242424",
"8  c #252525",
"9  c #262626",
"0  c #272727",
"q  c #282828",
"w  c #292929",
"e  c #2A2A2A",
"r  c #2B2B2B",
"t  c #2C2C2C",
"y  c #2D2D2D",
"u  c #2E2E2E",
"i  c #2F2F2F",
"p  c #303030",
"a  c #313131",
"s  c #343434",
"d  c #353535",
"f  c #363636",
"g  c #373737",
"h  c #393939",
"j  c #3C3C3C",
"k  c #3D3D3D",
"l  c #3E3E3E",
"z  c #3F3F3F",
"x  c #404040",
"c  c #424242",
"v  c #444444",
"b  c #474747",
"n  c #484848",
"m  c #494949",
"M  c #4A4A4A",
"N  c #4B4B4B",
"B  c #4C4C4C",
"V  c #4C4C4C",
"C  c #4E4E4E",
"Z  c #505050",
"A  c #515151",
"S  c #535353",
"D  c #545454",
"F  c #565656",
"G  c #575757",
"H  c #595959",
"J  c #5A5A5A",
"K  c #5B5B5B",
"L  c #5C5C5C",
"P  c #606060",
"I  c #616161",
"U  c #636363",
"Y  c #646464",
"T  c #656565",
"R  c #666666",
"E  c #676767",
"W  c #696969",
"Q  c #6A6A6A",
"!  c #6B6B6B",
"~  c #6D6D6D",
"^  c #6E6E6E",
"/  c #6F6F6F",
"(  c #727272",
")  c #757575",
"_  c #767676",
"`  c #777777",
"'  c #787878",
"]  c #7A7A7A",
"[  c #7B7B7B",
"{  c #7C7C7C",
"}  c #7D7D7D",
"|  c #7E7E7E",
" . c #808080",
".. c #818181",
"X. c #838383",
"o. c #848484",
"O. c #858585",
"+. c #868686",
"@. c #878787",
"#. c #898989",
"$. c #8A8A8A",
"%. c #8B8B8B",
"&. c #8C8C8C",
"*. c #8D8D8D",
"=. c #8F8F8F",
"-. c #909090",
";. c #919191",
":. c #949494",
">. c #969696",
",. c #979797",
"<. c #999999",
"1. c #9A9A9A",
"2. c #9B9B9B",
"3. c #9D9D9D",
"4. c #9F9F9F",
"5. c #A2A2A2",
"6. c #A3A3A3",
"7. c #A4A4A4",
"8. c #A7A7A7",
"9. c #A9A9A9",
"0. c #AAAAAA",
"q. c #ABABAB",
"w. c #ADADAD",
"e. c #AEAEAE",
"r. c #AFAFAF",
"t. c #B0B0B0",
"y. c #B1B1B1",
"u. c #B2B2B2",
"i. c #B2B2B2",
"p. c #B4B4B4",
"a. c #B5B5B5",
"s. c #B7B7B7",
"d. c #B8B8B8",
"f. c #B9B9B9",
"g. c #BABABA",
"h. c #BBBBBB",
"j. c #BDBDBD",
"k. c #808080",
"l. c #BFBFBF",
"z. c #C0C0C0",
"x. c #C1C1C1",
"c. c #C3C3C3",
"v. c #C4C4C4",
"b. c #C5C5C5",
"n. c #C6C6C6",
"m. c #C7C7C7",
"M. c #C8C8C8",
"N. c #C9C9C9",
"B. c #CACACA",
"V. c #CBCBCB",
"C. c #CCCCCC",
"Z. c #CECECE",
"A. c #CFCFCF",
"S. c #D0D0D0",
"D. c #D1D1D1",
"F. c #D2D2D2",
"G. c #D3D3D3",
"H. c #D5D5D5",
"J. c #D6D6D6",
"K. c #D7D7D7",
"L. c #D8D8D8",
"P. c #D9D9D9",
"I. c #DADADA",
"U. c #DBDBDB",
"Y. c #DCDCDC",
"T. c #DDDDDD",
"R. c #DEDEDE",
"E. c #E0E0E0",
"W. c #E1E1E1",
"Q. c #E2E2E2",
"!. c #E3E3E3",
"~. c #E4E4E4",
"^. c #E6E6E6",
"/. c #E6E6E6",
"(. c #E7E7E7",
"). c #E8E8E8",
"_. c #E9E9E9",
"`. c #EAEAEA",
"'. c #EBEBEB",
"]. c #ECECEC",
"[. c #EDEDED",
"{. c #EEEEEE",
"}. c #EFEFEF",
"|. c #F0F0F0",
" X c #F1F1F1",
".X c #F2F2F2",
"XX c #F3F3F3",
"oX c #F4F4F4",
"OX c #F5F5F5",
"+X c #F6F6F6",
"@X c #F7F7F7",
"#X c #F8F8F8",
"$X c #F9F9F9",
"%X c #FAFAFA",
"&X c #FBFBFB",
"*X c #FCFCFC",
"=X c #FDFDFD",
"-X c #FEFEFE",
";X c #FFFFF1",
/* pixels */
"                                                                                                                                                                                                                                                                ",
"                                                                                                                                                                                                                                                                ",
"                                                                                                                                                                                                                                                                ",
"                                                                                                                                                                                                                                                                ",
"                                                                                                                                                                                                                                                                ",
"                                                                                                                                                                                                                                                                ",
"                                                                                                                                                                                                                                                                ",
"                                                                                                                                                                                                                                                                ",
"                                                                                                                                                                                                                                                                ",
"                                                                                                                                                                                                                                                                ",
"                                                                                                                                                                                                                                                                ",
"                                                                                                                                                                                                                                                                ",
"                                                              a M           M                                                                                                                                                                                   ",
"                                                        @ @ @ @ @ > a 8 @ @ @ > 8 > 8 a W                                                                                                                                                                       ",
"                                                  W r @ O @ > l 8 @ @ @ @ @ @ @ @ @ @ @ a M > r b L                                                                                                                                                             ",
"                                              |.|.{.U.6.b @ a S.U.,.l 6.[ l @ O O O @ @ @ @ @ @ @ @ > a W                                                                                                                                                       ",
"                                              $X$X{.Z.|.{.E *.|.$XU.G {.$Xv.r W [ L a > @ @ @ @ @ @ @ @ > E                                                                                                                                                     ",
"                                              (.{.{.Z.|.$XS.S.$X$X|.y.Z.U.y.y.$X$X|.(.h.[ r @ @ @ @ @ @ @ r                                                                                                                                                     ",
"                                              {.(.v.,.{.$X{.<.{.$X$XU.{.|.h.*.S.{.{.U.$X$XZ.a @ @ @ @ @ @ 8                                                                                                                                                     ",
"                                              $X$X{.v.{.$X{.[ (.$X(.,.{.$XZ.( v.(.v.[ U.$X$X<.@ @ @ @ @ @ r       @ r E                                                                                                                                         ",
"                                                  $X$X$X$XS.S.$X$XS.G {.$X{.{.$X$X$X|.$X$X$Xh.@ @ @ @ > > > @ @ @ @ @ > > 8 l [                                                                                                                                 ",
"                                                            |.$X$XS.G {.$X|.|.$X$X|.{.|.$X$X<.@ @ M e.*.r > @ @ @ @ @ @ @ @ @ a a @ 8 b E                                                                                                                       ",
"                                                                      |.$XS.S.$X$Xv.L h.Z.,.a @ @ y.$X$Xv.v.e.W @ @ @ @ O @ @ @ @ @ @ @ @ r (       @ @ @ > r M L                                                                                               ",
"                                                                        $XZ.,.$X$X|.S.{.|.U.,.> > v.$X$X{.$X$XU.M <.y.,.E r @ @ @ @ @ @ a a 8 > O @ @ @ @ @ @ @ @ > l                                                                                           ",
"                                                                                |.|.$X$X$X$Xy.@ > v.$X{.o.{.$X(.Z.$X$X$X$XU.( @ @ 8 @ O [ {.v.W L a > @ @ @ @ @ @ @ 8                                                                                           ",
"                                                                                        $X                |.$X{.(.$X$X6.h.$X|.E [ S.y.M o.$X$Xv.{.{.*.@ @ @ @ @ @ @ 8                 r E                                                                       ",
"                                                                                                          |.$X(.S.$X|.b b {.$XZ.U.$X$X(.v.$X$Xh.|.$Xy.@ @ @ @ @ @ @ > a O > a > @ @ @ @ @ 8 a 6.                                                                ",
"                                                                                                          |.$XU.,.$X$X<.[ |.$X{.{.$X$XU.|.$X$Xh.|.$Xy.@ r 8 @ @ @ @ E *.G r @ @ @ @ @ @ @ @ @ b r @ r M E                                                       ",
"                                                                                                                  |.$X$X|.$X$XS.U.$X(.l 6.$X|.h.|.$Xh.o.U.U.h.[ a O ,.$X|.(.E @ > r @ @ @ @ @ @ @ @ @ @ > a y.                                                  ",
"                                                                                                                      |.|.$X|.<.(.$XU.8 [ $X|.h.|.$XU.{.$X|.(.$XS.M ,.$X$X$Xy.@ L S.y.o.M @ @ @ @ @ @ @ @ 8 e.                                                  ",
"                                                                                                                                |.$XU.r ,.$X|.h.|.$X{.{.|.{.h.{.$XZ.6.$X$X$X{.b y.$X$X$XU.8 @ @ @ @ @ @ @ > l @ @ @ @ @ @ > r L                                 ",
"                                                                                                                                          $X|.h.|.$X(.U.(.Z.y.{.$X{.Z.$X$X$X$Xh.{.$X$X$X(.8 @ @ M <.e.,.E a @ @ @ @ @ @ @ @ @ @ a <.                            ",
"                                                                                                                                                |.$Xv.Z.$X{.6.(.$X|.S.$X$X(.|.$X$X$X$X$X(.8 O l (.$X$X$X$X(.,.r @ @ @ @ @ @ @ @ @ l                             ",
"                                                                                                                                                        |.$X$X$X$XU.y.$X$Xe.(.$X$X{.|.$X(.8 O ( $X$X$X|.$X$X$Xh.r @ @ @ @ @ @ @ @ @ *.                          ",
"                                                                                                                                                              |.$X  Z.$X$Xo.e.$X$X6.(.$X(.8 O o.$X$XS.G E S.$X$X,.@ @ @ @ @ @ @ @ @ W                           ",
"                                                                                                                                                                        $Xo.*.$XU.G (.$X(.8 O [ $X$Xe.@ O L |.$XS.8 @ @ @ @ @ @ @ @ E                           ",
"                                                                                                                                                                                h.  {.$X(.8 O M |.$X(.M @ G |.$X(.a @ @ @ @ @ @ @ @ W                           ",
"                                                                                                                                                                                        U.r     {.$X$X(.y.S.$X$X(.a @ @ @ @ @ @ @ 8 <.                          ",
"                                                                                                                                                                                                  |.$X$X$X$X$X$Xv.> @ @ @ @ @ @ @                               ",
"                                                                                                                                                                                                      |.|.$X$X|.W O @                                           ",
"                                                                                                                                                                                                                                                                ",
"                                                                                                                                                                                                                                                                ",
"                                                                                                                                                                                                                                                                ",
"                                                                                                                                                                                                                                                                ",
"                                                                                                                                                                                                                                                                ",
"                                                                                                                                                                                                                                                                ",
"                                                                                                                                                                                                                                                                ",
"                                                                                                                                                                                                                                                                ",
"                                                                                                                                                                                                                                                                ",
"                                                                                                                                                                                                                                                                ",
"                                                                                                                                                                                                                                                                ",
"                                                                                                                                                                                                                                                                ",
"                                                                                                                                                                                                                                                                ",
"                                                                                                                                                                                                                                                                "
};
