/* XPM */
static char *oms_327[] = {
/* columns rows colors chars-per-pixel */
"128 54 193 2 ",
"   c #FF00FF",
".  c #0E0E0E",
"X  c #0F0F0F",
"o  c #101010",
"O  c #111111",
"+  c #121212",
"@  c #131313",
"#  c #141414",
"$  c #151515",
"%  c #161616",
"&  c #171717",
"*  c #181818",
"=  c #191919",
"-  c #1A1A1A",
";  c #1B1B1B",
":  c #1C1C1C",
">  c #1D1D1D",
",  c #1E1E1E",
"<  c #1F1F1F",
"1  c #202020",
"2  c #212121",
"3  c #232323",
"4  c #242424",
"5  c #252525",
"6  c #262626",
"7  c #272727",
"8  c #282828",
"9  c #292929",
"0  c #2A2A2A",
"q  c #2B2B2B",
"w  c #2C2C2C",
"e  c #2D2D2D",
"r  c #2E2E2E",
"t  c #2F2F2F",
"y  c #303030",
"u  c #313131",
"i  c #333333",
"p  c #343434",
"a  c #353535",
"s  c #383838",
"d  c #3A3A3A",
"f  c #3B3B3B",
"g  c #3D3D3D",
"h  c #3E3E3E",
"j  c #3F3F3F",
"k  c #404040",
"l  c #414141",
"z  c #424242",
"x  c #454545",
"c  c #464646",
"v  c #474747",
"b  c #4A4A4A",
"n  c #4C4C4C",
"m  c #4C4C4C",
"M  c #4E4E4E",
"N  c #4F4F4F",
"B  c #515151",
"V  c #535353",
"C  c #545454",
"Z  c #555555",
"A  c #575757",
"S  c #585858",
"D  c #595959",
"F  c #5B5B5B",
"G  c #5D5D5D",
"H  c #5F5F5F",
"J  c #606060",
"K  c #616161",
"L  c #626262",
"P  c #636363",
"I  c #656565",
"U  c #666666",
"Y  c #676767",
"T  c #686868",
"R  c #696969",
"E  c #6A6A6A",
"W  c #6B6B6B",
"Q  c #6E6E6E",
"!  c #717171",
"~  c #727272",
"^  c #747474",
"/  c #757575",
"(  c #777777",
")  c #787878",
"_  c #797979",
"`  c #7A7A7A",
"'  c #7B7B7B",
"]  c #7C7C7C",
"[  c #808080",
"{  c #818181",
"}  c #858585",
"|  c #868686",
" . c #878787",
".. c #888888",
"X. c #898989",
"o. c #8A8A8A",
"O. c #8B8B8B",
"+. c #8C8C8C",
"@. c #8D8D8D",
"#. c #8E8E8E",
"$. c #8F8F8F",
"%. c #909090",
"&. c #919191",
"*. c #929292",
"=. c #979797",
"-. c #989898",
";. c #999999",
":. c #9A9A9A",
">. c #9B9B9B",
",. c #9E9E9E",
"<. c #A0A0A0",
"1. c #A1A1A1",
"2. c #A2A2A2",
"3. c #A5A5A5",
"4. c #A7A7A7",
"5. c #AAAAAA",
"6. c #ABABAB",
"7. c #ACACAC",
"8. c #ADADAD",
"9. c #AEAEAE",
"0. c #B1B1B1",
"q. c #B2B2B2",
"w. c #B4B4B4",
"e. c #B5B5B5",
"r. c #B6B6B6",
"t. c #B8B8B8",
"y. c #B9B9B9",
"u. c #BABABA",
"i. c #BBBBBB",
"p. c #BCBCBC",
"a. c #BDBDBD",
"s. c #808080",
"d. c #BFBFBF",
"f. c #C0C0C0",
"g. c #C2C2C2",
"h. c #C3C3C3",
"j. c #C4C4C4",
"k. c #C5C5C5",
"l. c #C6C6C6",
"z. c #C9C9C9",
"x. c #CACACA",
"c. c #CBCBCB",
"v. c #CCCCCC",
"b. c #CDCDCD",
"n. c #CECECE",
"m. c #D0D0D0",
"M. c #D1D1D1",
"N. c #D2D2D2",
"B. c #D3D3D3",
"V. c #D4D4D4",
"C. c #D5D5D5",
"Z. c #D6D6D6",
"A. c #D7D7D7",
"S. c #D8D8D8",
"D. c #D9D9D9",
"F. c #DADADA",
"G. c #DBDBDB",
"H. c #DCDCDC",
"J. c #DDDDDD",
"K. c #DEDEDE",
"L. c #DFDFDF",
"P. c #E0E0E0",
"I. c #E1E1E1",
"U. c #E2E2E2",
"Y. c #E3E3E3",
"T. c #E4E4E4",
"R. c #E6E6E6",
"E. c #E6E6E6",
"W. c #E7E7E7",
"Q. c #E8E8E8",
"!. c #E9E9E9",
"~. c #EAEAEA",
"^. c #EBEBEB",
"/. c #ECECEC",
"(. c #EDEDED",
"). c #EEEEEE",
"_. c #EFEFEF",
"`. c #F0F0F0",
"'. c #F1F1F1",
"]. c #F2F2F2",
"[. c #F3F3F3",
"{. c #F4F4F4",
"}. c #F5F5F5",
"|. c #F6F6F6",
" X c #F7F7F7",
".X c #F8F8F8",
"XX c #F9F9F9",
"oX c #FAFAFA",
"OX c #FBFBFB",
"+X c #FCFCFC",
"@X c #FDFDFD",
"#X c #FEFEFE",
"$X c #FFFFF1",
/* pixels */
"                                                                                                                                                                                                                                                                ",
"                                                                                                                                                                                                                                                                ",
"                                                                                                                                                                                                                                                                ",
"                                                                                                                                                                                                                                                                ",
"                                                                                                                                                                                                                                                                ",
"                                                                                                                                                                                                                                                                ",
"                                                                                                                                                                                                                                                                ",
"                                                                                                                                                                                                                                                                ",
"                                                                                                                                                                                                                                                                ",
"                                                                                                                                                                                                                                                                ",
"                                                                                                                                                                                                                                                                ",
"                                                                                                                                                                                                                                                                ",
"                                                                                                                                                                                                                                                                ",
"                                                                                                                                                                                                                                                                ",
"                                                                                                                                                                                                                                                                ",
"                                                                                                                                                                                                                                                                ",
"                                                                                                                                                                                                                                                                ",
"                                                                                                                                                                                                                                                                ",
"                                                                                                                                                                                                                                                                ",
"                                                                                                                                                                                                                                                                ",
"                            ~.  w.Q 2 $ $ $ $ $ $ < 2                                                                                                                                                                                                           ",
"                      .X.X.X.X.X X~.i.b $ $ $ b i.8.1.,.j $ < b Z x j 2 2 < $ $ $ $ $ (                                                                                                                                                                         ",
"                      .X.X.X.X.X.X.X.XI.j $ . I .X.X.X.X*.. x ~. X X~.( . $ $ $ $ $ $ Q     8.Q Q Z x < $ $ < $ $ $ I                                                                                                                                           ",
"                    .X.X.X~.*.Q 8. X.X.X*.$ . I .X.X.X.Xm.r ,..X.X.X.X) . . $ $ $ . $ S ~..X Xi.I. XD.i $ $ $ $ $ $ S                                                                                                                                           ",
"                    .X.X.Xi.$ . < f..X.Xf.< . I .X.X.X.X Xo.D..X.X.X.X) 2 ( ,.,.*.Q r < f..X.Xf.~..X~.i $ $ $ $ $ $ j                                           1.) x < $ < < < < 2   . $ 2                                                                     ",
"                     X.X.Xx.2 . < f..X.Xx.< . I .X.X.X.X.X X.X.X.X.X.Xo.w..X.X X.X.Xm.Z f..X.Xf.~..X~.I *.8.o.r $ 2 b I I b x < $ < < $ $ < 2   $       .X.X.X.X.X X~.i.x Q m.f.o.< i r 2 $ < 2 $ $ 2                                                           ",
"                     X.X.X Xw.( 1. X.X.Xw.$ . I .X.X~.D..X.X.X~. X.X.Xi. X.X Xw.f..X.Xf.x..X.Xf.~..X X X.X.X.X8.j i. X.X.X XI.*.i ,.i.8.S ( 1.Q < $ $ o..X.X.Xm.f. X.X.Xx.o..X.Xi.x D.D.x.j $ $ $ $ 2                                                           ",
"                      .X.X.X.X.X.X.X.X.X( $ . I .X.XI.o. X.X.X8.m..X.Xf. X.X XI.I. X XI.D..X.Xf.~..X.Xx.D..X.XI.w..X.X~.f.~..X.X1.x..X.X~. X.X XQ $ $ o..X.X.Xf.) x.m.f.1.} m.m.1.}  X.X XI $ $ 2 2 2 r 2 . $ $ $ 2                                             ",
"                         X.X.X.X.X.X X,.2 $ . ) .X.XI.b m..X~.S m..X.Xw.~..X X} o.m.m.i.D..X.Xf.~..X Xx S  X.X~.D..X.Xw.< o..X.XD.D..X.XD.I..X.X8.$ $ b ~..X.X.X.X X XD.( } .X.XD.~..X.X.XD.x ,.m.I.D.i.} r $ $ $ $ < I                                         ",
"                                                 X XI.j 1..Xw.r D..X.X} 8..X.X~.~..X.Xx.m..X.Xf.~..X~.i b  X.X~.m..X.Xi.< o..X.XI.D..X.X) }  X.Xi.$ $ r ) D.I.~. X.X.X.X~.w..X.XD.I..X.X.X~.f..X.XI.D..X.Xw.2 $ $ $ $ i                                         ",
"                                                                             X.X.X.X~.( x..X.Xf.~..X~.i Z  X.X~.} ~..X Xm.~..X.Xf.m..X.X( 2 Z I b $ $ 1.~.D.D.o.S D..X.X XD..X.Xf.I  X.X X*.D..X.XD.i. X.X XZ $ $ $ $ r                                         ",
"                                                                                                           X.X~.x i..X.X.X.X.X~.Q x..X.X( . . . . $   f..X.X.XI.i.~..X.X Xx..X.Xi.x  X.X Xo.D..X.Xm.f.m.I.I.I $ $ $ $ r                                         ",
"                                                                                                                                       X                   X.X.X.X.X.X.Xi.,..X.Xi.x ~..X.X~.m..X.Xf.o.m.D.D.S $ $ $ $ j                                         ",
"                                                                                                                                                                ~. X X       X Xi.r D..X.XI.Q ~..X.X.X.X.XI.j $ $ $                                             ",
"                                                                                                                                                                                                   X.X.X                                                        ",
"                                                                                                                                                                                                                                                                ",
"                                                                                                                                                                                                                                                                ",
"                                                                                                                                                                                                                                                                ",
"                                                                                                                                                                                                                                                                ",
"                                                                                                                                                                                                                                                                ",
"                                                                                                                                                                                                                                                                ",
"                                                                                                                                                                                                                                                                ",
"                                                                                                                                                                                                                                                                ",
"                                                                                                                                                                                                                                                                ",
"                                                                                                                                                                                                                                                                ",
"                                                                                                                                                                                                                                                                ",
"                                                                                                                                                                                                                                                                ",
"                                                                                                                                                                                                                                                                ",
"                                                                                                                                                                                                                                                                ",
"                                                                                                                                                                                                                                                                ",
"                                                                                                                                                                                                                                                                ",
"                                                                                                                                                                                                                                                                ",
"                                                                                                                                                                                                                                                                ",
"                                                                                                                                                                                                                                                                "
};
