/* XPM */
static char *oms_158[] = {
/* columns rows colors chars-per-pixel */
"128 54 208 2 ",
"   c #FF00FF",
".  c #0D0D0D",
"X  c #0E0E0E",
"o  c #0F0F0F",
"O  c #101010",
"+  c #111111",
"@  c #121212",
"#  c #131313",
"$  c #141414",
"%  c #151515",
"&  c #161616",
"*  c #171717",
"=  c #181818",
"-  c #191919",
";  c #1A1A1A",
":  c #1B1B1B",
">  c #1C1C1C",
",  c #1D1D1D",
"<  c #1E1E1E",
"1  c #1F1F1F",
"2  c #202020",
"3  c #212121",
"4  c #222222",
"5  c #232323",
"6  c #242424",
"7  c #252525",
"8  c #262626",
"9  c #272727",
"0  c #282828",
"q  c #292929",
"w  c #2A2A2A",
"e  c #2B2B2B",
"r  c #2C2C2C",
"t  c #2D2D2D",
"y  c #2E2E2E",
"u  c #2F2F2F",
"i  c #303030",
"p  c #313131",
"a  c #323232",
"s  c #333333",
"d  c #343434",
"f  c #353535",
"g  c #363636",
"h  c #373737",
"j  c #383838",
"k  c #393939",
"l  c #3A3A3A",
"z  c #3B3B3B",
"x  c #3C3C3C",
"c  c #3D3D3D",
"v  c #3E3E3E",
"b  c #3F3F3F",
"n  c #404040",
"m  c #414141",
"M  c #424242",
"N  c #434343",
"B  c #444444",
"V  c #454545",
"C  c #464646",
"Z  c #474747",
"A  c #4A4A4A",
"S  c #4B4B4B",
"D  c #4C4C4C",
"F  c #4E4E4E",
"G  c #4F4F4F",
"H  c #505050",
"J  c #515151",
"K  c #525252",
"L  c #535353",
"P  c #545454",
"I  c #555555",
"U  c #565656",
"Y  c #575757",
"T  c #585858",
"R  c #595959",
"E  c #5A5A5A",
"W  c #5B5B5B",
"Q  c #5C5C5C",
"!  c #5D5D5D",
"~  c #5E5E5E",
"^  c #5F5F5F",
"/  c #606060",
"(  c #616161",
")  c #626262",
"_  c #646464",
"`  c #656565",
"'  c #686868",
"]  c #6A6A6A",
"[  c #6C6C6C",
"{  c #6D6D6D",
"}  c #6E6E6E",
"|  c #6F6F6F",
" . c #707070",
".. c #717171",
"X. c #727272",
"o. c #737373",
"O. c #757575",
"+. c #767676",
"@. c #787878",
"#. c #7A7A7A",
"$. c #7C7C7C",
"%. c #7D7D7D",
"&. c #7E7E7E",
"*. c #818181",
"=. c #828282",
"-. c #848484",
";. c #868686",
":. c #878787",
">. c #888888",
",. c #898989",
"<. c #8A8A8A",
"1. c #8C8C8C",
"2. c #8D8D8D",
"3. c #8E8E8E",
"4. c #8F8F8F",
"5. c #919191",
"6. c #929292",
"7. c #939393",
"8. c #959595",
"9. c #979797",
"0. c #989898",
"q. c #999999",
"w. c #9B9B9B",
"e. c #9D9D9D",
"r. c #9F9F9F",
"t. c #A0A0A0",
"y. c #A3A3A3",
"u. c #A4A4A4",
"i. c #A7A7A7",
"p. c #A8A8A8",
"a. c #A9A9A9",
"s. c #AAAAAA",
"d. c #ABABAB",
"f. c #ADADAD",
"g. c #AEAEAE",
"h. c #AFAFAF",
"j. c #B0B0B0",
"k. c #B1B1B1",
"l. c #B2B2B2",
"z. c #B4B4B4",
"x. c #B5B5B5",
"c. c #B7B7B7",
"v. c #B8B8B8",
"b. c #B9B9B9",
"n. c #BABABA",
"m. c #BBBBBB",
"M. c #BCBCBC",
"N. c #BDBDBD",
"B. c #C0C0C0",
"V. c #C1C1C1",
"C. c #C2C2C2",
"Z. c #C3C3C3",
"A. c #C4C4C4",
"S. c #C6C6C6",
"D. c #C7C7C7",
"F. c #C8C8C8",
"G. c #C9C9C9",
"H. c #CACACA",
"J. c #CBCBCB",
"K. c #CCCCCC",
"L. c #CDCDCD",
"P. c #CECECE",
"I. c #D0D0D0",
"U. c #D1D1D1",
"Y. c #D3D3D3",
"T. c #D4D4D4",
"R. c #D5D5D5",
"E. c #D6D6D6",
"W. c #D7D7D7",
"Q. c #D8D8D8",
"!. c #D9D9D9",
"~. c #DADADA",
"^. c #DCDCDC",
"/. c #DDDDDD",
"(. c #DEDEDE",
"). c #DFDFDF",
"_. c #E0E0E0",
"`. c #E1E1E1",
"'. c #E2E2E2",
"]. c #E3E3E3",
"[. c #E4E4E4",
"{. c #E6E6E6",
"}. c #E6E6E6",
"|. c #E7E7E7",
" X c #E8E8E8",
".X c #E9E9E9",
"XX c #EAEAEA",
"oX c #EBEBEB",
"OX c #ECECEC",
"+X c #EDEDED",
"@X c #EEEEEE",
"#X c #EFEFEF",
"$X c #F0F0F0",
"%X c #F1F1F1",
"&X c #F2F2F2",
"*X c #F3F3F3",
"=X c #F4F4F4",
"-X c #F5F5F5",
";X c #F6F6F6",
":X c #F7F7F7",
">X c #F8F8F8",
",X c #F9F9F9",
"<X c #FAFAFA",
"1X c #FBFBFB",
"2X c #FCFCFC",
"3X c #FDFDFD",
"4X c #FEFEFE",
"5X c #FFFFF1",
/* pixels */
"                                                                                                                                                                                                                                                                ",
"                                                                                                                                                                                                                                                                ",
"                                                                                                                                                                                                                                                                ",
"                                                                                                                                                                                                                                                                ",
"                                                                                                                                                                                                                                                                ",
"                                                                                                                                                                                                                                                                ",
"                                                                                                                                                                                                                                                                ",
"                                                                                                                                                                                                                                                                ",
"                                                                                                                                                                                                                                                                ",
"                                                                                                                                                                                                                                                                ",
"                                                                                                                                                                                                                                                                ",
"                                                                                                                                                                                                                                                                ",
"                                                                                                                                                                                                                                                                ",
"                                                                                                                                                                                                                                                                ",
"                                    ~             , p b S     b S ~                                                                                                                                                                                             ",
"                              % % % % , , t J   % % % % % 2 % % % % J   2 t t b m J                                                                                                                                                                             ",
"                            X % % % % % % % % , X % % X X X % % % % p % % % % % % % , 2 m                                                                                                                                                                       ",
"                            m b p 2 % % % %  .8. .J , ] ] J p % % % % X X X % % % % % % % b                                                                                                                                                                     ",
"                          [.XXXX[.U.t.J % t V.<X<X[.p V.<X:XJ.2 ~ 3.8.3. .J b , % % % % % ,                                                                                                                                                                     ",
"                        :X<X<XXXN.XX<X:X=.r.<X<X<X:X8.N././.N.=.<X<X<X<X<X<XXXJ.=.t % % % ,           p m                                                                                                                                                       ",
"                        XXXX:XXXJ.[.<X<XXXV.:X<X<X<X<X:X:XXXV.] x./.XX[.s.J.<X<X<XN.2 % %         % % % % , , , 2 p                                   m S `                                                                                                     ",
"                        XX[.[.N.=.J.<X<X:X] N.<X<X:XN.[.<X<XU.~ x./.XX/.t.N.:X<X<X:XS X 2 S     % % % % % % % % % % m % % % , , 2 p ~             % % % % % , 2 t p ~                                                                                           ",
"                          <X<X:XJ.[.<X<X:Xs./.<X<X[.b V.<X<X[.U.<X<X<X<X<X<X<X<X<X:Xm X % t x.x.=.p p p 2 % % % X X % % % % % % % % % b     , , % % % % % % % % % X b                                                                                           ",
"                            :X:X<X<X<X:X:X:X<X<X<X[.b /.<X<X[.[.<X<X<XXXN.J.[.[.U.=., % % 3.<X<X<XU.U.[.U.r., p ~ ~ J b 2 % % % % % % % % b 8.$.~ p t 2 % % % % % % b                   % , 2 p b J                                                             ",
"                                            :X:X<X[.  <X<X<X/.s.<X<X<X[.] 3.[.U.s.$.p %   XX<X<X:X/.:X<X<X/.$.[.:X<X:XXXU.r.b % % t p 2 X J <X<X:Xx.U.J.N.~ % % % % p   % , t t p m , % % % % % % % `     , t p m J                                             ",
"                                                        :X<X[.  :X<X<X<X<X:X<X<X<X:X .      :X<X[. .:X<X<X[./.<X<X:XV.U.<X<X/.S  .[.[.U.=.] :X<X<XN.XX<X<X3.% % % % % % % % % p b 2 , % % % % % % % 2 2 % % % % % % b                                           ",
"                                                                      :X:X:X<X<X:XXX                :X<X<X[.[.<X<X/.2 p [.<X<XV.U.<X<X<X<X[.:X<X<XN.XX<X<X3.% 2 p t 2 % % % % s.XX/.V.t.b % % 2 t , % % % % % % % % p         % % % , , , t m ]                 ",
"                                                                                                    :X<X<X/.x.<X<XXX~ m [.<X<X:X:X<X<XXXr.U.<X<X<XN.XX<X<X8. .U.[.[./.x.$.p % x.<X<X<X<Xs.% , s./.V.x.8.J % % % % X p     X X % % % % % % % % % b 8.            ",
"                                                                                                      :X<X/.  :X<X<XXX[.<X<X<XU.[.<X<XJ.% ` :X<X<XN.XX<X<XV.XX<X<X[.J.:X<X/.J s.<X<X<X<XXXm ~ :X<X<X<X<Xt.% % % % p ] r.$.~ m t % % % % % % % % % p             ",
"                                                                                                                  :X:X<X:X<X:X  :X<X<XV.% ` :X<X<XN.XX<X<XU.[.XX:X[.V.XX<X<XJ.V.<X<X<X<X<Xx.V.<X<X<X<X<Xr.% % % ` /.:X<X<X<XXX/.s.J % % % % % % % % ]           ",
"                                                                                                                                  :X<XU.    :X<X<XN.XX<X<XV./.[.[.s.8./.<X<XXXU.<X<X:XXX<X:X<X<X<X<X<X<Xr.% % 2 U.<X<X<X<X<X<X<X<X:X8., % % % % % % J           ",
"                                                                                                                                                :XJ.:X<X<Xt.U.<X<X[.N.XX<X<X/.J.<X<XXXt.:X<X<X<XXX:X<X<Xr.% % b XX<X<XXX3.~ =./.<X<X<X .X % % % % % J           ",
"                                                                                                                                                                :X<X<X<X<X<XJ./.<X<XXX~ J.<X<XXX3.:X<X<Xr.% % b XX<X<XU., X X ~ :X<X<XN.% % % % % % `           ",
"                                                                                                                                                                                :X<XXXS r.<X<Xr.~ :X<X<Xr.% % t [.<X<XXX~ , % J :X<X<XJ., % % % % t             ",
"                                                                                                                                                                                            :X    :X<X<Xt.% %     <X<X<XXXN.s./.<X<X<XV., % % %                 ",
"                                                                                                                                                                                                                    :X<X<X<X<X<X<X<X:X=.X                       ",
"                                                                                                                                                                                                                        :X:X<X<X<X:X                            ",
"                                                                                                                                                                                                                                                                ",
"                                                                                                                                                                                                                                                                ",
"                                                                                                                                                                                                                                                                ",
"                                                                                                                                                                                                                                                                ",
"                                                                                                                                                                                                                                                                ",
"                                                                                                                                                                                                                                                                ",
"                                                                                                                                                                                                                                                                ",
"                                                                                                                                                                                                                                                                ",
"                                                                                                                                                                                                                                                                ",
"                                                                                                                                                                                                                                                                ",
"                                                                                                                                                                                                                                                                ",
"                                                                                                                                                                                                                                                                ",
"                                                                                                                                                                                                                                                                ",
"                                                                                                                                                                                                                                                                ",
"                                                                                                                                                                                                                                                                ",
"                                                                                                                                                                                                                                                                ",
"                                                                                                                                                                                                                                                                "
};
