/* XPM */
static char *oms_090[] = {
/* columns rows colors chars-per-pixel */
"128 54 87 1 ",
"  c #FF00FF",
". c #111111",
"X c #121212",
"o c #131313",
"O c #141414",
"+ c #151515",
"@ c #161616",
"# c #171717",
"$ c #181818",
"% c #1A1A1A",
"& c #1B1B1B",
"* c #1C1C1C",
"= c #1D1D1D",
"- c #1E1E1E",
"; c #1F1F1F",
": c #202020",
"> c #222222",
", c #232323",
"< c #242424",
"1 c #262626",
"2 c #282828",
"3 c #2B2B2B",
"4 c #2F2F2F",
"5 c #303030",
"6 c #313131",
"7 c #333333",
"8 c #353535",
"9 c #3A3A3A",
"0 c #3B3B3B",
"q c #3C3C3C",
"w c #3D3D3D",
"e c #404040",
"r c #494949",
"t c #4B4B4B",
"y c #4C4C4C",
"u c #5E5E5E",
"i c #636363",
"p c #656565",
"a c #676767",
"s c #747474",
"d c #797979",
"f c #7E7E7E",
"g c #818181",
"h c #828282",
"j c #848484",
"k c #898989",
"l c #8C8C8C",
"z c #8E8E8E",
"x c #8F8F8F",
"c c #939393",
"v c #949494",
"b c #979797",
"n c #9B9B9B",
"m c #9E9E9E",
"M c #A0A0A0",
"N c #A2A2A2",
"B c #A3A3A3",
"V c #A4A4A4",
"C c #A6A6A6",
"Z c #A7A7A7",
"A c #A9A9A9",
"S c #AAAAAA",
"D c #ACACAC",
"F c #ADADAD",
"G c #B2B2B2",
"H c #B5B5B5",
"J c #B6B6B6",
"K c #B9B9B9",
"L c #BABABA",
"P c #BFBFBF",
"I c #C2C2C2",
"U c #C5C5C5",
"Y c #C9C9C9",
"T c #CECECE",
"R c #D0D0D0",
"E c #D1D1D1",
"W c #D2D2D2",
"Q c #D7D7D7",
"! c #D9D9D9",
"~ c #DBDBDB",
"^ c #DFDFDF",
"/ c #E3E3E3",
"( c #E6E6E6",
") c #E8E8E8",
"_ c #E9E9E9",
"` c #F5F5F5",
"' c #FFFFF1",
/* pixels */
"                                                                                                                                ",
"                                                                                                                                ",
"                                                                                                                                ",
"                                                                                                                                ",
"                                                                                                                                ",
"                                                                                                                                ",
"                                                                                                                                ",
"                                                                                                                                ",
"                                                                                                                                ",
"                                                                                                                                ",
"                                                                                                                                ",
"                                                                                                                                ",
"                                                                                                                                ",
"                                                                                                                                ",
"                                                                                                                                ",
"                                                                                                                                ",
"                                                                  y++&&,+++&&eR                                                 ",
"                                                                 N,++++++++++f^                                                 ",
"                                                                 h++++++++++&A)                                                 ",
"                                                                 l&+++++++++,N)                                                 ",
"                                                                 h++++++++++&A(                                                 ",
"                                                                 s++++++++++,L(                                                 ",
"                                                                 y++++++++++yU                                                  ",
"                                                                 5++++++++++hH                                                  ",
"                                                                w++++++++++wAT                                                  ",
"                                                               l+++++++++++fLU                                                  ",
"                                                               l+++++++++++N(                                                   ",
"                                                               i++++++++++,H'                                                   ",
"                                                              N5++++++++++uT`                                                   ",
"                                                              f&+++++++++,NR                                                    ",
"                                                              i++++++++++5L^                                                    ",
"                                                              5++++++++++iT(                                                    ",
"                                                             v&++++++++++n^^                                                    ",
"                                                             l&+++++++++&A^                                                     ",
"                                                             l2++++++&,+&nT                                                     ",
"                                                             Nw+++  +,w&&NR                                                     ",
"                                                             l,++++++,w,&H                                                      ",
"                                                             v&+++++++&+&H                                                      ",
"                                                             v,&&&++++&+&A                                                      ",
"                                                                     &225                                                       ",
"                                                                                                                                ",
"                                                                                                                                ",
"                                                                                                                                ",
"                                                                                                                                ",
"                                                                                                                                ",
"                                                                                                                                ",
"                                                                                                                                ",
"                                                                                                                                ",
"                                                                                                                                ",
"                                                                                                                                ",
"                                                                                                                                ",
"                                                                                                                                ",
"                                                                                                                                ",
"                                                                                                                                "
};
