/* XPM */
static char *oms_260[] = {
/* columns rows colors chars-per-pixel */
"128 54 143 2 ",
"   c #FF00FF",
".  c #0C0C0C",
"X  c #0D0D0D",
"o  c #0F0F0F",
"O  c #101010",
"+  c #111111",
"@  c #121212",
"#  c #131313",
"$  c #141414",
"%  c #151515",
"&  c #161616",
"*  c #171717",
"=  c #181818",
"-  c #1B1B1B",
";  c #1C1C1C",
":  c #1D1D1D",
">  c #1E1E1E",
",  c #1F1F1F",
"<  c #202020",
"1  c #212121",
"2  c #222222",
"3  c #232323",
"4  c #242424",
"5  c #252525",
"6  c #262626",
"7  c #272727",
"8  c #282828",
"9  c #292929",
"0  c #2A2A2A",
"q  c #2C2C2C",
"w  c #2E2E2E",
"e  c #303030",
"r  c #323232",
"t  c #333333",
"y  c #343434",
"u  c #363636",
"i  c #373737",
"p  c #383838",
"a  c #393939",
"s  c #3A3A3A",
"d  c #3F3F3F",
"f  c #434343",
"g  c #444444",
"h  c #494949",
"j  c #4C4C4C",
"k  c #505050",
"l  c #515151",
"z  c #535353",
"x  c #545454",
"c  c #595959",
"v  c #5C5C5C",
"b  c #5D5D5D",
"n  c #606060",
"m  c #616161",
"M  c #626262",
"N  c #636363",
"B  c #656565",
"V  c #666666",
"C  c #676767",
"Z  c #686868",
"A  c #6A6A6A",
"S  c #6E6E6E",
"D  c #717171",
"F  c #727272",
"G  c #767676",
"H  c #787878",
"J  c #808080",
"K  c #808080",
"L  c #818181",
"P  c #828282",
"I  c #838383",
"U  c #848484",
"Y  c #878787",
"T  c #888888",
"R  c #8A8A8A",
"E  c #909090",
"W  c #919191",
"Q  c #929292",
"!  c #959595",
"~  c #969696",
"^  c #979797",
"/  c #9C9C9C",
"(  c #9F9F9F",
")  c #A0A0A0",
"_  c #A4A4A4",
"`  c #A5A5A5",
"'  c #A6A6A6",
"]  c #A7A7A7",
"[  c #AFAFAF",
"{  c #B0B0B0",
"}  c #B1B1B1",
"|  c #B2B2B2",
" . c #B2B2B2",
".. c #B5B5B5",
"X. c #B6B6B6",
"o. c #BCBCBC",
"O. c #C1C1C1",
"+. c #C2C2C2",
"@. c #C3C3C3",
"#. c #C4C4C4",
"$. c #C5C5C5",
"%. c #C6C6C6",
"&. c #C7C7C7",
"*. c #C9C9C9",
"=. c #CACACA",
"-. c #CBCBCB",
";. c #CCCCCC",
":. c #CDCDCD",
">. c #CECECE",
",. c #D1D1D1",
"<. c #D3D3D3",
"1. c #D4D4D4",
"2. c #D5D5D5",
"3. c #D6D6D6",
"4. c #D7D7D7",
"5. c #D8D8D8",
"6. c #DBDBDB",
"7. c #DCDCDC",
"8. c #DDDDDD",
"9. c #DFDFDF",
"0. c #E0E0E0",
"q. c #E1E1E1",
"w. c #E2E2E2",
"e. c #E3E3E3",
"r. c #E4E4E4",
"t. c #E6E6E6",
"y. c #E7E7E7",
"u. c #E8E8E8",
"i. c #E9E9E9",
"p. c #EBEBEB",
"a. c #EEEEEE",
"s. c #EFEFEF",
"d. c #F0F0F0",
"f. c #F1F1F1",
"g. c #F2F2F2",
"h. c #F3F3F3",
"j. c #F4F4F4",
"k. c #F5F5F5",
"l. c #F6F6F6",
"z. c #F8F8F8",
"x. c #F9F9F9",
"c. c #FAFAFA",
"v. c #FEFEFE",
/* pixels */
"                                                                                                                                                                                                                                                                ",
"                                                                                                                                                                                                                                                                ",
"                                                                                                                                                                                                                                                                ",
"                                                                                                                                                                                                                                                                ",
"                                                                                                                                                                                                                                                                ",
"                                                                                                                                                                                                                                                                ",
"                                                                                                                                                                                                                                                                ",
"                                                                                                                                                                                                                                                                ",
"                                                                                                                                                                                                                                                                ",
"                                                                                                                                                                                                                                                                ",
"                                                                                                                                                                                                                                                                ",
"                                                                                                                                S @                                                                                                                             ",
"                                                                                                                              ! 5 @ @ @ @ @ @ @ @ @ 0 @.                                                                                                        ",
"                                                                                                                              x @ @ @ @ @ @ @ @ @ @ U c.g.                                                                                                      ",
"                                                                                                                          x 5 ; @ @ @ @ @ @ @ @ 5 0 =.c.c.                                                                                                      ",
"                                                                                                                        U ; @ @ @ @ @ @ @ @ o t ) x =./ g.                                                                                                      ",
"                                                                                                                      s ; @ @ @ @ @ @ @ @ @ t J 2.V ] V g.                                                                                                      ",
"                                                                                                                    U @ @ @ @ @ @ @ @ @ @ h @.) 2.S ..U g.                                                                                                      ",
"                                                                                                                    J ; @ @ @ @ @ @ @ @ o V p.=.2.V e.e.g.                                                                                                      ",
"                                                                                                              S @ @ s @ @ @ @ @ @ @ 5 5 o V g.g.2.V g.c.                                                                                                        ",
"                                                                                                            S 5 @ @ @ @ @ @ @ @ @ 0 ] c V / g.g.2.h 5.g.                                                                                                        ",
"                                                                                                            s @ @ @ @ @ @ @ @ @ @ ! p.! e.e.g.e.e.                                                                                                              ",
"                                                                                                            s @ @ @ @ @ @ @ @ @ @ ) g.=.5.p.5.@.5.                                                                                                              ",
"                                                                                                          G 5 @ @ @ @ @ @ @ @ @ 5 ..g.e.p.e.=.@.                                                                                                                ",
"                                                                                                        ! 0 @ @ @ @ @ @ @ @ @ @ ) p.g.e.@.2.e.                                                                                                                  ",
"                                                                                                      f ; @ @ @ @ @ @ @ @ @ x T 2.g.g.p.g.2.                                                                                                                    ",
"                                                                                                    V @ @ @ @ @ @ @ @ @ @ t 2.g.=.@.g.e.g.                                                                                                                      ",
"                                                                                                s t @ @ @ @ @ @ @ t 0 @ c ..2.g.@...g.                                                                                                                          ",
"                                                                                          x @ @ @ @ @ @ @ @ @ o f 2.U c e.p./ e.=...                                                                                                                            ",
"                                                                                        V ; @ @ @ @ @ @ @ @ @ t ..c.! ! c.c...5.e.                                                                                                                              ",
"                                                                                      c @ @ @ @ @ @ @ @ @ @ t o.2.2.! ) 2.g.g.e.                                                                                                                                ",
"                                                                                    S 5 @ @ @ @ @ @ @ @ @ 0 U @.=.p.G T ..5.g.                                                                                                                                  ",
"                                                                                    0 @ @ @ @ @ @ @ @ @ o V =...2.p.V 5 T                                                                                                                                       ",
"                                                                                    0 @ @ @ @ @ @ @ @ @ o G g.e.e.@.@.                                                                                                                                          ",
"                                                                                  s ; @ @ @ @ @ @ @ @ ; S o.g.p.p.5.                                                                                                                                            ",
"                                                                                t @ @ @ @ @ @ @ @ @ @ V g.g.=.e.g.c.                                                                                                                                            ",
"                                                                              U @ @ @ @ @ @ @ @ @ @ @ ) e.=.@.2.p.                                                                                                                                              ",
"                                                                              S @ @ @ @ @ @ @ @ @ @ ; @.p.e.@.5.                                                                                                                                                ",
"                                                                              c @ @ @ @ @ @ @ @ @ @ 5 ..=.g.e.                                                                                                                                                  ",
"                                                                              S @ @ @ @ @ @ @ @ @ @ 5 @.g.                                                                                                                                                      ",
"                                                                              V @ @ @ @ @ @ @ @ @ @ ; @.c.                                                                                                                                                      ",
"                                                                                                                                                                                                                                                                ",
"                                                                                                                                                                                                                                                                ",
"                                                                                                                                                                                                                                                                ",
"                                                                                                                                                                                                                                                                ",
"                                                                                                                                                                                                                                                                ",
"                                                                                                                                                                                                                                                                ",
"                                                                                                                                                                                                                                                                ",
"                                                                                                                                                                                                                                                                ",
"                                                                                                                                                                                                                                                                ",
"                                                                                                                                                                                                                                                                ",
"                                                                                                                                                                                                                                                                ",
"                                                                                                                                                                                                                                                                ",
"                                                                                                                                                                                                                                                                "
};
