/* XPM */
static char *oms_057[] = {
/* columns rows colors chars-per-pixel */
"128 54 180 2 ",
"   c #FF00FF",
".  c #0D0D0D",
"X  c #0E0E0E",
"o  c #0F0F0F",
"O  c #101010",
"+  c #111111",
"@  c #121212",
"#  c #131313",
"$  c #141414",
"%  c #151515",
"&  c #161616",
"*  c #171717",
"=  c #181818",
"-  c #191919",
";  c #1A1A1A",
":  c #1B1B1B",
">  c #1D1D1D",
",  c #1E1E1E",
"<  c #1F1F1F",
"1  c #202020",
"2  c #212121",
"3  c #222222",
"4  c #232323",
"5  c #242424",
"6  c #252525",
"7  c #272727",
"8  c #292929",
"9  c #2C2C2C",
"0  c #2D2D2D",
"q  c #2E2E2E",
"w  c #2F2F2F",
"e  c #303030",
"r  c #313131",
"t  c #333333",
"y  c #343434",
"u  c #353535",
"i  c #363636",
"p  c #373737",
"a  c #393939",
"s  c #3B3B3B",
"d  c #3D3D3D",
"f  c #404040",
"g  c #414141",
"h  c #474747",
"j  c #484848",
"k  c #494949",
"l  c #4C4C4C",
"z  c #4E4E4E",
"x  c #4F4F4F",
"c  c #545454",
"v  c #575757",
"b  c #595959",
"n  c #5A5A5A",
"m  c #5B5B5B",
"M  c #5E5E5E",
"N  c #5F5F5F",
"B  c #606060",
"V  c #626262",
"C  c #636363",
"Z  c #656565",
"A  c #666666",
"S  c #676767",
"D  c #686868",
"F  c #696969",
"G  c #6B6B6B",
"H  c #6C6C6C",
"J  c #6D6D6D",
"K  c #6E6E6E",
"L  c #6F6F6F",
"P  c #707070",
"I  c #717171",
"U  c #727272",
"Y  c #747474",
"T  c #757575",
"R  c #767676",
"E  c #777777",
"W  c #797979",
"Q  c #808080",
"!  c #818181",
"~  c #838383",
"^  c #868686",
"/  c #888888",
"(  c #8B8B8B",
")  c #8C8C8C",
"_  c #8E8E8E",
"`  c #919191",
"'  c #929292",
"]  c #939393",
"[  c #949494",
"{  c #959595",
"}  c #969696",
"|  c #9B9B9B",
" . c #9C9C9C",
".. c #9D9D9D",
"X. c #9E9E9E",
"o. c #9F9F9F",
"O. c #A0A0A0",
"+. c #A1A1A1",
"@. c #A2A2A2",
"#. c #A3A3A3",
"$. c #A4A4A4",
"%. c #A5A5A5",
"&. c #A6A6A6",
"*. c #A8A8A8",
"=. c #A9A9A9",
"-. c #ADADAD",
";. c #AFAFAF",
":. c #B0B0B0",
">. c #B2B2B2",
",. c #B2B2B2",
"<. c #B4B4B4",
"1. c #B5B5B5",
"2. c #B6B6B6",
"3. c #B7B7B7",
"4. c #B8B8B8",
"5. c #B9B9B9",
"6. c #BBBBBB",
"7. c #BCBCBC",
"8. c #BDBDBD",
"9. c #808080",
"0. c #BFBFBF",
"q. c #C0C0C0",
"w. c #C1C1C1",
"e. c #C3C3C3",
"r. c #C4C4C4",
"t. c #C5C5C5",
"y. c #C6C6C6",
"u. c #C7C7C7",
"i. c #C8C8C8",
"p. c #C9C9C9",
"a. c #CACACA",
"s. c #CBCBCB",
"d. c #CCCCCC",
"f. c #CDCDCD",
"g. c #CECECE",
"h. c #CFCFCF",
"j. c #D1D1D1",
"k. c #D3D3D3",
"l. c #D4D4D4",
"z. c #D5D5D5",
"x. c #D6D6D6",
"c. c #D7D7D7",
"v. c #D8D8D8",
"b. c #D9D9D9",
"n. c #DADADA",
"m. c #DBDBDB",
"M. c #DDDDDD",
"N. c #DEDEDE",
"B. c #DFDFDF",
"V. c #E0E0E0",
"C. c #E1E1E1",
"Z. c #E2E2E2",
"A. c #E3E3E3",
"S. c #E4E4E4",
"D. c #E6E6E6",
"F. c #E7E7E7",
"G. c #E8E8E8",
"H. c #E9E9E9",
"J. c #EAEAEA",
"K. c #EBEBEB",
"L. c #ECECEC",
"P. c #EDEDED",
"I. c #EEEEEE",
"U. c #EFEFEF",
"Y. c #F0F0F0",
"T. c #F1F1F1",
"R. c #F2F2F2",
"E. c #F3F3F3",
"W. c #F4F4F4",
"Q. c #F5F5F5",
"!. c #F6F6F6",
"~. c #F7F7F7",
"^. c #F8F8F8",
"/. c #F9F9F9",
"(. c #FAFAFA",
"). c #FBFBFB",
"_. c #FCFCFC",
"`. c #FDFDFD",
"'. c #FEFEFE",
"]. c #FFFFF1",
/* pixels */
"                                                                                                                                                                                                                                                                ",
"                                                                                                                                                                                                                                                                ",
"                                                                                                                                                                                                                                                                ",
"                                                                                                                                                                                                                                                                ",
"                                                                                                                                                                                                                                                                ",
"                                                                                                                                                                                                                                                                ",
"                                                                                                                                                                                                                                                                ",
"                                                                                                                                                                                                                                                                ",
"                                                                                                                                                                                                                                                                ",
"                                                                                                                                                                                                                                                                ",
"                                                                                                                                                                                                                                                                ",
"                                                                                                                                                                                                                                                                ",
"                                                                                                                                                                                                                                                                ",
"                                                                                                                                                                                                                                                                ",
"                                                                                                                                                                                                                                                                ",
"                                                                                                                                                                                                                                                                ",
"                                                                                                                                                                                                                                                                ",
"                                                                                                                                                                                                                                                                ",
"                                                                                                                                                                                                                                                                ",
"                                                                                                                                                                            2 @ @ @ o o o @                                                                     ",
"                                                                                                                                                              j < @ @ @ @ @ @ @ @ 2 c ~ o.o.A j C.W.L 9.).1.                                                    ",
"                                                                                                                                                            U @ @ @ @ @ @ @ @ @ d w.W.).).).W.) v.C.U k.).w.t ) C.).).W.                                        ",
"                                                                                                                                                            j @ @ @ @ @ @ @ @ @ o.).).9.k.P.k.} h.v.k.W.).P.O.W.P.w.W.).                                        ",
"                                                                                                                    2 2 @ @ @                     t 2 @ @ 2 2 @ @ @ @ @ t 2 @ < 9.).W.;.9.C.O.L W.).P.).).C.v.).P.v.W.W.P.                                      ",
"                                                                                                              L @ @ @ @ @ @ @ @ t ) O.1.W.h.8 @ @ @ @ @ 2 t t @ h ) ) } P.;.< @ 1.).).).).).).9.P.).o.v.).O.9.).v.} h.C.                                        ",
"                                                                                            t @ @ @ o o @ @ 2 b j b < @ @ @ @ o L ).W.C.).9.2 h h @ 8 o.v.P.P.} ;.).W.W.).P.d o b v.P.C.P.).).v.W.).L h.).v.k.).P.9.W.).                                        ",
"                                                                                A < @ @ o @ @ @ @ d b Q b @ b C.W.C.t o @ @ @ o L ).P.v.).h.o.P.P.A 1.).W.W.).P.k.).P.h.).W.h @ b O.h.L O.).).k.P.).L h.).P.o.P.).).).W.                                        ",
"                                                                j < @ @ @ @ @ @ < 8 b U U d @ @ 2 w.).).h.2 O.).).C.t d } 9.w.U U ).W.C.).W.).).).w.P.).~ U ).).W.).k.b 9.o.8 < w.).).C.P.).P.} P.).U 9.).W.                                                    ",
"                                                              A < @ @ @ @ @ @ @ U v.W.).).C.c @ 2 h.).).P.A k.).).v.A v.).P.).P.;.W.W.C.).P.O.P.).v.W.W.c b ).W.P.).C.t < @ @ @ ~ W.).).).).                                                                    ",
"                                                              t @ @ @ @ @ @ @ A W.).).).).).1.@ 2 h.).).).h.W.).).C.9.).C.1.W.).k.W.W.C.).w.8 v.).h.W.).w.h.).v.9.).W.                                                                                          ",
"                                                              2 @ @ @ @ @ @ < 9.).W.O.} P.).v.2 2 h.).).).).).W.).P.v.).W.k.v.k.h.W.W.C.).9.8 v.).;.h.).).).).O.O.).                                                                                            ",
"                                                            } 2 @ @ @ @ @ @ 8 v.).1.< @ 1.).C.8 2 h.).P.W.).P.h.).C.v.).k.~ v.P.h.W.W.C.).w.8 k.).9.  W.W.                                                                                                      ",
"                                                              2 @ @ @ @ @ @ t P.).O.o < 9.).v.2 2 h.).w.h.).h.o.).C.1.).).W.).v.} W.W.C.).                                                                                                                      ",
"                                                              t @ @ @ @ @ @ t C.).v.U } W.).1.@ 2 h.).1.) ).} ) ).C.Q P.).W.W.                                                                                                                                  ",
"                                                              A < @ @ @ @ @ < h.).).).).).).U o 2 h.).w.b W.                                                                                                                                                    ",
"                                                                      @ @ @ @ U W.).).).W.W.                                                                                                                                                                    ",
"                                                                                    W.                                                                                                                                                                          ",
"                                                                                                                                                                                                                                                                ",
"                                                                                                                                                                                                                                                                ",
"                                                                                                                                                                                                                                                                ",
"                                                                                                                                                                                                                                                                ",
"                                                                                                                                                                                                                                                                ",
"                                                                                                                                                                                                                                                                ",
"                                                                                                                                                                                                                                                                ",
"                                                                                                                                                                                                                                                                ",
"                                                                                                                                                                                                                                                                ",
"                                                                                                                                                                                                                                                                ",
"                                                                                                                                                                                                                                                                ",
"                                                                                                                                                                                                                                                                ",
"                                                                                                                                                                                                                                                                ",
"                                                                                                                                                                                                                                                                ",
"                                                                                                                                                                                                                                                                ",
"                                                                                                                                                                                                                                                                ",
"                                                                                                                                                                                                                                                                "
};
