/* XPM */
static char *oms_044[] = {
/* columns rows colors chars-per-pixel */
"128 54 200 2 ",
"   c #FF00FF",
".  c #0C0C0C",
"X  c #0D0D0D",
"o  c #0E0E0E",
"O  c #0F0F0F",
"+  c #101010",
"@  c #111111",
"#  c #121212",
"$  c #131313",
"%  c #141414",
"&  c #151515",
"*  c #161616",
"=  c #171717",
"-  c #181818",
";  c #191919",
":  c #1A1A1A",
">  c #1B1B1B",
",  c #1C1C1C",
"<  c #1D1D1D",
"1  c #1E1E1E",
"2  c #212121",
"3  c #222222",
"4  c #232323",
"5  c #242424",
"6  c #252525",
"7  c #262626",
"8  c #272727",
"9  c #282828",
"0  c #292929",
"q  c #2A2A2A",
"w  c #2B2B2B",
"e  c #2C2C2C",
"r  c #2D2D2D",
"t  c #2E2E2E",
"y  c #303030",
"u  c #313131",
"i  c #323232",
"p  c #343434",
"a  c #353535",
"s  c #363636",
"d  c #373737",
"f  c #393939",
"g  c #3A3A3A",
"h  c #3B3B3B",
"j  c #3D3D3D",
"k  c #3F3F3F",
"l  c #404040",
"z  c #414141",
"x  c #434343",
"c  c #454545",
"v  c #474747",
"b  c #484848",
"n  c #494949",
"m  c #4A4A4A",
"M  c #4B4B4B",
"N  c #4C4C4C",
"B  c #4C4C4C",
"V  c #4E4E4E",
"C  c #4F4F4F",
"Z  c #505050",
"A  c #515151",
"S  c #525252",
"D  c #535353",
"F  c #555555",
"G  c #565656",
"H  c #595959",
"J  c #5A5A5A",
"K  c #5C5C5C",
"L  c #5F5F5F",
"P  c #616161",
"I  c #626262",
"U  c #636363",
"Y  c #646464",
"T  c #656565",
"R  c #666666",
"E  c #676767",
"W  c #686868",
"Q  c #6B6B6B",
"!  c #6C6C6C",
"~  c #6D6D6D",
"^  c #6E6E6E",
"/  c #6F6F6F",
"(  c #717171",
")  c #727272",
"_  c #737373",
"`  c #747474",
"'  c #777777",
"]  c #787878",
"[  c #7A7A7A",
"{  c #7B7B7B",
"}  c #7D7D7D",
"|  c #808080",
" . c #818181",
".. c #828282",
"X. c #838383",
"o. c #858585",
"O. c #868686",
"+. c #888888",
"@. c #898989",
"#. c #8C8C8C",
"$. c #8D8D8D",
"%. c #8E8E8E",
"&. c #8F8F8F",
"*. c #929292",
"=. c #939393",
"-. c #949494",
";. c #969696",
":. c #989898",
">. c #9B9B9B",
",. c #9D9D9D",
"<. c #9E9E9E",
"1. c #9F9F9F",
"2. c #A0A0A0",
"3. c #A1A1A1",
"4. c #A4A4A4",
"5. c #A6A6A6",
"6. c #A7A7A7",
"7. c #A8A8A8",
"8. c #A9A9A9",
"9. c #AAAAAA",
"0. c #ABABAB",
"q. c #ADADAD",
"w. c #AEAEAE",
"e. c #B1B1B1",
"r. c #B2B2B2",
"t. c #B2B2B2",
"y. c #B4B4B4",
"u. c #B6B6B6",
"i. c #B7B7B7",
"p. c #B8B8B8",
"a. c #B9B9B9",
"s. c #BABABA",
"d. c #BBBBBB",
"f. c #BCBCBC",
"g. c #BDBDBD",
"h. c #808080",
"j. c #BFBFBF",
"k. c #C0C0C0",
"l. c #C1C1C1",
"z. c #C2C2C2",
"x. c #C3C3C3",
"c. c #C4C4C4",
"v. c #C5C5C5",
"b. c #C6C6C6",
"n. c #C7C7C7",
"m. c #C8C8C8",
"M. c #C9C9C9",
"N. c #CACACA",
"B. c #CBCBCB",
"V. c #CCCCCC",
"C. c #CDCDCD",
"Z. c #CECECE",
"A. c #CFCFCF",
"S. c #D0D0D0",
"D. c #D1D1D1",
"F. c #D2D2D2",
"G. c #D3D3D3",
"H. c #D4D4D4",
"J. c #D6D6D6",
"K. c #D7D7D7",
"L. c #D8D8D8",
"P. c #D9D9D9",
"I. c #DADADA",
"U. c #DBDBDB",
"Y. c #DCDCDC",
"T. c #DDDDDD",
"R. c #DEDEDE",
"E. c #DFDFDF",
"W. c #E0E0E0",
"Q. c #E1E1E1",
"!. c #E2E2E2",
"~. c #E3E3E3",
"^. c #E4E4E4",
"/. c #E6E6E6",
"(. c #E6E6E6",
"). c #E7E7E7",
"_. c #E8E8E8",
"`. c #E9E9E9",
"'. c #EAEAEA",
"]. c #EBEBEB",
"[. c #ECECEC",
"{. c #EDEDED",
"}. c #EEEEEE",
"|. c #EFEFEF",
" X c #F0F0F0",
".X c #F1F1F1",
"XX c #F2F2F2",
"oX c #F3F3F3",
"OX c #F4F4F4",
"+X c #F5F5F5",
"@X c #F6F6F6",
"#X c #F7F7F7",
"$X c #F8F8F8",
"%X c #F9F9F9",
"&X c #FAFAFA",
"*X c #FBFBFB",
"=X c #FCFCFC",
"-X c #FDFDFD",
";X c #FEFEFE",
":X c #FFFFF1",
/* pixels */
"                                                                                                                                                                                                                                                                ",
"                                                                                                                                                                                                                                                                ",
"                                                                                                                                                                                                                                                                ",
"                                                                                                                                                                                                                                                                ",
"                                                                                                                                                                                                                                                                ",
"                                                                                                                                                                                                                                                                ",
"                                                                                                                                                                                                                                                                ",
"                                                                                                                                                                                                                                                                ",
"                                                                                                                                                                                                                                                                ",
"                                                                                                                                                                                                                                                                ",
"                                                                                                                                                                                                                                                                ",
"                                                                                                                                                                                                                                                                ",
"                                                                                                                                                                                                                                                                ",
"                                                                                                                                                                                                                                                                ",
"                                                                                                                                                                                                                                                                ",
"                                                                                                                                                                                                                                                                ",
"                                                                                                                                                                                                                                                                ",
"                                                                                                                                                                                                                                                                ",
"                                                                                                                                                                                                                                                                ",
"                                                                                                                                                                                                                                                                ",
"                                                                                                                                                                                                                                                                ",
"                                                                                                                                                                        8 , # # # # # # s n ^ { %...H 8 x M..XM.s 2.M.'.                                        ",
"                                                                                                                                                                      8 # # # # # # # ^ I..X*X*X*X*X.X0.' .X*XM.h ).*X.X' . #                                   ",
"                                                                                                          8 # # # , # , s x Z                                       U # # . . # # # h '.*X*X).d.)..X.X).%.M.J.t.*..X*X*Xv.h %.I..X*X*X.X.X                      ",
"                                                                      , # #     r , 8 , # # 8 U           , # # # # # Z ).'.J.M..X*Xd.  . . .     . # , 8 8 # # 8 h n s r ^ ^ 8 # . H *X*X*XJ.%.M.I.t.^ ^ .X.X).'.*X*X*X'.0.*X*XI.t..X*X*X                      ",
"                                              , # # # # , x ..    U 8 # # # # ' d.v.M.d.r . { '..X.X.X  Z # . . . . . U *X*X).J.*X*X%.8 Z U h # , U 2.v.J.M.0.x { ).'.M.J.*X*X2.# # x .X*X*X*X*X*X*X.XJ.*..X*X).v..X*X.Xt.J.*X*X).I..X.X.X                      ",
"                                          r # # # # # n t.)..X.X.X.XM.H # # # 0.*X*X*X*X^ , M.*X*X*X).s , n ' %.%.^ 8 U *X*X).J.*X*Xd.v..X*XI.x *..X*X*X*X*X*XM.2.*X*X*X.X*X*XI.r # , ..I.'..X'..X*X*X*XJ..X*XJ.n ).*X.X' v.*X*Xv...v.I..X                      ",
"                                        Z # # # # # Z ).*X*X*X*X*X*X*XI.s # # 2.*X*X*X*Xd.U .X*X*X*X).n 0..X*X*X*X*Xv....X*X).J.*X*X*X*X*X*X*X0.'.*X.X{ { .X*X.XJ.*X*XM.{ *X*X).r # h ..t.J.0.n d.*X*X*XJ..X*XM.x ).*X*XI.v.*X*X).d..X*X.X                      ",
"                                        s # # # # , d.*X*X.Xt.*.M.*X*X*X' . # 2.*X*X*X*X'.I.*X*X*X*X).2.*X*XI.2.'.*X.Xv..X*X).J.*X*XM.U ).*X.XM..X*X).r s ).*X.XJ.*X*Xv.s { ' H , . U *X*X*X'.M.'.*X*X).>..X*XJ.h J.*X*X).' I.*X*X*X.X.X                        ",
"                                        8 # # # # r ).*X*X2.# . x '.*X*X..# # 2.*X*X.X*X*X*X*X.X.X*X).J.*X*X'.).'.'.).M..X*X).J.*X*X%.# M.*X*Xv..X*X.X*.>..X*X).t.*X*X'.    . . # # r v.*X*X*X*X*X*X*X>.^ .X.X).                                                ",
"                                        s # # # # s ).*X*X... . h ).*X*X... # 0.*X*XI.).*X*X'.d.*X*X).J.*X*Xv.^ d.I.I.v..X*X).J.*X*X%.# M.*X*X*.v.*X*X*X*X*X*X%.%.*X.X.X                                                                                        ",
"                                        n # # # # r ).*X*XJ.U H d.*X*X.XH . # 0.*X*Xd.*.*X*Xd.{ *X*XI.>..X*X.XI..X*X).>..X*X).J.*X*X>.# M.*X*X2.  '..X.X.X.X                                                                                                    ",
"                                          r # # # , t.*X*X*X.X.X*X*X*XM.8 # # 2.*X*Xd.x '.*X' ^ *X*X'.H v..X.X.X.X.X    .X                                                                                                                                      ",
"                                                # . n I.*X*X*X*X*X*X.X      # 0.*X.XJ.    .X                                                                                                                                                                    ",
"                                                          .X*X.X                                                                                                                                                                                                ",
"                                                                                                                                                                                                                                                                ",
"                                                                                                                                                                                                                                                                ",
"                                                                                                                                                                                                                                                                ",
"                                                                                                                                                                                                                                                                ",
"                                                                                                                                                                                                                                                                ",
"                                                                                                                                                                                                                                                                ",
"                                                                                                                                                                                                                                                                ",
"                                                                                                                                                                                                                                                                ",
"                                                                                                                                                                                                                                                                ",
"                                                                                                                                                                                                                                                                ",
"                                                                                                                                                                                                                                                                ",
"                                                                                                                                                                                                                                                                ",
"                                                                                                                                                                                                                                                                ",
"                                                                                                                                                                                                                                                                ",
"                                                                                                                                                                                                                                                                ",
"                                                                                                                                                                                                                                                                ",
"                                                                                                                                                                                                                                                                ",
"                                                                                                                                                                                                                                                                ",
"                                                                                                                                                                                                                                                                "
};
