/* XPM */
static char *oms_104[] = {
/* columns rows colors chars-per-pixel */
"128 54 142 2 ",
"   c #FF00FF",
".  c #0F0F0F",
"X  c #101010",
"o  c #111111",
"O  c #121212",
"+  c #131313",
"@  c #141414",
"#  c #151515",
"$  c #161616",
"%  c #171717",
"&  c #181818",
"*  c #191919",
"=  c #1A1A1A",
"-  c #1B1B1B",
";  c #1C1C1C",
":  c #1D1D1D",
">  c #1E1E1E",
",  c #1F1F1F",
"<  c #202020",
"1  c #212121",
"2  c #232323",
"3  c #242424",
"4  c #252525",
"5  c #282828",
"6  c #292929",
"7  c #2B2B2B",
"8  c #2C2C2C",
"9  c #2D2D2D",
"0  c #2E2E2E",
"q  c #2F2F2F",
"w  c #313131",
"e  c #323232",
"r  c #333333",
"t  c #3E3E3E",
"y  c #454545",
"u  c #4B4B4B",
"i  c #4C4C4C",
"p  c #5B5B5B",
"a  c #5C5C5C",
"s  c #5E5E5E",
"d  c #606060",
"f  c #616161",
"g  c #626262",
"h  c #656565",
"j  c #666666",
"k  c #686868",
"l  c #696969",
"z  c #6A6A6A",
"x  c #6D6D6D",
"c  c #707070",
"v  c #717171",
"b  c #737373",
"n  c #767676",
"m  c #787878",
"M  c #7A7A7A",
"N  c #7D7D7D",
"B  c #7E7E7E",
"V  c #808080",
"C  c #838383",
"Z  c #878787",
"A  c #888888",
"S  c #898989",
"D  c #8B8B8B",
"F  c #8E8E8E",
"G  c #8F8F8F",
"H  c #909090",
"J  c #919191",
"K  c #929292",
"L  c #959595",
"P  c #969696",
"I  c #979797",
"U  c #989898",
"Y  c #9A9A9A",
"T  c #9B9B9B",
"R  c #9C9C9C",
"E  c #9D9D9D",
"W  c #9E9E9E",
"Q  c #9F9F9F",
"!  c #A0A0A0",
"~  c #A3A3A3",
"^  c #A5A5A5",
"/  c #A7A7A7",
"(  c #A9A9A9",
")  c #ABABAB",
"_  c #ADADAD",
"`  c #AFAFAF",
"'  c #B1B1B1",
"]  c #B6B6B6",
"[  c #B7B7B7",
"{  c #B8B8B8",
"}  c #B9B9B9",
"|  c #BBBBBB",
" . c #BCBCBC",
".. c #BDBDBD",
"X. c #BFBFBF",
"o. c #C4C4C4",
"O. c #C5C5C5",
"+. c #C6C6C6",
"@. c #C8C8C8",
"#. c #C9C9C9",
"$. c #CBCBCB",
"%. c #CCCCCC",
"&. c #CDCDCD",
"*. c #CECECE",
"=. c #D1D1D1",
"-. c #D2D2D2",
";. c #D3D3D3",
":. c #D4D4D4",
">. c #D5D5D5",
",. c #D6D6D6",
"<. c #D8D8D8",
"1. c #D9D9D9",
"2. c #DBDBDB",
"3. c #DCDCDC",
"4. c #DDDDDD",
"5. c #DEDEDE",
"6. c #DFDFDF",
"7. c #E0E0E0",
"8. c #E2E2E2",
"9. c #E4E4E4",
"0. c #E6E6E6",
"q. c #E6E6E6",
"w. c #E7E7E7",
"e. c #E9E9E9",
"r. c #EAEAEA",
"t. c #EBEBEB",
"y. c #EDEDED",
"u. c #EEEEEE",
"i. c #EFEFEF",
"p. c #F0F0F0",
"a. c #F1F1F1",
"s. c #F2F2F2",
"d. c #F3F3F3",
"f. c #F5F5F5",
"g. c #F6F6F6",
"h. c #F7F7F7",
"j. c #F8F8F8",
"k. c #F9F9F9",
"l. c #FAFAFA",
"z. c #FBFBFB",
"x. c #FCFCFC",
"c. c #FFFFF1",
/* pixels */
"                                                                                                                                                                                                                                                                ",
"                                                                                                                                                                                                                                                                ",
"                                                                                                                                                                                                                                                                ",
"                                                                                                                                                                                                                                                                ",
"                                                                                                                                                                                                                                                                ",
"                                                                                                                                                                                                                                                                ",
"                                                                                                                                                                                                                                                                ",
"                                                                                                                                                                                                                                                                ",
"                                                                                                                                                                                                                                                                ",
"                                                                                                                                                                                                                                                                ",
"                                                                                                                                                                                                                                                                ",
"                                                                                                                                                                                                                                                                ",
"                                                                                                                                                                                                                                                                ",
"                                                                                                                                                                                                                                                                ",
"                                                                                                            u b 4 + + + + + + + + + 6 z                                                                                                                         ",
"                                                                                                          f.H ] H ; + + + + + + + + + 6 B                                                                                                                       ",
"                                                                                                          q.%.;.] H t + + + + + + + + + + h                                                                                                                     ",
"                                                                                                          q.q.t.%.t.X.; + + + + + + + + + 4 ~                                                                                                                   ",
"                                                                                                          ;.;.q.;.] 6.y + + + + + + + + + + F                                                                                                                   ",
"                                                                                                          f.q.;.%.+.6.p . + + + + + + + + + V                                                                                                                   ",
"                                                                                                            6.;.%.f.j.p + + + + + + + + + + h                                                                                                                   ",
"                                                                                                              ;.%.t.q.h b ; + + + + + + + + + 6 F                                                                                                               ",
"                                                                                                                ;.;.Q u ;.F + + + + + + + + + + 6 Q                                                                                                             ",
"                                                                                                                  t.f.b 6.6.H 6 + 4 + + + + + + + 4 h                                                                                                           ",
"                                                                                                                    f.z H q.j.B 4 H e + + + + + + + + + + b                                                                                                     ",
"                                                                                                                          f.q.X.F 6.~ ; + + + + + + + + + ; ~                                                                                                   ",
"                                                                                                                          j.X.%.t.f.X.; + + + + + + + + + ; Q                                                                                                   ",
"                                                                                                                          q.%.q.f.j.X.; 4 6 + + + + + + + + p                                                                                                   ",
"                                                                                                                            f.j.%.6.;.F p ~ ; + + + + + + + + + ; F                                                                                             ",
"                                                                                                                              t.X.;.t.t.( %.h e + + + + + + + + + e p                                                                                           ",
"                                                                                                                                X.;.f.q.;.6.] Q + + + + + + + + + + ; Q                                                                                         ",
"                                                                                                                                  t.f.q.t.t.q.( 4 6 + + + + + + + + + h                                                                                         ",
"                                                                                                                                    q.;.t.j.j.~ B %.6 + + + + + + + + + + h                                                                                     ",
"                                                                                                                                      f.f.t.j.( Q j.B + + + + + + + + + + 4 (                                                                                   ",
"                                                                                                                                        6.;.q.~ ~ q.( + + + + + + + + + + + F                                                                                   ",
"                                                                                                                                          %.+.Q Q V ( ; + + + + + + + + + + z                                                                                   ",
"                                                                                                                                            X.Q Q b ( 4 + + + + + + + + + . z                                                                                   ",
"                                                                                                                                              Q H ( X.4 + + + + + + + + + . z                                                                                   ",
"                                                                                                                                                  j.%.4 + + + + + + + + + . z                                                                                   ",
"                                                                                                                                                  j.+.; + + + + + + + + + + z                                                                                   ",
"                                                                                                                                                    ( + + + + + + + + + + + V                                                                                   ",
"                                                                                                                                                                                                                                                                ",
"                                                                                                                                                                                                                                                                ",
"                                                                                                                                                                                                                                                                ",
"                                                                                                                                                                                                                                                                ",
"                                                                                                                                                                                                                                                                ",
"                                                                                                                                                                                                                                                                ",
"                                                                                                                                                                                                                                                                ",
"                                                                                                                                                                                                                                                                ",
"                                                                                                                                                                                                                                                                ",
"                                                                                                                                                                                                                                                                ",
"                                                                                                                                                                                                                                                                ",
"                                                                                                                                                                                                                                                                ",
"                                                                                                                                                                                                                                                                "
};
