/* XPM */
static char *oms_038[] = {
/* columns rows colors chars-per-pixel */
"128 54 198 2 ",
"   c #FF00FF",
".  c #090909",
"X  c #0D0D0D",
"o  c #0E0E0E",
"O  c #0F0F0F",
"+  c #101010",
"@  c #111111",
"#  c #121212",
"$  c #131313",
"%  c #141414",
"&  c #151515",
"*  c #161616",
"=  c #171717",
"-  c #181818",
";  c #191919",
":  c #1A1A1A",
">  c #1B1B1B",
",  c #1C1C1C",
"<  c #1D1D1D",
"1  c #1E1E1E",
"2  c #1F1F1F",
"3  c #202020",
"4  c #212121",
"5  c #222222",
"6  c #242424",
"7  c #252525",
"8  c #262626",
"9  c #272727",
"0  c #282828",
"q  c #292929",
"w  c #2B2B2B",
"e  c #2C2C2C",
"r  c #2E2E2E",
"t  c #2F2F2F",
"y  c #303030",
"u  c #323232",
"i  c #333333",
"p  c #343434",
"a  c #353535",
"s  c #363636",
"d  c #373737",
"f  c #383838",
"g  c #3A3A3A",
"h  c #3B3B3B",
"j  c #3C3C3C",
"k  c #3D3D3D",
"l  c #3E3E3E",
"z  c #424242",
"x  c #434343",
"c  c #464646",
"v  c #474747",
"b  c #484848",
"n  c #494949",
"m  c #4A4A4A",
"M  c #4C4C4C",
"N  c #4F4F4F",
"B  c #515151",
"V  c #545454",
"C  c #555555",
"Z  c #575757",
"A  c #595959",
"S  c #5A5A5A",
"D  c #5B5B5B",
"F  c #5C5C5C",
"G  c #5D5D5D",
"H  c #5E5E5E",
"J  c #5F5F5F",
"K  c #606060",
"L  c #616161",
"P  c #626262",
"I  c #646464",
"U  c #676767",
"Y  c #686868",
"T  c #696969",
"R  c #6C6C6C",
"E  c #6D6D6D",
"W  c #6E6E6E",
"Q  c #707070",
"!  c #717171",
"~  c #727272",
"^  c #737373",
"/  c #747474",
"(  c #757575",
")  c #767676",
"_  c #797979",
"`  c #7A7A7A",
"'  c #7B7B7B",
"]  c #7C7C7C",
"[  c #7D7D7D",
"{  c #7E7E7E",
"}  c #808080",
"|  c #838383",
" . c #868686",
".. c #878787",
"X. c #888888",
"o. c #898989",
"O. c #8B8B8B",
"+. c #8C8C8C",
"@. c #8D8D8D",
"#. c #8E8E8E",
"$. c #909090",
"%. c #929292",
"&. c #939393",
"*. c #969696",
"=. c #979797",
"-. c #989898",
";. c #9A9A9A",
":. c #9B9B9B",
">. c #9D9D9D",
",. c #9E9E9E",
"<. c #9F9F9F",
"1. c #A1A1A1",
"2. c #A3A3A3",
"3. c #A4A4A4",
"4. c #A5A5A5",
"5. c #A6A6A6",
"6. c #A7A7A7",
"7. c #A8A8A8",
"8. c #A9A9A9",
"9. c #AAAAAA",
"0. c #ACACAC",
"q. c #ADADAD",
"w. c #AEAEAE",
"e. c #AFAFAF",
"r. c #B0B0B0",
"t. c #B1B1B1",
"y. c #B2B2B2",
"u. c #B2B2B2",
"i. c #B4B4B4",
"p. c #B5B5B5",
"a. c #B6B6B6",
"s. c #B8B8B8",
"d. c #B9B9B9",
"f. c #BCBCBC",
"g. c #BDBDBD",
"h. c #BFBFBF",
"j. c #C1C1C1",
"k. c #C2C2C2",
"l. c #C3C3C3",
"z. c #C4C4C4",
"x. c #C5C5C5",
"c. c #C6C6C6",
"v. c #C7C7C7",
"b. c #C8C8C8",
"n. c #C9C9C9",
"m. c #CACACA",
"M. c #CBCBCB",
"N. c #CCCCCC",
"B. c #CDCDCD",
"V. c #CECECE",
"C. c #CFCFCF",
"Z. c #D0D0D0",
"A. c #D1D1D1",
"S. c #D2D2D2",
"D. c #D3D3D3",
"F. c #D4D4D4",
"G. c #D5D5D5",
"H. c #D6D6D6",
"J. c #D7D7D7",
"K. c #D9D9D9",
"L. c #DADADA",
"P. c #DBDBDB",
"I. c #DCDCDC",
"U. c #DDDDDD",
"Y. c #DEDEDE",
"T. c #DFDFDF",
"R. c #E0E0E0",
"E. c #E1E1E1",
"W. c #E2E2E2",
"Q. c #E3E3E3",
"!. c #E4E4E4",
"~. c #E6E6E6",
"^. c #E6E6E6",
"/. c #E7E7E7",
"(. c #E8E8E8",
"). c #E9E9E9",
"_. c #EAEAEA",
"`. c #EBEBEB",
"'. c #ECECEC",
"]. c #EDEDED",
"[. c #EEEEEE",
"{. c #EFEFEF",
"}. c #F0F0F0",
"|. c #F1F1F1",
" X c #F2F2F2",
".X c #F3F3F3",
"XX c #F4F4F4",
"oX c #F5F5F5",
"OX c #F6F6F6",
"+X c #F7F7F7",
"@X c #F8F8F8",
"#X c #F9F9F9",
"$X c #FAFAFA",
"%X c #FBFBFB",
"&X c #FCFCFC",
"*X c #FDFDFD",
"=X c #FEFEFE",
"-X c #FFFFF1",
/* pixels */
"                                                                                                                                                                                                                                                                ",
"                                                                                                                                                                                                                                                                ",
"                                                                                                                                                                                                                                                                ",
"                                                                                                                                                                                                                                                                ",
"                                                                                                                                                                                                                                                                ",
"                                                                                                                                                                                                                                                                ",
"                                                                                                                                                                                                                                                                ",
"                                                                                                                                                                                                                                                                ",
"                                                                                                                                                                                                                                                                ",
"                                                                                                                                                                                                                                                                ",
"                                                                                                                                                                                                                                                                ",
"                                                                                                                                                                                                                                                                ",
"                                                                                                                                                                                                                                                                ",
"                                                                                                                                                                                                                                                                ",
"                                                                                                                                                                                                                                                                ",
"                                                                                                                                                                                                                                                                ",
"                                                                                                                                                                                                                                                                ",
"                                                                                                                                                                                                                                                                ",
"                                                                                                                                                                                                                                                                ",
"                                                                                                                                                                                                                                                                ",
"                                                                                                                                                                                                                                                                ",
"                                                                                                                                                                              % % % % % X   n l x n x q % <                                                     ",
"                                                                                                                                                                        S < % % % % % < E f.U.R.`.`.R.D.+.p D.&X&X%.n R.`.+X                                    ",
"                                                                                                        < % % % % 6 S E ^ I y.n.                                        p X % % % % % ^ +X&X&X+XR.+X&X&X&X+.x.R.U...^ &X&X+X..< 6 ^ f.`.`.+X                    ",
"                                        % % % X %             % % % % q E %.' ' B % % n 0.x.U.`.        < % % % X S +X&X+Xf.+X+X&X        X         < 6 6 < % % 6 q l n q n n 6 % % % y.&X&X&Xy.E x.U.n.4.E x.R.R.x.R.&X&X&XR.I f.+X&X`.+X&X+X+X                ",
"                                    < % % % < I 0.D.R.`.+X+Xf.p % % X S +X+X&X&XD.6 % y.&X&X&X&X+.    x 6 < < % X I &X&X+Xx.+X&X`.n n ^ ^ l % < I 4.f.n.n.y.^ 6 4.D.U.y.y.+X+Xy.6 % % 0.&X&X&X+X`.+X+XR.f.B U.&X&XD.+X&X&X&XR.x.&X&X`.:.n.&X&X+X                ",
"                                  6 % % % 6 4.+X&X&X&X&X&X&X&Xx.q % X S +X&X&X&X+XI x `.&X&X&X+XI < ^ 0.n.D.x.4.x I &X&X+Xx.+X&X`.y.`.&X&XU.x %.+X&X&X+X&X&X&X:.D.&X&X&X&X&X&X+XS X % B R.+X+X&X&X&X&X&X&Xn.R.&X&X4.%.&X&X&X' x.&X&X+XU.R.R.`.+X                ",
"                                  % % % % ^ &X&X&X+Xn.n.`.&X&X&X^ X X S +X&X&X&X&Xx.y.&X&X&X&X+X^ 0.&X&XR.R.&X&XU.%.+X&X+Xx.+X&X&X+X+X&X&X&X0.`.&X&X0.S D.&X&XR.R.&X&XD.+.+X&X&X^ X % l ^ 0.D.4.' D.&X&X&XR.R.&X&X+.S &X&X&X:.x.&X&XU.E :.U.`.+X                ",
"                                l % % % % y.&X&X+XE < < ' +X&X&X:.% X S +X&X&X&X&X&X+X&X+X&X&X+X0.+X&X+Xf.y.&X&X&XD.+X&X+Xx.+X&X+X^ E +X&X+Xx.+X&X+XS X 4.&X&X`.R.&X&XD.n :.:.%.l % < f.+X+X+Xx...D.&X&X&Xx.R.&X&X+.B +X&X&X`.4.`.&X&X`.+X&X&X+X                ",
"                                  % % % < x.&X&XR.q X X n +X&X&X:.% X S +X&X+XR.&X&X&X+Xn.+X&X+Xx.+X&X+XD.n.D.U.D.n.+X&X+Xx.+X&XR.p p R.&X+Xy.+X&X&Xy.^ U.&X&Xn.D.&X&X&X    % % % % % ' +X&X&X&X&X&X&X&XU.S U.&X&X:.p R.+X&X`.S 4.+X+X+X+X+X                    ",
"                                  < % % < f.&X&X+X' q p 0.&X&X&X..% X S +X&X+X%.R.&X&XU.' +X&X+Xy.+X&X+X:...U.`.R.x.+X&X+Xx.+X&XR.p p R.&X&X+.y.&X&X&X&X&X&X`.I n.&X&X+X                  +X+X+X+X+X+X                                                          ",
"                                  p % % % +.&X&X&X+XU.R.&X&X&XR.x % X S +X&X&XE %.&X&X+.S +X&X+X' x.&X&X&X&X&X&Xn.+.+X+X+Xf.+X+X`.x l R.+X+X4.    +X+X+X+X                                                                                                      ",
"                                      % % p n.&X&X&X&X&X&X&X&Xx.% % X I +X&X&X' n `.+XB I +X+X+X      +X+X+X+X                                                                                                                                                  ",
"                                                +X&X&X+X+X                                                                                                                                                                                                      ",
"                                                                                                                                                                                                                                                                ",
"                                                                                                                                                                                                                                                                ",
"                                                                                                                                                                                                                                                                ",
"                                                                                                                                                                                                                                                                ",
"                                                                                                                                                                                                                                                                ",
"                                                                                                                                                                                                                                                                ",
"                                                                                                                                                                                                                                                                ",
"                                                                                                                                                                                                                                                                ",
"                                                                                                                                                                                                                                                                ",
"                                                                                                                                                                                                                                                                ",
"                                                                                                                                                                                                                                                                ",
"                                                                                                                                                                                                                                                                ",
"                                                                                                                                                                                                                                                                ",
"                                                                                                                                                                                                                                                                ",
"                                                                                                                                                                                                                                                                ",
"                                                                                                                                                                                                                                                                ",
"                                                                                                                                                                                                                                                                ",
"                                                                                                                                                                                                                                                                ",
"                                                                                                                                                                                                                                                                ",
"                                                                                                                                                                                                                                                                "
};
