/* XPM */
static char *oms_058[] = {
/* columns rows colors chars-per-pixel */
"128 54 181 2 ",
"   c #FF00FF",
".  c #090909",
"X  c #0B0B0B",
"o  c #0C0C0C",
"O  c #0D0D0D",
"+  c #0E0E0E",
"@  c #0F0F0F",
"#  c #101010",
"$  c #111111",
"%  c #121212",
"&  c #131313",
"*  c #141414",
"=  c #151515",
"-  c #161616",
";  c #171717",
":  c #181818",
">  c #191919",
",  c #1A1A1A",
"<  c #1B1B1B",
"1  c #1C1C1C",
"2  c #1F1F1F",
"3  c #202020",
"4  c #212121",
"5  c #222222",
"6  c #232323",
"7  c #252525",
"8  c #262626",
"9  c #272727",
"0  c #282828",
"q  c #292929",
"w  c #2A2A2A",
"e  c #2B2B2B",
"r  c #2D2D2D",
"t  c #2F2F2F",
"y  c #313131",
"u  c #323232",
"i  c #333333",
"p  c #353535",
"a  c #363636",
"s  c #373737",
"d  c #383838",
"f  c #393939",
"g  c #3B3B3B",
"h  c #404040",
"j  c #444444",
"k  c #454545",
"l  c #464646",
"z  c #484848",
"x  c #494949",
"c  c #4C4C4C",
"v  c #4E4E4E",
"b  c #515151",
"n  c #525252",
"m  c #535353",
"M  c #545454",
"N  c #555555",
"B  c #575757",
"V  c #585858",
"C  c #595959",
"Z  c #5A5A5A",
"A  c #5C5C5C",
"S  c #5D5D5D",
"D  c #5F5F5F",
"F  c #606060",
"G  c #616161",
"H  c #626262",
"J  c #646464",
"K  c #686868",
"L  c #696969",
"P  c #6A6A6A",
"I  c #6B6B6B",
"U  c #6C6C6C",
"Y  c #6E6E6E",
"T  c #707070",
"R  c #717171",
"E  c #727272",
"W  c #737373",
"Q  c #757575",
"!  c #777777",
"~  c #7A7A7A",
"^  c #7B7B7B",
"/  c #7C7C7C",
"(  c #7D7D7D",
")  c #7E7E7E",
"_  c #808080",
"`  c #808080",
"'  c #838383",
"]  c #848484",
"[  c #878787",
"{  c #888888",
"}  c #8B8B8B",
"|  c #8D8D8D",
" . c #8E8E8E",
".. c #8F8F8F",
"X. c #909090",
"o. c #919191",
"O. c #929292",
"+. c #939393",
"@. c #949494",
"#. c #969696",
"$. c #999999",
"%. c #9A9A9A",
"&. c #9B9B9B",
"*. c #9E9E9E",
"=. c #9F9F9F",
"-. c #A0A0A0",
";. c #A1A1A1",
":. c #A2A2A2",
">. c #A4A4A4",
",. c #A6A6A6",
"<. c #A7A7A7",
"1. c #A9A9A9",
"2. c #AAAAAA",
"3. c #ABABAB",
"4. c #ACACAC",
"5. c #AEAEAE",
"6. c #B1B1B1",
"7. c #B4B4B4",
"8. c #B5B5B5",
"9. c #B6B6B6",
"0. c #B7B7B7",
"q. c #B9B9B9",
"w. c #BABABA",
"e. c #BCBCBC",
"r. c #808080",
"t. c #BFBFBF",
"y. c #C0C0C0",
"u. c #C2C2C2",
"i. c #C3C3C3",
"p. c #C4C4C4",
"a. c #C5C5C5",
"s. c #C6C6C6",
"d. c #C8C8C8",
"f. c #CACACA",
"g. c #CBCBCB",
"h. c #CCCCCC",
"j. c #CDCDCD",
"k. c #CECECE",
"l. c #CFCFCF",
"z. c #D0D0D0",
"x. c #D2D2D2",
"c. c #D4D4D4",
"v. c #D6D6D6",
"b. c #D7D7D7",
"n. c #D8D8D8",
"m. c #D9D9D9",
"M. c #DADADA",
"N. c #DBDBDB",
"B. c #DCDCDC",
"V. c #DDDDDD",
"C. c #DFDFDF",
"Z. c #E0E0E0",
"A. c #E3E3E3",
"S. c #E4E4E4",
"D. c #E6E6E6",
"F. c #E6E6E6",
"G. c #E7E7E7",
"H. c #E8E8E8",
"J. c #E9E9E9",
"K. c #EAEAEA",
"L. c #EBEBEB",
"P. c #ECECEC",
"I. c #EDEDED",
"U. c #EEEEEE",
"Y. c #EFEFEF",
"T. c #F0F0F0",
"R. c #F1F1F1",
"E. c #F2F2F2",
"W. c #F3F3F3",
"Q. c #F4F4F4",
"!. c #F5F5F5",
"~. c #F6F6F6",
"^. c #F7F7F7",
"/. c #F8F8F8",
"(. c #F9F9F9",
"). c #FAFAFA",
"_. c #FBFBFB",
"`. c #FCFCFC",
"'. c #FDFDFD",
"]. c #FEFEFE",
"[. c #FFFFF1",
/* pixels */
"                                                                                                                                                                                                                                                                ",
"                                                                                                                                                                                                                                                                ",
"                                                                                                                                                                                                                                                                ",
"                                                                                                                                                                                                                                                                ",
"                                                                                                                                                                                                                                                                ",
"                                                                                                                                                                                                                                                                ",
"                                                                                                                                                                                                                                                                ",
"                                                                                                                                                                                                                                                                ",
"                                                                                                                                                                                                                                                                ",
"                                                                                                                                                                                                                                                                ",
"                                                                                                                                                                                                                                                                ",
"                                                                                                                                                                                                                                                                ",
"                                                                                                                                                                                                                                                                ",
"                                                                                                                                                                                                                                                                ",
"                                                                                                                                                                                                                                                                ",
"                                                                                                                                                                                                                                                                ",
"                                                                                                                                                                                                                                                                ",
"                                                                                                                                                                                                                                                                ",
"                                                                                                                                                                                                                                                                ",
"                                                                                                                                                                          l : = = = + + = = + r                                                                 ",
"                                                                                                                                                              p = = = = = = = = = r I X.5.<.n ! Q.v.F G.Q.I                                                     ",
"                                                                                                                                                            n = = = = = = = = = n M.).).).).G.X.G.y./ Q.Q.{ l r.Q.).).Q.                                        ",
"                                                                                                                                                            p = = = = = = = = : r.).Q.5.M.G.r.X.M.v.M.).).v.y.).d.d.).Q.                                        ",
"                                                                                                                    3 3 = = = =                   g 3 = = r : = = = = : g 3 = 3 M.).I.5.v.v.{ ] ).I.G.).Q.d.I.).G.G.Q.Q.                                        ",
"                                                                                                                : = = = = = = = 3 / <.<.I.M.p = = = = = 3 g p : z X.{ <.I.<.= 3 d.).).).).).Q.y.).M.{ Q.Q./ G.).6.&.G.Q.                                        ",
"                                                                                            l : : = + + + = = z g n r = = = = = z Q.Q.d.).v.r g l = r &.M.I.I.X.<.).Q.).).M.r = I M.I.M.Q.).).M.).v.I Q.).d.I.).M.M.).Q.                                        ",
"                                                                                  p = = + = = = = 3 l F ! : 3 y.I.Q.F + + = = + z Q.Q.d.).v.X.I.I.I <.).Q.I.).I.d.).G.y.).I.p : I 6.d.D y.).Q.d.).v.F I.).v.5.Q.).).Q.                                          ",
"                                                                  p : = = = = = 3 : p D I z : = + ! Q.).Q.z n Q.).).D 3 ! 5.r.{ D Q.Q.d.).Q.Q.).).y.G.).] ! ).Q.G.).y.F 6.{ 3 r M.).).G.Q.).v.&.).G.D G.).                                                      ",
"                                                                p = = = = = = = r &.G.Q.).Q.&.: + / ).).).X.X.).).Q.! 6.).I.).Q.r.Q.Q.d.).Q.<.G.).M.Q.).D D ).Q.M.).v.r = = = = &.).).).).).                                                                    ",
"                                                              I = = = = = = = : <.).).).).).Q.z + / ).).).M.M.).).Q.5.Q.Q.6.G.).Q.).Q.d.).M.r y.).v.I.).y.d.).v.r.).Q.                                                                                          ",
"                                                              n = = = = = = = l Q.).M.&.d.).).! + / ).).).).).Q.Q.Q.d.).Q.M.M.v.v.).Q.d.).v.r y.).6.y.).).).).&.&.).                                                                                            ",
"                                                              n = = = = = = + ! ).Q.F + n Q.).] + / ).Q.G.).).d.I.Q.d.).I.] d.I.M.Q.Q.d.).M.r y.).d.    Q.                                                                                                      ",
"                                                              n = = = = = = + / ).Q.l + n Q.).! + / ).G.5.).Q.{ I.Q.5.I.).Q.).Q.&.Q.Q.d.Q.                                                                                                                      ",
"                                                              F = = = = = = + / ).).&.D y.).Q.n + / ).G.I I.v.F I.Q.{ y.).).Q.                                                                                                                                  ",
"                                                                r = = = = = + D ).).).Q.).).v.3 + / ).I.n d.M.                                                                                                                                                  ",
"                                                                      = = = = 3 y.).).).).Q.                                                                                                                                                                    ",
"                                                                                  I.Q.Q.                                                                                                                                                                        ",
"                                                                                                                                                                                                                                                                ",
"                                                                                                                                                                                                                                                                ",
"                                                                                                                                                                                                                                                                ",
"                                                                                                                                                                                                                                                                ",
"                                                                                                                                                                                                                                                                ",
"                                                                                                                                                                                                                                                                ",
"                                                                                                                                                                                                                                                                ",
"                                                                                                                                                                                                                                                                ",
"                                                                                                                                                                                                                                                                ",
"                                                                                                                                                                                                                                                                ",
"                                                                                                                                                                                                                                                                ",
"                                                                                                                                                                                                                                                                ",
"                                                                                                                                                                                                                                                                ",
"                                                                                                                                                                                                                                                                ",
"                                                                                                                                                                                                                                                                ",
"                                                                                                                                                                                                                                                                ",
"                                                                                                                                                                                                                                                                "
};
