/* XPM */
static char *oms_262[] = {
/* columns rows colors chars-per-pixel */
"128 54 140 2 ",
"   c #FF00FF",
".  c #0F0F0F",
"X  c #101010",
"o  c #111111",
"O  c #121212",
"+  c #131313",
"@  c #141414",
"#  c #161616",
"$  c #171717",
"%  c #181818",
"&  c #191919",
"*  c #1A1A1A",
"=  c #1B1B1B",
"-  c #1C1C1C",
";  c #1D1D1D",
":  c #1E1E1E",
">  c #1F1F1F",
",  c #212121",
"<  c #222222",
"1  c #232323",
"2  c #242424",
"3  c #252525",
"4  c #262626",
"5  c #272727",
"6  c #2A2A2A",
"7  c #2B2B2B",
"8  c #2F2F2F",
"9  c #313131",
"0  c #323232",
"q  c #333333",
"w  c #363636",
"e  c #3B3B3B",
"r  c #3C3C3C",
"t  c #3D3D3D",
"y  c #3E3E3E",
"u  c #404040",
"i  c #424242",
"p  c #434343",
"a  c #444444",
"s  c #464646",
"d  c #484848",
"f  c #494949",
"g  c #4B4B4B",
"h  c #4C4C4C",
"j  c #545454",
"k  c #595959",
"l  c #5B5B5B",
"z  c #606060",
"x  c #616161",
"c  c #676767",
"v  c #686868",
"b  c #6B6B6B",
"n  c #6E6E6E",
"m  c #707070",
"M  c #737373",
"N  c #767676",
"B  c #7A7A7A",
"V  c #7C7C7C",
"C  c #7E7E7E",
"Z  c #828282",
"A  c #838383",
"S  c #868686",
"D  c #878787",
"F  c #898989",
"G  c #8A8A8A",
"H  c #8C8C8C",
"J  c #8D8D8D",
"K  c #8E8E8E",
"L  c #8F8F8F",
"P  c #919191",
"I  c #949494",
"U  c #969696",
"Y  c #989898",
"T  c #9A9A9A",
"R  c #9B9B9B",
"E  c #9C9C9C",
"W  c #9D9D9D",
"Q  c #A3A3A3",
"!  c #A6A6A6",
"~  c #A9A9A9",
"^  c #AEAEAE",
"/  c #AFAFAF",
"(  c #B0B0B0",
")  c #B1B1B1",
"_  c #B2B2B2",
"`  c #B4B4B4",
"'  c #B6B6B6",
"]  c #B7B7B7",
"[  c #B8B8B8",
"{  c #BDBDBD",
"}  c #808080",
"|  c #BFBFBF",
" . c #C0C0C0",
".. c #C2C2C2",
"X. c #C3C3C3",
"o. c #C4C4C4",
"O. c #C5C5C5",
"+. c #C6C6C6",
"@. c #CACACA",
"#. c #CBCBCB",
"$. c #CCCCCC",
"%. c #CDCDCD",
"&. c #CECECE",
"*. c #D0D0D0",
"=. c #D1D1D1",
"-. c #D2D2D2",
";. c #D3D3D3",
":. c #D4D4D4",
">. c #D5D5D5",
",. c #D6D6D6",
"<. c #D9D9D9",
"1. c #DADADA",
"2. c #DBDBDB",
"3. c #DCDCDC",
"4. c #DDDDDD",
"5. c #DEDEDE",
"6. c #DFDFDF",
"7. c #E0E0E0",
"8. c #E1E1E1",
"9. c #E2E2E2",
"0. c #E3E3E3",
"q. c #E6E6E6",
"w. c #E6E6E6",
"e. c #E9E9E9",
"r. c #EAEAEA",
"t. c #EBEBEB",
"y. c #ECECEC",
"u. c #EDEDED",
"i. c #EEEEEE",
"p. c #EFEFEF",
"a. c #F0F0F0",
"s. c #F1F1F1",
"d. c #F2F2F2",
"f. c #F3F3F3",
"g. c #F5F5F5",
"h. c #F6F6F6",
"j. c #F7F7F7",
"k. c #F8F8F8",
"l. c #F9F9F9",
"z. c #FEFEFE",
/* pixels */
"                                                                                                                                                                                                                                                                ",
"                                                                                                                                                                                                                                                                ",
"                                                                                                                                                                                                                                                                ",
"                                                                                                                                                                                                                                                                ",
"                                                                                                                                                                                                                                                                ",
"                                                                                                                                                                                                                                                                ",
"                                                                                                                                                                                                                                                                ",
"                                                                                                                                                                                                                                                                ",
"                                                                                                                                                                                                                                                                ",
"                                                                                                                                                                                                                                                                ",
"                                                                                                                                                                                                                                                                ",
"                                                                                                                                                                                                                                                                ",
"                                                                                                                            j O O O O O O O O O O M                                                                                                             ",
"                                                                                                                          W , O O O O O O O O O , %.g.                                                                                                          ",
"                                                                                                                        f 0 O O O O O O O O O = l g.g.                                                                                                          ",
"                                                                                                                      V O O O O O O O O O . e G S | 2.                                                                                                          ",
"                                                                                                                    f , O O O O O O O O O 7 S ( G M ..                                                                                                          ",
"                                                                                                                  G = O O O O O O O O O 7 ( ^ ( W V =.                                                                                                          ",
"                                                                                                                  S = O O O O O O O O O i 8.=.( W 2.g.                                                                                                          ",
"                                                                                                              i   e O O O O O O O O , O i u.l.( U l.g.                                                                                                          ",
"                                                                                                            j O O O O O O O O O O i G i U u.g.( V l.                                                                                                            ",
"                                                                                                          W , O O O O O O O O O = ( | ( g.u.8.=.                                                                                                                ",
"                                                                                                          W , O O O O O O O O O , | %.=.u.2...2.                                                                                                                ",
"                                                                                                          v = O O O O O O O O O 0 ..2.u.g.%...                                                                                                                  ",
"                                                                                                        W , O O O O O O O O O = ^ 8.8...=.2.                                                                                                                    ",
"                                                                                                      l , O O O O O O O O O e S 2.u.8.u.8.                                                                                                                      ",
"                                                                                                    G , O O O O O O O O O = ( g...%.2.u.                                                                                                                        ",
"                                                                                                  f , O O O O O O O e , 7 U =.g.| ..8.                                                                                                                          ",
"                                                                                            f O O O O O O O O O . f 2.l Q u.( =.....                                                                                                                            ",
"                                                                                          v = O O O O O O O O O 0 ( g.M =.g.%.=.8.                                                                                                                              ",
"                                                                                        V O O O O O O O O O O = Q =.=.V | 8.g.u.                                                                                                                                ",
"                                                                                      G 0 O O O O O O O O O = M ( %.8.x W %.u.                                                                                                                                  ",
"                                                                                      v . O O O O O O O O O 7 | ( =.2.e e %.                                                                                                                                    ",
"                                                                                      x O O O O O O O O O O 0 =.2.2.=.                                                                                                                                          ",
"                                                                                    x 7 O O O O O O O O O e Q 8.8.u.8.                                                                                                                                          ",
"                                                                                  S O O O O O O O O O O = ^ g.=.=.g.g.                                                                                                                                          ",
"                                                                                  j O O O O O O O O O O 7 %.=.....8.                                                                                                                                            ",
"                                                                                  i O O O O O O O O O O i 8.u.=.%.                                                                                                                                              ",
"                                                                                  i O O O O O O O O O O e ( 2.u.                                                                                                                                                ",
"                                                                                  f O O O O O O O O O O e 8.u.                                                                                                                                                  ",
"                                                                                  i O O O O O O O O O O e 8.                                                                                                                                                    ",
"                                                                                                                                                                                                                                                                ",
"                                                                                                                                                                                                                                                                ",
"                                                                                                                                                                                                                                                                ",
"                                                                                                                                                                                                                                                                ",
"                                                                                                                                                                                                                                                                ",
"                                                                                                                                                                                                                                                                ",
"                                                                                                                                                                                                                                                                ",
"                                                                                                                                                                                                                                                                ",
"                                                                                                                                                                                                                                                                ",
"                                                                                                                                                                                                                                                                ",
"                                                                                                                                                                                                                                                                ",
"                                                                                                                                                                                                                                                                ",
"                                                                                                                                                                                                                                                                "
};
