/* XPM */
static char *oms_343[] = {
/* columns rows colors chars-per-pixel */
"128 54 195 2 ",
"   c #FF00FF",
".  c #0A0A0A",
"X  c #0C0C0C",
"o  c #0D0D0D",
"O  c #0E0E0E",
"+  c #0F0F0F",
"@  c #101010",
"#  c #111111",
"$  c #121212",
"%  c #131313",
"&  c #141414",
"*  c #151515",
"=  c #161616",
"-  c #171717",
";  c #181818",
":  c #191919",
">  c #1A1A1A",
",  c #1B1B1B",
"<  c #1C1C1C",
"1  c #1D1D1D",
"2  c #1E1E1E",
"3  c #202020",
"4  c #212121",
"5  c #222222",
"6  c #232323",
"7  c #242424",
"8  c #252525",
"9  c #272727",
"0  c #2A2A2A",
"q  c #2B2B2B",
"w  c #2C2C2C",
"e  c #2D2D2D",
"r  c #2F2F2F",
"t  c #313131",
"y  c #323232",
"u  c #333333",
"i  c #343434",
"p  c #353535",
"a  c #383838",
"s  c #393939",
"d  c #3A3A3A",
"f  c #3B3B3B",
"g  c #3D3D3D",
"h  c #3E3E3E",
"j  c #3F3F3F",
"k  c #404040",
"l  c #414141",
"z  c #424242",
"x  c #434343",
"c  c #444444",
"v  c #474747",
"b  c #484848",
"n  c #4A4A4A",
"m  c #4B4B4B",
"M  c #515151",
"N  c #525252",
"B  c #555555",
"V  c #565656",
"C  c #575757",
"Z  c #585858",
"A  c #5D5D5D",
"S  c #5E5E5E",
"D  c #626262",
"F  c #646464",
"G  c #656565",
"H  c #666666",
"J  c #6A6A6A",
"K  c #6B6B6B",
"L  c #6C6C6C",
"P  c #6D6D6D",
"I  c #6E6E6E",
"U  c #717171",
"Y  c #737373",
"T  c #747474",
"R  c #757575",
"E  c #777777",
"W  c #787878",
"Q  c #797979",
"!  c #7A7A7A",
"~  c #7B7B7B",
"^  c #7C7C7C",
"/  c #7D7D7D",
"(  c #808080",
")  c #818181",
"_  c #828282",
"`  c #838383",
"'  c #848484",
"]  c #858585",
"[  c #868686",
"{  c #878787",
"}  c #888888",
"|  c #898989",
" . c #8B8B8B",
".. c #8C8C8C",
"X. c #8D8D8D",
"o. c #909090",
"O. c #919191",
"+. c #939393",
"@. c #949494",
"#. c #969696",
"$. c #979797",
"%. c #989898",
"&. c #9A9A9A",
"*. c #9B9B9B",
"=. c #9C9C9C",
"-. c #9D9D9D",
";. c #A0A0A0",
":. c #A1A1A1",
">. c #A2A2A2",
",. c #A3A3A3",
"<. c #A4A4A4",
"1. c #A6A6A6",
"2. c #A7A7A7",
"3. c #A8A8A8",
"4. c #A9A9A9",
"5. c #AAAAAA",
"6. c #ABABAB",
"7. c #ACACAC",
"8. c #ADADAD",
"9. c #B0B0B0",
"0. c #B1B1B1",
"q. c #B2B2B2",
"w. c #B2B2B2",
"e. c #B4B4B4",
"r. c #B6B6B6",
"t. c #B7B7B7",
"y. c #B8B8B8",
"u. c #B9B9B9",
"i. c #BABABA",
"p. c #BCBCBC",
"a. c #BDBDBD",
"s. c #808080",
"d. c #BFBFBF",
"f. c #C0C0C0",
"g. c #C1C1C1",
"h. c #C2C2C2",
"j. c #C3C3C3",
"k. c #C4C4C4",
"l. c #C6C6C6",
"z. c #C7C7C7",
"x. c #C8C8C8",
"c. c #C9C9C9",
"v. c #CACACA",
"b. c #CBCBCB",
"n. c #CDCDCD",
"m. c #CECECE",
"M. c #CFCFCF",
"N. c #D0D0D0",
"B. c #D1D1D1",
"V. c #D2D2D2",
"C. c #D3D3D3",
"Z. c #D4D4D4",
"A. c #D5D5D5",
"S. c #D6D6D6",
"D. c #D7D7D7",
"F. c #D8D8D8",
"G. c #D9D9D9",
"H. c #DADADA",
"J. c #DBDBDB",
"K. c #DCDCDC",
"L. c #DDDDDD",
"P. c #DEDEDE",
"I. c #DFDFDF",
"U. c #E0E0E0",
"Y. c #E1E1E1",
"T. c #E2E2E2",
"R. c #E3E3E3",
"E. c #E4E4E4",
"W. c #E6E6E6",
"Q. c #E6E6E6",
"!. c #E7E7E7",
"~. c #E8E8E8",
"^. c #E9E9E9",
"/. c #EAEAEA",
"(. c #EBEBEB",
"). c #ECECEC",
"_. c #EDEDED",
"`. c #EEEEEE",
"'. c #EFEFEF",
"]. c #F0F0F0",
"[. c #F1F1F1",
"{. c #F2F2F2",
"}. c #F3F3F3",
"|. c #F4F4F4",
" X c #F5F5F5",
".X c #F6F6F6",
"XX c #F7F7F7",
"oX c #F8F8F8",
"OX c #F9F9F9",
"+X c #FAFAFA",
"@X c #FBFBFB",
"#X c #FCFCFC",
"$X c #FDFDFD",
"%X c #FEFEFE",
"&X c #FFFFF1",
/* pixels */
"                                                                                                                                                                                                                                                                ",
"                                                                                                                                                                                                                                                                ",
"                                                                                                                                                                                                                                                                ",
"                                                                                                                                                                                                                                                                ",
"                                                                                                                                                                                                                                                                ",
"                                                                                                                                                                                                                                                                ",
"                                                                                                                                                                                                                                                                ",
"                                                                                                                                                                                                                                                                ",
"                                                                                                                                                                                                                                                                ",
"                                                                                                                                                                                                                                                                ",
"                                                                                                                                                                                                                                                                ",
"                                                                                                                                                                                                                                                                ",
"                                                                                                                                                                                                                                                                ",
"                                                                                                                                                                                                                                                                ",
"                                                                                                                                                                                                                                                                ",
"                                                                                                                                                                                                                                                                ",
"                                                                                                                                                                                                                                                                ",
"                                                                                                                                                                                                                                                                ",
"                                                                                                                                                                                                                                                                ",
"                                                                                                                                                                                                                                                                ",
"                                                                                                                                                                                                                                                                ",
"                              o = =                                                                                                                                                                                                                             ",
"              .X.X.X.X(.J.l.| p = = = = Y (.T.J.V.&.4 = = Y &.3.l.;.m = = = = 4                   N G Z z = = = =                                                                                                                                               ",
"          .XOXOXOXOXOXOXOXOXOXV.z = = = | OXOXOXOX.XG o z (.OXOXOXOXQ o = = o 4           OX.X.Xi.x.(.(.l.4 = = = d                                                         T.i.&.Q Z w = w Q     d = o w                                                       ",
"          OXOXOXOXJ.i.x..XOXOXOXi., = = ] OXOXOXOXOXl.4 ;.OXOXOXOXOXQ o , p z N |   , o K OXOXOXx.J.OXOXV.4 = , = w                                                 .XOXOX.XOXOXOXOX.XJ.G Z .X.X.X| w @.&.;.K = = d                                             ",
"          OXOXOXV.p = , Y .XOXOXT.p = = ] OXOXOXOXOX.X@.T.OXOXOXOXOXQ m i.T.(..X(.J.e.m N OXOXOXx.J.OXOXV.Z &.i.i.] 4 = d ] x.(.x.e.] z = d Y Q ] d d Q Y d = = = K OXOXOXOXV.;.J..XOXOXJ.Q J.J.(.] m .XOXOXi., = 4                                             ",
"          OXOXOXe.= = o d (.OXOX(.d o o ] OXOXOX.XOXOX.XOXOXOXOXOXOX@.V.OXOX(.e.J.OXOXT.| .XOXOXx.J.OXOX.X(.OXOXOXOX| Z J.OXOXOXOXOXOX(.] Q OX.X.Xl.J.OX.Xx.p = = m .XOXOXOXx.@.e.V.x.3.Q K J.J.T.e.x.OXOXOX(.Q , G i.(.V.i.;.K 4 = ,                           ",
"          OXOXOX(.Y p d &.OXOXOXT.p = o ] OXOXOXx.(.OXOXOX(.J.OXOX.Xi..XOXOX(.x.T.OXOXOXV..XOXOXx.J.OXOX.Xl.x.OXOXOXx.x.OXOX.X;.Q T.OXOX(.3.OXOXOX.X.XOXOXOXQ = = 4 l.OXOXOXOXOXOX.X.XT.&.Y .XOXOXV..XOXOXOXOXx.;.OXOX.X(..XOXOXi.w = 4                         ",
"          OXOXOXOXOX(.(.OXOXOXOXe., = = ] OXOXOX@.e.OXOXOXe.;.OXOXOXe.(.OXOXJ.@.3.x.V.V.x..XOXOXx.J.OXOXJ.w z (.OXOXV.J.OXOX(.p o ;.OXOX.Xl..XOXOX;.Y OXOXOX@.= = = Q x.J.(.T.T..XOXOXOX.Xi..XOXOXe.3..XOXOXT.3.(.OXOX(.;.l.OXOXOX] = ,                         ",
"            .XOXOXOXOXOXOXOX.Xl.d = = = &.OXOXOX] N .XOX(.m @.OXOXOX@.V.OXOX(.3.x.(.(.(.l..XOXOXx.J.OXOXV.4 p T.OXOXx.l.OXOX.X] N V.OXOX.Xi..XOXOX] w ] | e.        (.J.J.(.@.z ;.OXOXOXOXx..XOXOX@.z .XOXOXl.N (.OXOX(.J.J.T.T.(.@.= =                         ",
"                .X.X.X.X.X.X              .X.XOX| , V.OXi.= 3.OX.X.XQ Z (.OXOXOXOXOXOXx.] .XOXOXx.J.OXOXV.4 d T.OXOXl.G (.OXOXOX.XOXOXOXi.| OXOXOX] o = o N         OXOXOXOX.XV.(.OXOXOX(.;..XOXOX@.z .XOXOX(.l.(.OXOXT.Y @.J.J.J.] = ,                         ",
"                                                                                                              T.(..Xl.    OX.X.XOXOX.XT.    .XOXOX| o                 .XOX.XOXOXOXOXOX.X3.] .XOXOX@.w T.OXOXOXl.| .XOXOX.X.XOXOX.XK =                           ",
"                                                                                                                                                                                                            .X      .X.X.X.X.X.X                                ",
"                                                                                                                                                                                                                                                                ",
"                                                                                                                                                                                                                                                                ",
"                                                                                                                                                                                                                                                                ",
"                                                                                                                                                                                                                                                                ",
"                                                                                                                                                                                                                                                                ",
"                                                                                                                                                                                                                                                                ",
"                                                                                                                                                                                                                                                                ",
"                                                                                                                                                                                                                                                                ",
"                                                                                                                                                                                                                                                                ",
"                                                                                                                                                                                                                                                                ",
"                                                                                                                                                                                                                                                                ",
"                                                                                                                                                                                                                                                                ",
"                                                                                                                                                                                                                                                                ",
"                                                                                                                                                                                                                                                                ",
"                                                                                                                                                                                                                                                                ",
"                                                                                                                                                                                                                                                                ",
"                                                                                                                                                                                                                                                                ",
"                                                                                                                                                                                                                                                                ",
"                                                                                                                                                                                                                                                                ",
"                                                                                                                                                                                                                                                                ",
"                                                                                                                                                                                                                                                                "
};
