/* XPM */
static char *oms_298[] = {
/* columns rows colors chars-per-pixel */
"128 54 170 2 ",
"   c #FF00FF",
".  c #0D0D0D",
"X  c #0E0E0E",
"o  c #0F0F0F",
"O  c #101010",
"+  c #111111",
"@  c #121212",
"#  c #131313",
"$  c #141414",
"%  c #151515",
"&  c #161616",
"*  c #171717",
"=  c #181818",
"-  c #191919",
";  c #1A1A1A",
":  c #1B1B1B",
">  c #1C1C1C",
",  c #1D1D1D",
"<  c #1E1E1E",
"1  c #1F1F1F",
"2  c #212121",
"3  c #222222",
"4  c #242424",
"5  c #252525",
"6  c #262626",
"7  c #272727",
"8  c #292929",
"9  c #2A2A2A",
"0  c #2B2B2B",
"q  c #2C2C2C",
"w  c #2D2D2D",
"e  c #2E2E2E",
"r  c #313131",
"t  c #323232",
"y  c #353535",
"u  c #373737",
"i  c #383838",
"p  c #3C3C3C",
"a  c #3E3E3E",
"s  c #3F3F3F",
"d  c #404040",
"f  c #424242",
"g  c #444444",
"h  c #464646",
"j  c #484848",
"k  c #4B4B4B",
"l  c #4E4E4E",
"z  c #505050",
"x  c #515151",
"c  c #525252",
"v  c #535353",
"b  c #545454",
"n  c #555555",
"m  c #565656",
"M  c #585858",
"N  c #595959",
"B  c #5A5A5A",
"V  c #5B5B5B",
"C  c #5E5E5E",
"Z  c #5F5F5F",
"A  c #626262",
"S  c #666666",
"D  c #6A6A6A",
"F  c #6C6C6C",
"G  c #6D6D6D",
"H  c #6E6E6E",
"J  c #737373",
"K  c #777777",
"L  c #787878",
"P  c #797979",
"I  c #7A7A7A",
"U  c #808080",
"Y  c #808080",
"T  c #828282",
"R  c #838383",
"E  c #868686",
"W  c #888888",
"Q  c #8A8A8A",
"!  c #8C8C8C",
"~  c #8E8E8E",
"^  c #8F8F8F",
"/  c #929292",
"(  c #949494",
")  c #969696",
"_  c #979797",
"`  c #999999",
"'  c #9A9A9A",
"]  c #9C9C9C",
"[  c #9D9D9D",
"{  c #9E9E9E",
"}  c #9F9F9F",
"|  c #A0A0A0",
" . c #A3A3A3",
".. c #A5A5A5",
"X. c #A6A6A6",
"o. c #A7A7A7",
"O. c #A9A9A9",
"+. c #AAAAAA",
"@. c #ABABAB",
"#. c #ACACAC",
"$. c #ADADAD",
"%. c #AFAFAF",
"&. c #B0B0B0",
"*. c #B1B1B1",
"=. c #B2B2B2",
"-. c #B2B2B2",
";. c #B5B5B5",
":. c #B6B6B6",
">. c #B8B8B8",
",. c #B9B9B9",
"<. c #BBBBBB",
"1. c #BDBDBD",
"2. c #808080",
"3. c #C0C0C0",
"4. c #C2C2C2",
"5. c #C3C3C3",
"6. c #C4C4C4",
"7. c #C6C6C6",
"8. c #C7C7C7",
"9. c #C8C8C8",
"0. c #CACACA",
"q. c #CBCBCB",
"w. c #CDCDCD",
"e. c #CECECE",
"r. c #CFCFCF",
"t. c #D0D0D0",
"y. c #D1D1D1",
"u. c #D2D2D2",
"i. c #D3D3D3",
"p. c #D4D4D4",
"a. c #D5D5D5",
"s. c #D6D6D6",
"d. c #D7D7D7",
"f. c #D9D9D9",
"g. c #DADADA",
"h. c #DBDBDB",
"j. c #DCDCDC",
"k. c #DDDDDD",
"l. c #DEDEDE",
"z. c #E0E0E0",
"x. c #E1E1E1",
"c. c #E2E2E2",
"v. c #E3E3E3",
"b. c #E4E4E4",
"n. c #E6E6E6",
"m. c #E6E6E6",
"M. c #E7E7E7",
"N. c #E8E8E8",
"B. c #EAEAEA",
"V. c #EBEBEB",
"C. c #ECECEC",
"Z. c #EDEDED",
"A. c #EEEEEE",
"S. c #EFEFEF",
"D. c #F0F0F0",
"F. c #F1F1F1",
"G. c #F2F2F2",
"H. c #F3F3F3",
"J. c #F4F4F4",
"K. c #F5F5F5",
"L. c #F6F6F6",
"P. c #F7F7F7",
"I. c #F8F8F8",
"U. c #F9F9F9",
"Y. c #FAFAFA",
"T. c #FBFBFB",
"R. c #FCFCFC",
"E. c #FDFDFD",
"W. c #FEFEFE",
"Q. c #FFFFF1",
/* pixels */
"                                                                                                                                                                                                                                                                ",
"                                                                                                                                                                                                                                                                ",
"                                                                                                                                                                                                                                                                ",
"                                                                                                                                                                                                                                                                ",
"                                                                                                                                                                                                                                                                ",
"                                                                                                                                                                                                                                                                ",
"                                                                                                                                                                                                                                                                ",
"                                                                                                                                                                                                                                                                ",
"                                                                                                                                                                                                                                                                ",
"                                                                                                                                                                                                                                                                ",
"                                                                                                                                                                                                                                                                ",
"                                                                                                                                                                                                                                                                ",
"                                                                                                                                                                                                                                                                ",
"                                                                                                                                                                                                                                                                ",
"                                                                                                                                                                                                                                                                ",
"                                                                                                                                                                                                                                                                ",
"                                                                                                                                                                                                                                                                ",
"                                                          L.L.2.a & & & o & & & & & 1 b                                                                                                                                                                         ",
"                                                        I.I.I.I.r.5 & F A q & & o & & & 5 & & 5 M                                                                                                                                                               ",
"                                                        I.L.r.C.I.A & 8.I.&.1 M k 5 & & & & & & 1 5 & q                                                                                                                                                         ",
"                                                        I.r.5 W I./ & 2.I.f.h u.I.W & & & & & & & & & o M                                                                                                                                                       ",
"                                                        I.8.& b I.#.1 2.I.C.Y C.I.` & o & & M M q 1 & & 5 1 & & & & q u                                                                                                                                         ",
"                                                        I.C.M Y I.#.1 2.I.L.u.L.I.` q h 5 & X.C.2.2.q & & & & & & & & & b                                                                                                                                       ",
"                                                        L.I.C.L.I.` 1 2.I.L.I.I.I.&.8.L.u.b X.L.u.L.a o & & & & & & & & b                                                                                                                                       ",
"                                                          I.I.I.I.F 1 2.L.f.I.C.L.u.L.m.m.r.&.C.u.L.h 5 & & & & & & & & 5 q b                                                                                                                                   ",
"                                                            L.L.u.q 1 u.C.#.I.2.C.f.L.m.m.L.f.C.u.L.r.u.b 1 a q & & & & & & 1 q & 1 b                                                                                                                           ",
"                                                                      I.m.Y C.W C.u.L.u.2.m.C.C.u.I.I.I.&./ L.f.P 5 5 & o & & q W W M u & o & & & & & & 5 M                                                                                                     ",
"                                                                            u.J L.2.f.f.8.f.m.C.u.L./ C.m.m.I.L.C./ u.Y J u o Y I.I.L.X.a b q & & & & & & & & 1 F                                                                                               ",
"                                                                                    8.I.I.C.u.C.u.L.b u.L.L.r.P L.f.L.L.I.` & ` I.f.m.I.X.C.` u 5 & & & & & & & 1 1 M                                                                                           ",
"                                                                                            r.C.u.L.b u.C.C.8.k L.L.I.C.L.r.1 W I.r.&.m.&.u.` #.8.q & & & & & & & o k                                                                                           ",
"                                                                                                  C.A f.u.r.C.8.L.L.I.#.r.f.5 b L.I.L.r.P f.&.f.m.u o o & & & & & & 5 b                                                                                         ",
"                                                                                                        8.X.I.I.L.r.L.` b P 5 k &.m.L.I.8.C.m.L.L.P F Y h & & & & & & & & & h                                                                                   ",
"                                                                                                              L.m.` I.` o & & X.L.X.#.I.C.L.u.m.I.u.L.I.C.M & & & & & & & & & Y                                                                                 ",
"                                                                                                                                I.m.f.I.L.I.#.2.C.8.I.8.C.2.1 & & & & & & & o A                                                                                 ",
"                                                                                                                                L.I.I.I.r.L.#.2.C.&.I.C.L.f.q & & & & & & & & F                                                                                 ",
"                                                                                                                                    L.C.` L.#.&.I.m.L.#.&.8.q & & & & & & & & F                                                                                 ",
"                                                                                                                                                I.2.m.C.C.u.q & & & & & & & 1 Y                                                                                 ",
"                                                                                                                                                      I.I.8.1 & & &                                                                                             ",
"                                                                                                                                                                                                                                                                ",
"                                                                                                                                                                                                                                                                ",
"                                                                                                                                                                                                                                                                ",
"                                                                                                                                                                                                                                                                ",
"                                                                                                                                                                                                                                                                ",
"                                                                                                                                                                                                                                                                ",
"                                                                                                                                                                                                                                                                ",
"                                                                                                                                                                                                                                                                ",
"                                                                                                                                                                                                                                                                ",
"                                                                                                                                                                                                                                                                ",
"                                                                                                                                                                                                                                                                ",
"                                                                                                                                                                                                                                                                ",
"                                                                                                                                                                                                                                                                ",
"                                                                                                                                                                                                                                                                ",
"                                                                                                                                                                                                                                                                ",
"                                                                                                                                                                                                                                                                "
};
