/* XPM */
static char *oms_079[] = {
/* columns rows colors chars-per-pixel */
"128 54 152 2 ",
"   c #FF00FF",
".  c #0D0D0D",
"X  c #0F0F0F",
"o  c #101010",
"O  c #111111",
"+  c #121212",
"@  c #131313",
"#  c #141414",
"$  c #151515",
"%  c #161616",
"&  c #171717",
"*  c #181818",
"=  c #191919",
"-  c #1A1A1A",
";  c #1B1B1B",
":  c #1D1D1D",
">  c #1E1E1E",
",  c #1F1F1F",
"<  c #242424",
"1  c #252525",
"2  c #2B2B2B",
"3  c #2C2C2C",
"4  c #2E2E2E",
"5  c #2F2F2F",
"6  c #363636",
"7  c #373737",
"8  c #383838",
"9  c #3A3A3A",
"0  c #3B3B3B",
"q  c #3C3C3C",
"w  c #3D3D3D",
"e  c #3E3E3E",
"r  c #414141",
"t  c #434343",
"y  c #464646",
"u  c #474747",
"i  c #484848",
"p  c #4A4A4A",
"a  c #4E4E4E",
"s  c #4F4F4F",
"d  c #505050",
"f  c #515151",
"g  c #525252",
"h  c #535353",
"j  c #545454",
"k  c #555555",
"l  c #565656",
"z  c #585858",
"x  c #5A5A5A",
"c  c #5C5C5C",
"v  c #5D5D5D",
"b  c #5E5E5E",
"n  c #606060",
"m  c #636363",
"M  c #646464",
"N  c #656565",
"B  c #666666",
"V  c #696969",
"C  c #6F6F6F",
"Z  c #707070",
"A  c #757575",
"S  c #767676",
"D  c #7C7C7C",
"F  c #7E7E7E",
"G  c #808080",
"H  c #828282",
"J  c #838383",
"K  c #8D8D8D",
"L  c #8E8E8E",
"P  c #989898",
"I  c #9A9A9A",
"U  c #9B9B9B",
"Y  c #9C9C9C",
"T  c #9D9D9D",
"R  c #9E9E9E",
"E  c #9F9F9F",
"W  c #A2A2A2",
"Q  c #A3A3A3",
"!  c #A4A4A4",
"~  c #A6A6A6",
"^  c #A7A7A7",
"/  c #A8A8A8",
"(  c #A9A9A9",
")  c #ACACAC",
"_  c #ADADAD",
"`  c #B0B0B0",
"'  c #B2B2B2",
"]  c #B2B2B2",
"[  c #B5B5B5",
"{  c #B8B8B8",
"}  c #BABABA",
"|  c #BCBCBC",
" . c #BDBDBD",
".. c #808080",
"X. c #C0C0C0",
"o. c #C1C1C1",
"O. c #C2C2C2",
"+. c #C3C3C3",
"@. c #C4C4C4",
"#. c #C5C5C5",
"$. c #C6C6C6",
"%. c #C7C7C7",
"&. c #C8C8C8",
"*. c #C9C9C9",
"=. c #CACACA",
"-. c #CBCBCB",
";. c #CDCDCD",
":. c #CECECE",
">. c #CFCFCF",
",. c #D0D0D0",
"<. c #D2D2D2",
"1. c #D3D3D3",
"2. c #D4D4D4",
"3. c #D5D5D5",
"4. c #D6D6D6",
"5. c #D8D8D8",
"6. c #D9D9D9",
"7. c #DADADA",
"8. c #DBDBDB",
"9. c #DCDCDC",
"0. c #DDDDDD",
"q. c #DEDEDE",
"w. c #DFDFDF",
"e. c #E0E0E0",
"r. c #E1E1E1",
"t. c #E2E2E2",
"y. c #E3E3E3",
"u. c #E6E6E6",
"i. c #E7E7E7",
"p. c #E8E8E8",
"a. c #E9E9E9",
"s. c #EAEAEA",
"d. c #EBEBEB",
"f. c #ECECEC",
"g. c #EDEDED",
"h. c #EEEEEE",
"j. c #EFEFEF",
"k. c #F0F0F0",
"l. c #F1F1F1",
"z. c #F2F2F2",
"x. c #F3F3F3",
"c. c #F4F4F4",
"v. c #F5F5F5",
"b. c #F6F6F6",
"n. c #F7F7F7",
"m. c #F8F8F8",
"M. c #F9F9F9",
"N. c #FAFAFA",
"B. c #FBFBFB",
"V. c #FCFCFC",
"C. c #FEFEFE",
"Z. c #FFFFF1",
/* pixels */
"                                                                                                                                                                                                                                                                ",
"                                                                                                                                                                                                                                                                ",
"                                                                                                                                                                                                                                                                ",
"                                                                                                                                                                                                                                                                ",
"                                                                                                                                                                                                                                                                ",
"                                                                                                                                                                                                                                                                ",
"                                                                                                                                                                                                                                                                ",
"                                                                                                                                                                                                                                                                ",
"                                                                                                                                                                                                                                                                ",
"                                                                                                                                                                                                                                                                ",
"                                                                                                                                                                                                                                                                ",
"                                                                                                                                                                                                                                                                ",
"                                                                                                                                                                                                                                                                ",
"                                                                                                                                                                                                                                                                ",
"                                                                                                                                                                                                                                                                ",
"                                                                                                                                                                                                                                                                ",
"                                                                                                                                                                                                                                                                ",
"                                                                                                                                                  l + + + + + + + + + ; e W ..B K x.                                                                            ",
"                                                                                                                                              t ; + + + + + + + + + t ` ( =.=.U q.x.                                                                            ",
"                                                                                                                                            C + + + + + + + + + + < =.M.q.=.a.a.q.a.                                                                            ",
"                                                                                                                                            a + + + + + + + + + + a i.o.( a.M.a.a.i.                                                                            ",
"                                                                                                                                            t + + + + + + + + + . B a.,.=.i.q.=.=.,.                                                                            ",
"                                                                                                                                        t ; ; + + + + + + + + 3 a B M.M.M.,.o.a.x.x.                                                                            ",
"                                                                                                                                      3 + + + + + ; + + + + b =.` a q.a.M.,.o.i.x.                                                                              ",
"                                                                                                                          e ; + + + + + + + + + a U 3 + B ` o.M.o.7 U ..a.,.o.                                                                                  ",
"                                                                                                                        U ; + + + + + + + + + e q.,.l a ,.M.a.,.` C x.x.,.i.                                                                                    ",
"                                                                                                                        l + + + + + + + ; ; + t i.q.,.o.=.,.M.U e l x.x.                                                                                        ",
"                                                                                                                l ; + + + + + + + + + e ` 7 ; l i.a.M.a.( ( M.o.                                                                                                ",
"                                                                                                            Z ; + + + + + + + + + e Z F i.b ....i.i.,.x.=.=.q.x.                                                                                                ",
"                                                                                                            e + + + + + + + + ; + W q.W i.` x.x.i.,.U i.x.a.=.                                                                                                  ",
"                                                                                                      t + + + + + + + + + + F ` 3 ( a.=.a.q.q.x.a.=.U =.a.                                                                                                      ",
"                                                                                                    K ; + + + + + + + + + l x.M.b W M.x.x.x.,.q.i.,.W                                                                                                           ",
"                                                                                                    Z + + + + + + + + + + U M.M.Z W M.x.x.x.o.i.a.a.                                                                                                            ",
"                                                                                                    b + + + + + + + + + ; o.U o.J W x.q.q.a.M.q.                                                                                                                ",
"                                                                                                    a + + + + + + + + + < =.l ( F W ,.o.,.=.x.                                                                                                                  ",
"                                                                                                    l + + + + + + + + + < =.b ..C W ..` ,.                                                                                                                      ",
"                                                                                                    B + + + + + + + + + < ,.,.a.b W =.                                                                                                                          ",
"                                                                                                    J ; + + + + + + + + ; =.M.x.                                                                                                                                ",
"                                                                                                              + + + + + + W M.                                                                                                                                  ",
"                                                                                                                                                                                                                                                                ",
"                                                                                                                                                                                                                                                                ",
"                                                                                                                                                                                                                                                                ",
"                                                                                                                                                                                                                                                                ",
"                                                                                                                                                                                                                                                                ",
"                                                                                                                                                                                                                                                                ",
"                                                                                                                                                                                                                                                                ",
"                                                                                                                                                                                                                                                                ",
"                                                                                                                                                                                                                                                                ",
"                                                                                                                                                                                                                                                                ",
"                                                                                                                                                                                                                                                                ",
"                                                                                                                                                                                                                                                                ",
"                                                                                                                                                                                                                                                                ",
"                                                                                                                                                                                                                                                                ",
"                                                                                                                                                                                                                                                                "
};
