/* XPM */
static char *oms_186[] = {
/* columns rows colors chars-per-pixel */
"128 54 200 2 ",
"   c #FF00FF",
".  c #050505",
"X  c #0A0A0A",
"o  c #0D0D0D",
"O  c #0F0F0F",
"+  c #101010",
"@  c #111111",
"#  c #121212",
"$  c #131313",
"%  c #141414",
"&  c #151515",
"*  c #161616",
"=  c #171717",
"-  c #181818",
";  c #191919",
":  c #1A1A1A",
">  c #1B1B1B",
",  c #1C1C1C",
"<  c #1D1D1D",
"1  c #1E1E1E",
"2  c #1F1F1F",
"3  c #202020",
"4  c #212121",
"5  c #222222",
"6  c #232323",
"7  c #242424",
"8  c #252525",
"9  c #262626",
"0  c #272727",
"q  c #282828",
"w  c #292929",
"e  c #2A2A2A",
"r  c #2B2B2B",
"t  c #2C2C2C",
"y  c #2D2D2D",
"u  c #2E2E2E",
"i  c #2F2F2F",
"p  c #303030",
"a  c #313131",
"s  c #323232",
"d  c #333333",
"f  c #343434",
"g  c #353535",
"h  c #363636",
"j  c #383838",
"k  c #393939",
"l  c #3A3A3A",
"z  c #3B3B3B",
"x  c #3C3C3C",
"c  c #3D3D3D",
"v  c #3E3E3E",
"b  c #404040",
"n  c #414141",
"m  c #424242",
"M  c #434343",
"N  c #444444",
"B  c #454545",
"V  c #464646",
"C  c #474747",
"Z  c #484848",
"A  c #4A4A4A",
"S  c #4B4B4B",
"D  c #4C4C4C",
"F  c #4C4C4C",
"G  c #505050",
"H  c #515151",
"J  c #525252",
"K  c #545454",
"L  c #555555",
"P  c #565656",
"I  c #585858",
"U  c #595959",
"Y  c #5B5B5B",
"T  c #5C5C5C",
"R  c #5D5D5D",
"E  c #5E5E5E",
"W  c #606060",
"Q  c #616161",
"!  c #656565",
"~  c #666666",
"^  c #686868",
"/  c #696969",
"(  c #6B6B6B",
")  c #6C6C6C",
"_  c #6E6E6E",
"`  c #707070",
"'  c #717171",
"]  c #727272",
"[  c #747474",
"{  c #767676",
"}  c #777777",
"|  c #7B7B7B",
" . c #7D7D7D",
".. c #7E7E7E",
"X. c #818181",
"o. c #828282",
"O. c #838383",
"+. c #848484",
"@. c #858585",
"#. c #878787",
"$. c #888888",
"%. c #898989",
"&. c #8A8A8A",
"*. c #8C8C8C",
"=. c #8D8D8D",
"-. c #8E8E8E",
";. c #8F8F8F",
":. c #909090",
">. c #919191",
",. c #929292",
"<. c #939393",
"1. c #949494",
"2. c #969696",
"3. c #979797",
"4. c #9A9A9A",
"5. c #A3A3A3",
"6. c #A6A6A6",
"7. c #A7A7A7",
"8. c #A8A8A8",
"9. c #A9A9A9",
"0. c #AAAAAA",
"q. c #ABABAB",
"w. c #ACACAC",
"e. c #ADADAD",
"r. c #AEAEAE",
"t. c #AFAFAF",
"y. c #B1B1B1",
"u. c #B2B2B2",
"i. c #B2B2B2",
"p. c #B4B4B4",
"a. c #B5B5B5",
"s. c #B6B6B6",
"d. c #B7B7B7",
"f. c #B8B8B8",
"g. c #B9B9B9",
"h. c #BABABA",
"j. c #BBBBBB",
"k. c #BCBCBC",
"l. c #BDBDBD",
"z. c #808080",
"x. c #BFBFBF",
"c. c #C1C1C1",
"v. c #C2C2C2",
"b. c #C3C3C3",
"n. c #C6C6C6",
"m. c #C7C7C7",
"M. c #C8C8C8",
"N. c #C9C9C9",
"B. c #CACACA",
"V. c #CCCCCC",
"C. c #CDCDCD",
"Z. c #CECECE",
"A. c #CFCFCF",
"S. c #D0D0D0",
"D. c #D1D1D1",
"F. c #D2D2D2",
"G. c #D3D3D3",
"H. c #D4D4D4",
"J. c #D5D5D5",
"K. c #D6D6D6",
"L. c #D7D7D7",
"P. c #D8D8D8",
"I. c #D9D9D9",
"U. c #DADADA",
"Y. c #DBDBDB",
"T. c #DDDDDD",
"R. c #DEDEDE",
"E. c #DFDFDF",
"W. c #E0E0E0",
"Q. c #E1E1E1",
"!. c #E2E2E2",
"~. c #E3E3E3",
"^. c #E4E4E4",
"/. c #E6E6E6",
"(. c #E6E6E6",
"). c #E7E7E7",
"_. c #E8E8E8",
"`. c #E9E9E9",
"'. c #EAEAEA",
"]. c #EBEBEB",
"[. c #ECECEC",
"{. c #EDEDED",
"}. c #EEEEEE",
"|. c #EFEFEF",
" X c #F0F0F0",
".X c #F1F1F1",
"XX c #F2F2F2",
"oX c #F3F3F3",
"OX c #F4F4F4",
"+X c #F5F5F5",
"@X c #F6F6F6",
"#X c #F7F7F7",
"$X c #F8F8F8",
"%X c #F9F9F9",
"&X c #FAFAFA",
"*X c #FBFBFB",
"=X c #FCFCFC",
"-X c #FDFDFD",
";X c #FEFEFE",
":X c #FFFFF1",
/* pixels */
"                                                                                                                                                                                                                                                                ",
"                                                                                                                                                                                                                                                                ",
"                                                                                                                                                                                                                                                                ",
"                                                                                                                                                                                                                                                                ",
"                                                                                                                                                                                                                                                                ",
"                                                                                                                                                                                                                                                                ",
"                                                                                                                                                                                                                                                                ",
"                                                                                                                                                                                                                                                                ",
"                                                                                                                                                                                                                                                                ",
"                                                                                                                                                                                                                                                                ",
"                                                                                                                                                                                                                                                                ",
"                                                                                                                                                                                                                                                                ",
"                                                                                                                                                                                                                                                                ",
"                                                                                                                                                                                                                                                                ",
"                                                                                                                                                                                                                                                                ",
"                                                                                                                                                                                                                                                                ",
"                                                                                                                                                                                                                                                                ",
"                                                                                                                                                                                                                                    Y Y Y Y W                   ",
"                                                                                                                                            Y Y Y G   Z b v                         4 4 4 e e b       4 4 4 - - -             e - # # # # # # - v               ",
"                                            G G Z       G v v s e 4 e v b                                                                   # # # # - # # # #                       # # # # # #       # # # # # #           # # # # # # # # # # # e             ",
"                                4 4 4 -   # # # # # b 4 # # # # # # # # # -                                                                 # # # # # # # # #       Z v e s b Y     # # # # # # 4   # # # # # # #         # # O # # # # # O # # # # b           ",
"                                # # # # - - # # # # # # # # # # # # # # # # #         b s s b   s s s e   Z s 4 4 - - - e v     e - - - 4 v # # # # - # # # -   4 # # # # # # # e b e e s s s - # 4 4 b Z Z G G e         # s W #.3.4.5.3.] Z - # # e           ",
"          Z e 4 - - - - e     - # # # # # # # # # # - # # # # 4 e s s s e 4 #       4 # # # # - # # # # 4 # # # # # # # # # 4   # # # # # # _ q.q.q.#.5.i.z.z.4 # # # # # # # # O W ^.^.^.^.^.W # # 3.+X+X+X+X&XW         $.^.+X&X&X&X&X&X&X+Xi.s # e           ",
"        s # # # # # # # # # e # # # s v v b - Y i.i.z.] - _ q.Z.E.^.}.}.^.J.5.      # # # # # # # # # # # # # # O O O O O # # - # # O # O # q.&X&X&Xz.+X&X&X}.4 # # - - 4 4 - # O W &X&X&X&X&XZ.4 b }.&X&X&X&X&X_       E.&X&X&X&X}.E.}.&X&X&X&Xq.-             ",
"        - # # # # O O O O O O # # - z.+X}.^.b | &X+X+X3.3.&X&X&X&X^.E.+X&X&X&X}.    # # - s v 4 # s v v s # # v Y _ ] ] W b - # - G #.$.] s q.&X&X+Xi.}.&X&X^.4 Z 4.z.Z.E.J.m.3.v W +X&X&X&X&X&X3.q.&X&X&X&X&X&X_       &X&X&X&Xq.v e s q.&X&X&X^.b             ",
"        # # # # e Y ] #.$.| W e - _ ^.&X&X+X5.3.E.E.E.$.$.z.m.E.^.$.$.}.&X&X&X+X    # 4 5.^.}.J.4.E.^.}.m.v q.^.+X&X&X&X&X}.m.v | +X&X&X&X^.^.&X&X+Xi.}.&X&X^.#.}.&X&X^.Z.+X&X&XJ.$.&X&X&X&X&X&X+X+X&X&X&X&X&X&X_       &X&X&X+XY O O O W &X&X&X}.              ",
"        # # # ] E.+X&X+X+X&X&XE.] J.&X&X&X&X&XJ.&X&X&X3.W m.^.+X+X+X&X&X&X&X+X^.      | &X&X&X+X+X&X&X&XE.z.&X&X&XZ.#.m.&X&X&Xm.J.&X&X&X+X+X&X&X&X&Xz.}.&X&X+X}.&X&X&XE.Z.}.&X&X+XE.&X&X&X}.^.&X&X&X&X+X+X&X&X&X]       &X&X&X&Xz.G v Y Z.&X&X&X+X              ",
"          O b }.&X&X}.q.m.+X&X&XJ.q.}.&X&X+Xi.i.&X&X&Xz.E.&X&X&X&X}.E.E.^.Z.3.Z       J.&X&X&Xm.#.+X&X&X}.}.&X&X&XW . W &X&X&X}.}.&X&X+X    ^.&X&X&XE.+X&X&X+XZ.E.}.}.5.$.E.&X&X&X+X&X&X&X^.  &X&X&X+X  &X&X&X+X$.      +X&X&X&X&X+X}.+X&X&X&X&X}.              ",
"            Y +X}.^.E.m.J.+X&X&XE.Z J.&X&X+XZ #.&X&X&XJ.+X&X&X&X^._ Y m.^.E.E.E.                _ +X&X&X}.+X&X&X&Xi.W z.&X&X&X^.}.&X&X+X    J.&X&X&X^.+X&X&X+X}.+X+X+XJ.Z.+X&X&X+X  &X&X&X+X  +X&X&X+X  &X&X&X+X          +X+X&X&X&X&X&X&X&X+X                  ",
"              }.}.^.Z.#.q.+X&X&XZ.Z.&X&X&X&X] $.&X&X&X+X+X&X&X&X+X^.}.&X&X&X&X+X                  +X&X&X}.  &X&X&X&X&X&X&X&X+X  +X&X&X+X    +X&X&X+X^.+X&X&X+X  +X+X&X&X+X+X+X+X    &X&X&X+X    +X+X      +X                                                    ",
"              +X&X&X&X&X&X&X&X&X  E.&X&X&X+X  m.+X+X+X    +X+X+X+X+X+X+X+X+X                      }.+X            +X+X+X                                                                                                                                        ",
"                                                                                                                                                                                                                                                                ",
"                                                                                                                                                                                                                                                                ",
"                                                                                                                                                                                                                                                                ",
"                                                                                                                                                                                                                                                                ",
"                                                                                                                                                                                                                                                                ",
"                                                                                                                                                                                                                                                                ",
"                                                                                                                                                                                                                                                                ",
"                                                                                                                                                                                                                                                                ",
"                                                                                                                                                                                                                                                                ",
"                                                                                                                                                                                                                                                                ",
"                                                                                                                                                                                                                                                                ",
"                                                                                                                                                                                                                                                                ",
"                                                                                                                                                                                                                                                                ",
"                                                                                                                                                                                                                                                                ",
"                                                                                                                                                                                                                                                                ",
"                                                                                                                                                                                                                                                                ",
"                                                                                                                                                                                                                                                                ",
"                                                                                                                                                                                                                                                                ",
"                                                                                                                                                                                                                                                                ",
"                                                                                                                                                                                                                                                                ",
"                                                                                                                                                                                                                                                                ",
"                                                                                                                                                                                                                                                                ",
"                                                                                                                                                                                                                                                                "
};
