/* XPM */
static char *oms_087[] = {
/* columns rows colors chars-per-pixel */
"128 54 110 2 ",
"   c #FF00FF",
".  c #0F0F0F",
"X  c #101010",
"o  c #111111",
"O  c #121212",
"+  c #131313",
"@  c #141414",
"#  c #151515",
"$  c #161616",
"%  c #171717",
"&  c #181818",
"*  c #191919",
"=  c #1A1A1A",
"-  c #1C1C1C",
";  c #1E1E1E",
":  c #1F1F1F",
">  c #202020",
",  c #212121",
"<  c #222222",
"1  c #232323",
"2  c #272727",
"3  c #282828",
"4  c #292929",
"5  c #2A2A2A",
"6  c #2C2C2C",
"7  c #2D2D2D",
"8  c #2E2E2E",
"9  c #2F2F2F",
"0  c #303030",
"q  c #313131",
"w  c #323232",
"e  c #333333",
"r  c #3A3A3A",
"t  c #3B3B3B",
"y  c #3D3D3D",
"u  c #3E3E3E",
"i  c #434343",
"p  c #454545",
"a  c #474747",
"s  c #484848",
"d  c #4B4B4B",
"f  c #5C5C5C",
"g  c #5E5E5E",
"h  c #606060",
"j  c #636363",
"k  c #666666",
"l  c #6F6F6F",
"z  c #717171",
"x  c #7A7A7A",
"c  c #7C7C7C",
"v  c #808080",
"b  c #818181",
"n  c #838383",
"m  c #848484",
"M  c #868686",
"N  c #878787",
"B  c #888888",
"V  c #8A8A8A",
"C  c #8C8C8C",
"Z  c #909090",
"A  c #919191",
"S  c #969696",
"D  c #999999",
"F  c #9B9B9B",
"G  c #A0A0A0",
"H  c #A1A1A1",
"J  c #A3A3A3",
"K  c #A4A4A4",
"L  c #A8A8A8",
"P  c #ABABAB",
"I  c #ADADAD",
"U  c #AEAEAE",
"Y  c #AFAFAF",
"T  c #B0B0B0",
"R  c #B1B1B1",
"E  c #B2B2B2",
"W  c #B2B2B2",
"Q  c #B5B5B5",
"!  c #BDBDBD",
"~  c #C3C3C3",
"^  c #C5C5C5",
"/  c #C7C7C7",
"(  c #C8C8C8",
")  c #CACACA",
"_  c #CBCBCB",
"`  c #CCCCCC",
"'  c #CECECE",
"]  c #CFCFCF",
"[  c #D0D0D0",
"{  c #D1D1D1",
"}  c #D2D2D2",
"|  c #D3D3D3",
" . c #D4D4D4",
".. c #D5D5D5",
"X. c #D7D7D7",
"o. c #D8D8D8",
"O. c #D9D9D9",
"+. c #DADADA",
"@. c #DDDDDD",
"#. c #E0E0E0",
"$. c #E1E1E1",
"%. c #E3E3E3",
"&. c #E4E4E4",
"*. c #E7E7E7",
"=. c #E9E9E9",
"-. c #EAEAEA",
";. c #EEEEEE",
":. c #EFEFEF",
">. c #F0F0F0",
",. c #F4F4F4",
/* pixels */
"                                                                                                                                                                                                                                                                ",
"                                                                                                                                                                                                                                                                ",
"                                                                                                                                                                                                                                                                ",
"                                                                                                                                                                                                                                                                ",
"                                                                                                                                                                                                                                                                ",
"                                                                                                                                                                                                                                                                ",
"                                                                                                                                                                                                                                                                ",
"                                                                                                                                                                                                                                                                ",
"                                                                                                                                                                                                                                                                ",
"                                                                                                                                                                                                                                                                ",
"                                                                                                                                                                                                                                                                ",
"                                                                                                                                                                                                                                                                ",
"                                                                                                                                                                                                                                                                ",
"                                                                                                                                                                                                                                                                ",
"                                                                                                                                                                                                                                                                ",
"                                                                                                                                                                                                                                                                ",
"                                                                                                                                        d o o o & & & o o & o d U )                                                                                             ",
"                                                                                                                                      j < o o o o o o o o o 8 D ) :.                                                                                            ",
"                                                                                                                                      8 o o o o o o o o o . l O.:.:.                                                                                            ",
"                                                                                                                                    H & o o o o o o o o o o b ) :.:.                                                                                            ",
"                                                                                                                                    H & o o o o o o o o o o B ) #.#.                                                                                            ",
"                                                                                                                                    B & o o o o o o o o o & H O.#.>.                                                                                            ",
"                                                                                                                                  S 8 o o o o o o o o o o g U O.O.                                                                                              ",
"                                                                                                                                  a o o o o o o o o o o y R b  .                                                                                                ",
"                                                                                                                              j q o o o o o o o o o y a H  .R >.                                                                                                ",
"                                                                                                                            R a < o o o o o o o o o c B O.U U                                                                                                   ",
"                                                                                                                            H y o o o o o o o o o o b  . .U                                                                                                     ",
"                                                                                                                          j 8 < o o o o o o o o 8 8 B #.)                                                                                                       ",
"                                                                                                                          q o o o o o o o o o o j B R ^ #.                                                                                                      ",
"                                                                                                                        g o o o o o o o o o o y U ) ) U #.                                                                                                      ",
"                                                                                                                        q o o o o o o o o o o g )  . .!                                                                                                         ",
"                                                                                                                      q o o o o o o o o o o z S #.O. .                                                                                                          ",
"                                                                                                                    H < o o o o o o o o o & R U :. . .                                                                                                          ",
"                                                                                                                    S & o o o o o o o o o < ^ R #.>.                                                                                                            ",
"                                                                                                                    b & o o o o o o o o o 8 D H O.#.                                                                                                            ",
"                                                                                                                    b & o o o o o o o o o 8 c H #.                                                                                                              ",
"                                                                                                                    b & o o o o o o o o o 8 S H                                                                                                                 ",
"                                                                                                                    b & o o o o o o o o o 8 ) U                                                                                                                 ",
"                                                                                                                    H < o o o o o o o o o 8  .                                                                                                                  ",
"                                                                                                                                o o o o o < ^                                                                                                                   ",
"                                                                                                                                                                                                                                                                ",
"                                                                                                                                                                                                                                                                ",
"                                                                                                                                                                                                                                                                ",
"                                                                                                                                                                                                                                                                ",
"                                                                                                                                                                                                                                                                ",
"                                                                                                                                                                                                                                                                ",
"                                                                                                                                                                                                                                                                ",
"                                                                                                                                                                                                                                                                ",
"                                                                                                                                                                                                                                                                ",
"                                                                                                                                                                                                                                                                ",
"                                                                                                                                                                                                                                                                ",
"                                                                                                                                                                                                                                                                ",
"                                                                                                                                                                                                                                                                ",
"                                                                                                                                                                                                                                                                "
};
