/* XPM */
static char *oms_321[] = {
/* columns rows colors chars-per-pixel */
"128 54 189 2 ",
"   c #FF00FF",
".  c #0D0D0D",
"X  c #0E0E0E",
"o  c #0F0F0F",
"O  c #101010",
"+  c #111111",
"@  c #121212",
"#  c #131313",
"$  c #141414",
"%  c #151515",
"&  c #161616",
"*  c #171717",
"=  c #181818",
"-  c #191919",
";  c #1A1A1A",
":  c #1B1B1B",
">  c #1C1C1C",
",  c #1D1D1D",
"<  c #1E1E1E",
"1  c #1F1F1F",
"2  c #202020",
"3  c #212121",
"4  c #242424",
"5  c #252525",
"6  c #262626",
"7  c #272727",
"8  c #282828",
"9  c #292929",
"0  c #2A2A2A",
"q  c #2B2B2B",
"w  c #2D2D2D",
"e  c #2F2F2F",
"r  c #303030",
"t  c #323232",
"y  c #333333",
"u  c #343434",
"i  c #353535",
"p  c #363636",
"a  c #373737",
"s  c #383838",
"d  c #3A3A3A",
"f  c #3B3B3B",
"g  c #3C3C3C",
"h  c #3E3E3E",
"j  c #404040",
"k  c #434343",
"l  c #444444",
"z  c #464646",
"x  c #484848",
"c  c #4A4A4A",
"v  c #4B4B4B",
"b  c #4C4C4C",
"n  c #4E4E4E",
"m  c #4F4F4F",
"M  c #505050",
"N  c #515151",
"B  c #545454",
"V  c #555555",
"C  c #565656",
"Z  c #585858",
"A  c #595959",
"S  c #5B5B5B",
"D  c #5D5D5D",
"F  c #5E5E5E",
"G  c #606060",
"H  c #616161",
"J  c #626262",
"K  c #636363",
"L  c #646464",
"P  c #676767",
"I  c #686868",
"U  c #696969",
"Y  c #6A6A6A",
"T  c #6B6B6B",
"R  c #6C6C6C",
"E  c #6D6D6D",
"W  c #6E6E6E",
"Q  c #707070",
"!  c #717171",
"~  c #727272",
"^  c #737373",
"/  c #747474",
"(  c #757575",
")  c #767676",
"_  c #7A7A7A",
"`  c #7D7D7D",
"'  c #808080",
"]  c #808080",
"[  c #818181",
"{  c #848484",
"}  c #858585",
"|  c #868686",
" . c #878787",
".. c #888888",
"X. c #898989",
"o. c #8C8C8C",
"O. c #8D8D8D",
"+. c #8E8E8E",
"@. c #8F8F8F",
"#. c #909090",
"$. c #919191",
"%. c #929292",
"&. c #949494",
"*. c #959595",
"=. c #969696",
"-. c #979797",
";. c #999999",
":. c #9B9B9B",
">. c #9D9D9D",
",. c #9E9E9E",
"<. c #A0A0A0",
"1. c #A1A1A1",
"2. c #A2A2A2",
"3. c #A3A3A3",
"4. c #A5A5A5",
"5. c #A9A9A9",
"6. c #ABABAB",
"7. c #ACACAC",
"8. c #AEAEAE",
"9. c #AFAFAF",
"0. c #B0B0B0",
"q. c #B1B1B1",
"w. c #B2B2B2",
"e. c #B5B5B5",
"r. c #B6B6B6",
"t. c #B8B8B8",
"y. c #B9B9B9",
"u. c #BBBBBB",
"i. c #BCBCBC",
"p. c #BDBDBD",
"a. c #808080",
"s. c #C1C1C1",
"d. c #C2C2C2",
"f. c #C3C3C3",
"g. c #C4C4C4",
"h. c #C5C5C5",
"j. c #C7C7C7",
"k. c #C9C9C9",
"l. c #CACACA",
"z. c #CBCBCB",
"x. c #CCCCCC",
"c. c #CECECE",
"v. c #CFCFCF",
"b. c #D0D0D0",
"n. c #D1D1D1",
"m. c #D2D2D2",
"M. c #D3D3D3",
"N. c #D4D4D4",
"B. c #D5D5D5",
"V. c #D6D6D6",
"C. c #D7D7D7",
"Z. c #D8D8D8",
"A. c #D9D9D9",
"S. c #DADADA",
"D. c #DBDBDB",
"F. c #DCDCDC",
"G. c #DDDDDD",
"H. c #DFDFDF",
"J. c #E0E0E0",
"K. c #E2E2E2",
"L. c #E3E3E3",
"P. c #E4E4E4",
"I. c #E6E6E6",
"U. c #E6E6E6",
"Y. c #E7E7E7",
"T. c #E8E8E8",
"R. c #E9E9E9",
"E. c #EAEAEA",
"W. c #EBEBEB",
"Q. c #ECECEC",
"!. c #EDEDED",
"~. c #EEEEEE",
"^. c #EFEFEF",
"/. c #F0F0F0",
"(. c #F1F1F1",
"). c #F2F2F2",
"_. c #F3F3F3",
"`. c #F4F4F4",
"'. c #F5F5F5",
"]. c #F6F6F6",
"[. c #F7F7F7",
"{. c #F8F8F8",
"}. c #F9F9F9",
"|. c #FAFAFA",
" X c #FBFBFB",
".X c #FCFCFC",
"XX c #FDFDFD",
"oX c #FEFEFE",
"OX c #FFFFF1",
/* pixels */
"                                                                                                                                                                                                                                                                ",
"                                                                                                                                                                                                                                                                ",
"                                                                                                                                                                                                                                                                ",
"                                                                                                                                                                                                                                                                ",
"                                                                                                                                                                                                                                                                ",
"                                                                                                                                                                                                                                                                ",
"                                                                                                                                                                                                                                                                ",
"                                                                                                                                                                                                                                                                ",
"                                                                                                                                                                                                                                                                ",
"                                                                                                                                                                                                                                                                ",
"                                                                                                                                                                                                                                                                ",
"                                                                                                                                                                                                                                                                ",
"                                                                                                                                                                                                                                                                ",
"                                                                                                                                                                                                                                                                ",
"                                                                                                                                                                                                                                                                ",
"                                                                                                                                                                                                                                                                ",
"                                                                                                                                                                                                                                                                ",
"                                                                                                                                                                                                                                                                ",
"                                                                                                                                                                                                                                                                ",
"                                                @ X X                                                                                                                                                                                                           ",
"                            ].].].].S.:.h @ @ @ @ p p 0 2 p p   X X X > >                                                                                                                                                                                       ",
"                          ].}.}.}.}.}.}.P.S @ @ 2 v.!.P.B.G X 2 +.| ! S > @ > @ @ @ @ @ c                                                                                                                                                                       ",
"                          }.}.}.P.B.].}.}.B.0 @ 0 B.}.}.}.p.@ T }.}.}.!.p @ @ @ @ @ @ @ | !.v.! T S p @ @ @ @ @ > @ h                                                                                                                                           ",
"                        ].}.}.v.p 2 ! ].}.].C X 0 B.}.}.}.!.c p.}.}.}.!.h X @ > @ @ @ @ 0.}.].d.].].0.@ @ @ @ @ @ @ h                                                                                                                                           ",
"                        ].}.}.0.@ X 2 S.}.}.T X 0 B.}.}.}.}.p.!.}.}.}.!.l T p.v.p.:.C > 5.}.}.d.].}.p.@ @ @ @ @ @ X 2 c                                         @ X @ @ X > >                                                                                   ",
"                          }.}.P.S 2 S !.}.}.T X 0 B.}.}.].}.}.}.}.}.}.!.$.].}.].!.}.!.! 5.}.}.d.].}.d.T 5.<.C @ @ h C C h 2 2 > @ @ @ @ @ 0         !.}.].].P.v.<.c > ! ! S > @ @ X @ @ 0 c                                                                     ",
"                          }.}.}.!.B.!.}.}.].c X 0 B.}.].v.].}.}.S.!.}.!.B.}.}.B.0.].}.S.d.}.].d.].}.].}.}.}.P.l $.!.].}.!.B.! p $.$.! h T S > @ X G ].}.}.!.].}.}.P.T S.}.!.l ` +.! 2 @ @ @ @ @ l                                                               ",
"                            }.}.}.}.}.}.}.0.> @ 0 B.}.].` P.}.].+.P.}.].S.}.}.P.B.P.!.P.S.}.].d.].}.!.p.!.}.}.5.!.}.].B.!.}.].+.P.}.].S.}.}.+.@ X ! }.}.}.:.| P.P.P.<.p.S.v.C S.}.].l @ @ X X X 2 G                                                             ",
"                              ].].].].].v.h @     !.}.].C 5.}.v.c P.}.!.0.}.}.p.` v.B.v.B.}.].d.].}.d.> 0.}.].S.}.}.d.2 $.}.}.B.!.}.].P.].}.S.0 X c ].}.}.].P.P.B.$.c v.!.S.p.].}.}.:.2 l T ! G h > @ @ @ @ > 0                                                 ",
"                                                      ].    }.<.l !.}.!.G S.}.}.].}.}.v.d.}.].d.].}.p.@ 5.}.].v.].}.v.2 | }.}.S.!.}.P.G P.}.!.p @ > | !.].}.}.}.}.].$.S.}.!.P.}.}.}.!.$.!.}.}.}.!.<.2 @ @ @ @ @ h                                               ",
"                                                                              ].].].].  v.}.].d.].}.p.@ 5.}.}.$.B.}.].v.P.}.}.d.P.}.S.h G +.+.2 @ S 0.d.B.$.:.].}.}.S.P.}.!.$.!.}.}.B.P.}.].p.d.}.}.| @ @ @ @ @ 2                                               ",
"                                                                                                          }.}.|   }.}.}.}.}.S.! P.}.S.0 X @ @ @ X ` }.}.}.0.+.!.}.}.P.P.}.P.c B.}.].T S.}.}.P.!.].}.p.> @ @ @ @ 2                                               ",
"                                                                                                                                !.}.S.p             }.}.}.}.}.}.}.}.5.S.}.P.c B.}.}.v.P.}.].:.$.v.B.<.> @ @ @ @ 2                                               ",
"                                                                                                                                                        ].].].}.}.S.G P.}.P.l p.}.}.P.5.].}.P.S.].].5.@ @ @ @ @                                                 ",
"                                                                                                                                                                                  }.P.    }.}.}.].].! @                                                         ",
"                                                                                                                                                                                                                                                                ",
"                                                                                                                                                                                                                                                                ",
"                                                                                                                                                                                                                                                                ",
"                                                                                                                                                                                                                                                                ",
"                                                                                                                                                                                                                                                                ",
"                                                                                                                                                                                                                                                                ",
"                                                                                                                                                                                                                                                                ",
"                                                                                                                                                                                                                                                                ",
"                                                                                                                                                                                                                                                                ",
"                                                                                                                                                                                                                                                                ",
"                                                                                                                                                                                                                                                                ",
"                                                                                                                                                                                                                                                                ",
"                                                                                                                                                                                                                                                                ",
"                                                                                                                                                                                                                                                                ",
"                                                                                                                                                                                                                                                                ",
"                                                                                                                                                                                                                                                                ",
"                                                                                                                                                                                                                                                                ",
"                                                                                                                                                                                                                                                                ",
"                                                                                                                                                                                                                                                                "
};
