/* XPM */
static char *oms_333[] = {
/* columns rows colors chars-per-pixel */
"128 54 183 2 ",
"   c #FF00FF",
".  c #0C0C0C",
"X  c #0E0E0E",
"o  c #0F0F0F",
"O  c #101010",
"+  c #111111",
"@  c #121212",
"#  c #131313",
"$  c #141414",
"%  c #151515",
"&  c #161616",
"*  c #171717",
"=  c #181818",
"-  c #191919",
";  c #1A1A1A",
":  c #1B1B1B",
">  c #1C1C1C",
",  c #1D1D1D",
"<  c #1E1E1E",
"1  c #1F1F1F",
"2  c #212121",
"3  c #222222",
"4  c #232323",
"5  c #242424",
"6  c #252525",
"7  c #262626",
"8  c #272727",
"9  c #282828",
"0  c #292929",
"q  c #2A2A2A",
"w  c #2B2B2B",
"e  c #2C2C2C",
"r  c #2D2D2D",
"t  c #2E2E2E",
"y  c #2F2F2F",
"u  c #303030",
"i  c #333333",
"p  c #343434",
"a  c #353535",
"s  c #363636",
"d  c #3A3A3A",
"f  c #3B3B3B",
"g  c #3C3C3C",
"h  c #3D3D3D",
"j  c #3F3F3F",
"k  c #444444",
"l  c #454545",
"z  c #464646",
"x  c #474747",
"c  c #484848",
"v  c #494949",
"b  c #4B4B4B",
"n  c #4C4C4C",
"m  c #4E4E4E",
"M  c #525252",
"N  c #535353",
"B  c #555555",
"V  c #565656",
"C  c #575757",
"Z  c #585858",
"A  c #595959",
"S  c #5A5A5A",
"D  c #5B5B5B",
"F  c #5C5C5C",
"G  c #5D5D5D",
"H  c #5F5F5F",
"J  c #606060",
"K  c #626262",
"L  c #646464",
"P  c #696969",
"I  c #6A6A6A",
"U  c #6C6C6C",
"Y  c #6F6F6F",
"T  c #707070",
"R  c #717171",
"E  c #737373",
"W  c #747474",
"Q  c #757575",
"!  c #767676",
"~  c #777777",
"^  c #7B7B7B",
"/  c #7C7C7C",
"(  c #808080",
")  c #808080",
"_  c #828282",
"`  c #858585",
"'  c #898989",
"]  c #8A8A8A",
"[  c #8B8B8B",
"{  c #8C8C8C",
"}  c #909090",
"|  c #939393",
" . c #969696",
".. c #989898",
"X. c #999999",
"o. c #9C9C9C",
"O. c #9F9F9F",
"+. c #A0A0A0",
"@. c #A1A1A1",
"#. c #A2A2A2",
"$. c #A3A3A3",
"%. c #A4A4A4",
"&. c #A5A5A5",
"*. c #A6A6A6",
"=. c #A8A8A8",
"-. c #A9A9A9",
";. c #ABABAB",
":. c #ACACAC",
">. c #AEAEAE",
",. c #AFAFAF",
"<. c #B1B1B1",
"1. c #B2B2B2",
"2. c #B2B2B2",
"3. c #B4B4B4",
"4. c #B5B5B5",
"5. c #B6B6B6",
"6. c #BABABA",
"7. c #BBBBBB",
"8. c #BCBCBC",
"9. c #808080",
"0. c #BFBFBF",
"q. c #C0C0C0",
"w. c #C1C1C1",
"e. c #C2C2C2",
"r. c #C4C4C4",
"t. c #C5C5C5",
"y. c #C6C6C6",
"u. c #C7C7C7",
"i. c #C8C8C8",
"p. c #C9C9C9",
"a. c #CACACA",
"s. c #CBCBCB",
"d. c #CDCDCD",
"f. c #CECECE",
"g. c #CFCFCF",
"h. c #D0D0D0",
"j. c #D1D1D1",
"k. c #D2D2D2",
"l. c #D3D3D3",
"z. c #D4D4D4",
"x. c #D5D5D5",
"c. c #D6D6D6",
"v. c #D7D7D7",
"b. c #D8D8D8",
"n. c #D9D9D9",
"m. c #DADADA",
"M. c #DBDBDB",
"N. c #DCDCDC",
"B. c #DDDDDD",
"V. c #DEDEDE",
"C. c #DFDFDF",
"Z. c #E0E0E0",
"A. c #E1E1E1",
"S. c #E2E2E2",
"D. c #E3E3E3",
"F. c #E4E4E4",
"G. c #E6E6E6",
"H. c #E6E6E6",
"J. c #E7E7E7",
"K. c #E8E8E8",
"L. c #E9E9E9",
"P. c #EAEAEA",
"I. c #EBEBEB",
"U. c #ECECEC",
"Y. c #EDEDED",
"T. c #EEEEEE",
"R. c #EFEFEF",
"E. c #F0F0F0",
"W. c #F1F1F1",
"Q. c #F2F2F2",
"!. c #F3F3F3",
"~. c #F4F4F4",
"^. c #F5F5F5",
"/. c #F6F6F6",
"(. c #F7F7F7",
"). c #F8F8F8",
"_. c #F9F9F9",
"`. c #FAFAFA",
"'. c #FBFBFB",
"]. c #FCFCFC",
"[. c #FDFDFD",
"{. c #FEFEFE",
"}. c #FFFFF1",
/* pixels */
"                                                                                                                                                                                                                                                                ",
"                                                                                                                                                                                                                                                                ",
"                                                                                                                                                                                                                                                                ",
"                                                                                                                                                                                                                                                                ",
"                                                                                                                                                                                                                                                                ",
"                                                                                                                                                                                                                                                                ",
"                                                                                                                                                                                                                                                                ",
"                                                                                                                                                                                                                                                                ",
"                                                                                                                                                                                                                                                                ",
"                                                                                                                                                                                                                                                                ",
"                                                                                                                                                                                                                                                                ",
"                                                                                                                                                                                                                                                                ",
"                                                                                                                                                                                                                                                                ",
"                                                                                                                                                                                                                                                                ",
"                                                                                                                                                                                                                                                                ",
"                                                                                                                                                                                                                                                                ",
"                                                                                                                                                                                                                                                                ",
"                                                                                                                                                                                                                                                                ",
"                                                                                                                                                                                                                                                                ",
"                                                                                                                                                                                                                                                                ",
"                                                                                                                                                                                                                                                                ",
"                    (.(.(.R.d.#.H = O O O = v H /     = O O 8 8 8 t v                                                                                                                                                                                           ",
"                (.).).).).).).).(.#.8 O O 8 v.).(.R.S.x . i u.v.d.u.O.= O O O O O t             C H x t O O O O = t                                                                                                                                             ",
"                ).).).).R.S.(.).).).' O O 8 v.).).).).O.O _ ).).).).u.= O . . . . t     (.).).d.d.R.R.#.O O O O O = _                                                         O 8                                                                               ",
"                ).).).;.i t Q R.).).d.8 O 8 v.).).).).S.v v.).).).).u.= t H Q Q H x t O d.).).v.C.).).1.O O O O O = C                                         (.(.(.S.v.u.#.U 8 8 Q Q Q d O O O O d                                                             ",
"              ).).).).J . O = d.).).S.t O 8 v.).).).).).C.(.).).).).u.H C.(.).).).R.1.d 8.).).v.C.).).8.H #.;.' t O 8 H Q _ } _ d O O t t t 8 8 t = O O = 8 v.).).).).).).).).8.C (.).).U v #.#.} t O O O t                                                     ",
"                ).).).;.8 = v S.).).C.t O 8 v.).).R.(.).).).(.(.).).d.u.).).S.#.C.).).1.d.).).v.C.).).(.(.).).).;.d u.(.).).).(.S.' x C.C.v._ #.v.8.v O O t S.).).(.#._ S.R.R.R.' d.C.C.U / ).).(.x O O O = x                                                   ",
"                ).).).(.v.u.S.).).).8.= O 8 v.).).u.u.).).).d.C.).).v.C.).).(.S.R.(.).S.C.).).v.C.).).(.8.R.).).S.;.).).(.8.8.(.).(.#.R.).).(.).).).u.= O 8 v.).).).C.u.C.v.8.Q C C.R.S.8.S.).).(.1.t C O.;.1.1._ d O O O O i                                   ",
"                  ).).).).).).).).R.H O O 8 v.).).1.U (.).(.U d.).).d.v.).).v.Q ;.v.d.u.C.).).v.C.).).8.= } ).).R.C.).).C.8 i C.).).C.(.).).u.8.).).R.i O O J S.).).).).).).).C./ R.).).C.).).).).R.} R.).).R.(.).S.J O O O = J                                 ",
"                    (.(.).(.(.(.S.Q O       R.).).1.t v.).u.t d.).).u.' (.).(.v.S.(.(.v.v.).).v.C.).).1.. / ).).S.u.).).R.v v S.).).C.(.).)./ H C.C.v.i 8 t Q #.u.C.1.8.R.).).).C.(.).).O.1.).).(.1.C.).).S.#.v.).).v.8 O O O x                                 ",
"                                                              S.).).u.i v.).(.).).(.R./ d.).).v.C.).).1.. _ ).).S.Q S.).).R.S.).).(.#.R.).)./ O 8 t t = /   ).(.(.(.} H v.).).).S.(.).).Q Q ).).(.J d.).).R.C.S.R.R.S.i O O O x                                 ",
"                                                                                                            ).).S.d   ).(.).).(.(.;.H (.).)._ . O O .       (.).).).).(.).).).(.;.R.).).Q U ).).).v.v.).).C.U #.C.v.u.i O O = H                                 ",
"                                                                                                                                                                (.(.(.(.(.(.(.u.J (.).).Q C (.).).S./ S.).).(.(.).).d.8 O O                                     ",
"                                                                                                                                                                                                        (.(.).).(.(.                                            ",
"                                                                                                                                                                                                                                                                ",
"                                                                                                                                                                                                                                                                ",
"                                                                                                                                                                                                                                                                ",
"                                                                                                                                                                                                                                                                ",
"                                                                                                                                                                                                                                                                ",
"                                                                                                                                                                                                                                                                ",
"                                                                                                                                                                                                                                                                ",
"                                                                                                                                                                                                                                                                ",
"                                                                                                                                                                                                                                                                ",
"                                                                                                                                                                                                                                                                ",
"                                                                                                                                                                                                                                                                ",
"                                                                                                                                                                                                                                                                ",
"                                                                                                                                                                                                                                                                ",
"                                                                                                                                                                                                                                                                ",
"                                                                                                                                                                                                                                                                ",
"                                                                                                                                                                                                                                                                ",
"                                                                                                                                                                                                                                                                ",
"                                                                                                                                                                                                                                                                ",
"                                                                                                                                                                                                                                                                ",
"                                                                                                                                                                                                                                                                "
};
