/* XPM */
static char *oms_252[] = {
/* columns rows colors chars-per-pixel */
"128 54 163 2 ",
"   c #FF00FF",
".  c #0D0D0D",
"X  c #0E0E0E",
"o  c #0F0F0F",
"O  c #101010",
"+  c #111111",
"@  c #121212",
"#  c #131313",
"$  c #141414",
"%  c #151515",
"&  c #161616",
"*  c #171717",
"=  c #181818",
"-  c #191919",
";  c #1A1A1A",
":  c #1B1B1B",
">  c #1C1C1C",
",  c #1D1D1D",
"<  c #1F1F1F",
"1  c #202020",
"2  c #212121",
"3  c #232323",
"4  c #262626",
"5  c #282828",
"6  c #2A2A2A",
"7  c #2B2B2B",
"8  c #2C2C2C",
"9  c #2D2D2D",
"0  c #303030",
"q  c #313131",
"w  c #343434",
"e  c #353535",
"r  c #363636",
"t  c #383838",
"y  c #3A3A3A",
"u  c #3B3B3B",
"i  c #3C3C3C",
"p  c #3D3D3D",
"a  c #3E3E3E",
"s  c #3F3F3F",
"d  c #414141",
"f  c #424242",
"g  c #434343",
"h  c #444444",
"j  c #454545",
"k  c #464646",
"l  c #474747",
"z  c #494949",
"x  c #4A4A4A",
"c  c #4B4B4B",
"v  c #4C4C4C",
"b  c #4C4C4C",
"n  c #505050",
"m  c #525252",
"M  c #535353",
"N  c #555555",
"B  c #585858",
"V  c #595959",
"C  c #5B5B5B",
"Z  c #5D5D5D",
"A  c #5E5E5E",
"S  c #626262",
"D  c #636363",
"F  c #656565",
"G  c #676767",
"H  c #696969",
"J  c #6A6A6A",
"K  c #6C6C6C",
"L  c #6D6D6D",
"P  c #6F6F6F",
"I  c #707070",
"U  c #717171",
"Y  c #727272",
"T  c #737373",
"R  c #777777",
"E  c #797979",
"W  c #7B7B7B",
"Q  c #7C7C7C",
"!  c #7E7E7E",
"~  c #808080",
"^  c #818181",
"/  c #848484",
"(  c #858585",
")  c #878787",
"_  c #888888",
"`  c #898989",
"'  c #8E8E8E",
"]  c #8F8F8F",
"[  c #909090",
"{  c #929292",
"}  c #939393",
"|  c #959595",
" . c #989898",
".. c #999999",
"X. c #9A9A9A",
"o. c #9C9C9C",
"O. c #9D9D9D",
"+. c #A4A4A4",
"@. c #A6A6A6",
"#. c #ACACAC",
"$. c #ADADAD",
"%. c #AFAFAF",
"&. c #B1B1B1",
"*. c #B5B5B5",
"=. c #B6B6B6",
"-. c #B7B7B7",
";. c #B8B8B8",
":. c #BABABA",
">. c #BBBBBB",
",. c #BDBDBD",
"<. c #808080",
"1. c #BFBFBF",
"2. c #C0C0C0",
"3. c #C3C3C3",
"4. c #C5C5C5",
"5. c #C6C6C6",
"6. c #CACACA",
"7. c #CBCBCB",
"8. c #CCCCCC",
"9. c #CDCDCD",
"0. c #CECECE",
"q. c #CFCFCF",
"w. c #D1D1D1",
"e. c #D3D3D3",
"r. c #D4D4D4",
"t. c #D5D5D5",
"y. c #D6D6D6",
"u. c #D8D8D8",
"i. c #DBDBDB",
"p. c #DCDCDC",
"a. c #DDDDDD",
"s. c #DEDEDE",
"d. c #E0E0E0",
"f. c #E1E1E1",
"g. c #E2E2E2",
"h. c #E3E3E3",
"j. c #E4E4E4",
"k. c #E6E6E6",
"l. c #E6E6E6",
"z. c #E7E7E7",
"x. c #E8E8E8",
"c. c #E9E9E9",
"v. c #EAEAEA",
"b. c #EBEBEB",
"n. c #ECECEC",
"m. c #EDEDED",
"M. c #EEEEEE",
"N. c #EFEFEF",
"B. c #F0F0F0",
"V. c #F1F1F1",
"C. c #F2F2F2",
"Z. c #F3F3F3",
"A. c #F4F4F4",
"S. c #F5F5F5",
"D. c #F6F6F6",
"F. c #F7F7F7",
"G. c #F8F8F8",
"H. c #F9F9F9",
"J. c #FAFAFA",
"K. c #FBFBFB",
"L. c #FCFCFC",
"P. c #FDFDFD",
"I. c #FFFFF1",
/* pixels */
"                                                                                                                                                                                                                                                                ",
"                                                                                                                                                                                                                                                                ",
"                                                                                                                                                                                                                                                                ",
"                                                                                                                                                                                                                                                                ",
"                                                                                                                                                                                                                                                                ",
"                                                                                                                                                                                                                                                                ",
"                                                                                                                                                                                                                                                                ",
"                                                                                                                                                                                                                                                                ",
"                                                                                                                                                                                                                                                                ",
"                                                                                                                                                                                                                                                                ",
"                                                                                                                                                                                                                                                                ",
"                                                                                                                                              i & & & & & & & &                                                                                                 ",
"                                                                                                                                            k o & & & & & & & & 2 | v.S.                                                                                        ",
"                                                                                                                                          M > & & & & & & & & & | P.P.S.                                                                                        ",
"                                                                                                                                    k & & & & & & & & & & x 9 0 d.v.d.P.                                                                                        ",
"                                                                                                                                9 k & & & & & & & & o & ] d.x F S.F ! P.                                                                                        ",
"                                                                                                                            ] 2 & & & & & & & & & 9 J 0 y.S.x ~ v.0 U P.                                                                                        ",
"                                                                                                                            ! & & & & & & & & & > <.v.U d.S.x ~ S.Z <.P.                                                                                        ",
"                                                                                                                            J & & & & & & & & & 9 d.S.<.S.S.x ~ P.v.S.S.                                                                                        ",
"                                                                                                                  k & & & & > & & & & & i 2 o & 9 d.P.S.S.S.x J P.P.P.                                                                                          ",
"                                                                                                              ~ > & & & & & & & & & 9 ! a.x i %.X.d.P.P.d.S.F i v.S.                                                                                            ",
"                                                                                                              U o & & & & & & & & > &.d.v.J q.P.S.S.a.S.<.S.                                                                                                    ",
"                                                                                                              J & & & & & & & & & > y.d.v.<.d.a.P.P.&.a.+.v.                                                                                                    ",
"                                                                                                            0 2 & & & & & & & & > i q.d.v.a.v.d.S.S.%.q.                                                                                                        ",
"                                                                                                          k & & & & & & & & & & ! d.v.d.v.a.<.q.y.d.                                                                                                            ",
"                                                                                                    Z > & & & & & & & & & 0 ] J q.S.S.d.v.a.S.P.                                                                                                                ",
"                                                                                                  x > & & & & & & & & & i y.P.a.v.X.q.d.v.y.S.                                                                                                                  ",
"                                                                                    Z > & & > i > & & & & > 0 > & & k X.&.d.y.v.v.~ 4.d.S.                                                                                                                      ",
"                                                                                  k & & & & & & & & & & i %.d.Z > X.y.v.d.X.| v.v.] <.v.                                                                                                                        ",
"                                                                              k i & & & & & & & & & > i y.P.P.! k v.S.S.S.&.<.q.d.                                                                                                                              ",
"                                                                            M & & & & & & & & & o k &.&.v.<.P.U Z v.<.S.v.S.S.q.                                                                                                                                ",
"                                                                        ~ 0 > & & & & & & & & & k ~ d.4.y.a.S.x F <.| d.q.P.S.                                                                                                                                  ",
"                                                                        Z o & & & & & & & & o M a.X.4.| v.P.4.k 9 2 ! S.                                                                                                                                        ",
"                                                                        k & & & & & & & & & o J S.v.d.y.S.<.d.4.                                                                                                                                                ",
"                                                                    i k & & & & & & & & & 9 k +.P.S.S.S.d.&.P.                                                                                                                                                  ",
"                                                                %.i & & & & & & & & & & M a.d.y.v.&.S.S.P.P.S.                                                                                                                                                  ",
"                                                                J o & & & & & & & & & 2 q.d.S.4.d.X.v.a.P.S.                                                                                                                                                    ",
"                                                                k o & & & & & & & & & x v.d.S.q.d.X.S.                                                                                                                                                          ",
"                                                                i & & & & & & & & & o F d.<.v.d.v.+.                                                                                                                                                            ",
"                                                                k & & & & & & & & & & M a.y.d.4.                                                                                                                                                                ",
"                                                                k o & & & & & & & & o Z S.P.                                                                                                                                                                    ",
"                                                                                                                                                                                                                                                                ",
"                                                                                                                                                                                                                                                                ",
"                                                                                                                                                                                                                                                                ",
"                                                                                                                                                                                                                                                                ",
"                                                                                                                                                                                                                                                                ",
"                                                                                                                                                                                                                                                                ",
"                                                                                                                                                                                                                                                                ",
"                                                                                                                                                                                                                                                                ",
"                                                                                                                                                                                                                                                                ",
"                                                                                                                                                                                                                                                                ",
"                                                                                                                                                                                                                                                                ",
"                                                                                                                                                                                                                                                                ",
"                                                                                                                                                                                                                                                                "
};
