/* XPM */
static char *oms_172[] = {
/* columns rows colors chars-per-pixel */
"128 54 212 2 ",
"   c #FF00FF",
".  c #0A0A0A",
"X  c #0B0B0B",
"o  c #0E0E0E",
"O  c #0F0F0F",
"+  c #101010",
"@  c #111111",
"#  c #121212",
"$  c #131313",
"%  c #141414",
"&  c #151515",
"*  c #161616",
"=  c #171717",
"-  c #181818",
";  c #191919",
":  c #1A1A1A",
">  c #1B1B1B",
",  c #1C1C1C",
"<  c #1D1D1D",
"1  c #1E1E1E",
"2  c #1F1F1F",
"3  c #202020",
"4  c #212121",
"5  c #222222",
"6  c #232323",
"7  c #242424",
"8  c #252525",
"9  c #262626",
"0  c #272727",
"q  c #292929",
"w  c #2A2A2A",
"e  c #2B2B2B",
"r  c #2C2C2C",
"t  c #2D2D2D",
"y  c #2E2E2E",
"u  c #303030",
"i  c #323232",
"p  c #333333",
"a  c #343434",
"s  c #353535",
"d  c #363636",
"f  c #373737",
"g  c #393939",
"h  c #3A3A3A",
"j  c #3B3B3B",
"k  c #3C3C3C",
"l  c #3D3D3D",
"z  c #3E3E3E",
"x  c #3F3F3F",
"c  c #414141",
"v  c #424242",
"b  c #434343",
"n  c #444444",
"m  c #454545",
"M  c #464646",
"N  c #474747",
"B  c #484848",
"V  c #494949",
"C  c #4A4A4A",
"Z  c #4B4B4B",
"A  c #4C4C4C",
"S  c #4E4E4E",
"D  c #4F4F4F",
"F  c #505050",
"G  c #515151",
"H  c #525252",
"J  c #535353",
"K  c #545454",
"L  c #575757",
"P  c #585858",
"I  c #595959",
"U  c #5A5A5A",
"Y  c #5B5B5B",
"T  c #5C5C5C",
"R  c #5D5D5D",
"E  c #5E5E5E",
"W  c #5F5F5F",
"Q  c #606060",
"!  c #616161",
"~  c #626262",
"^  c #646464",
"/  c #656565",
"(  c #666666",
")  c #686868",
"_  c #696969",
"`  c #6A6A6A",
"'  c #6B6B6B",
"]  c #6C6C6C",
"[  c #6D6D6D",
"{  c #707070",
"}  c #717171",
"|  c #737373",
" . c #747474",
".. c #777777",
"X. c #787878",
"o. c #797979",
"O. c #7A7A7A",
"+. c #7B7B7B",
"@. c #7C7C7C",
"#. c #7E7E7E",
"$. c #808080",
"%. c #818181",
"&. c #848484",
"*. c #858585",
"=. c #868686",
"-. c #878787",
";. c #888888",
":. c #898989",
">. c #8A8A8A",
",. c #8B8B8B",
"<. c #8D8D8D",
"1. c #8E8E8E",
"2. c #8F8F8F",
"3. c #909090",
"4. c #919191",
"5. c #929292",
"6. c #939393",
"7. c #959595",
"8. c #969696",
"9. c #979797",
"0. c #989898",
"q. c #999999",
"w. c #9D9D9D",
"e. c #9E9E9E",
"r. c #9F9F9F",
"t. c #A0A0A0",
"y. c #A1A1A1",
"u. c #A3A3A3",
"i. c #A4A4A4",
"p. c #A8A8A8",
"a. c #A9A9A9",
"s. c #AAAAAA",
"d. c #ABABAB",
"f. c #ACACAC",
"g. c #AEAEAE",
"h. c #AFAFAF",
"j. c #B0B0B0",
"k. c #B2B2B2",
"l. c #B2B2B2",
"z. c #B4B4B4",
"x. c #B5B5B5",
"c. c #B6B6B6",
"v. c #B8B8B8",
"b. c #B9B9B9",
"n. c #BABABA",
"m. c #BBBBBB",
"M. c #BCBCBC",
"N. c #BDBDBD",
"B. c #808080",
"V. c #BFBFBF",
"C. c #C0C0C0",
"Z. c #C1C1C1",
"A. c #C2C2C2",
"S. c #C4C4C4",
"D. c #C5C5C5",
"F. c #C6C6C6",
"G. c #C7C7C7",
"H. c #C8C8C8",
"J. c #C9C9C9",
"K. c #CACACA",
"L. c #CBCBCB",
"P. c #CCCCCC",
"I. c #CDCDCD",
"U. c #CECECE",
"Y. c #CFCFCF",
"T. c #D0D0D0",
"R. c #D1D1D1",
"E. c #D3D3D3",
"W. c #D4D4D4",
"Q. c #D5D5D5",
"!. c #D6D6D6",
"~. c #D7D7D7",
"^. c #D8D8D8",
"/. c #D9D9D9",
"(. c #DADADA",
"). c #DBDBDB",
"_. c #DCDCDC",
"`. c #DDDDDD",
"'. c #DEDEDE",
"]. c #DFDFDF",
"[. c #E0E0E0",
"{. c #E1E1E1",
"}. c #E2E2E2",
"|. c #E3E3E3",
" X c #E4E4E4",
".X c #E6E6E6",
"XX c #E6E6E6",
"oX c #E7E7E7",
"OX c #E8E8E8",
"+X c #E9E9E9",
"@X c #EAEAEA",
"#X c #EBEBEB",
"$X c #ECECEC",
"%X c #EDEDED",
"&X c #EEEEEE",
"*X c #EFEFEF",
"=X c #F0F0F0",
"-X c #F1F1F1",
";X c #F2F2F2",
":X c #F3F3F3",
">X c #F4F4F4",
",X c #F5F5F5",
"<X c #F6F6F6",
"1X c #F7F7F7",
"2X c #F8F8F8",
"3X c #F9F9F9",
"4X c #FAFAFA",
"5X c #FBFBFB",
"6X c #FCFCFC",
"7X c #FDFDFD",
"8X c #FEFEFE",
"9X c #FFFFF1",
/* pixels */
"                                                                                                                                                                                                                                                                ",
"                                                                                                                                                                                                                                                                ",
"                                                                                                                                                                                                                                                                ",
"                                                                                                                                                                                                                                                                ",
"                                                                                                                                                                                                                                                                ",
"                                                                                                                                                                                                                                                                ",
"                                                                                                                                                                                                                                                                ",
"                                                                                                                                                                                                                                                                ",
"                                                                                                                                                                                                                                                                ",
"                                                                                                                                                                                                                                                                ",
"                                                                                                                                                                                                                                                                ",
"                                                                                                                                                                                                                                                                ",
"                                                                                                                                                                                                                                                                ",
"                                                                                                                                                                                                                                                                ",
"                                                                                                                                                                                                                                                                ",
"                                                                                                                                                                                                                                                                ",
"                                        T T       v v v K                                                                                                                                                                                                       ",
"                      T Q             2 + + + g   + + + +   f 6 2 2 2 2 6 6 r v                                                                                                                                                                                 ",
"                r 2 + + + + 2 6 v     + + + + r f + + + +   + + + + + + + + + + 2 K                                                                                                                                                                             ",
"                + + + + + + + + + r 6 + + + + + 6 6 2 2 + + O + + + + + + + + + + 2                                                               g B K     [                                                                                                   ",
"                + + + + + + + + + + r j.b.p.-.6 j.].I.b.g 6 T -.8.2.-.{ Q v 6 + + 2         6 2 6 g v f f f B           K                       + + + + 2 2 2 2 2                         Q                                                                     ",
"                g 2.j.G.G.j.2.T 6 2 Q $X3X3X}.f b.$X$X$XQ G.3X3X3X3X3X3X3X$XE.O.2         + + + + + + + + + 6   2 2 + + + + 2 r K       r r v 6 + + + + + + + + +                       + 2 2 2 2 r         f f g B K                                           ",
"                E.3X3X,X].$X3X,Xb.Q $X3X3X3X,XE.I.].].I.{ b.E.}.,XE.8.G.3X3X3X,XQ K       O + + + + + + + + 2 2 + + + + + + + + + v r + + + r r 6 6 + 2 + + + + +       f r r g v     + + + + + + + B     + + + + + + [           6 6 6 6 6 r f B               ",
"                ,X,X3X$Xb.E.3X3X3XI.].3X3X3X3X,X,X3X3X,XT O.G.}.,XE.j.E.3X3X3X3XO.2       -.8.[ 6 v B g f + + + 2 6 2 2 + O + + + + + + + 2 p.}.].G.2.j.p.i.Q + + g + + + + + + + 2 6 + + + + + + + 2 r O + + + + + + [         + + + + + + + + + 2 g           ",
"                ].].].G.i.I.3X3X3XE.T $X3X3X$X  ,X3X3X$Xp.,X3X3X3X3X3X3X3X3X3X}.B +     ,X3X3X3XE.$X,X$XE.f Q j.I.I.I.b.i.[ r + + g K B r 2 b.3X3X,Xb.3X3X3Xi.+ + + + + + + + + + 8.G.j.p.w.Q + + 2 B B v g f 6 + + + [       O + O O O + + + + + + + f         ",
"                ,X,X,X}.p.I.3X3X3X}.I.,X3X3X$X  ,X3X3X$XI.3X3X3X3XE.8.p.}.I.p.T 2       3X3X3X,X,X3X3X3X$X8.,X3X3X3X$X3X3X3XI.v { $X,X,X].2.I.3X3X,Xb.3X3X3Xi.+ 6 v K K B f 2 + + G.3X3X3X3X}.f O T $X,X$X$X}.2.+ + + [   [ { 2.2.-.{ T f 2 + + + + + 2 [       ",
"                  ,X,X3X3X3X3X3X,X  3X3X3X3X,X  ,X3X3X$Xb.3X3X3X3XI.O.p.,X$X}.E.j.      ,X,X3X}.  3X3X3X$X].3X3X3Xw.f 2.,X3X3XG.E.3X3X3X3X,X,X3X3X,Xb.3X3X3Xi.Q E.,X3X,X,X}.G.{ 6 b.3X3X3X3X3X8.6 G.3X3X3X3X3Xi.+ + + O.,X$X3X3X3X3X3X,X}.j.K + + + + + K       ",
"                                          ,X    ,X,X3X,X    3X3X3X3X3X3X3X3X3X3X                  3X3X3X$XI.3X3X3X2.+ T ,X3X3X$X$X3X3X,XO.Q $X3X3X,Xb.3X3X3Xb.].3X3X,Xj.G.3X3X3X8.G.3X3X3X3X3X}.i.,X3X3X3X3X3Xi.+ + + p.3X3X3X3X,X$X,X3X3X3X$XQ + + + +         ",
"                                                                  ,X,X,X3X,X,X                    3X3X3X$X8.3X3X3X$Xb.].3X3X3X$X,X3X3X,Xg 2 ,X3X3X,Xb.3X3X3XE.].$X$X$X].}.,X3X3X}.].3X3X3X,X3X3X3X3X3X3X3X3X3Xi.+ + 2 I.3X3X3XG.K g T G.3X3X3XI.6 + + 2         ",
"                                                                                                      ,X$X    ,X,X3X3X3X3X3X,X  ,X3X3X$XT   ,X3X3X,Xb.3X3X3XG.E.$X}.E.O.w.,X3X3X}.].3X3X3Xj.}.3X3X3X$XG.3X3X3Xi.+ + 6 ].3X3X3XO.O O O K ,X3X3X$Xg + +           ",
"                                                                                                                                      $X    ,X,X,X,XI.,X3X3Xb.I.3X3X3X$X$X3X3X3X}.$X3X3X3XO.w.3X3X3Xi.w.3X3X3Xi.+ +   ,X3X3X3XI.B r r 8.3X3X3X}.g +             ",
"                                                                                                                                                                    ,X,X,X,X,X    ,X,X3X3X8.  3X3X$X  }.3X3X3Xi.+       3X3X3X3X$X].].,X3X3X3XE.                ",
"                                                                                                                                                                                                        3X,X,Xb.          ,X3X3X3X3X3X3X3X3X,X                  ",
"                                                                                                                                                                                                                                ,X,X,X,X,X                      ",
"                                                                                                                                                                                                                                                                ",
"                                                                                                                                                                                                                                                                ",
"                                                                                                                                                                                                                                                                ",
"                                                                                                                                                                                                                                                                ",
"                                                                                                                                                                                                                                                                ",
"                                                                                                                                                                                                                                                                ",
"                                                                                                                                                                                                                                                                ",
"                                                                                                                                                                                                                                                                ",
"                                                                                                                                                                                                                                                                ",
"                                                                                                                                                                                                                                                                ",
"                                                                                                                                                                                                                                                                ",
"                                                                                                                                                                                                                                                                ",
"                                                                                                                                                                                                                                                                ",
"                                                                                                                                                                                                                                                                ",
"                                                                                                                                                                                                                                                                ",
"                                                                                                                                                                                                                                                                ",
"                                                                                                                                                                                                                                                                ",
"                                                                                                                                                                                                                                                                ",
"                                                                                                                                                                                                                                                                ",
"                                                                                                                                                                                                                                                                "
};
