/* XPM */
static char *oms_124[] = {
/* columns rows colors chars-per-pixel */
"128 54 188 2 ",
"   c #FF00FF",
".  c #0D0D0D",
"X  c #0F0F0F",
"o  c #101010",
"O  c #111111",
"+  c #121212",
"@  c #131313",
"#  c #141414",
"$  c #151515",
"%  c #161616",
"&  c #171717",
"*  c #181818",
"=  c #191919",
"-  c #1A1A1A",
";  c #1B1B1B",
":  c #1C1C1C",
">  c #1D1D1D",
",  c #1F1F1F",
"<  c #202020",
"1  c #212121",
"2  c #222222",
"3  c #232323",
"4  c #252525",
"5  c #262626",
"6  c #272727",
"7  c #282828",
"8  c #292929",
"9  c #2A2A2A",
"0  c #2D2D2D",
"q  c #2E2E2E",
"w  c #2F2F2F",
"e  c #323232",
"r  c #343434",
"t  c #353535",
"y  c #363636",
"u  c #373737",
"i  c #383838",
"p  c #393939",
"a  c #3B3B3B",
"s  c #3E3E3E",
"d  c #3F3F3F",
"f  c #414141",
"g  c #424242",
"h  c #434343",
"j  c #444444",
"k  c #474747",
"l  c #494949",
"z  c #4A4A4A",
"x  c #4B4B4B",
"c  c #4C4C4C",
"v  c #4E4E4E",
"b  c #4F4F4F",
"n  c #505050",
"m  c #525252",
"M  c #565656",
"N  c #595959",
"B  c #5A5A5A",
"V  c #5B5B5B",
"C  c #5C5C5C",
"Z  c #5D5D5D",
"A  c #5E5E5E",
"S  c #616161",
"D  c #636363",
"F  c #646464",
"G  c #666666",
"H  c #676767",
"J  c #696969",
"K  c #6A6A6A",
"L  c #6B6B6B",
"P  c #6C6C6C",
"I  c #6E6E6E",
"U  c #6F6F6F",
"Y  c #737373",
"T  c #767676",
"R  c #777777",
"E  c #787878",
"W  c #797979",
"Q  c #7B7B7B",
"!  c #7D7D7D",
"~  c #808080",
"^  c #838383",
"/  c #848484",
"(  c #868686",
")  c #878787",
"_  c #888888",
"`  c #898989",
"'  c #8A8A8A",
"]  c #8B8B8B",
"[  c #8C8C8C",
"{  c #8D8D8D",
"}  c #8E8E8E",
"|  c #8F8F8F",
" . c #909090",
".. c #929292",
"X. c #939393",
"o. c #949494",
"O. c #989898",
"+. c #999999",
"@. c #9A9A9A",
"#. c #9B9B9B",
"$. c #9C9C9C",
"%. c #9F9F9F",
"&. c #A0A0A0",
"*. c #A1A1A1",
"=. c #A2A2A2",
"-. c #A3A3A3",
";. c #A4A4A4",
":. c #A6A6A6",
">. c #A7A7A7",
",. c #A8A8A8",
"<. c #A9A9A9",
"1. c #AAAAAA",
"2. c #ABABAB",
"3. c #ACACAC",
"4. c #ADADAD",
"5. c #AFAFAF",
"6. c #B0B0B0",
"7. c #B1B1B1",
"8. c #B4B4B4",
"9. c #B6B6B6",
"0. c #B7B7B7",
"q. c #B8B8B8",
"w. c #B9B9B9",
"e. c #BABABA",
"r. c #BBBBBB",
"t. c #BCBCBC",
"y. c #808080",
"u. c #BFBFBF",
"i. c #C0C0C0",
"p. c #C1C1C1",
"a. c #C3C3C3",
"s. c #C4C4C4",
"d. c #C5C5C5",
"f. c #C6C6C6",
"g. c #C7C7C7",
"h. c #C8C8C8",
"j. c #C9C9C9",
"k. c #CACACA",
"l. c #CBCBCB",
"z. c #CCCCCC",
"x. c #CDCDCD",
"c. c #CFCFCF",
"v. c #D0D0D0",
"b. c #D3D3D3",
"n. c #D4D4D4",
"m. c #D5D5D5",
"M. c #D6D6D6",
"N. c #D7D7D7",
"B. c #D8D8D8",
"V. c #D9D9D9",
"C. c #DADADA",
"Z. c #DBDBDB",
"A. c #DCDCDC",
"S. c #DDDDDD",
"D. c #DEDEDE",
"F. c #DFDFDF",
"G. c #E0E0E0",
"H. c #E1E1E1",
"J. c #E2E2E2",
"K. c #E3E3E3",
"L. c #E4E4E4",
"P. c #E6E6E6",
"I. c #E6E6E6",
"U. c #E7E7E7",
"Y. c #E8E8E8",
"T. c #E9E9E9",
"R. c #EAEAEA",
"E. c #EBEBEB",
"W. c #ECECEC",
"Q. c #EDEDED",
"!. c #EEEEEE",
"~. c #EFEFEF",
"^. c #F0F0F0",
"/. c #F1F1F1",
"(. c #F2F2F2",
"). c #F3F3F3",
"_. c #F4F4F4",
"`. c #F5F5F5",
"'. c #F6F6F6",
"]. c #F7F7F7",
"[. c #F8F8F8",
"{. c #F9F9F9",
"}. c #FAFAFA",
"|. c #FBFBFB",
" X c #FCFCFC",
".X c #FDFDFD",
"XX c #FEFEFE",
"oX c #FFFFF1",
/* pixels */
"                                                                                                                                                                                                                                                                ",
"                                                                                                                                                                                                                                                                ",
"                                                                                                                                                                                                                                                                ",
"                                                                                                                                                                                                                                                                ",
"                                                                                                                                                                                                                                                                ",
"                                                                                                                                                                                                                                                                ",
"                                                                                                                                                                                                                                                                ",
"                                                                                                                                                                                                                                                                ",
"                                                                                                                                                                                                                                                                ",
"                                                                                                                                                                                                                                                                ",
"                                                                                                                                                                                                                                                                ",
"                                                                                                                                                                                                                                                                ",
"                                                                                      o o i L     2 L                                                                                                                                                           ",
"                                                                            X o 2 o o o o o * o o o * * * g                                                                                                                                                     ",
"                                                                      }.W.8.g o ] 8.l B i o o o o o o o o o g 2 7 L                                                                                                                                             ",
"                                                                      }.U.U.B.B k.}.] k.U.l 7 7 o o o o o o o o o * r E                                                                                                                                         ",
"                                                                      /.U.v.}.p./.}.p.r.B. .B.B.*.l o o o o o o o o o * E                                                                                                                                       ",
"                                                                      W.r.k.}.B.B.}./.U.B.1./.}.}./. .* o o o o o o o o i                                                                                                                                       ",
"                                                                      }.U.k.}.p.r.}.v.U./.E 1.B.*.W.}.F o o o o o o o o 7                                                                                                                                       ",
"                                                                        }.}.}.v.W.}.] k./.k./.W.k.W.}.$.o o o o o o o o 7                                                                                                                                       ",
"                                                                                /.}.] k./.U.}.}.}.}.}.*.o * 7 o o o o o o * o o 2 M                                                                                                                             ",
"                                                                                  /.] B./.B.}.W.8.B.U.F X F B.E r * o o o o o o o o o g                                                                                                                         ",
"                                                                                        W.1./.W.$.k.1.i o $.}.W.B.r.r * * o o o o o o o * o 7 B                                                                                                                 ",
"                                                                                            /.}.}.}.}.*.o $.}.U./.}.] r.8.L 2 o o o o 7 * o o o 7 * o o o * 7 B                                                                                                 ",
"                                                                                                /.}.}.) X B W.1.U.}.U.}.}.}.8.2 o * o 8.1.l 2 o o o o o o o o o * F                                                                                             ",
"                                                                                                                }.}./.}.r.8.}.) ] 8.l p.}.v.v.F o o o o o o o o X l                                                                                             ",
"                                                                                                                }.}.U.}.) M }.B.U.}.B.B./.B.}.*.o o o o o o o o o l                                                                                             ",
"                                                                                                                }./.1./.k.$.}.W.W.}.W.}./.B.}.$.o o o o o r * o o 2 7 o o o o o 2 l *.                                                                          ",
"                                                                                                                      /.}.}.}.B.W./.L v./.B.}.*.Y $.B * * p.p.L * o o o o o o o o o l                                                                           ",
"                                                                                                                          /.}.8.U./.i r./.B.}.v.W.}./.8.r v.}.W.i 7 M 2 o o o o o o o o o 2 g *.                                                                ",
"                                                                                                                                }.W.g p./.B.}.U./.W.p.}.*.k.}.}.F E /.k.F o o o o o o o o o o ]                                                                 ",
"                                                                                                                                      W./.B.}.B.B.U.U.}.U.B.}.}.*.r.}.}.8.o o o * o o o o o o l 2 o o 2 M                                                       ",
"                                                                                                                                          U.}.k.U.v.$././.W.}.}.W./.}.}.1.o * ] p.*.M o o o o o o o o o o 2 Y                                                   ",
"                                                                                                                                                B.}./.}.U.B.}.B.}.}.}.}.1.o M /.}.}.W. .* o o o o o o o o o * ]                                                 ",
"                                                                                                                                                    /.}.p.B./.1.W./.U.}.1.o E }.}.W.}.}.) o o o o o o o o o o i                                                 ",
"                                                                                                                                                          /./.) B.U.1.}.1.o ) }.v.l $.}.B.7 o o o o o o o o o 2 1.                                              ",
"                                                                                                                                                                U.r.] }.1.o E }.p.o 7 U./.l o o o o o o o o o *  .                                              ",
"                                                                                                                                                                    p.}.1.o M /.W.l r U.}.B X o o o o o o o o *  .                                              ",
"                                                                                                                                                                              W.}.U.k./.}.B X o o o o o o o o * $.                                              ",
"                                                                                                                                                                                /.}.}.}./.l o o o o o o o o o i                                                 ",
"                                                                                                                                                                                  /.}.}.p.2 o o o o o o o o                                                     ",
"                                                                                                                                                                                                                                                                ",
"                                                                                                                                                                                                                                                                ",
"                                                                                                                                                                                                                                                                ",
"                                                                                                                                                                                                                                                                ",
"                                                                                                                                                                                                                                                                ",
"                                                                                                                                                                                                                                                                ",
"                                                                                                                                                                                                                                                                ",
"                                                                                                                                                                                                                                                                ",
"                                                                                                                                                                                                                                                                ",
"                                                                                                                                                                                                                                                                ",
"                                                                                                                                                                                                                                                                ",
"                                                                                                                                                                                                                                                                ",
"                                                                                                                                                                                                                                                                "
};
