/* XPM */
static char *oms_040[] = {
/* columns rows colors chars-per-pixel */
"128 54 202 2 ",
"   c #FF00FF",
".  c #060606",
"X  c #0C0C0C",
"o  c #0D0D0D",
"O  c #0E0E0E",
"+  c #0F0F0F",
"@  c #101010",
"#  c #111111",
"$  c #121212",
"%  c #131313",
"&  c #141414",
"*  c #151515",
"=  c #161616",
"-  c #171717",
";  c #181818",
":  c #191919",
">  c #1A1A1A",
",  c #1B1B1B",
"<  c #1C1C1C",
"1  c #1D1D1D",
"2  c #1E1E1E",
"3  c #1F1F1F",
"4  c #202020",
"5  c #212121",
"6  c #222222",
"7  c #232323",
"8  c #242424",
"9  c #252525",
"0  c #262626",
"q  c #272727",
"w  c #282828",
"e  c #292929",
"r  c #2B2B2B",
"t  c #2C2C2C",
"y  c #2D2D2D",
"u  c #2E2E2E",
"i  c #303030",
"p  c #313131",
"a  c #363636",
"s  c #383838",
"d  c #3A3A3A",
"f  c #3B3B3B",
"g  c #3D3D3D",
"h  c #3F3F3F",
"j  c #404040",
"k  c #414141",
"l  c #424242",
"z  c #434343",
"x  c #474747",
"c  c #484848",
"v  c #4A4A4A",
"b  c #4B4B4B",
"n  c #4C4C4C",
"m  c #4E4E4E",
"M  c #4F4F4F",
"N  c #505050",
"B  c #515151",
"V  c #525252",
"C  c #535353",
"Z  c #545454",
"A  c #555555",
"S  c #565656",
"D  c #575757",
"F  c #585858",
"G  c #595959",
"H  c #5B5B5B",
"J  c #5D5D5D",
"K  c #5E5E5E",
"L  c #5F5F5F",
"P  c #606060",
"I  c #626262",
"U  c #636363",
"Y  c #646464",
"T  c #656565",
"R  c #666666",
"E  c #676767",
"W  c #686868",
"Q  c #696969",
"!  c #6A6A6A",
"~  c #6B6B6B",
"^  c #6C6C6C",
"/  c #6E6E6E",
"(  c #6F6F6F",
")  c #707070",
"_  c #727272",
"`  c #737373",
"'  c #747474",
"]  c #757575",
"[  c #777777",
"{  c #787878",
"}  c #797979",
"|  c #7A7A7A",
" . c #7E7E7E",
".. c #808080",
"X. c #818181",
"o. c #828282",
"O. c #838383",
"+. c #848484",
"@. c #858585",
"#. c #868686",
"$. c #878787",
"%. c #898989",
"&. c #8A8A8A",
"*. c #8B8B8B",
"=. c #8D8D8D",
"-. c #8E8E8E",
";. c #8F8F8F",
":. c #919191",
">. c #929292",
",. c #949494",
"<. c #969696",
"1. c #999999",
"2. c #9A9A9A",
"3. c #9C9C9C",
"4. c #9F9F9F",
"5. c #A0A0A0",
"6. c #A1A1A1",
"7. c #A2A2A2",
"8. c #A3A3A3",
"9. c #A4A4A4",
"0. c #A5A5A5",
"q. c #A7A7A7",
"w. c #AAAAAA",
"e. c #ABABAB",
"r. c #ACACAC",
"t. c #ADADAD",
"y. c #AEAEAE",
"u. c #AFAFAF",
"i. c #B0B0B0",
"p. c #B1B1B1",
"a. c #B2B2B2",
"s. c #B4B4B4",
"d. c #B5B5B5",
"f. c #B6B6B6",
"g. c #B7B7B7",
"h. c #B8B8B8",
"j. c #B9B9B9",
"k. c #BABABA",
"l. c #BBBBBB",
"z. c #BCBCBC",
"x. c #BDBDBD",
"c. c #808080",
"v. c #BFBFBF",
"b. c #C0C0C0",
"n. c #C1C1C1",
"m. c #C2C2C2",
"M. c #C3C3C3",
"N. c #C4C4C4",
"B. c #C5C5C5",
"V. c #C6C6C6",
"C. c #C8C8C8",
"Z. c #C9C9C9",
"A. c #CACACA",
"S. c #CBCBCB",
"D. c #CCCCCC",
"F. c #CDCDCD",
"G. c #CECECE",
"H. c #CFCFCF",
"J. c #D0D0D0",
"K. c #D1D1D1",
"L. c #D2D2D2",
"P. c #D3D3D3",
"I. c #D4D4D4",
"U. c #D6D6D6",
"Y. c #D7D7D7",
"T. c #D8D8D8",
"R. c #D9D9D9",
"E. c #DADADA",
"W. c #DBDBDB",
"Q. c #DCDCDC",
"!. c #DDDDDD",
"~. c #DEDEDE",
"^. c #E0E0E0",
"/. c #E2E2E2",
"(. c #E3E3E3",
"). c #E4E4E4",
"_. c #E6E6E6",
"`. c #E6E6E6",
"'. c #E7E7E7",
"]. c #E8E8E8",
"[. c #E9E9E9",
"{. c #EAEAEA",
"}. c #EBEBEB",
"|. c #ECECEC",
" X c #EDEDED",
".X c #EEEEEE",
"XX c #EFEFEF",
"oX c #F0F0F0",
"OX c #F1F1F1",
"+X c #F2F2F2",
"@X c #F3F3F3",
"#X c #F4F4F4",
"$X c #F5F5F5",
"%X c #F6F6F6",
"&X c #F7F7F7",
"*X c #F8F8F8",
"=X c #F9F9F9",
"-X c #FAFAFA",
";X c #FBFBFB",
":X c #FCFCFC",
">X c #FDFDFD",
",X c #FEFEFE",
/* pixels */
"                                                                                                                                                                                                                                                                ",
"                                                                                                                                                                                                                                                                ",
"                                                                                                                                                                                                                                                                ",
"                                                                                                                                                                                                                                                                ",
"                                                                                                                                                                                                                                                                ",
"                                                                                                                                                                                                                                                                ",
"                                                                                                                                                                                                                                                                ",
"                                                                                                                                                                                                                                                                ",
"                                                                                                                                                                                                                                                                ",
"                                                                                                                                                                                                                                                                ",
"                                                                                                                                                                                                                                                                ",
"                                                                                                                                                                                                                                                                ",
"                                                                                                                                                                                                                                                                ",
"                                                                                                                                                                                                                                                                ",
"                                                                                                                                                                                                                                                                ",
"                                                                                                                                                                                                                                                                ",
"                                                                                                                                                                                                                                                                ",
"                                                                                                                                                                                                                                                                ",
"                                                                                                                                                                                                                                                                ",
"                                                                                                                                                                                                                                                                ",
"                                                                                                                                                                                                                                                                ",
"                                                                                                                                                                            : : % % % % % d l v V F V a % d                                                     ",
"                                                                                                                                                                        a % % % % % % 7 -.H.). X#X#X XW.] R #X:X Xl q. X#XK.                                    ",
"                                                                                                        t % % % % % a V ~ R +.k.                                      ~ % + + % % % % 4.:X:X:X XW.#X:X:X X+.W.W.H.F V.:X:XH.v : ~ k.#X:X#X#X                    ",
"                                              %               d + % % % : v R V F d % % l 4.k.). X      t % % % % % i.#X#XH.W.:X:X).      +       7 : 7 7 7 % % 7 a d l 7 V V 7 % % 7 H.:X:X#X4.] W.K.i.+.] ). X).K.#X:X:X:Xr.q.#X:X X).:X:X#X                  ",
"                                      7 % % % % t ~ q.V.).#X#X:.t % % % v  X X#X#Xk.: : k.:X:X:X#XR     7 % % % % % k.:X:XK.W.:X:X:.t F ] V % % v :.i.H.H.V.+.t :.K.).k.k.#X#Xi.: % : V.:X:X:X#X#X#X#X).q.{ #X:X XW.:X:X:X#XH.#X:X#Xk.k.:X:X:X                  ",
"                                    t % % % % v K.:X:X:X:X:X:X:Xk.t % + V :X:X:X:X#XV v #X:X:X:X Xd 7 ] q.k.V.i.] 7 k.:X:XK.W.:X:Xk.H.:X:X#X~ R  X:X:X:X:X:X:Xr.V.:X:X:X:X:X:X#Xv % % R W.#X#X:X:X:X:X:X:XV.#X:X XR V.:X:Xi.] :X:X#XW.H.W.).#X                  ",
"                                    : % % % t H.:X:X:X X).#X:X:X:X+.% % V :X:X:X:X:Xi.r.:X:X:X:X XF k.:X:X X#X:X:Xq.k.:X:XK.W.:X:X:X#X:X:X:XV.H.:X:XH.V k.:X:X XW.:X:XK.+.:X:X:XF + : v +.k.W.-.{ ).:X:X:XK.#X:X Xl i.:X:XW.r.#X:X#X4.+.W. X#X                  ",
"                                  F % % % + F #X:X:Xk.l t { #X:X:Xi.% + V :X:X:X:X:X#X#X:X:X:X:X Xr.:X:X Xq.K.:X:X XW.:X:XK.W.:X:XV.V K.:X:XW. X:X:X-.. +.:X:X X).:X:XH.d :.:.+.t % 7 K.:X#X#Xk.q. X:X:X Xr.#X:X Xl r.:X:X:Xk.V.:X:X#X:X:X:X#X                  ",
"                                  F % % % + ] :X:X:XF + + 7 W.:X:XV.% + V #X:X:X#X:X:X:X#X).:X:X XV.:X:X#XW.K.W.W.K.).:X:XK.W.:X:X-.+ r.:X:XH.W.:X:XH.] H.:X:XK.H.:X:X:X    + + % % % -.#X:X:X:X:X:X:X:Xr.] #X#X Xv -.:X#X#Xi.   X#X:X#X#X                      ",
"                                    : % % + ] :X:X:X-.: : R #X:X:Xr.% + V :X:X#Xq. X:X:XK.4.:X:X).k.:X:X).] 4.).).W.W.:X:XK.W.:X:X-.% r.:X:Xk.-.#X:X:X:X:X:X#X~ i.:X:X:X                  #X:X:X#X#X                                                            ",
"                                    7 % % % V #X:X:X#XV.V. X:X:X#X~ % % V :X:X:X~ r.:X:X+.{ :X:X).{ ).:X:X#X#X:X:Xq.V.:X:XK.W.:X:Xq.% r.:X:XK.    #X#X#X#X                                                                                                      ",
"                                        % % : i.:X:X:X:X:X:X:X:XW.7 % + V #X:X:X~ F #X#Xv { :X:X#X    #X#X#X#X#X                                                                                                                                                ",
"                                                ).#X#X:X#X#X#X                                                                                                                                                                                                  ",
"                                                                                                                                                                                                                                                                ",
"                                                                                                                                                                                                                                                                ",
"                                                                                                                                                                                                                                                                ",
"                                                                                                                                                                                                                                                                ",
"                                                                                                                                                                                                                                                                ",
"                                                                                                                                                                                                                                                                ",
"                                                                                                                                                                                                                                                                ",
"                                                                                                                                                                                                                                                                ",
"                                                                                                                                                                                                                                                                ",
"                                                                                                                                                                                                                                                                ",
"                                                                                                                                                                                                                                                                ",
"                                                                                                                                                                                                                                                                ",
"                                                                                                                                                                                                                                                                ",
"                                                                                                                                                                                                                                                                ",
"                                                                                                                                                                                                                                                                ",
"                                                                                                                                                                                                                                                                ",
"                                                                                                                                                                                                                                                                ",
"                                                                                                                                                                                                                                                                ",
"                                                                                                                                                                                                                                                                ",
"                                                                                                                                                                                                                                                                "
};
