/* XPM */
static char *oms_043[] = {
/* columns rows colors chars-per-pixel */
"128 54 193 2 ",
"   c #FF00FF",
".  c #0B0B0B",
"X  c #0D0D0D",
"o  c #0E0E0E",
"O  c #0F0F0F",
"+  c #101010",
"@  c #111111",
"#  c #121212",
"$  c #131313",
"%  c #141414",
"&  c #151515",
"*  c #161616",
"=  c #171717",
"-  c #181818",
";  c #191919",
":  c #1B1B1B",
">  c #1C1C1C",
",  c #1D1D1D",
"<  c #1F1F1F",
"1  c #202020",
"2  c #212121",
"3  c #232323",
"4  c #242424",
"5  c #252525",
"6  c #262626",
"7  c #272727",
"8  c #282828",
"9  c #292929",
"0  c #2A2A2A",
"q  c #2B2B2B",
"w  c #2D2D2D",
"e  c #2E2E2E",
"r  c #2F2F2F",
"t  c #303030",
"y  c #313131",
"u  c #323232",
"i  c #333333",
"p  c #353535",
"a  c #363636",
"s  c #373737",
"d  c #383838",
"f  c #393939",
"g  c #3A3A3A",
"h  c #3C3C3C",
"j  c #3D3D3D",
"k  c #3F3F3F",
"l  c #404040",
"z  c #414141",
"x  c #434343",
"c  c #444444",
"v  c #454545",
"b  c #464646",
"n  c #494949",
"m  c #4B4B4B",
"M  c #505050",
"N  c #515151",
"B  c #535353",
"V  c #545454",
"C  c #555555",
"Z  c #565656",
"A  c #575757",
"S  c #585858",
"D  c #595959",
"F  c #5A5A5A",
"G  c #5B5B5B",
"H  c #5D5D5D",
"J  c #5E5E5E",
"K  c #606060",
"L  c #616161",
"P  c #626262",
"I  c #636363",
"U  c #656565",
"Y  c #676767",
"T  c #686868",
"R  c #6A6A6A",
"E  c #6E6E6E",
"W  c #707070",
"Q  c #717171",
"!  c #727272",
"~  c #737373",
"^  c #747474",
"/  c #757575",
"(  c #767676",
")  c #797979",
"_  c #7A7A7A",
"`  c #7B7B7B",
"'  c #7D7D7D",
"]  c #7E7E7E",
"[  c #808080",
"{  c #808080",
"}  c #828282",
"|  c #838383",
" . c #848484",
".. c #858585",
"X. c #888888",
"o. c #898989",
"O. c #8A8A8A",
"+. c #8B8B8B",
"@. c #8D8D8D",
"#. c #8E8E8E",
"$. c #909090",
"%. c #929292",
"&. c #989898",
"*. c #9A9A9A",
"=. c #9C9C9C",
"-. c #9E9E9E",
";. c #9F9F9F",
":. c #A0A0A0",
">. c #A2A2A2",
",. c #A3A3A3",
"<. c #A5A5A5",
"1. c #A6A6A6",
"2. c #A7A7A7",
"3. c #A8A8A8",
"4. c #A9A9A9",
"5. c #AAAAAA",
"6. c #ABABAB",
"7. c #ACACAC",
"8. c #ADADAD",
"9. c #AEAEAE",
"0. c #AFAFAF",
"q. c #B0B0B0",
"w. c #B1B1B1",
"e. c #B2B2B2",
"r. c #B4B4B4",
"t. c #B5B5B5",
"y. c #B6B6B6",
"u. c #B7B7B7",
"i. c #B8B8B8",
"p. c #B9B9B9",
"a. c #BBBBBB",
"s. c #BCBCBC",
"d. c #BDBDBD",
"f. c #808080",
"g. c #BFBFBF",
"h. c #C0C0C0",
"j. c #C1C1C1",
"k. c #C2C2C2",
"l. c #C4C4C4",
"z. c #C5C5C5",
"x. c #C6C6C6",
"c. c #C8C8C8",
"v. c #C9C9C9",
"b. c #CACACA",
"n. c #CCCCCC",
"m. c #CECECE",
"M. c #CFCFCF",
"N. c #D0D0D0",
"B. c #D1D1D1",
"V. c #D2D2D2",
"C. c #D3D3D3",
"Z. c #D4D4D4",
"A. c #D5D5D5",
"S. c #D6D6D6",
"D. c #D7D7D7",
"F. c #D9D9D9",
"G. c #DADADA",
"H. c #DBDBDB",
"J. c #DCDCDC",
"K. c #DDDDDD",
"L. c #DEDEDE",
"P. c #DFDFDF",
"I. c #E0E0E0",
"U. c #E1E1E1",
"Y. c #E2E2E2",
"T. c #E3E3E3",
"R. c #E4E4E4",
"E. c #E6E6E6",
"W. c #E6E6E6",
"Q. c #E7E7E7",
"!. c #E8E8E8",
"~. c #E9E9E9",
"^. c #EAEAEA",
"/. c #EBEBEB",
"(. c #ECECEC",
"). c #EDEDED",
"_. c #EEEEEE",
"`. c #EFEFEF",
"'. c #F0F0F0",
"]. c #F1F1F1",
"[. c #F2F2F2",
"{. c #F3F3F3",
"}. c #F4F4F4",
"|. c #F5F5F5",
" X c #F6F6F6",
".X c #F7F7F7",
"XX c #F8F8F8",
"oX c #F9F9F9",
"OX c #FAFAFA",
"+X c #FBFBFB",
"@X c #FCFCFC",
"#X c #FDFDFD",
"$X c #FEFEFE",
/* pixels */
"                                                                                                                                                                                                                                                                ",
"                                                                                                                                                                                                                                                                ",
"                                                                                                                                                                                                                                                                ",
"                                                                                                                                                                                                                                                                ",
"                                                                                                                                                                                                                                                                ",
"                                                                                                                                                                                                                                                                ",
"                                                                                                                                                                                                                                                                ",
"                                                                                                                                                                                                                                                                ",
"                                                                                                                                                                                                                                                                ",
"                                                                                                                                                                                                                                                                ",
"                                                                                                                                                                                                                                                                ",
"                                                                                                                                                                                                                                                                ",
"                                                                                                                                                                                                                                                                ",
"                                                                                                                                                                                                                                                                ",
"                                                                                                                                                                                                                                                                ",
"                                                                                                                                                                                                                                                                ",
"                                                                                                                                                                                                                                                                ",
"                                                                                                                                                                                                                                                                ",
"                                                                                                                                                                                                                                                                ",
"                                                                                                                                                                                                                                                                ",
"                                                                                                                                                                                                                                                                ",
"                                                                                                                                                                        p , , % % % % % e l H T ^ ' H e 4 7.B.`.H V                                             ",
"                                                                                                                                                                      l % % % % % % % V k.`..X@X@X@X.Xn.V I.@X.XV -.@X@Xn.%                                     ",
"                                                                                                        T , % % , % % e l V V                                         4 % O O % % % e B.@X@X.Xk.I..X.X.X-.f.B.n.' n.@X@XI.P k 7.P..X@X.X.X                      ",
"                                                                  % % % % %   k e e e , % % V X.        H % % % % % % -.`.`.f.I..X.X&.  O O O     % % , 4 4 % O 4 p V p e P P 4 % % l .X@X@XI.' >.B.f...V P..X`.P.@X@X@X@Xe.n.@X.Xk.P.@X@X.X                    ",
"                                            , % % % % 4 V &.k.  >.k % % % O V n.n.P.P.P O k I..X@X@Xn.  l % O % % O % e.@X@Xn.I.@X.XV e P P e O 4 ^ 7.k.n.n.-.k ..I.I.n.n.@X@X7., O p I.@X@X@X@X.X.X.XI.X.I.@X.Xn.`.@X@XI.f..X@X.Xn.I.@X@X.X                    ",
"                                        p % % % % % P n.`..X.X@X@X`.X., % O ^ @X@X@X@Xf.% X.@X@X@X@X..O l ^ &.-.&.H , 7.@X@Xn.I.@X.X>.P.@X@Xk.k e.@X@X@X@X@X@Xn.e.@X@X@X.X@X@X`.p % % ' P.`.`..X.X@X@X@XI..X@X.XP 7.@X@Xe.^ @X@X`.>.7.B.P..X                    ",
"                                        , % % % % P `.@X@X@X@X@X@X@X.XP % O ^ @X@X@X@X`.P B.@X@X@X@XX.T I.@X.X.X@X.X&.e.@X@Xn.I.@X@X.X.X@X@X.X7..X@X`.T X..X@X.XP.@X@XB....X@X.Xk O e ^ -.n.e.V -.@X@X@X.X.X@X.XH >.@X@X.Xn..X@X.X7.k..X.X.X                    ",
"                                      k % % % % , k.@X@X`.-.^ 7..X@X@X>.% O ^ @X@X@X@X@XI..X@X@X@X@Xe.I.@X.X7.f.@X@XI.n.@X@Xn.I.@X@X-.^ .X@X.XB.@X@Xn., l .X@X.XP.@X@Xk.p ..' P 4 O n .X@X@X.Xf.P.@X@X.X7.I.@X.XV X.@X@X@X>.7..X@X@X@X@X.X                      ",
"                                      p % % % % e P.@X@X>.% O 4 B.@X@Xf.% O ^ @X@X.X.X@X@X@X.X.X@X@XB..X@X@XI.I.I.I.B.P.@X@Xn.I.@X.XV e `.@X.Xk.@X@X`...7.@X@XI.k.@X@X`.    O O % % , e.@X@X@X@X@X@X.XP.V I.@X.X^   .X.X.X                                      ",
"                                      n % % % % p I.@X@X&.O O p P.@X@X7.% O ^ @X@X`.k.@X@X@Xe.I.@X@XB..X@X.X..X.B.P.B.B.@X@Xn.I.@X.Xn e `.@X.X' B.@X@X@X@X@X.XX.-.@X@X.X                    `.`.                                                                ",
"                                        , % % % e P.@X@XI...^ k.@X@X@X' O O ^ @X@XI.T `.@X`.H P.@X@X>.B.@X@X`.`.@X@Xe.f.@X@Xn.I.@X.XP p `.@X.X'   .X.X.X.X.X                                                                                                    ",
"                                          , % % % >.@X@X@X@X@X@X@X@XP.p % O ^ @X@X`.k e.@Xk.p I.@X@X>.^ .X.X.X.X.X                                                                                                                                              ",
"                                                % k n..X@X@X@X@X.X.X        ' .X@X.X                                                                                                                                                                            ",
"                                                          `.`.                                                                                                                                                                                                  ",
"                                                                                                                                                                                                                                                                ",
"                                                                                                                                                                                                                                                                ",
"                                                                                                                                                                                                                                                                ",
"                                                                                                                                                                                                                                                                ",
"                                                                                                                                                                                                                                                                ",
"                                                                                                                                                                                                                                                                ",
"                                                                                                                                                                                                                                                                ",
"                                                                                                                                                                                                                                                                ",
"                                                                                                                                                                                                                                                                ",
"                                                                                                                                                                                                                                                                ",
"                                                                                                                                                                                                                                                                ",
"                                                                                                                                                                                                                                                                ",
"                                                                                                                                                                                                                                                                ",
"                                                                                                                                                                                                                                                                ",
"                                                                                                                                                                                                                                                                ",
"                                                                                                                                                                                                                                                                ",
"                                                                                                                                                                                                                                                                ",
"                                                                                                                                                                                                                                                                ",
"                                                                                                                                                                                                                                                                "
};
