/* XPM */
static char *oms_141[] = {
/* columns rows colors chars-per-pixel */
"128 54 197 2 ",
"   c #FF00FF",
".  c #0C0C0C",
"X  c #0D0D0D",
"o  c #0E0E0E",
"O  c #0F0F0F",
"+  c #101010",
"@  c #111111",
"#  c #121212",
"$  c #131313",
"%  c #141414",
"&  c #151515",
"*  c #161616",
"=  c #171717",
"-  c #181818",
";  c #191919",
":  c #1A1A1A",
">  c #1B1B1B",
",  c #1C1C1C",
"<  c #1D1D1D",
"1  c #1E1E1E",
"2  c #1F1F1F",
"3  c #202020",
"4  c #212121",
"5  c #222222",
"6  c #232323",
"7  c #242424",
"8  c #252525",
"9  c #262626",
"0  c #272727",
"q  c #282828",
"w  c #2A2A2A",
"e  c #2B2B2B",
"r  c #2C2C2C",
"t  c #2D2D2D",
"y  c #2E2E2E",
"u  c #303030",
"i  c #313131",
"p  c #323232",
"a  c #333333",
"s  c #343434",
"d  c #353535",
"f  c #363636",
"g  c #373737",
"h  c #383838",
"j  c #3A3A3A",
"k  c #3B3B3B",
"l  c #3C3C3C",
"z  c #3E3E3E",
"x  c #3F3F3F",
"c  c #404040",
"v  c #414141",
"b  c #424242",
"n  c #434343",
"m  c #444444",
"M  c #454545",
"N  c #464646",
"B  c #484848",
"V  c #494949",
"C  c #4A4A4A",
"Z  c #4B4B4B",
"A  c #4C4C4C",
"S  c #4C4C4C",
"D  c #4E4E4E",
"F  c #505050",
"G  c #515151",
"H  c #525252",
"J  c #535353",
"K  c #555555",
"L  c #565656",
"P  c #575757",
"I  c #585858",
"U  c #595959",
"Y  c #5B5B5B",
"T  c #5D5D5D",
"R  c #5E5E5E",
"E  c #5F5F5F",
"W  c #606060",
"Q  c #616161",
"!  c #636363",
"~  c #646464",
"^  c #656565",
"/  c #676767",
"(  c #686868",
")  c #696969",
"_  c #6D6D6D",
"`  c #6E6E6E",
"'  c #6F6F6F",
"]  c #747474",
"[  c #757575",
"{  c #767676",
"}  c #777777",
"|  c #787878",
" . c #797979",
".. c #7A7A7A",
"X. c #7B7B7B",
"o. c #7C7C7C",
"O. c #7E7E7E",
"+. c #808080",
"@. c #808080",
"#. c #848484",
"$. c #898989",
"%. c #8A8A8A",
"&. c #8B8B8B",
"*. c #929292",
"=. c #939393",
"-. c #959595",
";. c #979797",
":. c #989898",
">. c #999999",
",. c #9A9A9A",
"<. c #9B9B9B",
"1. c #9C9C9C",
"2. c #9E9E9E",
"3. c #A0A0A0",
"4. c #A1A1A1",
"5. c #A2A2A2",
"6. c #A4A4A4",
"7. c #A5A5A5",
"8. c #A7A7A7",
"9. c #A8A8A8",
"0. c #A9A9A9",
"q. c #AAAAAA",
"w. c #ABABAB",
"e. c #ACACAC",
"r. c #AEAEAE",
"t. c #AFAFAF",
"y. c #B1B1B1",
"u. c #B2B2B2",
"i. c #B2B2B2",
"p. c #B4B4B4",
"a. c #B5B5B5",
"s. c #B6B6B6",
"d. c #B8B8B8",
"f. c #B9B9B9",
"g. c #BCBCBC",
"h. c #BDBDBD",
"j. c #808080",
"k. c #C0C0C0",
"l. c #C1C1C1",
"z. c #C2C2C2",
"x. c #C3C3C3",
"c. c #C4C4C4",
"v. c #C7C7C7",
"b. c #C8C8C8",
"n. c #C9C9C9",
"m. c #CACACA",
"M. c #CBCBCB",
"N. c #CCCCCC",
"B. c #CDCDCD",
"V. c #CECECE",
"C. c #CFCFCF",
"Z. c #D0D0D0",
"A. c #D1D1D1",
"S. c #D3D3D3",
"D. c #D4D4D4",
"F. c #D5D5D5",
"G. c #D6D6D6",
"H. c #D7D7D7",
"J. c #D9D9D9",
"K. c #DADADA",
"L. c #DBDBDB",
"P. c #DCDCDC",
"I. c #DDDDDD",
"U. c #DEDEDE",
"Y. c #DFDFDF",
"T. c #E0E0E0",
"R. c #E1E1E1",
"E. c #E2E2E2",
"W. c #E3E3E3",
"Q. c #E4E4E4",
"!. c #E6E6E6",
"~. c #E6E6E6",
"^. c #E7E7E7",
"/. c #E8E8E8",
"(. c #E9E9E9",
"). c #EAEAEA",
"_. c #EBEBEB",
"`. c #ECECEC",
"'. c #EDEDED",
"]. c #EEEEEE",
"[. c #EFEFEF",
"{. c #F0F0F0",
"}. c #F1F1F1",
"|. c #F2F2F2",
" X c #F3F3F3",
".X c #F4F4F4",
"XX c #F5F5F5",
"oX c #F6F6F6",
"OX c #F7F7F7",
"+X c #F8F8F8",
"@X c #F9F9F9",
"#X c #FAFAFA",
"$X c #FBFBFB",
"%X c #FCFCFC",
"&X c #FDFDFD",
"*X c #FEFEFE",
"=X c #FFFFF1",
/* pixels */
"                                                                                                                                                                                                                                                                ",
"                                                                                                                                                                                                                                                                ",
"                                                                                                                                                                                                                                                                ",
"                                                                                                                                                                                                                                                                ",
"                                                                                                                                                                                                                                                                ",
"                                                                                                                                                                                                                                                                ",
"                                                                                                                                                                                                                                                                ",
"                                                                                                                                                                                                                                                                ",
"                                                                                                                                                                                                                                                                ",
"                                                                                                                                                                                                                                                                ",
"                                                                                                                                                                                                                                                                ",
"                                                                                                                                                                                                                                                                ",
"                                                            T                                                                                                                                                                                                   ",
"                                                    # # # # # 3 h h # # # , 3 3 , s D                                                                                                                                                                           ",
"                                                , # # # # , 3 # o # # # # # # # # # # T   3 s D /                                                                                                                                                               ",
"                                            OXT.k.-.D , o P D.t.T c X.P q # # o # # # # # # # # , 3 h X.                                                                                                                                                        ",
"                                          OX@X@XT.OXOX>.s 8.@X@Xs./ OXOX8.3 D P c 3 # o # # # # # # # , ]                                                                                                                                                       ",
"                                          [.OXOXV.V.@XOXt.OX@X@XL.8.D.T.t.>.OXOX[.D.t.` q # # # # # # # s                                                                                                                                                       ",
"                                          [.T.L.s.D.@X@XL.k.@X@X@XOXOX[.t.8.T.OXOX[.@X@XD.D # # # # # # 3                                                                                                                                                       ",
"                                            @XOXs.s.@X@Xk.X.OX@XL.d.OX@Xd.T d.L.V.X.V.@X@XV.3 # # # # # s       # 3 P                                                                                                                                           ",
"                                              @X@X@X@X@XV.T.@X@Xs./ OX@XD.L.@X@XOX[.OX@X@X[.h # # # , 3 , # # # # # # , , q P                                                                                                                                   ",
"                                                  OXOXOX  OX@X@Xt./ OX@XL.[.@X@XOXOX@X@X@XL.q # , @.>.P , , # # # # # # # # 3 c # 3 s D `                                                                                                                       ",
"                                                            OXOXt.>.OX@XV.D.@X@XD./ t.L.d.T # # T OX@XT.8.d.%.c # # # # # # # # # # # # , s %.      # # # , 3 h c /                                                                                             ",
"                                                                      @Xd.>.@X@XOXk.L.[.D.8.q o ] @X@XOXOX@X@X8.P t.t.%.P 3 # # # # # # q c s , o # # # # # # # # # q 8.                                                                                        ",
"                                                                              OX@X@X@X@X@XT.h o ] @X@Xs.t.@X@Xk.L.@X@X@XOXD./ # # 3 , o T [.D.-.` D q # # # # # # # , 8.                                                                                        ",
"                                                                                    OXOXOX                @X@XL.OX@XOX>.V.@X[./ X.D.k./ / OX@XT.[.OXV.s # # # # # # , >.              # s P                                                                     ",
"                                                                                                          @X@XV.[.@XT.3 T OX@XV.L.@X@XOXk.OX@XT.[.@X[.h # # # # # # # s # # 3 3 # # # # # # , c                                                                 ",
"                                                                                                          @X@Xt.d.@XOX@.%.@X@XOXOX@X@XL.[.@X@XT.[.@X[.h 3 s q # # # , >.>.` h # # # # # # # # , s # # 3 s c `                                                   ",
"                                                                                                                  OX@XOXOX@X@XD.T.@X[.D X.@X@XL.[.@XT.X.D.[.L.d.] q # V.@X@X[./ o , c 3 # # # # # # # # # # h                                                   ",
"                                                                                                                      OXOX@XOX8.[.@XT.s P OX@XT.[.@X[.D.@X@XT.T.@Xk.c k.@X@X@Xs.# ` [.D.t.X.3 # # # # # # # s         # , q h /                                 ",
"                                                                                                                                  @XT.h ` @X@XT.[.@X[.V.[.OXL.V.OX@Xs.V.@X@X@X[.D k.@X@X@XOXc # # # , 3 3 # , 3 # # # # # # # # 3 T                             ",
"                                                                                                                                          OX@XL.[.@X[.k.[.L.t.d.OX@XT.T.@X@X@X@XV.OX@X@X@XOXc # # D d.D.D.t.X.h # # # # # # # # # # D                           ",
"                                                                                                                                                  @XT.-.OX@XD.d.OX@XT.T.@XOXL.@X@X@X@X@X@XOXc o 3 D.@X@X@X@X@X[.-.3 # # # # # # # # # ]                         ",
"                                                                                                                                                          OX@X@X@X@Xd.D.@XOX>.[.@X@X[.OX@XOXc o D OX@X@X[.L.OX@X@Xt., # # # # # # # # c                         ",
"                                                                                                                                                                OX    [.@X@X` s.@XOX>.T.@XOXc o P OX@X[.T 3 ` T.@XOXT # # # # # # # # s                         ",
"                                                                                                                                                                          OX] 8.@XD.D T.@XOXc o h [.@X[.c o # t.@X@X>.# # # # # # # # s                         ",
"                                                                                                                                                                                      OX@XOXc o 3 V.@X@Xs.h s k.@X@Xt.# # # # # # # # D                         ",
"                                                                                                                                                                                                    OX@X@X[.T.OX@X@X8.# # # # # # # ,                           ",
"                                                                                                                                                                                                      OX@X@X@X@X@XOX/ # # # # #                                 ",
"                                                                                                                                                                                                          OXOXOXOXk.                                            ",
"                                                                                                                                                                                                                                                                ",
"                                                                                                                                                                                                                                                                ",
"                                                                                                                                                                                                                                                                ",
"                                                                                                                                                                                                                                                                ",
"                                                                                                                                                                                                                                                                ",
"                                                                                                                                                                                                                                                                ",
"                                                                                                                                                                                                                                                                ",
"                                                                                                                                                                                                                                                                ",
"                                                                                                                                                                                                                                                                ",
"                                                                                                                                                                                                                                                                ",
"                                                                                                                                                                                                                                                                ",
"                                                                                                                                                                                                                                                                ",
"                                                                                                                                                                                                                                                                ",
"                                                                                                                                                                                                                                                                "
};
