/* XPM */
static char *oms_328[] = {
/* columns rows colors chars-per-pixel */
"128 54 192 2 ",
"   c #FF00FF",
".  c #0C0C0C",
"X  c #0D0D0D",
"o  c #0E0E0E",
"O  c #0F0F0F",
"+  c #101010",
"@  c #111111",
"#  c #121212",
"$  c #131313",
"%  c #141414",
"&  c #151515",
"*  c #161616",
"=  c #171717",
"-  c #181818",
";  c #191919",
":  c #1A1A1A",
">  c #1B1B1B",
",  c #1C1C1C",
"<  c #1D1D1D",
"1  c #1F1F1F",
"2  c #202020",
"3  c #212121",
"4  c #222222",
"5  c #232323",
"6  c #242424",
"7  c #252525",
"8  c #262626",
"9  c #272727",
"0  c #282828",
"q  c #292929",
"w  c #2A2A2A",
"e  c #2B2B2B",
"r  c #2C2C2C",
"t  c #2D2D2D",
"y  c #2E2E2E",
"u  c #2F2F2F",
"i  c #303030",
"p  c #313131",
"a  c #323232",
"s  c #343434",
"d  c #363636",
"f  c #373737",
"g  c #383838",
"h  c #393939",
"j  c #3B3B3B",
"k  c #3D3D3D",
"l  c #3E3E3E",
"z  c #404040",
"x  c #414141",
"c  c #424242",
"v  c #434343",
"b  c #494949",
"n  c #4A4A4A",
"m  c #4B4B4B",
"M  c #4C4C4C",
"N  c #4F4F4F",
"B  c #505050",
"V  c #545454",
"C  c #555555",
"Z  c #565656",
"A  c #575757",
"S  c #585858",
"D  c #5A5A5A",
"F  c #5D5D5D",
"G  c #5E5E5E",
"H  c #616161",
"J  c #636363",
"K  c #656565",
"L  c #666666",
"P  c #676767",
"I  c #686868",
"U  c #696969",
"Y  c #6B6B6B",
"T  c #6D6D6D",
"R  c #6F6F6F",
"E  c #717171",
"W  c #737373",
"Q  c #757575",
"!  c #767676",
"~  c #777777",
"^  c #797979",
"/  c #7A7A7A",
"(  c #7B7B7B",
")  c #7D7D7D",
"_  c #808080",
"`  c #818181",
"'  c #828282",
"]  c #838383",
"[  c #858585",
"{  c #878787",
"}  c #888888",
"|  c #898989",
" . c #8B8B8B",
".. c #8C8C8C",
"X. c #8D8D8D",
"o. c #8F8F8F",
"O. c #909090",
"+. c #919191",
"@. c #939393",
"#. c #949494",
"$. c #979797",
"%. c #989898",
"&. c #9B9B9B",
"*. c #9C9C9C",
"=. c #9D9D9D",
"-. c #9E9E9E",
";. c #9F9F9F",
":. c #A0A0A0",
">. c #A2A2A2",
",. c #A3A3A3",
"<. c #A4A4A4",
"1. c #A7A7A7",
"2. c #A8A8A8",
"3. c #A9A9A9",
"4. c #AAAAAA",
"5. c #ABABAB",
"6. c #ACACAC",
"7. c #AEAEAE",
"8. c #AFAFAF",
"9. c #B0B0B0",
"0. c #B2B2B2",
"q. c #B2B2B2",
"w. c #B4B4B4",
"e. c #B5B5B5",
"r. c #B6B6B6",
"t. c #B7B7B7",
"y. c #B8B8B8",
"u. c #B9B9B9",
"i. c #BABABA",
"p. c #BBBBBB",
"a. c #BDBDBD",
"s. c #808080",
"d. c #BFBFBF",
"f. c #C0C0C0",
"g. c #C1C1C1",
"h. c #C2C2C2",
"j. c #C3C3C3",
"k. c #C4C4C4",
"l. c #C5C5C5",
"z. c #C6C6C6",
"x. c #C7C7C7",
"c. c #C8C8C8",
"v. c #C9C9C9",
"b. c #CACACA",
"n. c #CBCBCB",
"m. c #CCCCCC",
"M. c #CDCDCD",
"N. c #CECECE",
"B. c #CFCFCF",
"V. c #D0D0D0",
"C. c #D1D1D1",
"Z. c #D2D2D2",
"A. c #D3D3D3",
"S. c #D5D5D5",
"D. c #D7D7D7",
"F. c #D8D8D8",
"G. c #DADADA",
"H. c #DCDCDC",
"J. c #DDDDDD",
"K. c #DEDEDE",
"L. c #DFDFDF",
"P. c #E0E0E0",
"I. c #E2E2E2",
"U. c #E3E3E3",
"Y. c #E4E4E4",
"T. c #E6E6E6",
"R. c #E6E6E6",
"E. c #E7E7E7",
"W. c #E8E8E8",
"Q. c #E9E9E9",
"!. c #EAEAEA",
"~. c #EBEBEB",
"^. c #ECECEC",
"/. c #EDEDED",
"(. c #EEEEEE",
"). c #EFEFEF",
"_. c #F0F0F0",
"`. c #F1F1F1",
"'. c #F2F2F2",
"]. c #F3F3F3",
"[. c #F4F4F4",
"{. c #F5F5F5",
"}. c #F6F6F6",
"|. c #F7F7F7",
" X c #F8F8F8",
".X c #F9F9F9",
"XX c #FAFAFA",
"oX c #FBFBFB",
"OX c #FCFCFC",
"+X c #FDFDFD",
"@X c #FEFEFE",
"#X c #FFFFF1",
/* pixels */
"                                                                                                                                                                                                                                                                ",
"                                                                                                                                                                                                                                                                ",
"                                                                                                                                                                                                                                                                ",
"                                                                                                                                                                                                                                                                ",
"                                                                                                                                                                                                                                                                ",
"                                                                                                                                                                                                                                                                ",
"                                                                                                                                                                                                                                                                ",
"                                                                                                                                                                                                                                                                ",
"                                                                                                                                                                                                                                                                ",
"                                                                                                                                                                                                                                                                ",
"                                                                                                                                                                                                                                                                ",
"                                                                                                                                                                                                                                                                ",
"                                                                                                                                                                                                                                                                ",
"                                                                                                                                                                                                                                                                ",
"                                                                                                                                                                                                                                                                ",
"                                                                                                                                                                                                                                                                ",
"                                                                                                                                                                                                                                                                ",
"                                                                                                                                                                                                                                                                ",
"                                                                                                                                                                                                                                                                ",
"                                                                                                                                                                                                                                                                ",
"                                  m + + + + + + > > i                                                                                                                                                                                                           ",
"                      |..X.X.X|.|.L.-.i + + + J 7.>.@.@.q + > m m c l > 7 + + + + + 7                                                                                                                                                                           ",
"                    |..X.X.X.X.X.X.X.Xg.7 + + o..X.X.X.XE o B |.|.Q.Q.J o + + + + + + {     7.J J B c > + + > + + + I                                                                                                                                           ",
"                    |..X.XP.o.{ m..X.X.XI o + o..X.X.X.Xg.7 7..X.X.X.XI o o + + + o + I |..X|.d.P.|.L.l + + + + + + J                                                                                                                                           ",
"                    .X.X.X{ o o l P..X.X-.+ + o..X.X.X.XQ.{ Q..X.X.X.XI 7 E -.-.o.J q > g..X.Xd.Q..XQ.c o + + + + + c                                           d.o.D q + + 7 > > 7 7 o + + q                                                                   ",
"                    .X.X.X@.+ o i P..X.X>.+ + o..X.X.X.X.X|..X.X.X.X.X{ d..X.X|..X.XD.B g..X.Xd.Q..XQ.I o.7.@.i + > m J J B m 7 + > > > + + 7   o +     |..X.X.X.X|.|.D.E l m.D.g.l q l q > + 7 + + +                                                           ",
"                    |..X.XQ.o.I 9..X.X.Xo.+ + o..X.XQ.P..X.X.XQ.|..X.Xg.|..X|.7.g..X.Xg.m..X.Xd.Q..X|.Q..X.X.Xd.i 9.|..X.X|.Q.7.i { g.9.E I >.{ 7 + + B |..X.XQ.9.P..X.X|.( L.|.|.m >.Q.P.{ o + + + + B                                                         ",
"                      .X.X.X.X.X.X.X.X|.B + + o..X.XD.-..X.X.X>.P..X.XL..X.X|.P.P.|.|.P.P..X.Xd.Q..X.Xm.D..X.XQ.7..X.X|.g.P..X.Xd.9..X.XQ.|..X.X-.+ o B |..X.XL.o.9.L.g.7.E g.D.m.( m..X.X7.7 + 7 i i q i o + + + >                                             ",
"                        |..X.X.X.X.XQ.o.+ + o -..X.XD.m P..XL.B L..X.Xd.|..XQ.( o.m.D.g.L..X.Xd.Q..X|.m m |..XQ.D..X.Xg.7 I .X.XQ.D..X.XP.D..X.XL.7 + 7 m..X.X.X.X.X|.P.>.B Q..X|.|..X.X.X|.E E D.P.Q.L.9.D + + + + + l                                         ",
"                                                |..XD.7 g..X-.l P..X.X{ d..X.XQ.Q..X.Xm.D..X.Xd.Q..XQ.l c |..XQ.g..X.XD.q E .X.X|.L..X.X7.D |.|.P.q + 7 J m.P.P.Q.|..X.X.X9.Q..X|.L.|..X.X|.9.Q..X|.m.P..X|.J + + + + >                                         ",
"                                                                            |..X.X.XQ.E m..X.Xd.Q..XQ.c c |..XQ.( P..X|.D.P..X.XD.d..X.X7.> m D B > + @.Q.P.P.9.m 7..X.X.XP.Q..X|.D d..X.X9.@..X.X|.d.P..X.Xd.> + + + +                                         ",
"                                                                                                          |..XQ.B   .X.X.X.X.X|.( 9..X.X7.+ + o o + +   .X.X.X|.m.P..X.X.Xm.Q..XQ.m 9..X.Xd.-..X.XQ.9.g.L.L.d.> + + + +                                         ",
"                                                                                                                                                          |..X.X.X.X.X.XP.( Q..XQ.m 7..X.X.Xd.Q..X|.-.d.P.P.9.> + + + q                                         ",
"                                                                                                                                                                  Q.Q.      |.|.Q.B   .X|..X{ 7..X.X.X.X.X.X@.+ + +                                             ",
"                                                                                                                                                                                                    |.|.Q.                                                      ",
"                                                                                                                                                                                                                                                                ",
"                                                                                                                                                                                                                                                                ",
"                                                                                                                                                                                                                                                                ",
"                                                                                                                                                                                                                                                                ",
"                                                                                                                                                                                                                                                                ",
"                                                                                                                                                                                                                                                                ",
"                                                                                                                                                                                                                                                                ",
"                                                                                                                                                                                                                                                                ",
"                                                                                                                                                                                                                                                                ",
"                                                                                                                                                                                                                                                                ",
"                                                                                                                                                                                                                                                                ",
"                                                                                                                                                                                                                                                                ",
"                                                                                                                                                                                                                                                                ",
"                                                                                                                                                                                                                                                                ",
"                                                                                                                                                                                                                                                                ",
"                                                                                                                                                                                                                                                                ",
"                                                                                                                                                                                                                                                                ",
"                                                                                                                                                                                                                                                                ",
"                                                                                                                                                                                                                                                                "
};
