/* XPM */
static char *oms_295[] = {
/* columns rows colors chars-per-pixel */
"128 54 176 2 ",
"   c #FF00FF",
".  c #0E0E0E",
"X  c #0F0F0F",
"o  c #101010",
"O  c #111111",
"+  c #121212",
"@  c #131313",
"#  c #141414",
"$  c #151515",
"%  c #161616",
"&  c #171717",
"*  c #181818",
"=  c #191919",
"-  c #1A1A1A",
";  c #1B1B1B",
":  c #1C1C1C",
">  c #1D1D1D",
",  c #1E1E1E",
"<  c #1F1F1F",
"1  c #202020",
"2  c #222222",
"3  c #232323",
"4  c #242424",
"5  c #252525",
"6  c #262626",
"7  c #272727",
"8  c #282828",
"9  c #292929",
"0  c #2A2A2A",
"q  c #2B2B2B",
"w  c #2C2C2C",
"e  c #2E2E2E",
"r  c #2F2F2F",
"t  c #303030",
"y  c #313131",
"u  c #323232",
"i  c #343434",
"p  c #363636",
"a  c #383838",
"s  c #393939",
"d  c #3A3A3A",
"f  c #3B3B3B",
"g  c #3D3D3D",
"h  c #3E3E3E",
"j  c #3F3F3F",
"k  c #404040",
"l  c #414141",
"z  c #444444",
"x  c #454545",
"c  c #484848",
"v  c #494949",
"b  c #4A4A4A",
"n  c #4B4B4B",
"m  c #4C4C4C",
"M  c #4C4C4C",
"N  c #4F4F4F",
"B  c #515151",
"V  c #525252",
"C  c #565656",
"Z  c #575757",
"A  c #595959",
"S  c #5B5B5B",
"D  c #5D5D5D",
"F  c #5E5E5E",
"G  c #5F5F5F",
"H  c #616161",
"J  c #626262",
"K  c #636363",
"L  c #6A6A6A",
"P  c #6C6C6C",
"I  c #6D6D6D",
"U  c #6E6E6E",
"Y  c #707070",
"T  c #747474",
"R  c #767676",
"E  c #797979",
"W  c #7E7E7E",
"Q  c #848484",
"!  c #858585",
"~  c #888888",
"^  c #898989",
"/  c #8A8A8A",
"(  c #8B8B8B",
")  c #8C8C8C",
"_  c #8D8D8D",
"`  c #8E8E8E",
"'  c #909090",
"]  c #919191",
"[  c #929292",
"{  c #939393",
"}  c #949494",
"|  c #959595",
" . c #969696",
".. c #979797",
"X. c #999999",
"o. c #9B9B9B",
"O. c #9D9D9D",
"+. c #9F9F9F",
"@. c #A0A0A0",
"#. c #A1A1A1",
"$. c #A3A3A3",
"%. c #A5A5A5",
"&. c #A7A7A7",
"*. c #A8A8A8",
"=. c #A9A9A9",
"-. c #ACACAC",
";. c #ADADAD",
":. c #AEAEAE",
">. c #AFAFAF",
",. c #B0B0B0",
"<. c #B1B1B1",
"1. c #B2B2B2",
"2. c #B5B5B5",
"3. c #B8B8B8",
"4. c #BCBCBC",
"5. c #808080",
"6. c #BFBFBF",
"7. c #C2C2C2",
"8. c #C3C3C3",
"9. c #C4C4C4",
"0. c #C5C5C5",
"q. c #C6C6C6",
"w. c #C7C7C7",
"e. c #C8C8C8",
"r. c #CACACA",
"t. c #CBCBCB",
"y. c #CCCCCC",
"u. c #CECECE",
"i. c #CFCFCF",
"p. c #D0D0D0",
"a. c #D2D2D2",
"s. c #D3D3D3",
"d. c #D4D4D4",
"f. c #D5D5D5",
"g. c #D6D6D6",
"h. c #D7D7D7",
"j. c #D8D8D8",
"k. c #D9D9D9",
"l. c #DADADA",
"z. c #DBDBDB",
"x. c #DCDCDC",
"c. c #DDDDDD",
"v. c #DEDEDE",
"b. c #DFDFDF",
"n. c #E0E0E0",
"m. c #E1E1E1",
"M. c #E2E2E2",
"N. c #E3E3E3",
"B. c #E4E4E4",
"V. c #E6E6E6",
"C. c #E6E6E6",
"Z. c #E7E7E7",
"A. c #E8E8E8",
"S. c #E9E9E9",
"D. c #EAEAEA",
"F. c #EBEBEB",
"G. c #ECECEC",
"H. c #EDEDED",
"J. c #EEEEEE",
"K. c #EFEFEF",
"L. c #F0F0F0",
"P. c #F1F1F1",
"I. c #F2F2F2",
"U. c #F3F3F3",
"Y. c #F4F4F4",
"T. c #F5F5F5",
"R. c #F6F6F6",
"E. c #F7F7F7",
"W. c #F8F8F8",
"Q. c #F9F9F9",
"!. c #FAFAFA",
"~. c #FBFBFB",
"^. c #FCFCFC",
"/. c #FDFDFD",
"(. c #FEFEFE",
"). c #FFFFF1",
/* pixels */
"                                                                                                                                                                                                                                                                ",
"                                                                                                                                                                                                                                                                ",
"                                                                                                                                                                                                                                                                ",
"                                                                                                                                                                                                                                                                ",
"                                                                                                                                                                                                                                                                ",
"                                                                                                                                                                                                                                                                ",
"                                                                                                                                                                                                                                                                ",
"                                                                                                                                                                                                                                                                ",
"                                                                                                                                                                                                                                                                ",
"                                                                                                                                                                                                                                                                ",
"                                                                                                                                                                                                                                                                ",
"                                                                                                                                                                                                                                                                ",
"                                                                                                                                                                                                                                                                ",
"                                                                                                                                                                                                                                                                ",
"                                                                                                                                                                                                                                                                ",
"                                                                                                                                                                                                                                                                ",
"                                                                E.X.- $ $ $ $ $ $ $ $ $ 1 R                                                                                                                                                                     ",
"                                                              !.!.E.^ $ $ - $ $ $ $ $ $ $ 1 R                                                                                                                                                                   ",
"                                                              !.!.!.J.k 1 ,.{ 9 $ $ $ $ $ $ $ $ $ 1 P                                                                                                                                                           ",
"                                                            !.!.{ =.!.R 9 l.!.S S { k $ $ $ $ $ $ $ - $ - C                                                                                                                                                     ",
"                                                            !.E.k k E.{ 9 l.!.^ @.!.=.$ $ $ $ $ $ $ $ $ $ f                                                                                                                                                     ",
"                                                              E.S f J.@.9 l.!.4.a.!.=.$ . $ i ^ n 1 $ $ $ - - $ $ $ - i C                                                                                                                                       ",
"                                                              !.t.@.!.X.9 l.!.J.E.!.,.C P 9 k J.a.t.f $ $ $ $ $ $ $ $ $ 9                                                                                                                                       ",
"                                                              E.!.!.!.! 9 l.E.!.!.!.t.l.!.t.H V.a.E.n . $ $ $ $ $ $ $ $ 1                                                                                                                                       ",
"                                                                !.!.J.n 9 l.l.J.J.J.V.E.a.J.,.V.a.J.S 9 $ $ $ $ $ $ $ $ $ 1 n                                                                                                                                   ",
"                                                                          E.4.a.9.l.V.E.J.E.V.J.a.E.a.a.f 9 i - $ $ $ $ $ $ - 9 $ i                                                                                                                             ",
"                                                                          !.,.9.X.l.V.J.,.4.V.E.a.E.E.!.X.9.J.@.9 1 $ . $ $ n P f $ 1 - $ $ $ $ $ $ 1 S                                                                                                         ",
"                                                                                  J.9.a.V.V.l.J.a.E.{ V.V.E.E.!.@.4.W S - 1 t.!.J.^ 1 9 $ $ $ $ $ $ $ $ 1 1 !                                                                                                   ",
"                                                                                        !.!.a.J.a.J.H a.E.!.^ t.V.J.E.E.H i V.E.J.E.X.a.C $ $ $ $ $ $ $ $ $ i f                                                                                                 ",
"                                                                                              E.l.J.H a.V.E.P ,.J.J.J.E.{ 9 V.V.@.J.9.V.^ =.n $ $ $ $ $ $ $ $ $ P                                                                                               ",
"                                                                                                  J.P V.9.V.t.V.J.J.,.l.=.- 4.!.J.t.^ t.X.E.! . $ $ $ $ $ $ $ $ n                                                                                               ",
"                                                                                                          a.!.!.t.V.X.R R - W V.!.E.,.J.l.!.=.9 f - $ $ $ $ $ $ $ - - n                                                                                         ",
"                                                                                                              E.X.J.{ . $ i l.9.@.!.J.E.l.!.l.4.E.4.9 $ $ $ $ $ $ $ $ $ R                                                                                       ",
"                                                                                                                            E.J.9.E.!.E.@.J.l.J.V.J.{ $ $ $ $ $ $ $ $ . n                                                                                       ",
"                                                                                                                              !.!.!.l.E.{ V.,.V.V.J.9.- $ $ $ $ $ $ $ $ n                                                                                       ",
"                                                                                                                                E.E.=.E.{ V.V.J.a.t.9.1 $ $ $ $ $ $ $ $ C                                                                                       ",
"                                                                                                                                        ^ V.l.l.a.9.,.1 $ $ $ $ $ $ $ $ C                                                                                       ",
"                                                                                                                                              4.!.!.9.- $ $ $ $ $ $ $                                                                                           ",
"                                                                                                                                                  E.                                                                                                            ",
"                                                                                                                                                                                                                                                                ",
"                                                                                                                                                                                                                                                                ",
"                                                                                                                                                                                                                                                                ",
"                                                                                                                                                                                                                                                                ",
"                                                                                                                                                                                                                                                                ",
"                                                                                                                                                                                                                                                                ",
"                                                                                                                                                                                                                                                                ",
"                                                                                                                                                                                                                                                                ",
"                                                                                                                                                                                                                                                                ",
"                                                                                                                                                                                                                                                                ",
"                                                                                                                                                                                                                                                                ",
"                                                                                                                                                                                                                                                                ",
"                                                                                                                                                                                                                                                                ",
"                                                                                                                                                                                                                                                                ",
"                                                                                                                                                                                                                                                                "
};
