/* XPM */
static char *oms_114[] = {
/* columns rows colors chars-per-pixel */
"128 54 178 2 ",
"   c #FF00FF",
".  c #0D0D0D",
"X  c #0F0F0F",
"o  c #101010",
"O  c #111111",
"+  c #121212",
"@  c #131313",
"#  c #141414",
"$  c #151515",
"%  c #161616",
"&  c #171717",
"*  c #181818",
"=  c #191919",
"-  c #1A1A1A",
";  c #1B1B1B",
":  c #1C1C1C",
">  c #1D1D1D",
",  c #1E1E1E",
"<  c #1F1F1F",
"1  c #212121",
"2  c #222222",
"3  c #232323",
"4  c #242424",
"5  c #262626",
"6  c #272727",
"7  c #282828",
"8  c #292929",
"9  c #2A2A2A",
"0  c #2B2B2B",
"q  c #2D2D2D",
"w  c #303030",
"e  c #313131",
"r  c #333333",
"t  c #343434",
"y  c #353535",
"u  c #363636",
"i  c #373737",
"p  c #383838",
"a  c #3C3C3C",
"s  c #3E3E3E",
"d  c #3F3F3F",
"f  c #414141",
"g  c #424242",
"h  c #434343",
"j  c #444444",
"k  c #454545",
"l  c #464646",
"z  c #484848",
"x  c #494949",
"c  c #4C4C4C",
"v  c #4C4C4C",
"b  c #4E4E4E",
"n  c #4F4F4F",
"m  c #505050",
"M  c #515151",
"N  c #525252",
"B  c #555555",
"V  c #5B5B5B",
"C  c #5F5F5F",
"Z  c #616161",
"A  c #626262",
"S  c #636363",
"D  c #646464",
"F  c #666666",
"G  c #686868",
"H  c #696969",
"J  c #6C6C6C",
"K  c #747474",
"L  c #757575",
"P  c #787878",
"I  c #7B7B7B",
"U  c #808080",
"Y  c #808080",
"T  c #818181",
"R  c #828282",
"E  c #838383",
"W  c #848484",
"Q  c #868686",
"!  c #878787",
"~  c #8A8A8A",
"^  c #8C8C8C",
"/  c #8D8D8D",
"(  c #8E8E8E",
")  c #8F8F8F",
"_  c #919191",
"`  c #949494",
"'  c #969696",
"]  c #979797",
"[  c #989898",
"{  c #9A9A9A",
"}  c #9B9B9B",
"|  c #9C9C9C",
" . c #9D9D9D",
".. c #9E9E9E",
"X. c #A0A0A0",
"o. c #A1A1A1",
"O. c #A3A3A3",
"+. c #A4A4A4",
"@. c #A5A5A5",
"#. c #A6A6A6",
"$. c #A7A7A7",
"%. c #A8A8A8",
"&. c #ABABAB",
"*. c #ACACAC",
"=. c #AFAFAF",
"-. c #B0B0B0",
";. c #B2B2B2",
":. c #B2B2B2",
">. c #B5B5B5",
",. c #B6B6B6",
"<. c #B7B7B7",
"1. c #B8B8B8",
"2. c #BABABA",
"3. c #BBBBBB",
"4. c #BCBCBC",
"5. c #BDBDBD",
"6. c #808080",
"7. c #BFBFBF",
"8. c #C0C0C0",
"9. c #C1C1C1",
"0. c #C2C2C2",
"q. c #C3C3C3",
"w. c #C5C5C5",
"e. c #C6C6C6",
"r. c #C7C7C7",
"t. c #C8C8C8",
"y. c #C9C9C9",
"u. c #CACACA",
"i. c #CCCCCC",
"p. c #CDCDCD",
"a. c #CECECE",
"s. c #CFCFCF",
"d. c #D1D1D1",
"f. c #D2D2D2",
"g. c #D3D3D3",
"h. c #D4D4D4",
"j. c #D5D5D5",
"k. c #D6D6D6",
"l. c #D7D7D7",
"z. c #D8D8D8",
"x. c #DADADA",
"c. c #DBDBDB",
"v. c #DCDCDC",
"b. c #DDDDDD",
"n. c #DEDEDE",
"m. c #DFDFDF",
"M. c #E0E0E0",
"N. c #E1E1E1",
"B. c #E2E2E2",
"V. c #E3E3E3",
"C. c #E4E4E4",
"Z. c #E6E6E6",
"A. c #E6E6E6",
"S. c #E7E7E7",
"D. c #E8E8E8",
"F. c #E9E9E9",
"G. c #EAEAEA",
"H. c #EBEBEB",
"J. c #ECECEC",
"K. c #EDEDED",
"L. c #EEEEEE",
"P. c #EFEFEF",
"I. c #F0F0F0",
"U. c #F1F1F1",
"Y. c #F2F2F2",
"T. c #F3F3F3",
"R. c #F4F4F4",
"E. c #F5F5F5",
"W. c #F6F6F6",
"Q. c #F7F7F7",
"!. c #F8F8F8",
"~. c #F9F9F9",
"^. c #FAFAFA",
"/. c #FBFBFB",
"(. c #FCFCFC",
"). c #FDFDFD",
"_. c #FEFEFE",
"`. c #FFFFF1",
/* pixels */
"                                                                                                                                                                                                                                                                ",
"                                                                                                                                                                                                                                                                ",
"                                                                                                                                                                                                                                                                ",
"                                                                                                                                                                                                                                                                ",
"                                                                                                                                                                                                                                                                ",
"                                                                                                                                                                                                                                                                ",
"                                                                                                                                                                                                                                                                ",
"                                                                                                                                                                                                                                                                ",
"                                                                                                                                                                                                                                                                ",
"                                                                                                                                                                                                                                                                ",
"                                                                                                                                                                                                                                                                ",
"                                                                                                                                                                                                                                                                ",
"                                                                                                                                                                                                                                                                ",
"                                                                                                & X & & & & & > & > f i                                                                                                                                         ",
"                                                                                      !.Y.~ > ` K n 1 & & & & & & & & & p                                                                                                                                       ",
"                                                                                      !.S.S.T j.8.8...1 1 & & & & & & & & & > B                                                                                                                                 ",
"                                                                                      Y.z.J.z.Y.z.7.<.8.a.H & & & & & & & & & & f                                                                                                                               ",
"                                                                                      J.8.S.S.S.Y.z.8.S.!.Y.T & & & & & & & & & & T                                                                                                                             ",
"                                                                                      !.z.S.j.a.S.z.7...8.j.z.i & & & & & & & & X Z                                                                                                                             ",
"                                                                                        !.!.z.J.7.8.z.S.S.z.Y.n X & & & & & & & X C                                                                                                                             ",
"                                                                                            a.Y.7.7.S.Y.!.!.Y.n & 1 & & & & & & & 1 > > P                                                                                                                       ",
"                                                                                                <.a.S.Y.j.a.j.i Z 7.p > & & & & & & & & > i ..                                                                                                                  ",
"                                                                                                    a.S.j.<.` > ~ !.z.` > & X & & & & & & & i q Z                                                                                                               ",
"                                                                                                        !.!.Y.B ~ Y.J.j...*.f & & & 1 & & & & & > f 1 & & i `                                                                                                   ",
"                                                                                                          !.J.p f 7.a.S.J.!.S.f & & #.T q & & & & X & & & & 1 n                                                                                                 ",
"                                                                                                                      J.Y.8.z.#...K 8.S.a.f & & & & & & & & & & `                                                                                               ",
"                                                                                                                      S.J.T #.S.J.J.S.S.J.Z X & & & & & & & & & ~                                                                                               ",
"                                                                                                                      j.j.8.8.J.J.Y.Y.z.J.Z X X & q & & & & & & p   & & 1 K                                                                                     ",
"                                                                                                                          !.!.S.J.#.a.S.J.T ~ B & ....1 X & & & X & & & & > P                                                                                   ",
"                                                                                                                            !.8.J.T 7.S.J.j.!.J.Z *.!.Z i i & & & & & & & & 1 > f                                                                               ",
"                                                                                                                                !.T 7.S.J.S.J.z.a.7.!.~ ..z.C & & & & & & & & & & n                                                                             ",
"                                                                                                                                    S.S.J.j.z.S.J.j.!.7.a.!...& & & & & & & & & & i ~                                                                           ",
"                                                                                                                                        J.a.z.<.Y.S.!.J.Y.!...& P 7.H > & & & & & & & & & 1 P                                                                   ",
"                                                                                                                                            Y.Y.J.z.Y.Y.!.!...1 j.!.Y.T & & & & & & & & & X > `                                                                 ",
"                                                                                                                                              !.z.j.z.z.Y.Y...p S.Y.!.J.p & & & & & & & & & X n                                                                 ",
"                                                                                                                                                  Y.a.8.j.S...p J.*.P Y.P & & & & & & & & & & q 7.                                                              ",
"                                                                                                                                                      a.#.z...i S.T 1 z.#.& & & & & & & & & & > *.                                                              ",
"                                                                                                                                                          Y...1 j.<.q j.<.& & & & & & & & & & > #.                                                              ",
"                                                                                                                                                                j.Y.a.Y.<.& & & & & & & & & & > #.                                                              ",
"                                                                                                                                                                  !.!.!...& & & & & & & & & & 1 <.                                                              ",
"                                                                                                                                                                    !.Y.H & & & & & & & & & & n                                                                 ",
"                                                                                                                                                                                                                                                                ",
"                                                                                                                                                                                                                                                                ",
"                                                                                                                                                                                                                                                                ",
"                                                                                                                                                                                                                                                                ",
"                                                                                                                                                                                                                                                                ",
"                                                                                                                                                                                                                                                                ",
"                                                                                                                                                                                                                                                                ",
"                                                                                                                                                                                                                                                                ",
"                                                                                                                                                                                                                                                                ",
"                                                                                                                                                                                                                                                                ",
"                                                                                                                                                                                                                                                                ",
"                                                                                                                                                                                                                                                                ",
"                                                                                                                                                                                                                                                                "
};
