/* XPM */
static char *oms_045[] = {
/* columns rows colors chars-per-pixel */
"128 54 194 2 ",
"   c #FF00FF",
".  c #0B0B0B",
"X  c #0C0C0C",
"o  c #0D0D0D",
"O  c #0E0E0E",
"+  c #0F0F0F",
"@  c #101010",
"#  c #111111",
"$  c #121212",
"%  c #131313",
"&  c #141414",
"*  c #151515",
"=  c #161616",
"-  c #171717",
";  c #181818",
":  c #191919",
">  c #1A1A1A",
",  c #1B1B1B",
"<  c #1C1C1C",
"1  c #1D1D1D",
"2  c #1E1E1E",
"3  c #1F1F1F",
"4  c #202020",
"5  c #212121",
"6  c #222222",
"7  c #232323",
"8  c #252525",
"9  c #272727",
"0  c #282828",
"q  c #292929",
"w  c #2A2A2A",
"e  c #2E2E2E",
"r  c #2F2F2F",
"t  c #313131",
"y  c #333333",
"u  c #343434",
"i  c #353535",
"p  c #363636",
"a  c #373737",
"s  c #383838",
"d  c #3B3B3B",
"f  c #3D3D3D",
"g  c #3F3F3F",
"h  c #404040",
"j  c #414141",
"k  c #424242",
"l  c #434343",
"z  c #444444",
"x  c #454545",
"c  c #464646",
"v  c #474747",
"b  c #484848",
"n  c #494949",
"m  c #4A4A4A",
"M  c #4C4C4C",
"N  c #4E4E4E",
"B  c #4F4F4F",
"V  c #525252",
"C  c #555555",
"Z  c #575757",
"A  c #585858",
"S  c #5A5A5A",
"D  c #5B5B5B",
"F  c #5C5C5C",
"G  c #5F5F5F",
"H  c #606060",
"J  c #616161",
"K  c #626262",
"L  c #636363",
"P  c #676767",
"I  c #6B6B6B",
"U  c #707070",
"Y  c #717171",
"T  c #727272",
"R  c #737373",
"E  c #747474",
"W  c #767676",
"Q  c #777777",
"!  c #787878",
"~  c #797979",
"^  c #7C7C7C",
"/  c #7D7D7D",
"(  c #7E7E7E",
")  c #808080",
"_  c #818181",
"`  c #828282",
"'  c #838383",
"]  c #848484",
"[  c #858585",
"{  c #878787",
"}  c #888888",
"|  c #898989",
" . c #8A8A8A",
".. c #8B8B8B",
"X. c #8D8D8D",
"o. c #8E8E8E",
"O. c #8F8F8F",
"+. c #909090",
"@. c #919191",
"#. c #939393",
"$. c #949494",
"%. c #959595",
"&. c #969696",
"*. c #9A9A9A",
"=. c #9C9C9C",
"-. c #9D9D9D",
";. c #A0A0A0",
":. c #A1A1A1",
">. c #A2A2A2",
",. c #A3A3A3",
"<. c #A5A5A5",
"1. c #A6A6A6",
"2. c #A8A8A8",
"3. c #A9A9A9",
"4. c #AAAAAA",
"5. c #ABABAB",
"6. c #ACACAC",
"7. c #ADADAD",
"8. c #AEAEAE",
"9. c #AFAFAF",
"0. c #B0B0B0",
"q. c #B1B1B1",
"w. c #B2B2B2",
"e. c #B2B2B2",
"r. c #B4B4B4",
"t. c #B7B7B7",
"y. c #B8B8B8",
"u. c #B9B9B9",
"i. c #BABABA",
"p. c #BBBBBB",
"a. c #BCBCBC",
"s. c #808080",
"d. c #C0C0C0",
"f. c #C1C1C1",
"g. c #C2C2C2",
"h. c #C3C3C3",
"j. c #C4C4C4",
"k. c #C5C5C5",
"l. c #C6C6C6",
"z. c #C7C7C7",
"x. c #C9C9C9",
"c. c #CACACA",
"v. c #CBCBCB",
"b. c #CCCCCC",
"n. c #CDCDCD",
"m. c #CECECE",
"M. c #CFCFCF",
"N. c #D0D0D0",
"B. c #D1D1D1",
"V. c #D2D2D2",
"C. c #D3D3D3",
"Z. c #D4D4D4",
"A. c #D5D5D5",
"S. c #D6D6D6",
"D. c #D7D7D7",
"F. c #D8D8D8",
"G. c #D9D9D9",
"H. c #DADADA",
"J. c #DBDBDB",
"K. c #DCDCDC",
"L. c #DDDDDD",
"P. c #DEDEDE",
"I. c #E0E0E0",
"U. c #E1E1E1",
"Y. c #E2E2E2",
"T. c #E3E3E3",
"R. c #E4E4E4",
"E. c #E6E6E6",
"W. c #E6E6E6",
"Q. c #E7E7E7",
"!. c #E8E8E8",
"~. c #E9E9E9",
"^. c #EAEAEA",
"/. c #EBEBEB",
"(. c #ECECEC",
"). c #EDEDED",
"_. c #EEEEEE",
"`. c #EFEFEF",
"'. c #F0F0F0",
"]. c #F1F1F1",
"[. c #F2F2F2",
"{. c #F3F3F3",
"}. c #F4F4F4",
"|. c #F5F5F5",
" X c #F6F6F6",
".X c #F7F7F7",
"XX c #F8F8F8",
"oX c #F9F9F9",
"OX c #FAFAFA",
"+X c #FBFBFB",
"@X c #FCFCFC",
"#X c #FDFDFD",
"$X c #FEFEFE",
"%X c #FFFFF1",
/* pixels */
"                                                                                                                                                                                                                                                                ",
"                                                                                                                                                                                                                                                                ",
"                                                                                                                                                                                                                                                                ",
"                                                                                                                                                                                                                                                                ",
"                                                                                                                                                                                                                                                                ",
"                                                                                                                                                                                                                                                                ",
"                                                                                                                                                                                                                                                                ",
"                                                                                                                                                                                                                                                                ",
"                                                                                                                                                                                                                                                                ",
"                                                                                                                                                                                                                                                                ",
"                                                                                                                                                                                                                                                                ",
"                                                                                                                                                                                                                                                                ",
"                                                                                                                                                                                                                                                                ",
"                                                                                                                                                                                                                                                                ",
"                                                                                                                                                                                                                                                                ",
"                                                                                                                                                                                                                                                                ",
"                                                                                                                                                                                                                                                                ",
"                                                                                                                                                                                                                                                                ",
"                                                                                                                                                                                                                                                                ",
"                                                                                                                                                                                                                                                                ",
"                                                                                                                                                                                                                                                                ",
"                                                                                                                                                                      k < $ $ $ $ $ $ < s J ^ o.$.o.D < ' J.#Xo.M f.I.                                          ",
"                                                                                                                                                                    J $ $ $ $ $ $ $ < $.(.#X#X#X#X#X|.o.5.#X|.' E #X#XA.e X s '                                 ",
"                                                                                                          9 9 $ $ < $ $ 9 s M M                                     s X $ X X $ $ $ D |.#X#XA.e.(.|.(.f.*.A.A.<.f.#X#X|.' D A.|.|.#X#X|.                        ",
"                                                                          9     s $ $ < < $ $ e           < $ $ $ $ $ < p.I.I.p.|.#XI.9 X X X   9 $ $ < e 9 $ X 9 s k a a ^ E 9 $ X ^ #X#X#Xf.$.J.A.5.M 5.#X#XA.|.#X#X#Xf.J.#X|.5.A.#X#X|.                      ",
"                                                < < $ $ $ $ a     *.a $ $ $ $ < ^ <.5.p.' $ < 5.(.(.|.(.  < X X X X $ 9 J.#X#Xf.|.#Xv.< k J k $ $ C <.f.v.v.5.M E I.(.v.A.#X#X$.$ $ D #X#X#X#X#X#X#X#Xf.p.#X#Xp.v.#X#XI.*.|.#X|.I.(.(.|.|.                      ",
"                                            e $ $ $ $ $ a $.v.I.|.|.I.5.a $ $ 9 A.#X#X#XI.e k (.#X#X#X<.$ e C E ' E s 9 J.#X|.f.|.#XJ.5.(.#X(.D ^ |.#X#X#X#X#XA.<.#X#X|.|.#X#Xv.< $ < $.J.(.I.(.|.#X#X|.J.#X#Xo.E #X#XA.' |.#X(.' *.A.(.|.                      ",
"                                          k $ $ $ $ $ k A.#X#X#X#X#X#X#Xp.< $ 9 v.#X#X#X#X^ $.#X#X#X#X*.M A.|.#X#X#XI.E J.#X|.f.|.#X#X#X#X#X#Xp.J.#X|.o.I (.#X|.v.#X#Xv.' #X#Xv.9 $ M $.p.J.' C J.#X#X(.J.#X#Xo.E #X#X|.f.I.#X|.A.(.#X#X|.                      ",
"                                          e $ $ $ $ $ 5.#X#X|.v.p.I.#X#X|.k X 9 v.#X#X#X#XJ.I.#X#X#X#Xe.v.#X|.e.f.#X#XJ.I.#X|.f.|.#XI.E f.#X#XI.|.#X|.k 9 I.#X|.A.#X#Xe.e E J M $ X ^ #X#X#XI.A.|.#X#Xf.p.#X#Xo.D |.#X#X5.o.|.|.#X#X|.|.                        ",
"                                          9 $ $ $ $ e J.#X#X<.< $ J |.#X|.J X 9 v.#X#X|.#X#X#X|.|.#X#XJ.|.#X|.I.I.(.(.J.(.#X|.f.|.#Xv.$ o.#X#XJ.(.#X|.<.$.|.#XI.e.#X#XI.    X X $ X a v.#X#X#X#X#X|.|.C <.#X|.                                                  ",
"                                          e $ $ $ $ a I.#X#XE X X k (.#X#XJ X 9 v.#X|.f.|.#X#XA.f.#X#XJ.|.#X|.o.o.A.A.v.(.#X|.f.|.#Xv.$ o.#X#Xe.5.#X#X#X#X#X#X$.o.#X|.#X                                                                                        ",
"                                          a $ $ $ $ e I.#X#Xf.k k 5.#X#X(.k X 9 v.#X#X' v.#X#Xo.5.#X#Xp.A.#X#XI.I.#X#X5.J.#X|.f.|.#XA.< $.#X#Xv.    |.|.|.|.                                                                                                    ",
"                                            < $ $ $ < f.#X#X#X(.(.#X#X#Xp.< $ 9 v.#X#XE ^ #X(.k 5.#X#X5.E |.#X#X#X|.(.  A.|.                                                                                                                                    ",
"                                                $ $ X D (.#X#X#X#X#X#X|.    $ 9 A.#X#X<.  (.                                                                                                                                                                    ",
"                                                          |.|.|.|.|.                                                                                                                                                                                            ",
"                                                                                                                                                                                                                                                                ",
"                                                                                                                                                                                                                                                                ",
"                                                                                                                                                                                                                                                                ",
"                                                                                                                                                                                                                                                                ",
"                                                                                                                                                                                                                                                                ",
"                                                                                                                                                                                                                                                                ",
"                                                                                                                                                                                                                                                                ",
"                                                                                                                                                                                                                                                                ",
"                                                                                                                                                                                                                                                                ",
"                                                                                                                                                                                                                                                                ",
"                                                                                                                                                                                                                                                                ",
"                                                                                                                                                                                                                                                                ",
"                                                                                                                                                                                                                                                                ",
"                                                                                                                                                                                                                                                                ",
"                                                                                                                                                                                                                                                                ",
"                                                                                                                                                                                                                                                                ",
"                                                                                                                                                                                                                                                                ",
"                                                                                                                                                                                                                                                                ",
"                                                                                                                                                                                                                                                                "
};
