/* XPM */
static char *oms_257[] = {
/* columns rows colors chars-per-pixel */
"128 54 159 2 ",
"   c #FF00FF",
".  c #0E0E0E",
"X  c #0F0F0F",
"o  c #101010",
"O  c #111111",
"+  c #121212",
"@  c #131313",
"#  c #141414",
"$  c #151515",
"%  c #161616",
"&  c #171717",
"*  c #181818",
"=  c #191919",
"-  c #1A1A1A",
";  c #1B1B1B",
":  c #1C1C1C",
">  c #1E1E1E",
",  c #1F1F1F",
"<  c #222222",
"1  c #232323",
"2  c #252525",
"3  c #262626",
"4  c #2A2A2A",
"5  c #2C2C2C",
"6  c #2D2D2D",
"7  c #2F2F2F",
"8  c #313131",
"9  c #333333",
"0  c #343434",
"q  c #353535",
"w  c #363636",
"e  c #373737",
"r  c #383838",
"t  c #393939",
"y  c #3A3A3A",
"u  c #3B3B3B",
"i  c #3D3D3D",
"p  c #424242",
"a  c #444444",
"s  c #464646",
"d  c #474747",
"f  c #484848",
"g  c #4A4A4A",
"h  c #4C4C4C",
"j  c #4E4E4E",
"k  c #4F4F4F",
"l  c #505050",
"z  c #515151",
"x  c #545454",
"c  c #565656",
"v  c #585858",
"b  c #5E5E5E",
"n  c #606060",
"m  c #616161",
"M  c #626262",
"N  c #646464",
"B  c #666666",
"V  c #676767",
"C  c #707070",
"Z  c #717171",
"A  c #737373",
"S  c #747474",
"D  c #787878",
"F  c #797979",
"G  c #7A7A7A",
"H  c #7B7B7B",
"J  c #7C7C7C",
"K  c #7E7E7E",
"L  c #808080",
"P  c #818181",
"I  c #828282",
"U  c #838383",
"Y  c #868686",
"T  c #878787",
"R  c #8B8B8B",
"E  c #8F8F8F",
"W  c #929292",
"Q  c #939393",
"!  c #949494",
"~  c #999999",
"^  c #9A9A9A",
"/  c #9B9B9B",
"(  c #9D9D9D",
")  c #9E9E9E",
"_  c #9F9F9F",
"`  c #A2A2A2",
"'  c #A4A4A4",
"]  c #A6A6A6",
"[  c #A8A8A8",
"{  c #AAAAAA",
"}  c #ADADAD",
"|  c #B0B0B0",
" . c #B1B1B1",
".. c #B2B2B2",
"X. c #B4B4B4",
"o. c #B5B5B5",
"O. c #B6B6B6",
"+. c #B7B7B7",
"@. c #B8B8B8",
"#. c #BABABA",
"$. c #BCBCBC",
"%. c #BDBDBD",
"&. c #808080",
"*. c #C2C2C2",
"=. c #C3C3C3",
"-. c #C4C4C4",
";. c #C5C5C5",
":. c #C6C6C6",
">. c #C7C7C7",
",. c #C8C8C8",
"<. c #C9C9C9",
"1. c #CACACA",
"2. c #CCCCCC",
"3. c #D0D0D0",
"4. c #D1D1D1",
"5. c #D2D2D2",
"6. c #D3D3D3",
"7. c #D4D4D4",
"8. c #D5D5D5",
"9. c #D6D6D6",
"0. c #D7D7D7",
"q. c #D8D8D8",
"w. c #D9D9D9",
"e. c #DADADA",
"r. c #DBDBDB",
"t. c #DCDCDC",
"y. c #DDDDDD",
"u. c #DEDEDE",
"i. c #DFDFDF",
"p. c #E0E0E0",
"a. c #E1E1E1",
"s. c #E2E2E2",
"d. c #E3E3E3",
"f. c #E4E4E4",
"g. c #E6E6E6",
"h. c #E6E6E6",
"j. c #E7E7E7",
"k. c #E8E8E8",
"l. c #E9E9E9",
"z. c #EAEAEA",
"x. c #EBEBEB",
"c. c #ECECEC",
"v. c #EDEDED",
"b. c #EEEEEE",
"n. c #EFEFEF",
"m. c #F0F0F0",
"M. c #F2F2F2",
"N. c #F3F3F3",
"B. c #F4F4F4",
"V. c #F5F5F5",
"C. c #F6F6F6",
"Z. c #F7F7F7",
"A. c #F8F8F8",
"S. c #F9F9F9",
"D. c #FAFAFA",
"F. c #FBFBFB",
"G. c #FCFCFC",
"H. c #FDFDFD",
"J. c #FEFEFE",
/* pixels */
"                                                                                                                                                                                                                                                                ",
"                                                                                                                                                                                                                                                                ",
"                                                                                                                                                                                                                                                                ",
"                                                                                                                                                                                                                                                                ",
"                                                                                                                                                                                                                                                                ",
"                                                                                                                                                                                                                                                                ",
"                                                                                                                                                                                                                                                                ",
"                                                                                                                                                                                                                                                                ",
"                                                                                                                                                                                                                                                                ",
"                                                                                                                                                                                                                                                                ",
"                                                                                                                                                                                                                                                                ",
"                                                                                                                                      d $ $ $ $                                                                                                                 ",
"                                                                                                                                    f $ $ $ $ $ $ $ $ $ $ K x.                                                                                                  ",
"                                                                                                                                  K - $ $ $ $ $ $ $ $ $ f x.A.Z.                                                                                                ",
"                                                                                                                              f $ $ $ $ $ $ $ $ $ $ w - _ Z.Z.A.                                                                                                ",
"                                                                                                                            M $ $ $ $ $ $ $ $ $ X v >.u <.Q [ A.                                                                                                ",
"                                                                                                                        M - $ $ $ $ $ $ $ $ $ w d ] d.f 8.f _ A.                                                                                                ",
"                                                                                                                        u $ $ $ $ $ $ $ $ $ 2 >.[ @.u.f 8.M >.Z.                                                                                                ",
"                                                                                                                        u $ $ $ $ $ $ $ $ $ 7 u.8.u.u.f u.d.Z.                                                                                                  ",
"                                                                                                                d $ $ 2 - $ $ $ $ $ $ w - X 7 u.Z.Z.u.d 8.A.Z.                                                                                                  ",
"                                                                                                            _ w $ $ $ $ $ $ $ $ $ - M @.w S Q u.A.x.u.u X.A.                                                                                                    ",
"                                                                                                            U $ $ $ $ $ $ $ $ $ $ l u.8.K Z.d.d.Z.8.x.                                                                                                          ",
"                                                                                                            U $ $ $ $ $ $ $ $ $ X M d.8.<.u.d.d.8.@.d.                                                                                                          ",
"                                                                                                          S w $ $ $ $ $ $ $ $ $ - S d.d.d.x.d.d.X.                                                                                                              ",
"                                                                                                          w X $ $ $ $ $ $ $ $ $ Q d.d.d.8.@.8.u.                                                                                                                ",
"                                                                                                    _ 7 $ $ $ $ $ $ $ $ $ $ S K 8.Z.d.d.d.Z.u.                                                                                                                  ",
"                                                                                                    u X $ $ $ $ $ $ $ $ $ C A.x.u.] d.d.d.A.                                                                                                                    ",
"                                                                                          - $   d - $ $ $ $ $ $ w - $ w Q <.8.Z.d.U d.x.                                                                                                                        ",
"                                                                                      K 2 $ $ $ $ $ $ $ $ $ - E d.l l 8.d.8.K x.d.E x.                                                                                                                          ",
"                                                                                    M 7 $ $ $ $ $ $ $ $ $ 2 K Z.A.M Q A.x.u.[ u.x.                                                                                                                              ",
"                                                                                  l $ $ $ $ $ $ $ $ $ X w @.8.>.d.M ] <.d.x.Z.u.                                                                                                                                ",
"                                                                                l 2 $ $ $ $ $ $ $ $ $ w U 8.<.u.x.d Q _ 8.u.Z.                                                                                                                                  ",
"                                                                              ] - $ $ $ $ $ $ $ $ $ $ ] @.@.X.A.<.u 2 v d.                                                                                                                                      ",
"                                                                              Q $ $ $ $ $ $ $ $ $ $ $ X.Z.d.d.>.u._                                                                                                                                             ",
"                                                                            f u $ $ $ $ $ $ $ $ $ u M 8.x.Z.Z.<.x.                                                                                                                                              ",
"                                                                          l $ $ $ $ $ $ $ $ $ $ w 8.d.d.>.x.Z.A.Z.                                                                                                                                              ",
"                                                                        _ - $ $ $ $ $ $ $ $ $ $ U d.d.8.X.u.d.Z.                                                                                                                                                ",
"                                                                        U $ $ $ $ $ $ $ $ $ $ $ X.x.x.d.X.d.                                                                                                                                                    ",
"                                                                        K $ $ $ $ $ $ $ $ $ $ - X.>.u.x.<.                                                                                                                                                      ",
"                                                                        U - $ $ $ $ $ $ $ $ $ - X.d.u.                                                                                                                                                          ",
"                                                                        K $ $ $ $ $ $ $ $ $ $ $ X.A.                                                                                                                                                            ",
"                                                                                                                                                                                                                                                                ",
"                                                                                                                                                                                                                                                                ",
"                                                                                                                                                                                                                                                                ",
"                                                                                                                                                                                                                                                                ",
"                                                                                                                                                                                                                                                                ",
"                                                                                                                                                                                                                                                                ",
"                                                                                                                                                                                                                                                                ",
"                                                                                                                                                                                                                                                                ",
"                                                                                                                                                                                                                                                                ",
"                                                                                                                                                                                                                                                                ",
"                                                                                                                                                                                                                                                                ",
"                                                                                                                                                                                                                                                                ",
"                                                                                                                                                                                                                                                                "
};
