/* XPM */
static char *oms_325[] = {
/* columns rows colors chars-per-pixel */
"128 54 185 2 ",
"   c #FF00FF",
".  c #0C0C0C",
"X  c #0F0F0F",
"o  c #101010",
"O  c #111111",
"+  c #121212",
"@  c #131313",
"#  c #141414",
"$  c #151515",
"%  c #161616",
"&  c #171717",
"*  c #181818",
"=  c #191919",
"-  c #1A1A1A",
";  c #1B1B1B",
":  c #1C1C1C",
">  c #1D1D1D",
",  c #1E1E1E",
"<  c #1F1F1F",
"1  c #202020",
"2  c #212121",
"3  c #222222",
"4  c #232323",
"5  c #242424",
"6  c #252525",
"7  c #262626",
"8  c #292929",
"9  c #2A2A2A",
"0  c #2B2B2B",
"q  c #2C2C2C",
"w  c #2D2D2D",
"e  c #2F2F2F",
"r  c #303030",
"t  c #333333",
"y  c #373737",
"u  c #393939",
"i  c #3B3B3B",
"p  c #3D3D3D",
"a  c #3F3F3F",
"s  c #404040",
"d  c #414141",
"f  c #424242",
"g  c #434343",
"h  c #454545",
"j  c #464646",
"k  c #474747",
"l  c #484848",
"z  c #4A4A4A",
"x  c #4B4B4B",
"c  c #4C4C4C",
"v  c #4E4E4E",
"b  c #4F4F4F",
"n  c #515151",
"m  c #545454",
"M  c #565656",
"N  c #585858",
"B  c #595959",
"V  c #5A5A5A",
"C  c #606060",
"Z  c #626262",
"A  c #646464",
"S  c #666666",
"D  c #676767",
"F  c #686868",
"G  c #696969",
"H  c #6A6A6A",
"J  c #6B6B6B",
"K  c #6D6D6D",
"L  c #707070",
"P  c #727272",
"I  c #747474",
"U  c #777777",
"Y  c #787878",
"T  c #7B7B7B",
"R  c #7D7D7D",
"E  c #808080",
"W  c #808080",
"Q  c #818181",
"!  c #828282",
"~  c #848484",
"^  c #868686",
"/  c #878787",
"(  c #888888",
")  c #898989",
"_  c #8B8B8B",
"`  c #8D8D8D",
"'  c #8F8F8F",
"]  c #909090",
"[  c #919191",
"{  c #929292",
"}  c #939393",
"|  c #979797",
" . c #989898",
".. c #999999",
"X. c #9C9C9C",
"o. c #9D9D9D",
"O. c #9E9E9E",
"+. c #9F9F9F",
"@. c #A0A0A0",
"#. c #A1A1A1",
"$. c #A2A2A2",
"%. c #A3A3A3",
"&. c #A6A6A6",
"*. c #A7A7A7",
"=. c #A8A8A8",
"-. c #A9A9A9",
";. c #ABABAB",
":. c #ACACAC",
">. c #ADADAD",
",. c #AEAEAE",
"<. c #AFAFAF",
"1. c #B0B0B0",
"2. c #B1B1B1",
"3. c #B2B2B2",
"4. c #B2B2B2",
"5. c #B4B4B4",
"6. c #B6B6B6",
"7. c #B7B7B7",
"8. c #B8B8B8",
"9. c #BABABA",
"0. c #BBBBBB",
"q. c #BCBCBC",
"w. c #BDBDBD",
"e. c #808080",
"r. c #BFBFBF",
"t. c #C0C0C0",
"y. c #C1C1C1",
"u. c #C2C2C2",
"i. c #C4C4C4",
"p. c #C5C5C5",
"a. c #C6C6C6",
"s. c #C7C7C7",
"d. c #C8C8C8",
"f. c #C9C9C9",
"g. c #CBCBCB",
"h. c #CCCCCC",
"j. c #CDCDCD",
"k. c #CECECE",
"l. c #CFCFCF",
"z. c #D0D0D0",
"x. c #D1D1D1",
"c. c #D2D2D2",
"v. c #D4D4D4",
"b. c #D5D5D5",
"n. c #D6D6D6",
"m. c #D7D7D7",
"M. c #D8D8D8",
"N. c #D9D9D9",
"B. c #DADADA",
"V. c #DBDBDB",
"C. c #DCDCDC",
"Z. c #DDDDDD",
"A. c #DEDEDE",
"S. c #DFDFDF",
"D. c #E0E0E0",
"F. c #E1E1E1",
"G. c #E2E2E2",
"H. c #E3E3E3",
"J. c #E4E4E4",
"K. c #E6E6E6",
"L. c #E6E6E6",
"P. c #E7E7E7",
"I. c #E9E9E9",
"U. c #EAEAEA",
"Y. c #EBEBEB",
"T. c #ECECEC",
"R. c #EDEDED",
"E. c #EEEEEE",
"W. c #EFEFEF",
"Q. c #F0F0F0",
"!. c #F1F1F1",
"~. c #F2F2F2",
"^. c #F3F3F3",
"/. c #F4F4F4",
"(. c #F5F5F5",
"). c #F6F6F6",
"_. c #F7F7F7",
"`. c #F8F8F8",
"'. c #F9F9F9",
"]. c #FAFAFA",
"[. c #FBFBFB",
"{. c #FCFCFC",
"}. c #FDFDFD",
"|. c #FEFEFE",
" X c #FFFFF1",
/* pixels */
"                                                                                                                                                                                                                                                                ",
"                                                                                                                                                                                                                                                                ",
"                                                                                                                                                                                                                                                                ",
"                                                                                                                                                                                                                                                                ",
"                                                                                                                                                                                                                                                                ",
"                                                                                                                                                                                                                                                                ",
"                                                                                                                                                                                                                                                                ",
"                                                                                                                                                                                                                                                                ",
"                                                                                                                                                                                                                                                                ",
"                                                                                                                                                                                                                                                                ",
"                                                                                                                                                                                                                                                                ",
"                                                                                                                                                                                                                                                                ",
"                                                                                                                                                                                                                                                                ",
"                                                                                                                                                                                                                                                                ",
"                                                                                                                                                                                                                                                                ",
"                                                                                                                                                                                                                                                                ",
"                                                                                                                                                                                                                                                                ",
"                                                                                                                                                                                                                                                                ",
"                                                                                                                                                                                                                                                                ",
"                                                                                                                                                                                                                                                                ",
"                            ^.^.^.v._ u + + + + * 5 * 5 u         X X                                                                                                                                                                                           ",
"                        ^.[.[.[.[.[.[.S.G + + + Q S.v.u.] * X k L S N u + * + + + + * 5                                                                                                                                                                         ",
"                        [.[.[.^.I.^.[.[.D.k + + ] [.[.[.^.z + 1.[.[.[.e.* + + + + + + * <.    G S M u + + + + * * + z                                                                                                                                           ",
"                      ^.[.[.I.S u Y I.[.[._ + + ] [.[.[.[.] k I.[.[.[.u.* + + + + + + * e.[.^.1.I.^.u.5 + + + + + + k                                                                                                                                           ",
"                      ^.[.[.d.* X + e.[.[.<.+ + ] [.[.[.[.S.1.[.[.[.[.u.w L <.e.<.Q u * e.[.^.1.^.[.d.* + + + + + + w                                           k 5 + + + + + * r                                                                               ",
"                        [.[.D.k + w v.[.[.1.+ + ] [.[.[.[.[.^.[.[.[.[.u...[.[.^.^.[.D.S e.[.^.1.^.[.d.S @.<.G * + r M N z r w * + + + + + 5           ^.[.[.^.I.D.u.G 5 Q .._ w + * + + + 5 w +                                                                 ",
"                        [.[.[.D.1.d.^.[.[.] + + ] [.[.D.I.[.[.^.I.[.[.v.S.[.[.u.1.[.[.d.d.[.^.1.^.[.^.^.[.[.^.G S D.^.[.^.D.1.u S <...S M Q N + + + ] [.[.[.D.D.[.[.^.Y d.[.[.N Q e.<.M + + + + + u                                                             ",
"                        [.[.[.[.[.[.[.[.D.k + + ] [.[.e.<.[.[.S.<.[.[.S.D.[.[.D.S.I.^.D.S.[.^.1.^.[.^.u.D.[.[.e.v.[.[.S.S.[.[.u.1.[.[.D.I.[.^.S + + ..[.[.^...Q D.S.v...<.v.v.S u.[.[.] + + + + + * z     +                                                     ",
"                            ^.^.^.^.[.I.L + + X 1.[.[.e.N ^.[.] _ [.[.d.d.[.[...Y v.v.u.S.[.^.1.^.[.v.5 ] [.[.v.I.[.^.M k D.[.^.v.[.[.I.D.[.[.<.+ + S ^.[.[.^.^.I.S.@.z d.^.I.d.^.[.[.S.k k ] <.@.Q z + + + + + * z                                             ",
"                                                  ^.[.e.w I.^.z ..[.[.u.L ^.[.^.^.[.[.d.d.[.^.1.^.[.d.* Q [.[.d.D.[.^.M u D.[.^.S.[.[.<.L [.[.u.* + 5 ..D.^.^.[.[.[.[.1.v.[.^.S.[.[.[.^...D.[.[.^.[.I._ + + + + + *                                             ",
"                                                                            ^.^.^.^.I.L d.[.^.1.^.[.d.* Q [.[.<.<.[.[.S.v.[.[.I.d.[.[...w G Y S + + _ v.d.v.Y _ ^.[.[.D.D.[.^.Q d.[.[.d.u.[.[.S.@.I.[.I.k + + + + + G                                           ",
"                                                                                                          [.[.<.z ^.[.[.[.[.^...@.[.[...+ X X + + X 1.[.[.[.u.@.^.[.[.D.S.[.[.N 1.[.[.] <.[.[.I.S.I.^.^.S + + + + +                                             ",
"                                                                                                                                  ^.[.@.              ^.[.[.[.[.[.[.^.@.v.[.[.N <.[.[.D.u.[.[.d.G e.v.v.N + + + + *                                             ",
"                                                                                                                                                          ^.^.^.^.^.    D.^.^.N _ [.[.^._ S.[.^.I.^.[.I.z + + + +                                               ",
"                                                                                                                                                                                            ^.[.^.^.^.u.                                                        ",
"                                                                                                                                                                                                                                                                ",
"                                                                                                                                                                                                                                                                ",
"                                                                                                                                                                                                                                                                ",
"                                                                                                                                                                                                                                                                ",
"                                                                                                                                                                                                                                                                ",
"                                                                                                                                                                                                                                                                ",
"                                                                                                                                                                                                                                                                ",
"                                                                                                                                                                                                                                                                ",
"                                                                                                                                                                                                                                                                ",
"                                                                                                                                                                                                                                                                ",
"                                                                                                                                                                                                                                                                ",
"                                                                                                                                                                                                                                                                ",
"                                                                                                                                                                                                                                                                ",
"                                                                                                                                                                                                                                                                ",
"                                                                                                                                                                                                                                                                ",
"                                                                                                                                                                                                                                                                ",
"                                                                                                                                                                                                                                                                ",
"                                                                                                                                                                                                                                                                ",
"                                                                                                                                                                                                                                                                "
};
