/* XPM */
static char *oms_146[] = {
/* columns rows colors chars-per-pixel */
"128 54 208 2 ",
"   c #FF00FF",
".  c #0B0B0B",
"X  c #0D0D0D",
"o  c #0E0E0E",
"O  c #0F0F0F",
"+  c #101010",
"@  c #111111",
"#  c #121212",
"$  c #131313",
"%  c #141414",
"&  c #151515",
"*  c #161616",
"=  c #171717",
"-  c #181818",
";  c #191919",
":  c #1A1A1A",
">  c #1B1B1B",
",  c #1C1C1C",
"<  c #1D1D1D",
"1  c #1E1E1E",
"2  c #1F1F1F",
"3  c #202020",
"4  c #212121",
"5  c #222222",
"6  c #232323",
"7  c #242424",
"8  c #252525",
"9  c #262626",
"0  c #272727",
"q  c #282828",
"w  c #2A2A2A",
"e  c #2C2C2C",
"r  c #2D2D2D",
"t  c #2E2E2E",
"y  c #2F2F2F",
"u  c #303030",
"i  c #333333",
"p  c #343434",
"a  c #353535",
"s  c #363636",
"d  c #373737",
"f  c #383838",
"g  c #393939",
"h  c #3A3A3A",
"j  c #3B3B3B",
"k  c #3C3C3C",
"l  c #3D3D3D",
"z  c #3F3F3F",
"x  c #414141",
"c  c #424242",
"v  c #434343",
"b  c #444444",
"n  c #464646",
"m  c #484848",
"M  c #494949",
"N  c #4A4A4A",
"B  c #4B4B4B",
"V  c #4C4C4C",
"C  c #4C4C4C",
"Z  c #4E4E4E",
"A  c #4F4F4F",
"S  c #505050",
"D  c #515151",
"F  c #525252",
"G  c #535353",
"H  c #545454",
"J  c #555555",
"K  c #565656",
"L  c #585858",
"P  c #595959",
"I  c #5A5A5A",
"U  c #5B5B5B",
"Y  c #5C5C5C",
"T  c #5D5D5D",
"R  c #5E5E5E",
"E  c #5F5F5F",
"W  c #616161",
"Q  c #626262",
"!  c #636363",
"~  c #646464",
"^  c #666666",
"/  c #696969",
"(  c #6A6A6A",
")  c #6D6D6D",
"_  c #6E6E6E",
"`  c #6F6F6F",
"'  c #707070",
"]  c #727272",
"[  c #737373",
"{  c #757575",
"}  c #767676",
"|  c #797979",
" . c #7A7A7A",
".. c #7B7B7B",
"X. c #7C7C7C",
"o. c #7D7D7D",
"O. c #808080",
"+. c #808080",
"@. c #818181",
"#. c #828282",
"$. c #838383",
"%. c #848484",
"&. c #858585",
"*. c #868686",
"=. c #878787",
"-. c #888888",
";. c #8A8A8A",
":. c #8B8B8B",
">. c #8E8E8E",
",. c #8F8F8F",
"<. c #919191",
"1. c #929292",
"2. c #939393",
"3. c #949494",
"4. c #959595",
"5. c #969696",
"6. c #989898",
"7. c #999999",
"8. c #9A9A9A",
"9. c #9C9C9C",
"0. c #9D9D9D",
"q. c #9E9E9E",
"w. c #9F9F9F",
"e. c #A0A0A0",
"r. c #A1A1A1",
"t. c #A2A2A2",
"y. c #A3A3A3",
"u. c #A4A4A4",
"i. c #A5A5A5",
"p. c #A6A6A6",
"a. c #A7A7A7",
"s. c #A8A8A8",
"d. c #A9A9A9",
"f. c #ABABAB",
"g. c #ACACAC",
"h. c #ADADAD",
"j. c #AFAFAF",
"k. c #B0B0B0",
"l. c #B1B1B1",
"z. c #B2B2B2",
"x. c #B6B6B6",
"c. c #B8B8B8",
"v. c #B9B9B9",
"b. c #BCBCBC",
"n. c #BDBDBD",
"m. c #808080",
"M. c #BFBFBF",
"N. c #C0C0C0",
"B. c #C3C3C3",
"V. c #C4C4C4",
"C. c #C5C5C5",
"Z. c #C6C6C6",
"A. c #C7C7C7",
"S. c #C8C8C8",
"D. c #C9C9C9",
"F. c #CACACA",
"G. c #CBCBCB",
"H. c #CCCCCC",
"J. c #CDCDCD",
"K. c #CECECE",
"L. c #CFCFCF",
"P. c #D0D0D0",
"I. c #D1D1D1",
"U. c #D3D3D3",
"Y. c #D4D4D4",
"T. c #D5D5D5",
"R. c #D6D6D6",
"E. c #D7D7D7",
"W. c #D8D8D8",
"Q. c #D9D9D9",
"!. c #DADADA",
"~. c #DBDBDB",
"^. c #DCDCDC",
"/. c #DDDDDD",
"(. c #DEDEDE",
"). c #DFDFDF",
"_. c #E0E0E0",
"`. c #E1E1E1",
"'. c #E2E2E2",
"]. c #E3E3E3",
"[. c #E4E4E4",
"{. c #E6E6E6",
"}. c #E6E6E6",
"|. c #E7E7E7",
" X c #E8E8E8",
".X c #E9E9E9",
"XX c #EAEAEA",
"oX c #EBEBEB",
"OX c #ECECEC",
"+X c #EDEDED",
"@X c #EEEEEE",
"#X c #EFEFEF",
"$X c #F0F0F0",
"%X c #F1F1F1",
"&X c #F2F2F2",
"*X c #F3F3F3",
"=X c #F4F4F4",
"-X c #F5F5F5",
";X c #F6F6F6",
":X c #F7F7F7",
">X c #F8F8F8",
",X c #F9F9F9",
"<X c #FAFAFA",
"1X c #FBFBFB",
"2X c #FCFCFC",
"3X c #FDFDFD",
"4X c #FEFEFE",
"5X c #FFFFF1",
/* pixels */
"                                                                                                                                                                                                                                                                ",
"                                                                                                                                                                                                                                                                ",
"                                                                                                                                                                                                                                                                ",
"                                                                                                                                                                                                                                                                ",
"                                                                                                                                                                                                                                                                ",
"                                                                                                                                                                                                                                                                ",
"                                                                                                                                                                                                                                                                ",
"                                                                                                                                                                                                                                                                ",
"                                                                                                                                                                                                                                                                ",
"                                                                                                                                                                                                                                                                ",
"                                                                                                                                                                                                                                                                ",
"                                                                                                                                                                                                                                                                ",
"                                                                                                                                                                                                                                                                ",
"                                                @ ; 7 s m       @ ; e z z 7 x J                                                                                                                                                                                 ",
"                                            @ @ @ @ @ O O ; ; @ @ @ @ @ @ @ @ @ m     e x W                                                                                                                                                                     ",
"                                        *.m s ; @ @ @ Y Y s ; 7 e ; @ @ @ @ @ @ ; @ @ @ @ ; 7 e m                                                                                                                                                               ",
"                                      &X&X&X].v.W ; 7 v.<XOX{ { ].V.X.@ ; 7 ; @ O @ @ @ @ @ @ @ @ 7 *.                                                                                                                                                          ",
"                                    <X<X<XU.V.<X&X-.-.&X<X<Xu.*.OX<XV.J v.U.V.u.X.J 7 @ @ @ @ @ @ @ z                                                                                                                                                           ",
"                                    OX].OX].U.&X<XOXS.<X<X<X&X!.!.!.u.k.<X<X<X<X<X&XU.{ ; @ @ @ @ @ e                                                                                                                                                           ",
"                                    &XOX].w.3.&X<X<X*.S.<X<X&X&X<X<XV.J u.U.].u.g.&X<X<X{ @ @ @ @ @ s       @ 7 z                                                                                                                                               ",
"                                      <X<XOXU.&X<X&Xw.U.<X<Xw.3.<X<XS.g.OXOXOXS.V.&X<X<Xv.; @ @ ; s     @ @ @ @ @ ; ; 7 e )                                                                                                                                     ",
"                                        &X<X<X<X<X].!.<X<X<X-.X.<X<X!.].<X<X<X<X<X<X<X<Xv.; @ ; Y -.z @ @ O @ @ @ @ @ @ @ s 7 @ ; 7 z J                 7 m Y                                                                                                   ",
"                                                      &X<X<X*.3.<X<XU.!.<X<X&Xg.g.].!.S.J @ @ J OX<X!.*.w.X.m ; O @ @ O @ @ @ @ @ @ @ @ 7 W       @ @ @ @ @ @ 7 7 s J                                                                                           ",
"                                                                &X<XV.u.<X<X&Xu.-.].U.w.Y @ O *.<X<X<X&X<X<X].x { w.3.) x ; @ @ @ @ @ @ ; Y W 7 @ @ O @ @ @ @ @ @ @ ; 3.                                                                                        ",
"                                                                          &X<X<X<X<X<X<XS.; O u.<X<XU.u.<X<XOXk.&X<X<X<XOXv.J @ @ 7 7 @ 7 !.OXS.*.*.Y s @ @ @ @ @ @ ; 3.                                                                                        ",
"                                                                              &X&X&X&X&X                <X<X&X&X<X<X!.w.].<XOXY { !.S.-.z !.<X&Xv.<X<XS.; @ @ @ @ @ ; {   7 z Y   @ @ @ @ ; 7 e W                                                               ",
"                                                                                                        <X<X&X!.<X<Xu.O -.<X<XS.!.<X<X<XU.OX<X&Xk.&X<X!.7 @ @ @ @ @ @ ; 7 e ; @ @ @ @ @ @ @ @ @ 7 )   @ e x Y                                                   ",
"                                                                                                        &X<XOX3.&X<X!.Y g.<X<X&X&X<X<X!.!.<X<X&Xk.&X<X!.7 x Y m s ; @ O X.].V.w.W ; @ @ @ @ @ @ @ @ @ @ @ @ @ ; X.                                              ",
"                                                                                                                  &X<X&X<X<X<XU.].<X<X) z OX<X&Xk.&X<X!.3.OX<X&X].v.W @ *.<X<X<XOXx O m 3.) x e @ @ @ @ @ @ @ @ X.        ; 7 s J                               ",
"                                                                                                                      &X<X<X&X  OX<X<XY 7 ].<X&Xk.&X<XOX].<X<XU.V.<X&X-.*.<X<X<X<X3.; k.<X<XOXU.m @ @ @ @ O @ @ m 7 @ @ @ @ @ @ @ ; e J                         ",
"                                                                                                                                  &X<X) 7 OX<X&Xk.&X<XOX!.].OX].!.&X<XOXv.<X<X<X<X!.{ OX<X<X<X<XY O @ @ x X.-.{ J e @ @ @ @ @ @ @ @ @ @ s w.                    ",
"                                                                                                                                            <X&Xv.&X<X].S.OX].u.3.&X<X&XU.<X<X&X<X&XOX<X<X<X<X&XY O @ Y ].<X<X<X&X!.u.x @ @ @ @ @ @ @ @ @ m                     ",
"                                                                                                                                                    <X!.w.<X<XOXU.&X<X&XS.<X<XOX!.<X<X<X<X<X<X&XY O ; v.<X<X<X<X<X<X<XOX{ @ @ @ @ @ @ @ @ ; w.                  ",
"                                                                                                                                                              <X<X<X<XU.g.<X<X!.*.&X<X<XS.&X<X&XY O 7 S.<X<X].{ { S.<X<XOXx @ @ @ @ @ @ @ @ *.                  ",
"                                                                                                                                                                          <X<X!.x !.<X!.W OX<X&XY @ ; S.<X<Xg.O O s !.<X<X3.@ @ @ @ @ @ @ @ *.                  ",
"                                                                                                                                                                                    <Xu.m &X<X&XY O @ u.<X<X!.z @ 7 S.<X<Xk.@ @ @ @ @ @ @ 7 w.                  ",
"                                                                                                                                                                                          &X&X&XW O     <X<X<X!.u.k.&X<X<Xk.@ @ @ @ @ @ @ m                     ",
"                                                                                                                                                                                                          &X<X<X<X<X<X<X<X*.@ @ @ @ @                           ",
"                                                                                                                                                                                                              &X&X<X<X<XU.z                                     ",
"                                                                                                                                                                                                                                                                ",
"                                                                                                                                                                                                                                                                ",
"                                                                                                                                                                                                                                                                ",
"                                                                                                                                                                                                                                                                ",
"                                                                                                                                                                                                                                                                ",
"                                                                                                                                                                                                                                                                ",
"                                                                                                                                                                                                                                                                ",
"                                                                                                                                                                                                                                                                ",
"                                                                                                                                                                                                                                                                ",
"                                                                                                                                                                                                                                                                ",
"                                                                                                                                                                                                                                                                ",
"                                                                                                                                                                                                                                                                ",
"                                                                                                                                                                                                                                                                ",
"                                                                                                                                                                                                                                                                ",
"                                                                                                                                                                                                                                                                "
};
