/* XPM */
static char *oms_008[] = {
/* columns rows colors chars-per-pixel */
"128 54 131 2 ",
"   c #FF00FF",
".  c #0B0B0B",
"X  c #0F0F0F",
"o  c #101010",
"O  c #121212",
"+  c #131313",
"@  c #161616",
"#  c #191919",
"$  c #252525",
"%  c #262626",
"&  c #292929",
"*  c #2A2A2A",
"=  c #2B2B2B",
"-  c #2C2C2C",
";  c #343434",
":  c #363636",
">  c #3E3E3E",
",  c #404040",
"<  c #414141",
"1  c #424242",
"2  c #444444",
"3  c #474747",
"4  c #4A4A4A",
"5  c #4C4C4C",
"6  c #545454",
"7  c #555555",
"8  c #636363",
"9  c #6B6B6B",
"0  c #6D6D6D",
"q  c #707070",
"w  c #727272",
"e  c #747474",
"r  c #7B7B7B",
"t  c #818181",
"y  c #828282",
"u  c #838383",
"i  c #848484",
"p  c #858585",
"a  c #878787",
"s  c #898989",
"d  c #8C8C8C",
"f  c #8E8E8E",
"g  c #8F8F8F",
"h  c #909090",
"j  c #919191",
"k  c #929292",
"l  c #949494",
"z  c #969696",
"x  c #979797",
"c  c #9B9B9B",
"v  c #9D9D9D",
"b  c #9E9E9E",
"n  c #A1A1A1",
"m  c #A5A5A5",
"M  c #A6A6A6",
"N  c #A7A7A7",
"B  c #AAAAAA",
"V  c #ABABAB",
"C  c #ACACAC",
"Z  c #ADADAD",
"A  c #AEAEAE",
"S  c #AFAFAF",
"D  c #B0B0B0",
"F  c #B1B1B1",
"G  c #B2B2B2",
"H  c #B4B4B4",
"J  c #B5B5B5",
"K  c #B7B7B7",
"L  c #B9B9B9",
"P  c #BABABA",
"I  c #BBBBBB",
"U  c #BCBCBC",
"Y  c #BDBDBD",
"T  c #808080",
"R  c #BFBFBF",
"E  c #C1C1C1",
"W  c #C2C2C2",
"Q  c #C3C3C3",
"!  c #C6C6C6",
"~  c #C8C8C8",
"^  c #C9C9C9",
"/  c #CCCCCC",
"(  c #CDCDCD",
")  c #CECECE",
"_  c #CFCFCF",
"`  c #D0D0D0",
"'  c #D1D1D1",
"]  c #D2D2D2",
"[  c #D3D3D3",
"{  c #D4D4D4",
"}  c #D5D5D5",
"|  c #D6D6D6",
" . c #D7D7D7",
".. c #D8D8D8",
"X. c #D9D9D9",
"o. c #DADADA",
"O. c #DBDBDB",
"+. c #DCDCDC",
"@. c #DDDDDD",
"#. c #DEDEDE",
"$. c #DFDFDF",
"%. c #E0E0E0",
"&. c #E1E1E1",
"*. c #E2E2E2",
"=. c #E3E3E3",
"-. c #E4E4E4",
";. c #E6E6E6",
":. c #E6E6E6",
">. c #E7E7E7",
",. c #E8E8E8",
"<. c #E9E9E9",
"1. c #EAEAEA",
"2. c #EBEBEB",
"3. c #ECECEC",
"4. c #EDEDED",
"5. c #EEEEEE",
"6. c #EFEFEF",
"7. c #F0F0F0",
"8. c #F1F1F1",
"9. c #F2F2F2",
"0. c #F3F3F3",
"q. c #F4F4F4",
"w. c #F5F5F5",
"e. c #F6F6F6",
"r. c #F7F7F7",
"t. c #F8F8F8",
"y. c #F9F9F9",
"u. c #FAFAFA",
"i. c #FBFBFB",
"p. c #FCFCFC",
"a. c #FDFDFD",
/* pixels */
"                                                                                                                                                                                                                                                                ",
"                                                                                                                                                                                                                                                                ",
"                                                                                                                                                                                                                                                                ",
"                                                                                                                                                                                                                                                                ",
"                                                                                                                                                                                                                                                                ",
"                                                                                                                                                                                                                                                                ",
"                                                                                                                                                                                                                                                                ",
"                                                                                                                                                                                                                                                                ",
"                                                                                                                                                                                                                                                                ",
"                                                                                                                                                                                                                                                                ",
"                                                                                                                                                                                                                                                                ",
"                                                                                                                                                                                                                                                                ",
"                                                                                                                                                                                                                                                                ",
"                                                                                                                                                                                                                                                                ",
"                                                                                                                                                                                                                                                                ",
"                                                                                                                                                                                                                                                                ",
"                                                                                                                                                                                                                                                                ",
"                                                                                                                                                                                                                                                                ",
"                                                                                                                                                                                                                                                                ",
"                                                                                                                                                                                                                                                                ",
"                                                                                                                                                                                                                                                                ",
"                                                                                                                                                                                                                                                                ",
"                        w.+.P                                                                                                                                                           C +.  w.w.                                                              ",
"              w.t.t.t.t.t.t.w.w.} r           w.w.w.w.t.}       w.w.w.w.t.;.                      +.t.w.w.C 6.t.w.w.                                                            + = C 6.w.t.t.t.t.t.t.w.} 5 g t.t.t.D % ( 6.6.6.                                ",
"            t.t.t.t.t.t.t.t.t.t.t.6.q         t.t.t.t.t.t.k   w.t.t.t.t.t.;.                      +.t.t.t.C 6.t.t.w.                                                            X q t.t.t.t.6.C ( w.t.t.t.! t +.+.;.k < +.t.t.t.                                ",
"            t.t.t.w.P D   w.w.t.t.t.! =       t.t.t.t.t.t.} t w.t.t.t.t.t.;.    6.w.w.w.w.w.6.    +.t.t.t.C 6.t.t.6.N } w.w.w.6.  5 D ;.6.w.w.w.w.w.( = D 6.;.6.b P 6.w.w.      + t t.t.t.t.w.N N 6.6.6.N 7 t 6.6.6.P } w.t.t.t.t.9 7 P ;.w.t.t.w.w.w.          ",
"          t.t.t.t.} =       w.t.t.t.;.<       t.t.t.t.t.t.t.6.t.t.t.t.t.t.;.( t.t.t.6.+.6.t.t.t.} +.t.t.t.C 6.t.t.w.w.t.t.t.t.t.t P t.t.t.w.;.w.t.t.t.b ( t.t.t.w.t.t.t.t.w.    + 5 ;.t.t.t.t.t.t.t.t.t.6.t k t.t.t.( ;.t.t.t.t.t.C ;.t.t.w.D ! w.t.t.w.        ",
"          t.t.t.t.+.;       w.t.t.t.+.>       t.t.t.w.;.t.t.t.t.w.6.t.t.t.;.} t.t.t.6.;.6.t.t.t.;.+.t.t.t.C 6.t.t.t.w.P 6.t.t.t.P 6.t.t.w.    k t.t.t.+.+.t.t.t.P k w.t.t.w.        t } +.6.w.6.6.t.t.t.t.6.P t.t.t.P 9 ;.t.t.t.k b t.t.t.w.( +.w.t.t.w.        ",
"            t.t.t.t.( k N ;.t.t.t.t.P ;       t.t.t.6.k w.t.t.t.;.+.t.t.t.;.} t.t.t.;.} ( } } } ! +.t.t.t.C 6.t.t.w.    P t.t.t.P 6.t.t.w.  X g t.t.t.;.+.t.t.t.C < 6.w.w.w.    + g ;.+.+.6.( < q w.t.t.t.w.( t.t.t.C % } t.t.t.g k t.t.t.;.k b ( } } 6.        ",
"            w.t.t.t.t.t.t.t.t.t.t.6.t         t.t.t.6.8 6.t.t.w.    t.t.t.;.( t.t.t.6.! +.w.w.w.+.+.t.t.t.C 6.t.t.w.    P t.t.t.D +.t.t.t.;.P 6.t.t.t.C ( t.t.t.6.              + q w.t.t.t.w.} +.t.t.t.t.} C t.t.t.C % } t.t.t.w.D ;.t.t.w.D P w.w.w.w.        ",
"              w.w.t.t.t.t.t.w.w.w.            t.t.t.6.8   w.t.;.    t.t.t.6.  w.w.w.t.t.t.w.w.w.  ;.t.t.t.D 6.t.t.w.    ! t.t.t.+.  w.w.w.t.t.t.w.w.6.< ( t.t.t.6.                  P w.t.t.t.t.t.w.t.w.;.7 g t.t.t.P # C t.t.t.t.g t w.t.t.t.t.t.t.w.          ",
"                                                                                                                                                                                                                                                                ",
"                                                                                                                                                                                                                                                                ",
"                                                                                                                                                                                                                                                                ",
"                                                                                                                                                                                                                                                                ",
"                                                                                                                                                                                                                                                                ",
"                                                                                                                                                                                                                                                                ",
"                                                                                                                                                                                                                                                                ",
"                                                                                                                                                                                                                                                                ",
"                                                                                                                                                                                                                                                                ",
"                                                                                                                                                                                                                                                                ",
"                                                                                                                                                                                                                                                                ",
"                                                                                                                                                                                                                                                                ",
"                                                                                                                                                                                                                                                                ",
"                                                                                                                                                                                                                                                                ",
"                                                                                                                                                                                                                                                                ",
"                                                                                                                                                                                                                                                                ",
"                                                                                                                                                                                                                                                                ",
"                                                                                                                                                                                                                                                                ",
"                                                                                                                                                                                                                                                                ",
"                                                                                                                                                                                                                                                                ",
"                                                                                                                                                                                                                                                                ",
"                                                                                                                                                                                                                                                                ",
"                                                                                                                                                                                                                                                                "
};
