/* XPM */
static char *oms_334[] = {
/* columns rows colors chars-per-pixel */
"128 54 192 2 ",
"   c #FF00FF",
".  c #0D0D0D",
"X  c #0E0E0E",
"o  c #0F0F0F",
"O  c #101010",
"+  c #111111",
"@  c #121212",
"#  c #131313",
"$  c #141414",
"%  c #151515",
"&  c #161616",
"*  c #171717",
"=  c #181818",
"-  c #1A1A1A",
";  c #1B1B1B",
":  c #1C1C1C",
">  c #1D1D1D",
",  c #1E1E1E",
"<  c #1F1F1F",
"1  c #202020",
"2  c #212121",
"3  c #222222",
"4  c #232323",
"5  c #242424",
"6  c #252525",
"7  c #262626",
"8  c #272727",
"9  c #292929",
"0  c #2A2A2A",
"q  c #2B2B2B",
"w  c #2D2D2D",
"e  c #2E2E2E",
"r  c #2F2F2F",
"t  c #303030",
"y  c #313131",
"u  c #323232",
"i  c #343434",
"p  c #353535",
"a  c #363636",
"s  c #373737",
"d  c #383838",
"f  c #393939",
"g  c #3A3A3A",
"h  c #3B3B3B",
"j  c #3C3C3C",
"k  c #3D3D3D",
"l  c #434343",
"z  c #444444",
"x  c #464646",
"c  c #484848",
"v  c #494949",
"b  c #4F4F4F",
"n  c #515151",
"m  c #545454",
"M  c #555555",
"N  c #575757",
"B  c #585858",
"V  c #595959",
"C  c #5B5B5B",
"Z  c #5C5C5C",
"A  c #5D5D5D",
"S  c #5E5E5E",
"D  c #5F5F5F",
"F  c #616161",
"G  c #626262",
"H  c #636363",
"J  c #646464",
"K  c #676767",
"L  c #6A6A6A",
"P  c #6B6B6B",
"I  c #6C6C6C",
"U  c #6E6E6E",
"Y  c #6F6F6F",
"T  c #727272",
"R  c #737373",
"E  c #757575",
"W  c #767676",
"Q  c #7A7A7A",
"!  c #7C7C7C",
"~  c #7D7D7D",
"^  c #808080",
"/  c #818181",
"(  c #828282",
")  c #848484",
"_  c #858585",
"`  c #878787",
"'  c #888888",
"]  c #8A8A8A",
"[  c #8B8B8B",
"{  c #8C8C8C",
"}  c #8F8F8F",
"|  c #909090",
" . c #929292",
".. c #949494",
"X. c #959595",
"o. c #989898",
"O. c #999999",
"+. c #9B9B9B",
"@. c #9D9D9D",
"#. c #9F9F9F",
"$. c #A0A0A0",
"%. c #A1A1A1",
"&. c #A2A2A2",
"*. c #A3A3A3",
"=. c #A4A4A4",
"-. c #A5A5A5",
";. c #A6A6A6",
":. c #A7A7A7",
">. c #A8A8A8",
",. c #A9A9A9",
"<. c #AAAAAA",
"1. c #ABABAB",
"2. c #ADADAD",
"3. c #AEAEAE",
"4. c #AFAFAF",
"5. c #B0B0B0",
"6. c #B1B1B1",
"7. c #B2B2B2",
"8. c #B4B4B4",
"9. c #B5B5B5",
"0. c #B6B6B6",
"q. c #B7B7B7",
"w. c #B8B8B8",
"e. c #B9B9B9",
"r. c #BABABA",
"t. c #BBBBBB",
"y. c #BCBCBC",
"u. c #BDBDBD",
"i. c #808080",
"p. c #BFBFBF",
"a. c #C0C0C0",
"s. c #C1C1C1",
"d. c #C2C2C2",
"f. c #C3C3C3",
"g. c #C4C4C4",
"h. c #C5C5C5",
"j. c #C6C6C6",
"k. c #C7C7C7",
"l. c #C8C8C8",
"z. c #C9C9C9",
"x. c #CBCBCB",
"c. c #CCCCCC",
"v. c #CECECE",
"b. c #CFCFCF",
"n. c #D0D0D0",
"m. c #D1D1D1",
"M. c #D2D2D2",
"N. c #D3D3D3",
"B. c #D4D4D4",
"V. c #D5D5D5",
"C. c #D6D6D6",
"Z. c #D7D7D7",
"A. c #D8D8D8",
"S. c #D9D9D9",
"D. c #DADADA",
"F. c #DBDBDB",
"G. c #DCDCDC",
"H. c #DDDDDD",
"J. c #DEDEDE",
"K. c #DFDFDF",
"L. c #E0E0E0",
"P. c #E1E1E1",
"I. c #E2E2E2",
"U. c #E3E3E3",
"Y. c #E4E4E4",
"T. c #E6E6E6",
"R. c #E6E6E6",
"E. c #E7E7E7",
"W. c #E8E8E8",
"Q. c #E9E9E9",
"!. c #EAEAEA",
"~. c #EBEBEB",
"^. c #ECECEC",
"/. c #EDEDED",
"(. c #EEEEEE",
"). c #EFEFEF",
"_. c #F0F0F0",
"`. c #F1F1F1",
"'. c #F2F2F2",
"]. c #F3F3F3",
"[. c #F4F4F4",
"{. c #F5F5F5",
"}. c #F6F6F6",
"|. c #F7F7F7",
" X c #F8F8F8",
".X c #F9F9F9",
"XX c #FAFAFA",
"oX c #FBFBFB",
"OX c #FCFCFC",
"+X c #FDFDFD",
"@X c #FEFEFE",
"#X c #FFFFF1",
/* pixels */
"                                                                                                                                                                                                                                                                ",
"                                                                                                                                                                                                                                                                ",
"                                                                                                                                                                                                                                                                ",
"                                                                                                                                                                                                                                                                ",
"                                                                                                                                                                                                                                                                ",
"                                                                                                                                                                                                                                                                ",
"                                                                                                                                                                                                                                                                ",
"                                                                                                                                                                                                                                                                ",
"                                                                                                                                                                                                                                                                ",
"                                                                                                                                                                                                                                                                ",
"                                                                                                                                                                                                                                                                ",
"                                                                                                                                                                                                                                                                ",
"                                                                                                                                                                                                                                                                ",
"                                                                                                                                                                                                                                                                ",
"                                                                                                                                                                                                                                                                ",
"                                                                                                                                                                                                                                                                ",
"                                                                                                                                                                                                                                                                ",
"                                                                                                                                                                                                                                                                ",
"                                                                                                                                                                                                                                                                ",
"                                                                                                                                                                                                                                                                ",
"                                                                                                                                                                                                                                                                ",
"                    |.|.|.~.l.] l & & & & ; n A (     & & & 5 5 r 5                                                                                                                                                                                             ",
"                |. X X X X X X XY.( ; & & a K.|.~.~.M.a & d g.M.g.g.| & & & & & & d             n A l r & & & & 5 5                                                                                                                                             ",
"                 X X X|.Y.~. X X X|.J & & a Y. X X X X( & |  X X X Xg.& & X X X X a     |. X Xl.g.~.~.1.; & & & & ;                                                           X & 5                                                                             ",
"              |. X X|.| a d O.|. X X7.& & a Y. X X X XM.v K. X X X Xg.& r A U U A v r & g. X XK.M. X Xe.& & & & & ; A                                           |.|.|.K.l.7.] d & J ( ( J & & & & a                                                             ",
"               X X X~.d X X a Y. X Xg.; & a Y. X X X X|.M.|. X X X Xg.A M.|. X X X~.1.d e. X XK.M. X Xe.A O.1.| a & ; n W ( O.] v ; & r a a 5 ; a 5 & & ; & 1. X X X X|. X X XY.A e. X Xe.a 1.7.*.A & & & ; ~                                                   ",
"              |. X X|.~ ; & A ~. X Xg.; & a Y. X X|.|. X X X X X X Xl.l. X XY.*.K. X Xe.l. X XK.M. X X~.|. X X Xe.d 7.|. X X X|.~.*.d g.Y.M.O.O.M.l.U & & & e. X X Xg.U g.|.Y.~.1.*.K.K.*.n ~. X XO.& & & ; d                                                   ",
"                 X X X|.g.e.~. X X X*.& & a Y. X Xg.M. X X Xl.Y. X XK.Y. X X|.Y.~.|. X~.K. X XK.M. X X|.e.Y. X X~.1. X X Xg.7.|. X X*.K. X X|. X X X~.d & & O. X X X~.M.K.Y.g.| l 7.~.~.l.M.|. X XY.A d | 7.g.l.*.J 5 & & & 5                                   ",
"                |. X X X X X X X XY.l & & a Y. X X1.(  X X|.U K. X XM.K. X XM.W 1.M.l.l.K. X XK.M. X Xg.; (  X X|.K. X X~.d ; l. X XY.Y. X XM.1. X X XA X & d M.|. X X X X X X|.| g. X XY.~. X X X X*.M. X X~.~. X X7.5 & & & d                                 ",
"                    |.|.|.|.|.|.K.J & &     |.|. X1.a Y. X7.r K. X Xg.| |. X|.l.Y. X|.M.M. X XK.M. X Xe.& U  X X|.g. X X|.J d K. X XY.Y. X X*.d l.K.K.n 5 ; U *.e.M.g.*.K. X X XY.M. X Xg.~ ~. X Xl.1. X X Xe.7.|. X XU X & & r                                 ",
"                                                        |.    ~. X Xg.a K. X|. X X X~.~ l. X XK.M. X X7.& W  X X~.W K. X X~.Y. X X X*.M. X XO.& 5 r r ; U    X X|.|.g.A 7. X X XY.K. X Xe.d Y. X XO.]  X X XK.M.Y.~.~.( & & & r                                 ",
"                                                                                                             X X|.    |.|.|. X X|.g.n Y. X XO.& & &           |. X X X X X X X X7.g. X Xe.d Y. X X~.e.|. X XO.~ M.M.K.W & & & d                                 ",
"                                                                                                                                                                |.|.|.|.|.|.|.Y.  M. X Xe.r M. X X X] 7. X X|.|. X X~.A X &                                     ",
"                                                                                                                                                                                                          |.|.|.|.|.                                            ",
"                                                                                                                                                                                                                                                                ",
"                                                                                                                                                                                                                                                                ",
"                                                                                                                                                                                                                                                                ",
"                                                                                                                                                                                                                                                                ",
"                                                                                                                                                                                                                                                                ",
"                                                                                                                                                                                                                                                                ",
"                                                                                                                                                                                                                                                                ",
"                                                                                                                                                                                                                                                                ",
"                                                                                                                                                                                                                                                                ",
"                                                                                                                                                                                                                                                                ",
"                                                                                                                                                                                                                                                                ",
"                                                                                                                                                                                                                                                                ",
"                                                                                                                                                                                                                                                                ",
"                                                                                                                                                                                                                                                                ",
"                                                                                                                                                                                                                                                                ",
"                                                                                                                                                                                                                                                                ",
"                                                                                                                                                                                                                                                                ",
"                                                                                                                                                                                                                                                                ",
"                                                                                                                                                                                                                                                                ",
"                                                                                                                                                                                                                                                                "
};
