/* XPM */
static char *oms_225[] = {
/* columns rows colors chars-per-pixel */
"128 54 190 2 ",
"   c #FF00FF",
".  c #0A0A0A",
"X  c #0D0D0D",
"o  c #0E0E0E",
"O  c #0F0F0F",
"+  c #101010",
"@  c #111111",
"#  c #121212",
"$  c #131313",
"%  c #141414",
"&  c #151515",
"*  c #161616",
"=  c #171717",
"-  c #181818",
";  c #191919",
":  c #1A1A1A",
">  c #1B1B1B",
",  c #1C1C1C",
"<  c #1D1D1D",
"1  c #1F1F1F",
"2  c #202020",
"3  c #212121",
"4  c #222222",
"5  c #232323",
"6  c #242424",
"7  c #252525",
"8  c #262626",
"9  c #282828",
"0  c #292929",
"q  c #2A2A2A",
"w  c #2B2B2B",
"e  c #2C2C2C",
"r  c #2D2D2D",
"t  c #2E2E2E",
"y  c #2F2F2F",
"u  c #303030",
"i  c #313131",
"p  c #323232",
"a  c #333333",
"s  c #343434",
"d  c #363636",
"f  c #373737",
"g  c #383838",
"h  c #393939",
"j  c #3B3B3B",
"k  c #3C3C3C",
"l  c #3D3D3D",
"z  c #3F3F3F",
"x  c #404040",
"c  c #414141",
"v  c #424242",
"b  c #444444",
"n  c #454545",
"m  c #464646",
"M  c #474747",
"N  c #484848",
"B  c #494949",
"V  c #4A4A4A",
"C  c #4B4B4B",
"Z  c #4C4C4C",
"A  c #4C4C4C",
"S  c #4E4E4E",
"D  c #4F4F4F",
"F  c #505050",
"G  c #515151",
"H  c #525252",
"J  c #535353",
"K  c #545454",
"L  c #565656",
"P  c #575757",
"I  c #595959",
"U  c #5C5C5C",
"Y  c #5D5D5D",
"T  c #5E5E5E",
"R  c #606060",
"E  c #616161",
"W  c #636363",
"Q  c #646464",
"!  c #656565",
"~  c #666666",
"^  c #686868",
"/  c #696969",
"(  c #6A6A6A",
")  c #6F6F6F",
"_  c #707070",
"`  c #727272",
"'  c #737373",
"]  c #747474",
"[  c #757575",
"{  c #787878",
"}  c #7A7A7A",
"|  c #7B7B7B",
" . c #7C7C7C",
".. c #7E7E7E",
"X. c #808080",
"o. c #808080",
"O. c #818181",
"+. c #838383",
"@. c #858585",
"#. c #878787",
"$. c #888888",
"%. c #8A8A8A",
"&. c #909090",
"*. c #929292",
"=. c #949494",
"-. c #969696",
";. c #979797",
":. c #9C9C9C",
">. c #9D9D9D",
",. c #9F9F9F",
"<. c #A0A0A0",
"1. c #A3A3A3",
"2. c #A4A4A4",
"3. c #A5A5A5",
"4. c #A7A7A7",
"5. c #A9A9A9",
"6. c #AAAAAA",
"7. c #ABABAB",
"8. c #ADADAD",
"9. c #AEAEAE",
"0. c #AFAFAF",
"q. c #B0B0B0",
"w. c #B2B2B2",
"e. c #B2B2B2",
"r. c #B5B5B5",
"t. c #B8B8B8",
"y. c #B9B9B9",
"u. c #BBBBBB",
"i. c #BCBCBC",
"p. c #808080",
"a. c #C2C2C2",
"s. c #C3C3C3",
"d. c #C4C4C4",
"f. c #C5C5C5",
"g. c #C6C6C6",
"h. c #C7C7C7",
"j. c #C8C8C8",
"k. c #C9C9C9",
"l. c #CACACA",
"z. c #CBCBCB",
"x. c #CCCCCC",
"c. c #CDCDCD",
"v. c #CFCFCF",
"b. c #D0D0D0",
"n. c #D1D1D1",
"m. c #D2D2D2",
"M. c #D4D4D4",
"N. c #D5D5D5",
"B. c #D6D6D6",
"V. c #D7D7D7",
"C. c #D8D8D8",
"Z. c #D9D9D9",
"A. c #DADADA",
"S. c #DBDBDB",
"D. c #DCDCDC",
"F. c #DDDDDD",
"G. c #DEDEDE",
"H. c #DFDFDF",
"J. c #E0E0E0",
"K. c #E1E1E1",
"L. c #E2E2E2",
"P. c #E3E3E3",
"I. c #E4E4E4",
"U. c #E6E6E6",
"Y. c #E6E6E6",
"T. c #E7E7E7",
"R. c #E8E8E8",
"E. c #E9E9E9",
"W. c #EAEAEA",
"Q. c #EBEBEB",
"!. c #ECECEC",
"~. c #EDEDED",
"^. c #EEEEEE",
"/. c #EFEFEF",
"(. c #F0F0F0",
"). c #F1F1F1",
"_. c #F2F2F2",
"`. c #F3F3F3",
"'. c #F4F4F4",
"]. c #F5F5F5",
"[. c #F6F6F6",
"{. c #F7F7F7",
"}. c #F8F8F8",
"|. c #F9F9F9",
" X c #FAFAFA",
".X c #FBFBFB",
"XX c #FCFCFC",
"oX c #FDFDFD",
"OX c #FEFEFE",
"+X c #FFFFF1",
/* pixels */
"                                                                                                                                                                                                                                                                ",
"                                                                                                                                                                                                                                                                ",
"                                                                                                                                                                                                                                                                ",
"                                                                                                                                                                                                                                                                ",
"                                                                                                                                                                                                                                                                ",
"                                                                                                                                                                                                                                                                ",
"                                                                                                                                                                                                                                                                ",
"                                                                                                                                                                                                                                                                ",
"                                                                                                                                                                                                                                                                ",
"                                                                                                                                                                                                                                                                ",
"                                                                                                                                                                                                m r                                                             ",
"                                                                                                                                                                                          i 7 & & & & &                                                         ",
"                                                                                                                                                                                      U ; & & & & & & & O & r                                                   ",
"                                                                                                                                                                        B i 7 & &   W ; & & & & & & & i | 5.c.Y.).                                              ",
"                                                                                                                                                                    @.7 & & & & & & ; & O & & & & ; @.Y.XXXXXXXXXX).                                            ",
"                                                                                                                                                        J r 7 & & ; r & & & & & & & 7 m ) | ; & & $.XXXX).S.Y.XXXXXX                                            ",
"                                                                                                                                                        r & & & & & & & O & 7 & & J c.^.XXc.7 O m ^.XX).| 7 m ^.XXXX                                            ",
"                                                                                                                                                        r & & & & & & B | 5.c.B & 5.XXXXXXg.7 O | XXXXg.& O i Y.XXXX                                            ",
"                                                                                                                              B g r ; & & &     B i     7 & & & & & r m.XXXXXX1.g Y.XXXXXXg.7 O $.XXXXm.g g 1.XXXX).                                            ",
"                                                                                                                          m ; & & & & & & & & & & ; r ; & & & & O O r S.XXXXXXY.5.).XXXXXXc.7 O | XXXXXXY.Y.XXXXXX                                              ",
"                                                                                                                          i & & & & & & & ; g B @.g.c.r O & r B W B i S.XXXXXXXX).XX).).XX^.  O B ^.XXXXXXXXXX).                                                ",
"                                                                                                                          i & & & & & O m g.^.g.Y.XXS.r i >.S.).XX).;.S.XX).).XXXX).w.).XXXX        ).).).).                                                    ",
"                                                                                                                  J ; & ; & & & & & & O W XXXXg.Y.XXS.U m.XXm.c.XXXXS.Y.XX).5.).XXc.` ).XX).                                                                    ",
"                                                                                                      J i ; & ; B & & & & & & & & & r r ) XXXXg.Y.XXS.p.XXXXS.S.XXXXS.Y.XX).U c.XXp.) ).).                                                                      ",
"                                                                                                  J 7 & & & & & & & & O & & & & i 5.Y.Y.m.XXXXg.S.XX^.S.^.S.>.5.XXXX5.S.XX).    XX                                                                              ",
"                                                                  U g r &               J r ; & ; & & & & & & & & & g ` 1.p.1.g 1.XXXX^.^.XXXXg.S.XXY.c.^.^.m.^.XX).` S.XX                                                                                      ",
"                                                            ) g 7 & & & & & & & ; i & & & & & & & & O O & ; i i 7 ;.Y.XXXXXXXXg.S.XX).W | XXXXg.Y.XXY.c.XXXXXX).).                                                                                              ",
"                                                    B i & i ; & & & & & & & & & 7 B | 1.5.` ; & & & m J J p.Y.w.;.XXXX5.1.XXXX).).XX^.r U XXXXg.Y.XX).                                                                                                          ",
"                                                  i & & & & & & & & & & ; & i ;.m.).XXXXXX^.m & & @.^.).Y.XXXXm.Y.XXY.r B ).XXS.^.XX).i W XXXXS.                                                                                                                ",
"                                          m 7 & & & & & & & & O O ; ) 1.w.B g.XXXXc.c.XXXX).J O i Y.XX^.m.XXXXS.^.XX^.| 5.XXXX;.S.XX).                                                                                                                          ",
"                                          7 & & & & & & & & 7 m U g ^.XXm.>.^.Y.S.;.c.XXXXS.r O J XXXXw.) XXXXm.S.XXXXXXXXXX).                                                                                                                                  ",
"                                        B & & & & & & & & 7 p.).S.J c.S.p.W >.S.).XXXX).S.>.; O B w.| g U XXXXS.  XX).).                                                                                                                                        ",
"                            W i 7 & & ; ; & & & & O O O & m Y.XX).m.^.XXS.$.^.XXXXS.g.m.g.S.          O W XX).                                                                                                                                                  ",
"                          m & & & & & & & & & & 7 B ) W i w.XXXXXX).XXXXY.S.XXXX^.) 1.XXXXXX                                                                                                                                                                    ",
"                        W & & & & & & & & & 7 $.m.).XXXXg.c.XXXXY.| ^.XXY.S.XXXX).^.XXXX).                                                                                                                                                                      ",
"                        m O & & & & & & & 7 w.XXY.p.^.XX^.| Y.XXm.B Y.XXY.p.XXXXXXXX).                                                                                                                                                                          ",
"                        B & & & & & & & O W ).XX^.S.).XX^.>.^.XXS.B Y.XX).                                                                                                                                                                                      ",
"                        B & & & & & & & & @.^.Y.w.$.^.XXc.m.XXXXY.  Y.                                                                                                                                                                                          ",
"                          & & & & & & & O ` ^.^.Y.S.XXXX;.g.XX                                                                                                                                                                                                  ",
"                                      & O W ).XXXXXX).                                                                                                                                                                                                          ",
"                                                                                                                                                                                                                                                                ",
"                                                                                                                                                                                                                                                                ",
"                                                                                                                                                                                                                                                                ",
"                                                                                                                                                                                                                                                                ",
"                                                                                                                                                                                                                                                                ",
"                                                                                                                                                                                                                                                                ",
"                                                                                                                                                                                                                                                                ",
"                                                                                                                                                                                                                                                                ",
"                                                                                                                                                                                                                                                                ",
"                                                                                                                                                                                                                                                                ",
"                                                                                                                                                                                                                                                                ",
"                                                                                                                                                                                                                                                                ",
"                                                                                                                                                                                                                                                                ",
"                                                                                                                                                                                                                                                                "
};
