/* XPM */
static char *oms_157[] = {
/* columns rows colors chars-per-pixel */
"128 54 206 2 ",
"   c #FF00FF",
".  c #0C0C0C",
"X  c #0D0D0D",
"o  c #0E0E0E",
"O  c #0F0F0F",
"+  c #101010",
"@  c #111111",
"#  c #121212",
"$  c #131313",
"%  c #141414",
"&  c #151515",
"*  c #161616",
"=  c #171717",
"-  c #181818",
";  c #191919",
":  c #1A1A1A",
">  c #1B1B1B",
",  c #1C1C1C",
"<  c #1D1D1D",
"1  c #1E1E1E",
"2  c #1F1F1F",
"3  c #202020",
"4  c #212121",
"5  c #222222",
"6  c #232323",
"7  c #242424",
"8  c #252525",
"9  c #262626",
"0  c #272727",
"q  c #282828",
"w  c #292929",
"e  c #2A2A2A",
"r  c #2B2B2B",
"t  c #2C2C2C",
"y  c #2D2D2D",
"u  c #2E2E2E",
"i  c #2F2F2F",
"p  c #303030",
"a  c #313131",
"s  c #323232",
"d  c #333333",
"f  c #353535",
"g  c #363636",
"h  c #373737",
"j  c #383838",
"k  c #393939",
"l  c #3B3B3B",
"z  c #3C3C3C",
"x  c #3E3E3E",
"c  c #3F3F3F",
"v  c #404040",
"b  c #414141",
"n  c #434343",
"m  c #444444",
"M  c #454545",
"N  c #474747",
"B  c #484848",
"V  c #494949",
"C  c #4A4A4A",
"Z  c #4B4B4B",
"A  c #4C4C4C",
"S  c #4E4E4E",
"D  c #4F4F4F",
"F  c #505050",
"G  c #515151",
"H  c #525252",
"J  c #535353",
"K  c #545454",
"L  c #555555",
"P  c #565656",
"I  c #575757",
"U  c #585858",
"Y  c #5A5A5A",
"T  c #5F5F5F",
"R  c #606060",
"E  c #616161",
"W  c #626262",
"Q  c #636363",
"!  c #646464",
"~  c #656565",
"^  c #676767",
"/  c #686868",
"(  c #696969",
")  c #6A6A6A",
"_  c #6B6B6B",
"`  c #6C6C6C",
"'  c #6D6D6D",
"]  c #6E6E6E",
"[  c #6F6F6F",
"{  c #707070",
"}  c #717171",
"|  c #727272",
" . c #747474",
".. c #767676",
"X. c #787878",
"o. c #7A7A7A",
"O. c #7B7B7B",
"+. c #7C7C7C",
"@. c #7D7D7D",
"#. c #7E7E7E",
"$. c #808080",
"%. c #818181",
"&. c #828282",
"*. c #878787",
"=. c #898989",
"-. c #8A8A8A",
";. c #8B8B8B",
":. c #8C8C8C",
">. c #8D8D8D",
",. c #8E8E8E",
"<. c #8F8F8F",
"1. c #909090",
"2. c #989898",
"3. c #999999",
"4. c #9B9B9B",
"5. c #9C9C9C",
"6. c #9D9D9D",
"7. c #9E9E9E",
"8. c #9F9F9F",
"9. c #A0A0A0",
"0. c #A1A1A1",
"q. c #A2A2A2",
"w. c #A3A3A3",
"e. c #A5A5A5",
"r. c #A6A6A6",
"t. c #A7A7A7",
"y. c #A8A8A8",
"u. c #A9A9A9",
"i. c #AAAAAA",
"p. c #ABABAB",
"a. c #ACACAC",
"s. c #ADADAD",
"d. c #AFAFAF",
"f. c #B0B0B0",
"g. c #B2B2B2",
"h. c #B2B2B2",
"j. c #B4B4B4",
"k. c #B5B5B5",
"l. c #B8B8B8",
"z. c #B9B9B9",
"x. c #BABABA",
"c. c #BBBBBB",
"v. c #BCBCBC",
"b. c #BDBDBD",
"n. c #C0C0C0",
"m. c #C1C1C1",
"M. c #C2C2C2",
"N. c #C3C3C3",
"B. c #C4C4C4",
"V. c #C5C5C5",
"C. c #C6C6C6",
"Z. c #C7C7C7",
"A. c #C8C8C8",
"S. c #CACACA",
"D. c #CBCBCB",
"F. c #CDCDCD",
"G. c #CECECE",
"H. c #CFCFCF",
"J. c #D0D0D0",
"K. c #D1D1D1",
"L. c #D2D2D2",
"P. c #D3D3D3",
"I. c #D4D4D4",
"U. c #D5D5D5",
"Y. c #D6D6D6",
"T. c #D7D7D7",
"R. c #D8D8D8",
"E. c #D9D9D9",
"W. c #DADADA",
"Q. c #DBDBDB",
"!. c #DCDCDC",
"~. c #DDDDDD",
"^. c #DEDEDE",
"/. c #DFDFDF",
"(. c #E0E0E0",
"). c #E1E1E1",
"_. c #E2E2E2",
"`. c #E3E3E3",
"'. c #E4E4E4",
"]. c #E6E6E6",
"[. c #E6E6E6",
"{. c #E7E7E7",
"}. c #E8E8E8",
"|. c #E9E9E9",
" X c #EAEAEA",
".X c #EBEBEB",
"XX c #ECECEC",
"oX c #EDEDED",
"OX c #EEEEEE",
"+X c #EFEFEF",
"@X c #F0F0F0",
"#X c #F1F1F1",
"$X c #F2F2F2",
"%X c #F3F3F3",
"&X c #F4F4F4",
"*X c #F5F5F5",
"=X c #F6F6F6",
"-X c #F7F7F7",
";X c #F8F8F8",
":X c #F9F9F9",
">X c #FAFAFA",
",X c #FBFBFB",
"<X c #FCFCFC",
"1X c #FDFDFD",
"2X c #FEFEFE",
"3X c #FFFFF1",
/* pixels */
"                                                                                                                                                                                                                                                                ",
"                                                                                                                                                                                                                                                                ",
"                                                                                                                                                                                                                                                                ",
"                                                                                                                                                                                                                                                                ",
"                                                                                                                                                                                                                                                                ",
"                                                                                                                                                                                                                                                                ",
"                                                                                                                                                                                                                                                                ",
"                                                                                                                                                                                                                                                                ",
"                                                                                                                                                                                                                                                                ",
"                                                                                                                                                                                                                                                                ",
"                                                                                                                                                                                                                                                                ",
"                                                                                                                                                                                                                                                                ",
"                                                                                                                                                                                                                                                                ",
"                                                                                                                                                                                                                                                                ",
"                                  g g j P           < y g C   0 g b Y                                                                                                                                                                                           ",
"                                + + + + + < y P   + + + + + < + + + 0     0 y y g C P                                                                                                                                                                           ",
"                              X X + + + + + + < + + + + + + X + + + < 0 + + + + + + + < y ~                                                                                                                                                                     ",
"                            } } ~ C y + + X C m.u.,.g P t.&.~ 0 + + + + + X + + + + + + + < )                                                                                                                                                                   ",
"                          #X;X;X;X#X~.t.b 0 ,.;X;X;X} } ;X;X#XP Y t.k.u.6.X.Y g < + + + + + b                                                                                                                                                                   ",
"                          ;X;X;Xm.v.#X;X~.&.#X;X;X;XD.u.P.P.D.X.}.;X;X;X;X;X#X`.k.C + + + + j         0 j ~                                                                                                                                                     ",
"                          `.`.}.~.~.#X;X;Xm.P.;X;X;X;X;X;X#X`.) ,.m.`.}.t.t.#X;X;X`.b + + 0       + + + + < < < 0 y )                                 b P                                                                                                       ",
"                          #X}.`.,.,.#X;X;Xu.) #X;X;Xv.v.;X;X#XX.k.`.}.}.m.m.#X;X;X;XX.+ < b ~   + + + + + + + + + + g y + + < < 0 g P             + + + + < 0 0 g j ~                                                                                           ",
"                          #X;X;X#X}.;X;X;XD.P.;X;X;X) X.;X;X}.m.;X;X;X;X;X;X;X;X;X;X) + + 0 6.D.6.b j j y < + + X X X + + + + + + + + g     + < + + + + + + + + + + g                                                                                           ",
"                                #X;X;X;X#X  ;X;X;X;XX.t.;X;X}.m.;X;X;X#Xk.u.~.`.D.,.0 + X } ;X;X;X`.P.}.~.u.0 g Y ~ P j 0 + + + + + + + < b ,.) P y 0 < + + + + + + g                     0 g b C )                                                             ",
"                                              #X#X#X    ;X;X}.1.}.;X;X#X6.&.~.`.m.6.P + X ~.;X;X;XP.#X;X;X`.&.`.;X;X;X#XP.6.j + + y g 0 X ~ ;X;X#Xu.P.m.u.b + + + + g     0 y g b P < + + + + + + < X.    0 b C                                                 ",
"                                                            #X    ;X;X;X;X;X;X;X;X;X6.      #X#X}.  }.;X;X}.~.;X;X#Xm.P.;X;X`.C } `.`.D.} ) #X;X;Xv.#X;X;X} + + + + < < + + + y 0 < + + + + + + + + y 0 + + + + < < P                                           ",
"                                                                        #X#X#X#X#X#X                ;X;X;X}.`.;X;X~.y g ~.;X;Xm.~.;X;X;X;X~.#X;X#Xv.#X;X;X) X 0 y 0 < + X + 0 m.P.v.t.X.< + + < < + X X + + + + + + C           < < y y j C                     ",
"                                                                                                    ;X;X;X`.u.;X;X}.~ b ~.;X;X#X#X;X;X}.t.~.;X;X#Xv.#X;X;XX.X.D.~.~.m.6.Y < 0 ~.;X;X;X;X~ X y v.v.6.&.~ 0 + + + + X C     + + + + + + + + + < g }               ",
"                                                                                                      #X;X`.  #X;X;X#X}.;X;X;XP.}.;X;Xm.+ } ;X;X#Xv.#X;X#Xk.#X;X;X`.~.;X#Xk.b P.;X;X;X;Xm.< ,.;X;X;X;X#XP + + + + y Y ) b y < + + + + + + + + + < }             ",
"                                                                                                                  #X;X;X;X;X#X  #X;X;Xm.+ ) ;X;X#Xv.#X;X#XD.}.#X#XP.m.}.;X;Xu.~.;X;X;X;X#X&.~.;X;X;X;X#XY + + + X.~.#X#X}.`.D.6.P < + + + + + + + y             ",
"                                                                                                                                  #X;XD.    ;X;X#Xv.#X;X#Xm.`.`.~.u.u.}.;X;X~.`.;X;X#X#X;X#X;X;X;X;X;X#XY + + P #X;X;X;X;X;X;X;X#Xu.y + + + + + + < &.          ",
"                                                                                                                                                #XD.#X;X#X6.`.;X;XP.k.#X;X;XP.`.;X;X`.m.;X;X;X#X`.;X;X#XY + + ,.;X;X;X`.6.6.P.;X;X;Xu.< + + + + + + }           ",
"                                                                                                                                                              #X#X;X;X;X;X#Xk.`.;X;XP.~ }.;X;XD.t.;X;X#XP X + ,.;X;X;X&.X + y D.;X;X#XC + + + + + < &.          ",
"                                                                                                                                                                              #X;X;X~.y P.;X#X) ,.;X;X#XP X X } ;X;X;Xt.< X X u.;X;X;X~ X + + + + g             ",
"                                                                                                                                                                                          #X`.  P.;X;X#XY X X   ;X;X;X#Xk.X.,.}.;X;X;X~ X + + +                 ",
"                                                                                                                                                                                                      #X          ;X;X;X;X;X;X;X;X;X`.j + +                     ",
"                                                                                                                                                                                                                      #X;X;X;X;X;X#Xu.                          ",
"                                                                                                                                                                                                                                                                ",
"                                                                                                                                                                                                                                                                ",
"                                                                                                                                                                                                                                                                ",
"                                                                                                                                                                                                                                                                ",
"                                                                                                                                                                                                                                                                ",
"                                                                                                                                                                                                                                                                ",
"                                                                                                                                                                                                                                                                ",
"                                                                                                                                                                                                                                                                ",
"                                                                                                                                                                                                                                                                ",
"                                                                                                                                                                                                                                                                ",
"                                                                                                                                                                                                                                                                ",
"                                                                                                                                                                                                                                                                ",
"                                                                                                                                                                                                                                                                ",
"                                                                                                                                                                                                                                                                ",
"                                                                                                                                                                                                                                                                ",
"                                                                                                                                                                                                                                                                ",
"                                                                                                                                                                                                                                                                "
};
