/* XPM */
static char *oms_301[] = {
/* columns rows colors chars-per-pixel */
"128 54 189 2 ",
"   c #FF00FF",
".  c #090909",
"X  c #0C0C0C",
"o  c #0D0D0D",
"O  c #0E0E0E",
"+  c #0F0F0F",
"@  c #101010",
"#  c #111111",
"$  c #121212",
"%  c #131313",
"&  c #141414",
"*  c #151515",
"=  c #161616",
"-  c #171717",
";  c #181818",
":  c #191919",
">  c #1A1A1A",
",  c #1B1B1B",
"<  c #1C1C1C",
"1  c #1D1D1D",
"2  c #1F1F1F",
"3  c #202020",
"4  c #212121",
"5  c #222222",
"6  c #232323",
"7  c #242424",
"8  c #252525",
"9  c #262626",
"0  c #272727",
"q  c #282828",
"w  c #2B2B2B",
"e  c #2C2C2C",
"r  c #2D2D2D",
"t  c #2E2E2E",
"y  c #2F2F2F",
"u  c #303030",
"i  c #313131",
"p  c #323232",
"a  c #343434",
"s  c #353535",
"d  c #373737",
"f  c #383838",
"g  c #3A3A3A",
"h  c #3B3B3B",
"j  c #3C3C3C",
"k  c #3E3E3E",
"l  c #3F3F3F",
"z  c #414141",
"x  c #444444",
"c  c #464646",
"v  c #474747",
"b  c #484848",
"n  c #494949",
"m  c #4A4A4A",
"M  c #4C4C4C",
"N  c #525252",
"B  c #535353",
"V  c #545454",
"C  c #575757",
"Z  c #585858",
"A  c #5B5B5B",
"S  c #5F5F5F",
"D  c #616161",
"F  c #626262",
"G  c #6C6C6C",
"H  c #6D6D6D",
"J  c #6E6E6E",
"K  c #6F6F6F",
"L  c #707070",
"P  c #717171",
"I  c #767676",
"U  c #787878",
"Y  c #7A7A7A",
"T  c #7B7B7B",
"R  c #7D7D7D",
"E  c #7E7E7E",
"W  c #808080",
"Q  c #808080",
"!  c #818181",
"~  c #828282",
"^  c #838383",
"/  c #848484",
"(  c #858585",
")  c #878787",
"_  c #898989",
"`  c #8A8A8A",
"'  c #8B8B8B",
"]  c #8F8F8F",
"[  c #909090",
"{  c #919191",
"}  c #929292",
"|  c #959595",
" . c #989898",
".. c #999999",
"X. c #9A9A9A",
"o. c #9B9B9B",
"O. c #9C9C9C",
"+. c #9D9D9D",
"@. c #9E9E9E",
"#. c #A0A0A0",
"$. c #A1A1A1",
"%. c #A2A2A2",
"&. c #A3A3A3",
"*. c #A4A4A4",
"=. c #A5A5A5",
"-. c #A6A6A6",
";. c #A7A7A7",
":. c #AAAAAA",
">. c #ABABAB",
",. c #ADADAD",
"<. c #AEAEAE",
"1. c #AFAFAF",
"2. c #B0B0B0",
"3. c #B2B2B2",
"4. c #B2B2B2",
"5. c #B4B4B4",
"6. c #B5B5B5",
"7. c #B6B6B6",
"8. c #B7B7B7",
"9. c #B8B8B8",
"0. c #B9B9B9",
"q. c #BABABA",
"w. c #BBBBBB",
"e. c #BCBCBC",
"r. c #808080",
"t. c #BFBFBF",
"y. c #C0C0C0",
"u. c #C1C1C1",
"i. c #C2C2C2",
"p. c #C3C3C3",
"a. c #C4C4C4",
"s. c #C5C5C5",
"d. c #C6C6C6",
"f. c #C7C7C7",
"g. c #C8C8C8",
"h. c #C9C9C9",
"j. c #CACACA",
"k. c #CBCBCB",
"l. c #CCCCCC",
"z. c #CDCDCD",
"x. c #CECECE",
"c. c #CFCFCF",
"v. c #D0D0D0",
"b. c #D1D1D1",
"n. c #D2D2D2",
"m. c #D3D3D3",
"M. c #D4D4D4",
"N. c #D5D5D5",
"B. c #D7D7D7",
"V. c #D8D8D8",
"C. c #D9D9D9",
"Z. c #DADADA",
"A. c #DBDBDB",
"S. c #DCDCDC",
"D. c #DDDDDD",
"F. c #DEDEDE",
"G. c #DFDFDF",
"H. c #E0E0E0",
"J. c #E1E1E1",
"K. c #E2E2E2",
"L. c #E3E3E3",
"P. c #E4E4E4",
"I. c #E6E6E6",
"U. c #E6E6E6",
"Y. c #E7E7E7",
"T. c #E8E8E8",
"R. c #E9E9E9",
"E. c #EAEAEA",
"W. c #EBEBEB",
"Q. c #ECECEC",
"!. c #EDEDED",
"~. c #EEEEEE",
"^. c #EFEFEF",
"/. c #F0F0F0",
"(. c #F1F1F1",
"). c #F2F2F2",
"_. c #F3F3F3",
"`. c #F4F4F4",
"'. c #F5F5F5",
"]. c #F6F6F6",
"[. c #F7F7F7",
"{. c #F8F8F8",
"}. c #F9F9F9",
"|. c #FAFAFA",
" X c #FBFBFB",
".X c #FCFCFC",
"XX c #FDFDFD",
"oX c #FEFEFE",
"OX c #FFFFF1",
/* pixels */
"                                                                                                                                                                                                                                                                ",
"                                                                                                                                                                                                                                                                ",
"                                                                                                                                                                                                                                                                ",
"                                                                                                                                                                                                                                                                ",
"                                                                                                                                                                                                                                                                ",
"                                                                                                                                                                                                                                                                ",
"                                                                                                                                                                                                                                                                ",
"                                                                                                                                                                                                                                                                ",
"                                                                                                                                                                                                                                                                ",
"                                                                                                                                                                                                                                                                ",
"                                                                                                                                                                                                                                                                ",
"                                                                                                                                                                                                                                                                ",
"                                                                                                                                                                                                                                                                ",
"                                                                                                                                                                                                                                                                ",
"                                                                                                                                                                                                                                                                ",
"                                                                                                                                                                                                                                                                ",
"                                                                                                                                                                                                                                                                ",
"                                                      [.S.Y : $ $ $ $ $ $ $ $ : i                                                                                                                                                                               ",
"                                                    |.|.|.[.} : $ e i : $ $ $ $ $ e g $ : i                                                                                                                                                                     ",
"                                                    |.|.|.|.[.S . Y R.k.n $ i 7 $ $ $ $ $ $ : v $ 7                                                                                                                                                             ",
"                                                  |.|.p.S k.|.@.. ( |.|.' g S.S.Y $ $ $ $ $ $ . $ $ $ (                                                                                                                                                         ",
"                                                  |.|.' . L |.r.$ ( |.|.5.L |.|.#.$ $ $ $ : B i : $ $ i : $ $ $ $ 7 i                                                                                                                                           ",
"                                                  |.|.,.$ G |.p.: ( |.|.Y.p.|.|.#.: e : . i R.v.5.@.7 $ $ $ $ $ $ $ $ $ (                                                                                                                                       ",
"                                                    |.R.#.k.|.r.: ( |.|.|.[.|.|.,.} S.k.G g R.Y.S.R.g . $ $ $ $ $ $ $ $ Y                                                                                                                                       ",
"                                                    [.|.|.|.|.#.$ ( |.R.[.|.[.|.k.R.[.Y.R.' R.Y.S.R.g 7 $ $ $ $ $ $ $ $ i 7 F                                                                                                                                   ",
"                                                      [.|.|.R.B . ( |.p.S.[.p.|.S.[.R.p.|.S.[.S.S.[.r.v.G $ i i : $ $ $ $ $ 7 e $ : g                                                                                                                           ",
"                                                                    |.,.r.Y.@.|.S.[.R.k.R.R.|.S.S.|.|.|.v.G Y.R.p.B 7 i $ $ $ $ : Y r.r.( e $ $ $ $ $ $ $ $ 7 n                                                                                                 ",
"                                                                        5.p.( |.p.S.Y.@.v.v.[.S.S.[.@.Y.R.v.|.[.|.S.} S.} ' B $ g R.|.|.|.p.n } F $ . $ $ $ $ $ $ $ B                                                                                           ",
"                                                                              |.#.,.|.|.|.S.[.S.S.R.v v.[.Y.|.Y 5.|.v.|.[.|.k.7 v R.[.5.Y.|.5.R.v.S G i $ $ $ $ $ $ $ $ g                                                                                       ",
"                                                                                      [.[.#.[.S.S.Y.v v.R.S.|.S } |.R.|.S.Y.R.g i Y.|.p.k.k.#.p.5.} |.' . $ $ $ $ $ $ $ e #.                                                                                    ",
"                                                                                                Y.Y.n S.R.5.|.k.v.|.Y.|.#.r.|.n $ #.|.|.|.S.Y Y.S.S.|.,.: : : $ $ $ $ $ $ e : $ g                                                                               ",
"                                                                                                        Y.Y R.|.|.R.r.|.@.g L e i ' k.v.[.|.v.R.[.[.|.Y.Y k.k.( 7 $ $ $ $ $ $ $ $ n                                                                             ",
"                                                                                                                [.p.,.|.@.. . . n [.[.Y p.|.Y.[.S.p.|.Y.S.|.Y.|.' $ $ $ $ $ $ $ $ 7 @.                                                                          ",
"                                                                                                                                  [.|.R.[.|.Y.[.k.' |.5.v.[.r.R.S.e $ $ $ $ $ $ $ : }                                                                           ",
"                                                                                                                                    [.|.|.[.r.R.k.' |.k.S.[.v.Y.Y.i $ $ $ $ $ $ $ 7 @.                                                                          ",
"                                                                                                                                              [.k.( |.Y.v.[.@.p.p.i $ $ $ $ $ $ $ 7 @.                                                                          ",
"                                                                                                                                                    [.S.@.[.|.|.S.e $ $ $ $ $ $ $                                                                               ",
"                                                                                                                                                            [.|.5.                                                                                              ",
"                                                                                                                                                                                                                                                                ",
"                                                                                                                                                                                                                                                                ",
"                                                                                                                                                                                                                                                                ",
"                                                                                                                                                                                                                                                                ",
"                                                                                                                                                                                                                                                                ",
"                                                                                                                                                                                                                                                                ",
"                                                                                                                                                                                                                                                                ",
"                                                                                                                                                                                                                                                                ",
"                                                                                                                                                                                                                                                                ",
"                                                                                                                                                                                                                                                                ",
"                                                                                                                                                                                                                                                                ",
"                                                                                                                                                                                                                                                                ",
"                                                                                                                                                                                                                                                                ",
"                                                                                                                                                                                                                                                                ",
"                                                                                                                                                                                                                                                                ",
"                                                                                                                                                                                                                                                                "
};
