/* XPM */
static char *oms_143[] = {
/* columns rows colors chars-per-pixel */
"128 54 195 2 ",
"   c #FF00FF",
".  c #0B0B0B",
"X  c #0D0D0D",
"o  c #0E0E0E",
"O  c #0F0F0F",
"+  c #101010",
"@  c #111111",
"#  c #121212",
"$  c #131313",
"%  c #141414",
"&  c #151515",
"*  c #161616",
"=  c #171717",
"-  c #181818",
";  c #191919",
":  c #1A1A1A",
">  c #1B1B1B",
",  c #1C1C1C",
"<  c #1D1D1D",
"1  c #1E1E1E",
"2  c #1F1F1F",
"3  c #202020",
"4  c #212121",
"5  c #222222",
"6  c #232323",
"7  c #242424",
"8  c #252525",
"9  c #262626",
"0  c #272727",
"q  c #282828",
"w  c #2A2A2A",
"e  c #2B2B2B",
"r  c #2C2C2C",
"t  c #2D2D2D",
"y  c #2E2E2E",
"u  c #2F2F2F",
"i  c #303030",
"p  c #313131",
"a  c #323232",
"s  c #353535",
"d  c #363636",
"f  c #373737",
"g  c #383838",
"h  c #393939",
"j  c #3A3A3A",
"k  c #3B3B3B",
"l  c #3C3C3C",
"z  c #3D3D3D",
"x  c #3F3F3F",
"c  c #404040",
"v  c #414141",
"b  c #434343",
"n  c #444444",
"m  c #464646",
"M  c #474747",
"N  c #494949",
"B  c #4A4A4A",
"V  c #4B4B4B",
"C  c #4C4C4C",
"Z  c #4E4E4E",
"A  c #4F4F4F",
"S  c #505050",
"D  c #515151",
"F  c #555555",
"G  c #565656",
"H  c #575757",
"J  c #595959",
"K  c #5A5A5A",
"L  c #5C5C5C",
"P  c #5D5D5D",
"I  c #5E5E5E",
"U  c #5F5F5F",
"Y  c #616161",
"T  c #636363",
"R  c #646464",
"E  c #656565",
"W  c #666666",
"Q  c #676767",
"!  c #686868",
"~  c #6A6A6A",
"^  c #6C6C6C",
"/  c #6E6E6E",
"(  c #6F6F6F",
")  c #707070",
"_  c #717171",
"`  c #737373",
"'  c #757575",
"]  c #767676",
"[  c #777777",
"{  c #7D7D7D",
"}  c #7E7E7E",
"|  c #808080",
" . c #808080",
".. c #838383",
"X. c #858585",
"o. c #878787",
"O. c #888888",
"+. c #898989",
"@. c #8A8A8A",
"#. c #8B8B8B",
"$. c #8C8C8C",
"%. c #8D8D8D",
"&. c #8E8E8E",
"*. c #909090",
"=. c #939393",
"-. c #949494",
";. c #959595",
":. c #969696",
">. c #989898",
",. c #999999",
"<. c #9A9A9A",
"1. c #9B9B9B",
"2. c #9D9D9D",
"3. c #9E9E9E",
"4. c #9F9F9F",
"5. c #A2A2A2",
"6. c #A3A3A3",
"7. c #A5A5A5",
"8. c #A6A6A6",
"9. c #A7A7A7",
"0. c #A9A9A9",
"q. c #AAAAAA",
"w. c #ADADAD",
"e. c #AEAEAE",
"r. c #B0B0B0",
"t. c #B2B2B2",
"y. c #B4B4B4",
"u. c #B5B5B5",
"i. c #B9B9B9",
"p. c #BABABA",
"a. c #BBBBBB",
"s. c #BCBCBC",
"d. c #808080",
"f. c #BFBFBF",
"g. c #C0C0C0",
"h. c #C1C1C1",
"j. c #C3C3C3",
"k. c #C4C4C4",
"l. c #C5C5C5",
"z. c #C6C6C6",
"x. c #C7C7C7",
"c. c #C8C8C8",
"v. c #C9C9C9",
"b. c #CACACA",
"n. c #CBCBCB",
"m. c #CCCCCC",
"M. c #CDCDCD",
"N. c #CECECE",
"B. c #CFCFCF",
"V. c #D0D0D0",
"C. c #D1D1D1",
"Z. c #D3D3D3",
"A. c #D4D4D4",
"S. c #D5D5D5",
"D. c #D6D6D6",
"F. c #D7D7D7",
"G. c #D8D8D8",
"H. c #D9D9D9",
"J. c #DADADA",
"K. c #DBDBDB",
"L. c #DCDCDC",
"P. c #DDDDDD",
"I. c #DEDEDE",
"U. c #DFDFDF",
"Y. c #E1E1E1",
"T. c #E2E2E2",
"R. c #E3E3E3",
"E. c #E4E4E4",
"W. c #E6E6E6",
"Q. c #E6E6E6",
"!. c #E7E7E7",
"~. c #E8E8E8",
"^. c #E9E9E9",
"/. c #EAEAEA",
"(. c #EBEBEB",
"). c #ECECEC",
"_. c #EDEDED",
"`. c #EEEEEE",
"'. c #EFEFEF",
"]. c #F0F0F0",
"[. c #F1F1F1",
"{. c #F2F2F2",
"}. c #F3F3F3",
"|. c #F4F4F4",
" X c #F5F5F5",
".X c #F6F6F6",
"XX c #F7F7F7",
"oX c #F8F8F8",
"OX c #F9F9F9",
"+X c #FAFAFA",
"@X c #FBFBFB",
"#X c #FCFCFC",
"$X c #FDFDFD",
"%X c #FEFEFE",
"&X c #FFFFF1",
/* pixels */
"                                                                                                                                                                                                                                                                ",
"                                                                                                                                                                                                                                                                ",
"                                                                                                                                                                                                                                                                ",
"                                                                                                                                                                                                                                                                ",
"                                                                                                                                                                                                                                                                ",
"                                                                                                                                                                                                                                                                ",
"                                                                                                                                                                                                                                                                ",
"                                                                                                                                                                                                                                                                ",
"                                                                                                                                                                                                                                                                ",
"                                                                                                                                                                                                                                                                ",
"                                                                                                                                                                                                                                                                ",
"                                                                                                                                                                                                                                                                ",
"                                                                                                                                                                                                                                                                ",
"                                                    @ @ @ 2 u D   @ @ @ 2 p 7 7 x D                                                                                                                                                                             ",
"                                              o o @ @ @ @ @ o @ @ o @ @ @ @ @ @ @ @ U   7 x V !                                                                                                                                                                 ",
"                                          _.x.=.R u @ o v y.+.V 7 U x 7 @ @ @ @ @ @ @ @ @ @ @ 2 7 x [                                                                                                                                                           ",
"                                        XXOXOXXXXXK.[ 7 +.OXOXN.V XX_.p.7 u x p 7 @ o @ @ @ @ @ @ @ 2 U                                                                                                                                                         ",
"                                        XXXXXXp.N.OXXX<._.OXOXR.+.V.R.V.! K.XX_.V.e.[ p @ @ @ @ @ @ @ 7 =.                                                                                                                                                      ",
"                                        R.K.K.N.R.OXOXK.K.OXOXOXOX_.R.x.<._.XXOXXXOXOXR.| 2 @ @ @ @ @ 2 |                                                                                                                                                       ",
"                                        XXXX_.=.e.OXOXx.[ XXOX_.N.OXOXR.V <.N.K.+.<.XXOXXXR @ @ @ @ @ 7       @ 2 x                                                                                                                                             ",
"                                          XXOXXXXXOXOXV.N.OXOXV.D XXOXR.x.OXXXXXR.R.XXOXOX=.@ @ @ @ u   @ @ @ @ @ @ 2 2 7 p +.                                                                                                                                  ",
"                                              XXXXXXXX  OXOXOXN.V XXOX_.R.OXOXOXOXOXOXOXOX..@ @ p +...u @ @ o @ @ @ @ @ @ @ x 7 2 7 p V                   D                                                                                                     ",
"                                                          XXOXx.  XXOXR.N.OXOXXX+.+.K.V.<.u @ @ 7.OXOXx.<.7.[ u o @ @ o @ @ @ @ @ @ @ @ 2 v       @ @ @ @ @ 2 p p V                                                                                             ",
"                                                                  XXOXK...XXOXOXx.y._.K.y.U @ 2 x.OXOXXXXXOXOX| U 7.7.| V 7 @ @ @ @ @ @ 7 V v 2 @ o @ @ @ @ @ @ @ @ 7 <.                                                                                        ",
"                                                                            XXOXOXOXOXOXOX<.@ 2 N.OXXX=.K.OXOXp._.OXOXOXXXN.U @ @ 7 2 o v R.K.7.[ R x 2 @ @ @ @ @ @ 2 =.                                                                                        ",
"                                                                                  XXXXOXXX              _.OXOXXXOXOX_.<.V.OX_.U [ V.x.[ D _.OXK.N.OX_.R @ @ @ @ @ @ 2 +.            @ @ 7 p V R                                                                 ",
"                                                                                                        XXOXOXK.XXOXN.@ ! OXOXN.K.OXOXXXx.XXOXK.x.OXOX| o @ @ @ @ @ @ u 2 @ @ 2 @ @ @ @ @ @ @ 2 |                                                               ",
"                                                                                                        XXOXOX7.K.OX_.[ =.OXOXXXXXOXOXK.R.OXOXK.x.OXOX[ 2 v x 7 @ @ o D x.<.! x @ @ @ @ @ @ @ @ 7 2 @ @ 2 7 p ..                                                ",
"                                                                                                                  OXOXXXXXOXOXV.R.OXXXD R XXOXK.x.OXOX=.p._._.K.e.U @ U OXOXOXK.p o x D p 2 @ @ @ @ @ @ @ @ o !                                                 ",
"                                                                                                                      XXXXOXXX  _.OXXXv v _.OXK.x.OXOXV.XXOX_.N.XXXX+.R OXOXOXOX[ @ y.OXR.x...2 @ @ @ @ @ @ @ U     @ @ @ 2 7 u v [                             ",
"                                                                                                                                  XXXXV V XXOXK.x.OXOXR.R._._.N._.OXXXe.XXOXOXOXx.U _.OXOXOXR.u @ @ @ u x x 7 2 @ @ @ @ @ @ @ @ @ 2 v <.                        ",
"                                                                                                                                          OXOXK.N.OXOXN.R.R.x.=.R.OXOXR.XXOXOXOX_.V.OXOXOXOXR.u @ @ [ K.XX_.V.e.R 7 @ @ @ @ @ @ @ @ @ p y.                      ",
"                                                                                                                                                  XXXX7.R.OX_.p.R.OXOXK.XXOX_.K.OXOXOXOXOXOXR.u o x _.OXOXOXOXOXOXx.V @ @ @ @ @ @ @ @ @ !                       ",
"                                                                                                                                                            OXOXOXOX_.7.XXOXV.=.OXOXOXV.XXOXR.u o U OXOXOXV.p.R.OXOXK.x @ @ @ @ @ @ @ @ v                       ",
"                                                                                                                                                                        XXOXV.D R.OXK.| XXOXR.u o U OXOX_.v @ x N.OXOX=.@ @ @ @ @ @ @ @ x                       ",
"                                                                                                                                                                            V.  R.OX<.R XXOXR.u o v _.OXXXV o o =.OXOXx.2 @ @ @ @ @ @ @ v                       ",
"                                                                                                                                                                                        XXOXR.u @ 7 K.OXOXN.R D N.OXOXN.2 @ @ @ @ @ @ @ R                       ",
"                                                                                                                                                                                                      XXOXOXXXXXOXOXOXp.@ @ @ @ @ @ @ p                         ",
"                                                                                                                                                                                                        XXOXOXOXOXOXXX[ @ @ @                                   ",
"                                                                                                                                                                                                              XXXXXX                                            ",
"                                                                                                                                                                                                                                                                ",
"                                                                                                                                                                                                                                                                ",
"                                                                                                                                                                                                                                                                ",
"                                                                                                                                                                                                                                                                ",
"                                                                                                                                                                                                                                                                ",
"                                                                                                                                                                                                                                                                ",
"                                                                                                                                                                                                                                                                ",
"                                                                                                                                                                                                                                                                ",
"                                                                                                                                                                                                                                                                ",
"                                                                                                                                                                                                                                                                ",
"                                                                                                                                                                                                                                                                ",
"                                                                                                                                                                                                                                                                ",
"                                                                                                                                                                                                                                                                ",
"                                                                                                                                                                                                                                                                "
};
