/* XPM */
static char *oms_279[] = {
/* columns rows colors chars-per-pixel */
"128 54 115 2 ",
"   c #FF00FF",
".  c #0F0F0F",
"X  c #101010",
"o  c #111111",
"O  c #121212",
"+  c #131313",
"@  c #141414",
"#  c #161616",
"$  c #181818",
"%  c #191919",
"&  c #1A1A1A",
"*  c #1B1B1B",
"=  c #1C1C1C",
"-  c #1E1E1E",
";  c #1F1F1F",
":  c #212121",
">  c #232323",
",  c #252525",
"<  c #272727",
"1  c #2B2B2B",
"2  c #2C2C2C",
"3  c #303030",
"4  c #343434",
"5  c #353535",
"6  c #373737",
"7  c #3A3A3A",
"8  c #3E3E3E",
"9  c #3F3F3F",
"0  c #404040",
"q  c #414141",
"w  c #444444",
"e  c #474747",
"r  c #484848",
"t  c #4A4A4A",
"y  c #4C4C4C",
"u  c #505050",
"i  c #535353",
"p  c #595959",
"a  c #5B5B5B",
"s  c #5D5D5D",
"d  c #5E5E5E",
"f  c #616161",
"g  c #626262",
"h  c #636363",
"j  c #676767",
"k  c #6A6A6A",
"l  c #6B6B6B",
"z  c #707070",
"x  c #727272",
"c  c #737373",
"v  c #757575",
"b  c #767676",
"n  c #787878",
"m  c #7E7E7E",
"M  c #808080",
"N  c #818181",
"B  c #838383",
"V  c #8B8B8B",
"C  c #8C8C8C",
"Z  c #8D8D8D",
"A  c #939393",
"S  c #949494",
"D  c #959595",
"F  c #979797",
"G  c #9E9E9E",
"H  c #9F9F9F",
"J  c #A0A0A0",
"K  c #A2A2A2",
"L  c #A7A7A7",
"P  c #A8A8A8",
"I  c #A9A9A9",
"U  c #AEAEAE",
"Y  c #B2B2B2",
"T  c #B2B2B2",
"R  c #B4B4B4",
"E  c #B7B7B7",
"W  c #B8B8B8",
"Q  c #B9B9B9",
"!  c #BABABA",
"~  c #BFBFBF",
"^  c #C4C4C4",
"/  c #C6C6C6",
"(  c #C8C8C8",
")  c #C9C9C9",
"_  c #CBCBCB",
"`  c #CDCDCD",
"'  c #CECECE",
"]  c #CFCFCF",
"[  c #D2D2D2",
"{  c #D3D3D3",
"}  c #D5D5D5",
"|  c #D7D7D7",
" . c #D8D8D8",
".. c #D9D9D9",
"X. c #DADADA",
"o. c #DBDBDB",
"O. c #DCDCDC",
"+. c #DDDDDD",
"@. c #DEDEDE",
"#. c #E0E0E0",
"$. c #E1E1E1",
"%. c #E2E2E2",
"&. c #E4E4E4",
"*. c #E7E7E7",
"=. c #E8E8E8",
"-. c #EAEAEA",
";. c #EBEBEB",
":. c #EDEDED",
">. c #EEEEEE",
",. c #F0F0F0",
"<. c #F2F2F2",
"1. c #F3F3F3",
"2. c #F6F6F6",
"3. c #F7F7F7",
"4. c #FFFFF1",
/* pixels */
"                                                                                                                                                                                                                                                                ",
"                                                                                                                                                                                                                                                                ",
"                                                                                                                                                                                                                                                                ",
"                                                                                                                                                                                                                                                                ",
"                                                                                                                                                                                                                                                                ",
"                                                                                                                                                                                                                                                                ",
"                                                                                                                                                                                                                                                                ",
"                                                                                                                                                                                                                                                                ",
"                                                                                                                                                                                                                                                                ",
"                                                                                                                                                                                                                                                                ",
"                                                                                                                                                                                                                                                                ",
"                                                                                                                                                                                                                                                                ",
"                                                                                                                                                                                                                                                                ",
"                                                                                                                                                                                                                                                                ",
"                                                                                            x . + + + + + + + + + 2                                                                                                                                             ",
"                                                                                          4.H + + + + + + + + + + $ Z                                                                                                                                           ",
"                                                                                            Q p $ + + + + + + + + + 3 Z                                                                                                                                         ",
"                                                                                            S S 0 + + + + + + + + + . i                                                                                                                                         ",
"                                                                                            Z P P < + + + + + + + + + + x                                                                                                                                       ",
"                                                                                          _ H R / 3 + + + + + + + + + . j                                                                                                                                       ",
"                                                                                            / Q +.3 3 + + + + + + + + + 0                                                                                                                                       ",
"                                                                                            / R ,.B K 3 + + + + + + + + $ <                                                                                                                                     ",
"                                                                                            R R ,.+._ r + + + + + + + + + < i                                                                                                                                   ",
"                                                                                              _ | +.+.r + + + + + + + + + 2 r                                                                                                                                   ",
"                                                                                                +.,.=.M + + + + + + + + + $ < H                                                                                                                                 ",
"                                                                                                =.| ,._ 7 + + + + + + + + + + r                                                                                                                                 ",
"                                                                                                  =.=.*.Q < + + + + + + + + + + x                                                                                                                               ",
"                                                                                                  =.*._ =.x 0 r + + + + + + + + $ $ 0                                                                                                                           ",
"                                                                                                    *._ _ | S P $ + + + + + + + + + $ B                                                                                                                         ",
"                                                                                                      +._ *.P +.j + + + + + + + + + + 0                                                                                                                         ",
"                                                                                                        =.| S +.K $ + + + + + + + + + $ Z                                                                                                                       ",
"                                                                                                        ,.Q M | Q 7 + + + + + + + + + + M                                                                                                                       ",
"                                                                                                          S j *.*.7 + + + + + + + + + + j                                                                                                                       ",
"                                                                                                            K +.,.B $ + + + + + + + + + $ Z                                                                                                                     ",
"                                                                                                              ,.*.+.r + + + + + + + + + + l                                                                                                                     ",
"                                                                                                              ,.+.+.p + + + + + + + + + + p                                                                                                                     ",
"                                                                                                                +.=.x . + + + + + + + + + j                                                                                                                     ",
"                                                                                                                *.| j + + + + + + + + + + l                                                                                                                     ",
"                                                                                                                  *.l + + + + + + + + + + p                                                                                                                     ",
"                                                                                                                    x . + + + $ $ $ $                                                                                                                           ",
"                                                                                                                                                                                                                                                                ",
"                                                                                                                                                                                                                                                                ",
"                                                                                                                                                                                                                                                                ",
"                                                                                                                                                                                                                                                                ",
"                                                                                                                                                                                                                                                                ",
"                                                                                                                                                                                                                                                                ",
"                                                                                                                                                                                                                                                                ",
"                                                                                                                                                                                                                                                                ",
"                                                                                                                                                                                                                                                                ",
"                                                                                                                                                                                                                                                                ",
"                                                                                                                                                                                                                                                                ",
"                                                                                                                                                                                                                                                                ",
"                                                                                                                                                                                                                                                                ",
"                                                                                                                                                                                                                                                                "
};
