/* XPM */
static char *oms_018[] = {
/* columns rows colors chars-per-pixel */
"128 54 162 2 ",
"   c #FF00FF",
".  c #080808",
"X  c #0A0A0A",
"o  c #0D0D0D",
"O  c #0E0E0E",
"+  c #0F0F0F",
"@  c #101010",
"#  c #111111",
"$  c #121212",
"%  c #131313",
"&  c #141414",
"*  c #151515",
"=  c #191919",
"-  c #1B1B1B",
";  c #1D1D1D",
":  c #1E1E1E",
">  c #232323",
",  c #272727",
"<  c #282828",
"1  c #2A2A2A",
"2  c #2E2E2E",
"3  c #2F2F2F",
"4  c #303030",
"5  c #343434",
"6  c #353535",
"7  c #363636",
"8  c #373737",
"9  c #393939",
"0  c #3A3A3A",
"q  c #3C3C3C",
"w  c #3F3F3F",
"e  c #444444",
"r  c #484848",
"t  c #4C4C4C",
"y  c #4C4C4C",
"u  c #505050",
"i  c #525252",
"p  c #565656",
"a  c #575757",
"s  c #5A5A5A",
"d  c #5C5C5C",
"f  c #5D5D5D",
"g  c #626262",
"h  c #636363",
"j  c #676767",
"k  c #686868",
"l  c #6B6B6B",
"z  c #6C6C6C",
"x  c #6D6D6D",
"c  c #707070",
"v  c #717171",
"b  c #727272",
"n  c #737373",
"m  c #747474",
"M  c #777777",
"N  c #787878",
"B  c #797979",
"V  c #7B7B7B",
"C  c #7C7C7C",
"Z  c #7D7D7D",
"A  c #808080",
"S  c #818181",
"D  c #838383",
"F  c #848484",
"G  c #858585",
"H  c #868686",
"J  c #878787",
"K  c #888888",
"L  c #8B8B8B",
"P  c #8C8C8C",
"I  c #8D8D8D",
"U  c #8E8E8E",
"Y  c #909090",
"T  c #919191",
"R  c #929292",
"E  c #939393",
"W  c #959595",
"Q  c #979797",
"!  c #9C9C9C",
"~  c #9E9E9E",
"^  c #A0A0A0",
"/  c #A1A1A1",
"(  c #A2A2A2",
")  c #A4A4A4",
"_  c #A6A6A6",
"`  c #A9A9A9",
"'  c #ABABAB",
"]  c #ADADAD",
"[  c #AEAEAE",
"{  c #B0B0B0",
"}  c #B2B2B2",
"|  c #B2B2B2",
" . c #B4B4B4",
".. c #B5B5B5",
"X. c #B6B6B6",
"o. c #B8B8B8",
"O. c #B9B9B9",
"+. c #BABABA",
"@. c #BBBBBB",
"#. c #BCBCBC",
"$. c #BDBDBD",
"%. c #BFBFBF",
"&. c #C0C0C0",
"*. c #C1C1C1",
"=. c #C2C2C2",
"-. c #C4C4C4",
";. c #C5C5C5",
":. c #C6C6C6",
">. c #C7C7C7",
",. c #C9C9C9",
"<. c #CBCBCB",
"1. c #CCCCCC",
"2. c #CDCDCD",
"3. c #CECECE",
"4. c #CFCFCF",
"5. c #D0D0D0",
"6. c #D1D1D1",
"7. c #D2D2D2",
"8. c #D3D3D3",
"9. c #D4D4D4",
"0. c #D5D5D5",
"q. c #D6D6D6",
"w. c #D7D7D7",
"e. c #D8D8D8",
"r. c #D9D9D9",
"t. c #DADADA",
"y. c #DBDBDB",
"u. c #DCDCDC",
"i. c #DDDDDD",
"p. c #DEDEDE",
"a. c #DFDFDF",
"s. c #E0E0E0",
"d. c #E1E1E1",
"f. c #E2E2E2",
"g. c #E3E3E3",
"h. c #E4E4E4",
"j. c #E6E6E6",
"k. c #E6E6E6",
"l. c #E7E7E7",
"z. c #E8E8E8",
"x. c #E9E9E9",
"c. c #EAEAEA",
"v. c #EBEBEB",
"b. c #ECECEC",
"n. c #EDEDED",
"m. c #EEEEEE",
"M. c #EFEFEF",
"N. c #F0F0F0",
"B. c #F1F1F1",
"V. c #F2F2F2",
"C. c #F3F3F3",
"Z. c #F4F4F4",
"A. c #F5F5F5",
"S. c #F6F6F6",
"D. c #F7F7F7",
"F. c #F8F8F8",
"G. c #F9F9F9",
"H. c #FAFAFA",
"J. c #FBFBFB",
"K. c #FCFCFC",
"L. c #FDFDFD",
"P. c #FEFEFE",
/* pixels */
"                                                                                                                                                                                                                                                                ",
"                                                                                                                                                                                                                                                                ",
"                                                                                                                                                                                                                                                                ",
"                                                                                                                                                                                                                                                                ",
"                                                                                                                                                                                                                                                                ",
"                                                                                                                                                                                                                                                                ",
"                                                                                                                                                                                                                                                                ",
"                                                                                                                                                                                                                                                                ",
"                                                                                                                                                                                                                                                                ",
"                                                                                                                                                                                                                                                                ",
"                                                                                                                                                                                                                                                                ",
"                                                                                                                                                                                                                                                                ",
"                                                                                                                                                                                                                                                                ",
"                                                                                                                                                                                                                                                                ",
"                                                                                                                                                                                                                                                                ",
"                                                                                                                                                                                                                                                                ",
"                                                                                                                                                                                                                                                                ",
"                                                                                                                                                                                                                                                                ",
"                                                                                                                                                                                                                                                                ",
"                                                                                                                                                                                                                                                                ",
"                                                                                                                                                                                                                                                                ",
"                                                                                                                                                                                                                                                                ",
"                                                                                                                                                                                    @ @ 4 k W X.l.M.    D 4 X i                                                 ",
"                      v ` 1.y.y.y.l.l.M.          2 :.y.l.l.M.M.  @ ; ` l.y.l.M.C.                w @ i l.M.M.:.X.M.C.C.                                                        @ @ @ j q.C.H.H.H.H.H.H.C.q.i D H.H.H.) > :.l.C.C.                              ",
"                  2 ` C.H.H.H.H.H.H.H.H.C.        2 M.H.H.H.H.H.X.X j C.H.H.H.H.C.                w X f C.H.H.q.:.H.H.H.X.                                                    > @ @ 2 y.H.H.H.M.X.:.C.C.C.H.1.D l.y.l.W r M.H.H.C.D ; @ 4                       ",
"                  I H.H.H.H.C.C.C.C.H.H.H.C.      2 l.H.H.H.H.H.:.4 :.H.H.H.H.H.1.; e W #.q.l.M.C.! > f C.H.H.q.:.H.H.H.D Z 1.C.H.` ; ; k X.q.l.M.C.M.X.i > :.y.q.:.v :.M.C.C.w @ @ 4 l.H.H.H.M.) ) y.y.:.W f D M.M.M.1.y.H.H.H.H.l.r D y.M.C.H.H.C.C.          ",
"                2 :.H.H.H.C.      I C.H.H.H.      2 l.H.H.H.H.H.C.#.C.H.H.H.H.H.#.j l.H.H.M.y.C.H.H.#.v C.H.H.q.:.H.H.H.M.H.H.H.H.C.v I C.H.H.C.M.H.H.H.M.Z l.H.H.H.C.H.H.H.H.` @ @ ; X.H.H.H.H.H.H.H.C.C.l.W W H.H.H.y.C.H.H.H.H.M.` C.H.H.q.! y.H.H.H.        ",
"                  q.H.H.H.C.      4 l.H.H.H.M.    2 l.H.H.H.C.H.H.H.H.H.C.H.H.H.:.:.H.H.C.:.) l.H.H.H.X.C.H.H.q.:.H.H.H.y.) l.H.H.H.:.l.H.H.C.v 4 X.H.H.H.q.M.H.H.C.) 1.H.H.H.1.  @ @ 4 ) y.l.l.l.M.C.H.H.H.C.1.H.H.H.X.k M.H.H.C.Z :.H.H.H.M.q.M.C.C.C.C.      ",
"                  1.H.H.H.M.    4 D C.H.H.H.      2 l.H.H.C.#.C.H.H.H.l.#.H.H.H.1.y.H.H.H.y.1.y.l.l.l.:.C.H.H.q.:.H.H.H.v X W H.H.H.q.M.H.H.M.w X I H.H.H.y.M.H.H.C.i I C.C.H.Z X @ w X.#.1.q.#.i f y.H.H.H.C.y.H.H.H.) 2 l.H.H.C.D :.H.H.H.:.v ` q.q.y.        ",
"                  :.H.H.H.H.l.1.q.C.H.H.H.C.      2 l.H.H.C.k #.H.H.H.W I H.H.H.:.#.H.H.H.` k :.l.y.l.#.C.H.H.q.:.H.H.H.j X D H.H.H.X.1.H.H.H.#.I y.H.H.H.` l.H.H.C.            @ @ 4 y.H.H.H.C.y.q.C.H.H.H.y.X.H.H.H.) 2 l.H.H.H.M.) C.H.H.l.#.l.C.C.C.        ",
"                    C.C.H.H.H.H.H.H.H.H.C.        2 l.H.H.H.v f C.H.M.4 D H.H.H.1.Z C.H.H.H.C.H.H.H.q.D C.H.H.q.:.H.H.H.v X I H.H.H.X.k M.H.H.H.H.H.H.H.:.r l.H.C.C.                @ k l.C.H.H.H.H.H.C.C.M.j I H.H.H.X.; #.H.C.C.M.j W C.C.H.H.H.C.C.C.        ",
"                        C.C.H.H.H.C.C.              l.H.H.H.    l.H.      H.H.H.        C.C.C.C.C.        C.C.                                M.M.M.                                                                                                            ",
"                                                                                                                                                                                                                                                                ",
"                                                                                                                                                                                                                                                                ",
"                                                                                                                                                                                                                                                                ",
"                                                                                                                                                                                                                                                                ",
"                                                                                                                                                                                                                                                                ",
"                                                                                                                                                                                                                                                                ",
"                                                                                                                                                                                                                                                                ",
"                                                                                                                                                                                                                                                                ",
"                                                                                                                                                                                                                                                                ",
"                                                                                                                                                                                                                                                                ",
"                                                                                                                                                                                                                                                                ",
"                                                                                                                                                                                                                                                                ",
"                                                                                                                                                                                                                                                                ",
"                                                                                                                                                                                                                                                                ",
"                                                                                                                                                                                                                                                                ",
"                                                                                                                                                                                                                                                                ",
"                                                                                                                                                                                                                                                                ",
"                                                                                                                                                                                                                                                                ",
"                                                                                                                                                                                                                                                                ",
"                                                                                                                                                                                                                                                                ",
"                                                                                                                                                                                                                                                                ",
"                                                                                                                                                                                                                                                                "
};
