/* XPM */
static char *oms_259[] = {
/* columns rows colors chars-per-pixel */
"128 54 156 2 ",
"   c #FF00FF",
".  c #0C0C0C",
"X  c #0F0F0F",
"o  c #101010",
"O  c #111111",
"+  c #121212",
"@  c #131313",
"#  c #141414",
"$  c #151515",
"%  c #161616",
"&  c #171717",
"*  c #181818",
"=  c #191919",
"-  c #1B1B1B",
";  c #1C1C1C",
":  c #1D1D1D",
">  c #1E1E1E",
",  c #1F1F1F",
"<  c #202020",
"1  c #212121",
"2  c #222222",
"3  c #232323",
"4  c #242424",
"5  c #252525",
"6  c #262626",
"7  c #272727",
"8  c #282828",
"9  c #2A2A2A",
"0  c #2B2B2B",
"q  c #2C2C2C",
"w  c #2D2D2D",
"e  c #2E2E2E",
"r  c #2F2F2F",
"t  c #303030",
"y  c #313131",
"u  c #323232",
"i  c #333333",
"p  c #343434",
"a  c #383838",
"s  c #3A3A3A",
"d  c #3B3B3B",
"f  c #3D3D3D",
"g  c #3E3E3E",
"h  c #404040",
"j  c #414141",
"k  c #474747",
"l  c #484848",
"z  c #4B4B4B",
"x  c #4F4F4F",
"c  c #505050",
"v  c #515151",
"b  c #525252",
"n  c #535353",
"m  c #545454",
"M  c #585858",
"N  c #5E5E5E",
"B  c #616161",
"V  c #626262",
"C  c #636363",
"Z  c #646464",
"A  c #6B6B6B",
"S  c #6C6C6C",
"D  c #6E6E6E",
"F  c #707070",
"G  c #727272",
"H  c #737373",
"J  c #747474",
"K  c #767676",
"L  c #777777",
"P  c #7A7A7A",
"I  c #7C7C7C",
"U  c #7E7E7E",
"Y  c #868686",
"T  c #878787",
"R  c #898989",
"E  c #8B8B8B",
"W  c #8D8D8D",
"Q  c #8E8E8E",
"!  c #8F8F8F",
"~  c #919191",
"^  c #929292",
"/  c #959595",
"(  c #979797",
")  c #9C9C9C",
"_  c #9D9D9D",
"`  c #A2A2A2",
"'  c #A3A3A3",
"]  c #A4A4A4",
"[  c #A7A7A7",
"{  c #A8A8A8",
"}  c #ADADAD",
"|  c #AEAEAE",
" . c #AFAFAF",
".. c #B0B0B0",
"X. c #B1B1B1",
"o. c #B4B4B4",
"O. c #B5B5B5",
"+. c #B7B7B7",
"@. c #BABABA",
"#. c #BBBBBB",
"$. c #BDBDBD",
"%. c #808080",
"&. c #BFBFBF",
"*. c #C1C1C1",
"=. c #C2C2C2",
"-. c #C4C4C4",
";. c #C6C6C6",
":. c #C7C7C7",
">. c #C8C8C8",
",. c #C9C9C9",
"<. c #CBCBCB",
"1. c #CCCCCC",
"2. c #CDCDCD",
"3. c #CECECE",
"4. c #CFCFCF",
"5. c #D0D0D0",
"6. c #D1D1D1",
"7. c #D3D3D3",
"8. c #D4D4D4",
"9. c #D5D5D5",
"0. c #D6D6D6",
"q. c #D7D7D7",
"w. c #D8D8D8",
"e. c #D9D9D9",
"r. c #DADADA",
"t. c #DBDBDB",
"y. c #DCDCDC",
"u. c #DDDDDD",
"i. c #DFDFDF",
"p. c #E0E0E0",
"a. c #E2E2E2",
"s. c #E3E3E3",
"d. c #E4E4E4",
"f. c #E6E6E6",
"g. c #E6E6E6",
"h. c #E7E7E7",
"j. c #E8E8E8",
"k. c #E9E9E9",
"l. c #EBEBEB",
"z. c #ECECEC",
"x. c #EDEDED",
"c. c #EEEEEE",
"v. c #EFEFEF",
"b. c #F0F0F0",
"n. c #F1F1F1",
"m. c #F2F2F2",
"M. c #F4F4F4",
"N. c #F5F5F5",
"B. c #F6F6F6",
"V. c #F7F7F7",
"C. c #F8F8F8",
"Z. c #F9F9F9",
"A. c #FAFAFA",
"S. c #FBFBFB",
"D. c #FCFCFC",
"F. c #FDFDFD",
/* pixels */
"                                                                                                                                                                                                                                                                ",
"                                                                                                                                                                                                                                                                ",
"                                                                                                                                                                                                                                                                ",
"                                                                                                                                                                                                                                                                ",
"                                                                                                                                                                                                                                                                ",
"                                                                                                                                                                                                                                                                ",
"                                                                                                                                                                                                                                                                ",
"                                                                                                                                                                                                                                                                ",
"                                                                                                                                                                                                                                                                ",
"                                                                                                                                                                                                                                                                ",
"                                                                                                                                                                                                                                                                ",
"                                                                                                                                  A ; + +                                                                                                                       ",
"                                                                                                                                ^ 6 + + + + + + + + + e -.                                                                                                      ",
"                                                                                                                                b + + + + + + + + + + ^ C.b.                                                                                                    ",
"                                                                                                                            s ; ; + + + + + + + + e e w.b.C.                                                                                                    ",
"                                                                                                                          V + + + + + + + + + X V | b 9.E b.                                                                                                    ",
"                                                                                                                      P 6 ; + + + + + + + + 6 j | -.A X.b j.                                                                                                    ",
"                                                                                                                      b X + + + + + + + + + ' X.-.%.K X.K b.                                                                                                    ",
"                                                                                                                      b + + + + + + + + + ; -.w.d.%.K j.d.b.                                                                                                    ",
"                                                                                                              E 6 ; s e + + + + + + ; e + ; -.C.C.%.V b.C.                                                                                                      ",
"                                                                                                            P e + + + + + + + + + 6 E E j ^ 9.C.b.%.j d.b.                                                                                                      ",
"                                                                                                            b X + + + + + + + + + P C.' %.b.j.j.9.j.                                                                                                            ",
"                                                                                                            b + + + + + + + + + + ^ C.,.9.j.j.,.%.j.                                                                                                            ",
"                                                                                                          P e + + + + + + + + + 6 ( C.j.j.j.d.X.                                                                                                                ",
"                                                                                                          p + + + + + + + + + + ( b.C.j.-.9.w.                                                                                                                  ",
"                                                                                                      s ; + + + + + + + + + N Y 9.b.C.d.b.j.                                                                                                                    ",
"                                                                                                    N + + + + + + + + + + l j.b.9.X.C.d.b.                                                                                                                      ",
"                                                                                                l e + + + + + + ; s + ; K %.w.b.9.' C.j.                                                                                                                        ",
"                                                                                        K ; + + + + + + + + + ; ' 9.p ( d.d.E d.w.| b.                                                                                                                          ",
"                                                                                      K e + + + + + + + + + 6 P C.d.b w.b.j.X.w.d.                                                                                                                              ",
"                                                                                    K + + + + + + + + + + ; X.9.,.w.N ,.w.b.b.d.                                                                                                                                ",
"                                                                                  K e + + + + + + + + + 6 K ,.-.d.,.l ' ,.w.C.                                                                                                                                  ",
"                                                                                  s X + + + + + + + + X b 9.%.%.C.| e 6 -.                                                                                                                                      ",
"                                                                                  p + + + + + + + + + X V b.j.j.-.w.                                                                                                                                            ",
"                                                                                j ; + + + + + + + + ; V X.b.b.b.9.b.                                                                                                                                            ",
"                                                                            ' e + + + + + + + + + + K b.j.9.d.b.C.b.                                                                                                                                            ",
"                                                                            A + + + + + + + + + + 6 %.d.-.-.9.w.C.                                                                                                                                              ",
"                                                                            b X + + + + + + + + + p w.j.w.,.w.                                                                                                                                                  ",
"                                                                            l + + + + + + + + + + p %.,.b.d.                                                                                                                                                    ",
"                                                                            N + + + + + + + + + + e 9.j.                                                                                                                                                        ",
"                                                                            b + + + + + + + + + + e w.b.                                                                                                                                                        ",
"                                                                                                                                                                                                                                                                ",
"                                                                                                                                                                                                                                                                ",
"                                                                                                                                                                                                                                                                ",
"                                                                                                                                                                                                                                                                ",
"                                                                                                                                                                                                                                                                ",
"                                                                                                                                                                                                                                                                ",
"                                                                                                                                                                                                                                                                ",
"                                                                                                                                                                                                                                                                ",
"                                                                                                                                                                                                                                                                ",
"                                                                                                                                                                                                                                                                ",
"                                                                                                                                                                                                                                                                ",
"                                                                                                                                                                                                                                                                ",
"                                                                                                                                                                                                                                                                "
};
