/* XPM */
static char *oms_076[] = {
/* columns rows colors chars-per-pixel */
"128 54 161 2 ",
"   c #FF00FF",
".  c #0D0D0D",
"X  c #0E0E0E",
"o  c #0F0F0F",
"O  c #101010",
"+  c #111111",
"@  c #121212",
"#  c #131313",
"$  c #141414",
"%  c #151515",
"&  c #161616",
"*  c #171717",
"=  c #181818",
"-  c #191919",
";  c #1A1A1A",
":  c #1C1C1C",
">  c #1E1E1E",
",  c #1F1F1F",
"<  c #212121",
"1  c #232323",
"2  c #242424",
"3  c #262626",
"4  c #272727",
"5  c #282828",
"6  c #292929",
"7  c #2A2A2A",
"8  c #2C2C2C",
"9  c #2D2D2D",
"0  c #2E2E2E",
"q  c #2F2F2F",
"w  c #303030",
"e  c #333333",
"r  c #343434",
"t  c #353535",
"y  c #363636",
"u  c #373737",
"i  c #383838",
"p  c #393939",
"a  c #3D3D3D",
"s  c #3E3E3E",
"d  c #3F3F3F",
"f  c #404040",
"g  c #424242",
"h  c #454545",
"j  c #484848",
"k  c #4C4C4C",
"l  c #4C4C4C",
"z  c #4F4F4F",
"x  c #505050",
"c  c #515151",
"v  c #535353",
"b  c #555555",
"n  c #565656",
"m  c #595959",
"M  c #616161",
"N  c #626262",
"B  c #6B6B6B",
"V  c #6D6D6D",
"C  c #6E6E6E",
"Z  c #6F6F6F",
"A  c #707070",
"S  c #717171",
"D  c #777777",
"F  c #797979",
"G  c #7A7A7A",
"H  c #7B7B7B",
"J  c #7C7C7C",
"K  c #7E7E7E",
"L  c #808080",
"P  c #828282",
"I  c #848484",
"U  c #888888",
"Y  c #898989",
"T  c #8A8A8A",
"R  c #8C8C8C",
"E  c #8D8D8D",
"W  c #909090",
"Q  c #929292",
"!  c #939393",
"~  c #949494",
"^  c #959595",
"/  c #969696",
"(  c #979797",
")  c #999999",
"_  c #9D9D9D",
"`  c #9E9E9E",
"'  c #A0A0A0",
"]  c #A3A3A3",
"[  c #A5A5A5",
"{  c #A7A7A7",
"}  c #A8A8A8",
"|  c #A9A9A9",
" . c #ABABAB",
".. c #ACACAC",
"X. c #B2B2B2",
"o. c #B2B2B2",
"O. c #B4B4B4",
"+. c #B7B7B7",
"@. c #BDBDBD",
"#. c #808080",
"$. c #BFBFBF",
"%. c #C0C0C0",
"&. c #C1C1C1",
"*. c #C2C2C2",
"=. c #C3C3C3",
"-. c #C5C5C5",
";. c #C6C6C6",
":. c #C8C8C8",
">. c #C9C9C9",
",. c #CACACA",
"<. c #CBCBCB",
"1. c #CCCCCC",
"2. c #CDCDCD",
"3. c #CECECE",
"4. c #CFCFCF",
"5. c #D0D0D0",
"6. c #D1D1D1",
"7. c #D3D3D3",
"8. c #D4D4D4",
"9. c #D5D5D5",
"0. c #D6D6D6",
"q. c #D7D7D7",
"w. c #D8D8D8",
"e. c #D9D9D9",
"r. c #DADADA",
"t. c #DBDBDB",
"y. c #DDDDDD",
"u. c #DEDEDE",
"i. c #DFDFDF",
"p. c #E0E0E0",
"a. c #E1E1E1",
"s. c #E2E2E2",
"d. c #E3E3E3",
"f. c #E4E4E4",
"g. c #E6E6E6",
"h. c #E6E6E6",
"j. c #E7E7E7",
"k. c #E8E8E8",
"l. c #E9E9E9",
"z. c #EAEAEA",
"x. c #EBEBEB",
"c. c #ECECEC",
"v. c #EDEDED",
"b. c #EEEEEE",
"n. c #EFEFEF",
"m. c #F0F0F0",
"M. c #F1F1F1",
"N. c #F2F2F2",
"B. c #F3F3F3",
"V. c #F4F4F4",
"C. c #F5F5F5",
"Z. c #F6F6F6",
"A. c #F7F7F7",
"S. c #F8F8F8",
"D. c #F9F9F9",
"F. c #FAFAFA",
"G. c #FBFBFB",
"H. c #FCFCFC",
"J. c #FDFDFD",
"K. c #FEFEFE",
"L. c #FFFFF1",
/* pixels */
"                                                                                                                                                                                                                                                                ",
"                                                                                                                                                                                                                                                                ",
"                                                                                                                                                                                                                                                                ",
"                                                                                                                                                                                                                                                                ",
"                                                                                                                                                                                                                                                                ",
"                                                                                                                                                                                                                                                                ",
"                                                                                                                                                                                                                                                                ",
"                                                                                                                                                                                                                                                                ",
"                                                                                                                                                                                                                                                                ",
"                                                                                                                                                                                                                                                                ",
"                                                                                                                                                                                                                                                                ",
"                                                                                                                                                                                                                                                                ",
"                                                                                                                                                                                                                                                                ",
"                                                                                                                                                                                                                                                                ",
"                                                                                                                                                                                                                                                                ",
"                                                                                                                                                                                                                                                                ",
"                                                                                                                                                                                                                                                                ",
"                                                                                                                                                      l , @ @ @ @ @ @ @ @ X y ` +.                                                                              ",
"                                                                                                                                                  1 , , @ @ @ @ @ @ @ , m F I :.:./ S Z.Z.                                                                      ",
"                                                                                                                                              ` 0 @ @ @ @ @ @ @ @ @ @ U Z.Z.+.*.t.q.q.s.Z.                                                                      ",
"                                                                                                                                              B @ @ @ @ @ @ @ @ @ @ y s.s.t. .v.K.v.Z.s.Z.                                                                      ",
"                                                                                                                                              M @ @ @ @ @ @ @ @ @ X n v.+.#.` Z.Z.:.v.#.v.                                                                      ",
"                                                                                                                                          i 1 0 @ @ @ @ @ @ @ @ 0 0 n Z.K.K.t.:.:.q.v.q.Z.                                                                      ",
"                                                                                                                                      n 1 @ @ X @ , @ @ @ @ , S *./ h v.Z.K.s.:.:.s.v.K.                                                                        ",
"                                                                                                                        l , @ @ @ @ @ @ @ @ @ i / S X @ l [ U Z.K. ., / / v.s.:.*.s.                                                                            ",
"                                                                                                                        0 @ @ @ @ @ @ @ @ @ y q.v.U h h t.K.s.v.s.+.l s.t.v.#.t.                                                                                ",
"                                                                                                                , @ @ i , @ @ @ @ @ 1 0 @ X i s.s.:.s.+.t.q.K.s.U l l Z.K.Z.                                                                                    ",
"                                                                                                            i 1 @ @ @ @ @ @ @ @ , 0 *.I @ 0 l t.s.K.K.s.+./ K.v.m   0 t.Z.                                                                                      ",
"                                                                                                        B @ @ @ @ @ @ @ @ @ , F [ M K.U B s. .t.s.q.s.v.:.+.s.Z.                                                                                                ",
"                                                                                                  y @ , 1 @ @ @ @ @ @ , i , 0 t.s./ K. .q.v.s.s.s./ *.t.Z.Z.*.v.                                                                                                ",
"                                                                                                h @ @ @ @ @ @ @ @ @ 1  .v.U 0 t.Z.:.K.:.s.t.s.s.v./ *.#.v.Z.                                                                                                    ",
"                                                                                              / , @ @ @ @ @ @ @ @ @ F K.K.:.y q.K.Z.K.s.v.*.:.s.v.[ *.                                                                                                          ",
"                                                                                              F @ @ @ @ @ @ @ @ @ , *.v.s.q.i q.K.Z.Z.s.s.:.q.s.s.                                                                                                              ",
"                                                                                              B @ @ @ @ @ @ @ @ @ 0 t.I F t.h q.s.s.t.:.Z.K.*.                                                                                                                  ",
"                                                                                              B @ @ @ @ @ @ @ @ @ y s.n B q.i q.*.:.:.:.s.                                                                                                                      ",
"                                                                                              B @ @ @ @ @ @ @ @ @ y v.F [ :.y q. .*.*.                                                                                                                          ",
"                                                                                              I , @ @ @ @ @ @ @ @ y s.v.Z.+.0 q.                                                                                                                                ",
"                                                                                                y @ @ @ @ @ @ @ @ 1 q.K.K.                                                                                                                                      ",
"                                                                                                              @ @ @ ` K.                                                                                                                                        ",
"                                                                                                                                                                                                                                                                ",
"                                                                                                                                                                                                                                                                ",
"                                                                                                                                                                                                                                                                ",
"                                                                                                                                                                                                                                                                ",
"                                                                                                                                                                                                                                                                ",
"                                                                                                                                                                                                                                                                ",
"                                                                                                                                                                                                                                                                ",
"                                                                                                                                                                                                                                                                ",
"                                                                                                                                                                                                                                                                ",
"                                                                                                                                                                                                                                                                ",
"                                                                                                                                                                                                                                                                ",
"                                                                                                                                                                                                                                                                ",
"                                                                                                                                                                                                                                                                ",
"                                                                                                                                                                                                                                                                ",
"                                                                                                                                                                                                                                                                "
};
