/* XPM */
static char *oms_282[] = {
/* columns rows colors chars-per-pixel */
"128 54 130 2 ",
"   c #FF00FF",
".  c #0F0F0F",
"X  c #101010",
"o  c #111111",
"O  c #121212",
"+  c #131313",
"@  c #141414",
"#  c #151515",
"$  c #161616",
"%  c #171717",
"&  c #181818",
"*  c #191919",
"=  c #1A1A1A",
"-  c #1B1B1B",
";  c #1C1C1C",
":  c #222222",
">  c #232323",
",  c #242424",
"<  c #252525",
"1  c #272727",
"2  c #292929",
"3  c #2B2B2B",
"4  c #2D2D2D",
"5  c #313131",
"6  c #343434",
"7  c #373737",
"8  c #383838",
"9  c #3B3B3B",
"0  c #414141",
"q  c #434343",
"w  c #444444",
"e  c #474747",
"r  c #494949",
"t  c #4A4A4A",
"y  c #4C4C4C",
"u  c #4E4E4E",
"i  c #535353",
"p  c #575757",
"a  c #585858",
"s  c #5E5E5E",
"d  c #5F5F5F",
"f  c #616161",
"g  c #636363",
"h  c #646464",
"j  c #666666",
"k  c #676767",
"l  c #6A6A6A",
"z  c #6B6B6B",
"x  c #6C6C6C",
"c  c #6D6D6D",
"v  c #747474",
"b  c #767676",
"n  c #7B7B7B",
"m  c #7E7E7E",
"M  c #838383",
"N  c #878787",
"B  c #8A8A8A",
"V  c #8B8B8B",
"C  c #8C8C8C",
"Z  c #8E8E8E",
"A  c #8F8F8F",
"S  c #909090",
"D  c #919191",
"F  c #929292",
"G  c #939393",
"H  c #969696",
"J  c #989898",
"K  c #9A9A9A",
"L  c #9D9D9D",
"P  c #9F9F9F",
"I  c #A4A4A4",
"U  c #A6A6A6",
"Y  c #A7A7A7",
"T  c #A8A8A8",
"R  c #AAAAAA",
"E  c #ABABAB",
"W  c #AEAEAE",
"Q  c #AFAFAF",
"!  c #B4B4B4",
"~  c #B5B5B5",
"^  c #B6B6B6",
"/  c #B8B8B8",
"(  c #BBBBBB",
")  c #BCBCBC",
"_  c #BDBDBD",
"`  c #808080",
"'  c #BFBFBF",
"]  c #C0C0C0",
"[  c #C5C5C5",
"{  c #C7C7C7",
"}  c #C9C9C9",
"|  c #CACACA",
" . c #CBCBCB",
".. c #CCCCCC",
"X. c #CDCDCD",
"o. c #CFCFCF",
"O. c #D0D0D0",
"+. c #D1D1D1",
"@. c #D2D2D2",
"#. c #D3D3D3",
"$. c #D4D4D4",
"%. c #D5D5D5",
"&. c #D7D7D7",
"*. c #D8D8D8",
"=. c #D9D9D9",
"-. c #DCDCDC",
";. c #DDDDDD",
":. c #DEDEDE",
">. c #DFDFDF",
",. c #E0E0E0",
"<. c #E1E1E1",
"1. c #E2E2E2",
"2. c #E3E3E3",
"3. c #E6E6E6",
"4. c #E7E7E7",
"5. c #E8E8E8",
"6. c #E9E9E9",
"7. c #EAEAEA",
"8. c #EBEBEB",
"9. c #EDEDED",
"0. c #EFEFEF",
"q. c #F0F0F0",
"w. c #F2F2F2",
"e. c #F3F3F3",
"r. c #F4F4F4",
"t. c #F5F5F5",
"y. c #F7F7F7",
"u. c #F8F8F8",
"i. c #FAFAFA",
"p. c #FDFDFD",
/* pixels */
"                                                                                                                                                                                                                                                                ",
"                                                                                                                                                                                                                                                                ",
"                                                                                                                                                                                                                                                                ",
"                                                                                                                                                                                                                                                                ",
"                                                                                                                                                                                                                                                                ",
"                                                                                                                                                                                                                                                                ",
"                                                                                                                                                                                                                                                                ",
"                                                                                                                                                                                                                                                                ",
"                                                                                                                                                                                                                                                                ",
"                                                                                                                                                                                                                                                                ",
"                                                                                                                                                                                                                                                                ",
"                                                                                                                                                                                                                                                                ",
"                                                                                                                                                                                                                                                                ",
"                                                                                                                                                                                                                                                                ",
"                                                                                      / $ $ $ $ $ $ $ $ $ $ $                                                                                                                                                   ",
"                                                                                      >.7 . $ $ $ $ $ $ $ $ $ y                                                                                                                                                 ",
"                                                                                    r.p.z 0 - $ $ $ $ $ $ $ $ > i                                                                                                                                               ",
"                                                                                    5./ V T y $ $ $ $ $ $ $ $ $ . 0                                                                                                                                             ",
"                                                                                    #.b V ! J z $ $ $ $ $ $ $ $ $ $ 2 U                                                                                                                                         ",
"                                                                                    >.m H / X.U $ $ $ $ $ $ $ $ $ $ - H                                                                                                                                         ",
"                                                                                      #.J / 5.U $ 7 - $ $ $ $ $ $ $ $ y                                                                                                                                         ",
"                                                                                      p.J / p./ y M V $ $ $ $ $ $ $ $ $ $ > U                                                                                                                                   ",
"                                                                                      p.M T r.5.#.T X.> $ $ $ $ $ $ $ $ $ $ V                                                                                                                                   ",
"                                                                                          / >.r.>.X.X.> $ $ $ $ $ $ $ $ $ $ V                                                                                                                                   ",
"                                                                                          X./ 5.r.3.>.s $ $ $ $ $ $ $ $ $ $ 7                                                                                                                                   ",
"                                                                                            X.3.[ >.r.[ y - $ $ $ $ $ $ $ $ $ 7 m                                                                                                                               ",
"                                                                                              3.>.3.3.#.>.g $ $ $ $ $ $ $ $ $ . 7                                                                                                                               ",
"                                                                                                r.3.#./ 5.[ g > V 9 . $ $ $ $ $ $ $ $ $ g                                                                                                                       ",
"                                                                                                  3.X.! [ X.3.g >.U > $ $ $ $ $ $ $ $ $ > g                                                                                                                     ",
"                                                                                                    X./ / #.r.M X.>.J $ $ $ $ $ $ $ $ $ $ 2 J                                                                                                                   ",
"                                                                                                      X.#.5.>.M [ X./ i $ $ $ $ $ $ $ $ $ $ y                                                                                                                   ",
"                                                                                                        r.5./ g / #.! H $ $ $ $ $ $ $ $ $ $ 0                                                                                                                   ",
"                                                                                                          3.V 2 T 3.5.! - $ $ $ $ $ $ $ $ $ > z                                                                                                                 ",
"                                                                                                                X.>.p.3.J > $ $ $ $ $ $ $ $ $ $ V                                                                                                               ",
"                                                                                                                r.r.3.3.r.g . $ $ $ $ $ $ $ $ . z                                                                                                               ",
"                                                                                                                  r.X./ >.M $ $ $ $ $ $ $ $ $ . s                                                                                                               ",
"                                                                                                                  3.X.#.r.H $ $ $ $ $ $ $ $ $ $ g                                                                                                               ",
"                                                                                                                      5.X.b $ $ $ $ $ $ $ $ $ $ s                                                                                                               ",
"                                                                                                                        5.V $ $ $ $ $ $ $ $ $ $ g                                                                                                               ",
"                                                                                                                          H . $ $ $                                                                                                                             ",
"                                                                                                                                                                                                                                                                ",
"                                                                                                                                                                                                                                                                ",
"                                                                                                                                                                                                                                                                ",
"                                                                                                                                                                                                                                                                ",
"                                                                                                                                                                                                                                                                ",
"                                                                                                                                                                                                                                                                ",
"                                                                                                                                                                                                                                                                ",
"                                                                                                                                                                                                                                                                ",
"                                                                                                                                                                                                                                                                ",
"                                                                                                                                                                                                                                                                ",
"                                                                                                                                                                                                                                                                ",
"                                                                                                                                                                                                                                                                ",
"                                                                                                                                                                                                                                                                ",
"                                                                                                                                                                                                                                                                "
};
