/* XPM */
static char *oms_130[] = {
/* columns rows colors chars-per-pixel */
"128 54 197 2 ",
"   c #FF00FF",
".  c #090909",
"X  c #0C0C0C",
"o  c #0D0D0D",
"O  c #0E0E0E",
"+  c #0F0F0F",
"@  c #101010",
"#  c #111111",
"$  c #121212",
"%  c #131313",
"&  c #141414",
"*  c #151515",
"=  c #161616",
"-  c #171717",
";  c #181818",
":  c #191919",
">  c #1A1A1A",
",  c #1B1B1B",
"<  c #1C1C1C",
"1  c #1D1D1D",
"2  c #1E1E1E",
"3  c #1F1F1F",
"4  c #202020",
"5  c #212121",
"6  c #222222",
"7  c #232323",
"8  c #242424",
"9  c #252525",
"0  c #262626",
"q  c #272727",
"w  c #292929",
"e  c #2B2B2B",
"r  c #2C2C2C",
"t  c #2D2D2D",
"y  c #2F2F2F",
"u  c #303030",
"i  c #313131",
"p  c #323232",
"a  c #333333",
"s  c #353535",
"d  c #363636",
"f  c #373737",
"g  c #383838",
"h  c #393939",
"j  c #3A3A3A",
"k  c #3B3B3B",
"l  c #3C3C3C",
"z  c #3D3D3D",
"x  c #3E3E3E",
"c  c #3F3F3F",
"v  c #404040",
"b  c #424242",
"n  c #434343",
"m  c #444444",
"M  c #464646",
"N  c #494949",
"B  c #4A4A4A",
"V  c #4E4E4E",
"C  c #4F4F4F",
"Z  c #505050",
"A  c #515151",
"S  c #525252",
"D  c #535353",
"F  c #545454",
"G  c #565656",
"H  c #585858",
"J  c #5A5A5A",
"K  c #5B5B5B",
"L  c #5D5D5D",
"P  c #5E5E5E",
"I  c #606060",
"U  c #626262",
"Y  c #646464",
"T  c #656565",
"R  c #676767",
"E  c #686868",
"W  c #696969",
"Q  c #6A6A6A",
"!  c #6B6B6B",
"~  c #6C6C6C",
"^  c #6D6D6D",
"/  c #6E6E6E",
"(  c #707070",
")  c #717171",
"_  c #727272",
"`  c #737373",
"'  c #747474",
"]  c #767676",
"[  c #777777",
"{  c #797979",
"}  c #7A7A7A",
"|  c #7C7C7C",
" . c #7D7D7D",
".. c #808080",
"X. c #808080",
"o. c #818181",
"O. c #828282",
"+. c #838383",
"@. c #848484",
"#. c #878787",
"$. c #888888",
"%. c #8B8B8B",
"&. c #8D8D8D",
"*. c #8E8E8E",
"=. c #8F8F8F",
"-. c #919191",
";. c #929292",
":. c #939393",
">. c #949494",
",. c #959595",
"<. c #969696",
"1. c #979797",
"2. c #989898",
"3. c #999999",
"4. c #9B9B9B",
"5. c #9C9C9C",
"6. c #9E9E9E",
"7. c #A1A1A1",
"8. c #A2A2A2",
"9. c #A3A3A3",
"0. c #A4A4A4",
"q. c #A5A5A5",
"w. c #A6A6A6",
"e. c #AAAAAA",
"r. c #ACACAC",
"t. c #AEAEAE",
"y. c #B0B0B0",
"u. c #B1B1B1",
"i. c #B2B2B2",
"p. c #B4B4B4",
"a. c #B6B6B6",
"s. c #B8B8B8",
"d. c #B9B9B9",
"f. c #BABABA",
"g. c #BBBBBB",
"h. c #BCBCBC",
"j. c #BDBDBD",
"k. c #808080",
"l. c #C1C1C1",
"z. c #C2C2C2",
"x. c #C3C3C3",
"c. c #C4C4C4",
"v. c #C5C5C5",
"b. c #C6C6C6",
"n. c #C8C8C8",
"m. c #C9C9C9",
"M. c #CACACA",
"N. c #CBCBCB",
"B. c #CCCCCC",
"V. c #CDCDCD",
"C. c #CECECE",
"Z. c #D0D0D0",
"A. c #D1D1D1",
"S. c #D2D2D2",
"D. c #D3D3D3",
"F. c #D4D4D4",
"G. c #D5D5D5",
"H. c #D6D6D6",
"J. c #D7D7D7",
"K. c #D8D8D8",
"L. c #D9D9D9",
"P. c #DADADA",
"I. c #DBDBDB",
"U. c #DDDDDD",
"Y. c #DFDFDF",
"T. c #E0E0E0",
"R. c #E1E1E1",
"E. c #E2E2E2",
"W. c #E3E3E3",
"Q. c #E4E4E4",
"!. c #E6E6E6",
"~. c #E6E6E6",
"^. c #E7E7E7",
"/. c #E8E8E8",
"(. c #E9E9E9",
"). c #EAEAEA",
"_. c #EBEBEB",
"`. c #ECECEC",
"'. c #EDEDED",
"]. c #EEEEEE",
"[. c #EFEFEF",
"{. c #F0F0F0",
"}. c #F1F1F1",
"|. c #F2F2F2",
" X c #F3F3F3",
".X c #F4F4F4",
"XX c #F5F5F5",
"oX c #F6F6F6",
"OX c #F7F7F7",
"+X c #F8F8F8",
"@X c #F9F9F9",
"#X c #FAFAFA",
"$X c #FBFBFB",
"%X c #FCFCFC",
"&X c #FDFDFD",
"*X c #FEFEFE",
"=X c #FFFFF1",
/* pixels */
"                                                                                                                                                                                                                                                                ",
"                                                                                                                                                                                                                                                                ",
"                                                                                                                                                                                                                                                                ",
"                                                                                                                                                                                                                                                                ",
"                                                                                                                                                                                                                                                                ",
"                                                                                                                                                                                                                                                                ",
"                                                                                                                                                                                                                                                                ",
"                                                                                                                                                                                                                                                                ",
"                                                                                                                                                                                                                                                                ",
"                                                                                                                                                                                                                                                                ",
"                                                                                                                                                                                                                                                                ",
"                                                                                                                                                                                                                                                                ",
"                                                                          @ @ q m       > N                                                                                                                                                                     ",
"                                                                  o @ @ @ @ @ @ @ @ @ @ @ @ > > > c %.                                                                                                                                                          ",
"                                                             X`.i.L > @ ] 3.N d c > @ @ @ @ @ @ @ @ d > q m Q                                                                                                                                                   ",
"                                                            @X X`. X3.d f.@Xf.{ `.i.w > > @ @ @ @ @ @ @ @ @ > w I                                                                                                                                               ",
"                                                             X`.f.`. Xe. X@XA.>.~.P.] x.n.3.L q @ @ @ @ @ @ @ @ @ L                                                                                                                                             ",
"                                                            ~.A.x.`.@XA.~.@X@X`.~.x.i.@X@X@X@Xn.L @ @ @ @ @ @ @ @ q w.                                                                                                                                          ",
"                                                            @X`.w.~.@Xi.w.@X`.P.@X~.I e.~.i.n.@X~.m @ @ @ @ @ @ @ > 3.                                                                                                                                          ",
"                                                              @X@X@X@Xx.P.@Xx.+.@X~.i. X Xx.x.@X@X%.@ @ @ @ @ @ @ q {     q ]                                                                                                                                   ",
"                                                                   X Xf. X@Xf.{ @X`.~.@X@X@X@X@X@X>.@ @ q > @ @ @ @ > @ @ @ > d c Q                                                                                                                             ",
"                                                                         X@Xf.%.@X`.P.@X@Xn.n. X`.L o d n.i.m w @ @ @ @ @ @ @ @ @ q Q                                                                                                                           ",
"                                                                                @X~.w.@X@Xw.>.A.%.w o Q @X@XP.P.e.d @ > @ @ @ @ @ @ @ @ @ > c +.        @ w I                                                                                                   ",
"                                                                                       X@X@X X@X X>.o ] @X X~.@X@X{ e.x.>.N @ @ @ @ @ q w @ o > q @ @ @ @ @ @ w c I                                                                                             ",
"                                                                                           X X@X@X{ o N ~.~.>. X XA.@X@X@X X>.> @ > o G P.w.G w @ @ @ @ @ @ @ @ @ @ +.                                                                                          ",
"                                                                                                              @X@X X@X`.>.~.@X{ +.n.] L  X@XA.P.3.> @ @ @ @ @ @ @ @ {                                                                                           ",
"                                                                                                              @X XP.@XP.q w.@XA.~.@X Xx. X XA.@XP.w @ @ @ @ @ @ @ @ Q           @ q L                                                                           ",
"                                                                                                               X X3.`. X%.x.@X`.`.@X`.`.@X XA.@XA.q @ @ @ @ @ c c > > @ @ @ @ @ @ @ @ q Q                                                                       ",
"                                                                                                                      @X@X@X@XP.~.@X>.{ @X XA.@XA.Q e.w.I q @ 3.`.f.L @ @ @ @ @ @ @ @ @ q d @ w G                                                               ",
"                                                                                                                         X X Xw.~.@X{ G  X XA.@X~.P.@X@X Xx.c 3.@X@Xn.q c ] c > @ @ @ @ @ @ @ @ @ q >.                                                          ",
"                                                                                                                                 X@X+.L  X XA.@X`.`.@XP.x.@Xf.w.@X@X`.m %.@X`.f.d @ @ @ @ @ @ @ @ @ +.                                                          ",
"                                                                                                                                        @X XA.@X`.A.~.A.~.@X`.n.@X@X@X3.A.@X@X@XG @ @ > d q @ @ @ @ q @ @ @ @ @ q N                                             ",
"                                                                                                                                            P.@XP.n.@Xf.w.@X XP.@X@X@X`. X@X@X XG o w f.`.A.w.G > @ @ @ @ @ @ @ @ @ q +.                                        ",
"                                                                                                                                                    @X@X X@X`.n.@X`.~.@X@X X@X XG o +.@X@X@X@X X>.q @ @ @ @ @ @ @ @ @ w i.                                      ",
"                                                                                                                                                         X@Xn.f.@XP.w.@X@XA. X XG o w.@X@XP.~.@X@X+.@ @ @ @ @ @ @ @ @ @ ]                                       ",
"                                                                                                                                                                @XP.Q  X~.%. X XG o w.@X~.m d x.@XP.w @ @ @ @ @ @ @ @ @ N                                       ",
"                                                                                                                                                                       Xf.] @X@XG o >.@X~.d o Q @X XN @ @ @ @ @ @ @ @ @ m                                       ",
"                                                                                                                                                                             X XG o I @X@X3.w %.@X@XL o @ @ @ @ @ @ @ @ N                                       ",
"                                                                                                                                                                                       X@X@X~. X@X@XG @ @ @ @ @ @ @ @ @ Q                                       ",
"                                                                                                                                                                                         X@X@X@X@X~.d @ @ @ @ @ @ @ @ w                                         ",
"                                                                                                                                                                                             X@X@X3.@ @                                                         ",
"                                                                                                                                                                                                                                                                ",
"                                                                                                                                                                                                                                                                ",
"                                                                                                                                                                                                                                                                ",
"                                                                                                                                                                                                                                                                ",
"                                                                                                                                                                                                                                                                ",
"                                                                                                                                                                                                                                                                ",
"                                                                                                                                                                                                                                                                ",
"                                                                                                                                                                                                                                                                ",
"                                                                                                                                                                                                                                                                ",
"                                                                                                                                                                                                                                                                ",
"                                                                                                                                                                                                                                                                ",
"                                                                                                                                                                                                                                                                ",
"                                                                                                                                                                                                                                                                "
};
