/* XPM */
static char *oms_010[] = {
/* columns rows colors chars-per-pixel */
"128 54 134 2 ",
"   c #FF00FF",
".  c #0B0B0B",
"X  c #0F0F0F",
"o  c #101010",
"O  c #131313",
"+  c #161616",
"@  c #181818",
"#  c #191919",
"$  c #1A1A1A",
"%  c #252525",
"&  c #262626",
"*  c #272727",
"=  c #292929",
"-  c #2B2B2B",
";  c #373737",
":  c #383838",
">  c #3A3A3A",
",  c #3D3D3D",
"<  c #3F3F3F",
"1  c #474747",
"2  c #4B4B4B",
"3  c #525252",
"4  c #535353",
"5  c #545454",
"6  c #575757",
"7  c #5B5B5B",
"8  c #5D5D5D",
"9  c #5F5F5F",
"0  c #666666",
"q  c #676767",
"w  c #6A6A6A",
"e  c #6C6C6C",
"r  c #6D6D6D",
"t  c #6F6F6F",
"y  c #707070",
"u  c #717171",
"i  c #747474",
"p  c #787878",
"a  c #797979",
"s  c #7A7A7A",
"d  c #7C7C7C",
"f  c #808080",
"g  c #858585",
"h  c #868686",
"j  c #888888",
"k  c #8A8A8A",
"l  c #919191",
"z  c #939393",
"x  c #969696",
"c  c #979797",
"v  c #999999",
"b  c #9B9B9B",
"n  c #9D9D9D",
"m  c #A0A0A0",
"M  c #A2A2A2",
"N  c #A4A4A4",
"B  c #A5A5A5",
"V  c #A8A8A8",
"C  c #AAAAAA",
"Z  c #ACACAC",
"A  c #ADADAD",
"S  c #AFAFAF",
"D  c #B0B0B0",
"F  c #B1B1B1",
"G  c #B2B2B2",
"H  c #B2B2B2",
"J  c #B4B4B4",
"K  c #B5B5B5",
"L  c #B6B6B6",
"P  c #B7B7B7",
"I  c #B9B9B9",
"U  c #BCBCBC",
"Y  c #BDBDBD",
"T  c #808080",
"R  c #BFBFBF",
"E  c #C0C0C0",
"W  c #C1C1C1",
"Q  c #C2C2C2",
"!  c #C3C3C3",
"~  c #C4C4C4",
"^  c #C5C5C5",
"/  c #C7C7C7",
"(  c #C8C8C8",
")  c #C9C9C9",
"_  c #CACACA",
"`  c #CBCBCB",
"'  c #CDCDCD",
"]  c #CECECE",
"[  c #CFCFCF",
"{  c #D0D0D0",
"}  c #D1D1D1",
"|  c #D2D2D2",
" . c #D3D3D3",
".. c #D4D4D4",
"X. c #D5D5D5",
"o. c #D6D6D6",
"O. c #D8D8D8",
"+. c #D9D9D9",
"@. c #DADADA",
"#. c #DBDBDB",
"$. c #DCDCDC",
"%. c #DDDDDD",
"&. c #DEDEDE",
"*. c #DFDFDF",
"=. c #E0E0E0",
"-. c #E1E1E1",
";. c #E2E2E2",
":. c #E3E3E3",
">. c #E4E4E4",
",. c #E6E6E6",
"<. c #E6E6E6",
"1. c #E8E8E8",
"2. c #E9E9E9",
"3. c #EAEAEA",
"4. c #EBEBEB",
"5. c #ECECEC",
"6. c #EDEDED",
"7. c #EEEEEE",
"8. c #EFEFEF",
"9. c #F0F0F0",
"0. c #F1F1F1",
"q. c #F2F2F2",
"w. c #F3F3F3",
"e. c #F4F4F4",
"r. c #F5F5F5",
"t. c #F6F6F6",
"y. c #F7F7F7",
"u. c #F8F8F8",
"i. c #F9F9F9",
"p. c #FAFAFA",
"a. c #FBFBFB",
"s. c #FCFCFC",
"d. c #FDFDFD",
"f. c #FEFEFE",
/* pixels */
"                                                                                                                                                                                                                                                                ",
"                                                                                                                                                                                                                                                                ",
"                                                                                                                                                                                                                                                                ",
"                                                                                                                                                                                                                                                                ",
"                                                                                                                                                                                                                                                                ",
"                                                                                                                                                                                                                                                                ",
"                                                                                                                                                                                                                                                                ",
"                                                                                                                                                                                                                                                                ",
"                                                                                                                                                                                                                                                                ",
"                                                                                                                                                                                                                                                                ",
"                                                                                                                                                                                                                                                                ",
"                                                                                                                                                                                                                                                                ",
"                                                                                                                                                                                                                                                                ",
"                                                                                                                                                                                                                                                                ",
"                                                                                                                                                                                                                                                                ",
"                                                                                                                                                                                                                                                                ",
"                                                                                                                                                                                                                                                                ",
"                                                                                                                                                                                                                                                                ",
"                                                                                                                                                                                                                                                                ",
"                                                                                                                                                                                                                                                                ",
"                                                                                                                                                                                                                                                                ",
"                                                                                                                                                                                                                                                                ",
"                        T T Z                                                                                                                                                         2 z     2.2.                                                              ",
"                y.y.y.y.y.y.y.y.&.Z           y.y.y.y.i.y.K     2.y.i.i.i.y.                      z i.i.i.W W i.i.i.2.                                                          + + s =.y.i.i.i.i.i.i.i.&.t 3 y.i.i.=.= v i.y.y.                                ",
"              y.i.i.i.i.i.i.i.i.i.i.T         y.i.i.i.i.i.&.    y.i.i.i.i.i.                      z i.i.i.W W i.i.i.&.                                                          + , 2.i.i.i.y.K T y.i.i.i.=.t ] { &.W ; Z i.i.i.y.                              ",
"            y.i.i.i.2.]     y.i.i.i.y.s       y.i.i.i.i.i.y.W 2.i.i.i.i.i.i.    T &.2.2.y.2.2.2.  z i.i.i.W W i.i.i.K m =.y.y.y.  @ s ] =.2.2.y.i.i.&., y y.2.y.W z =.i.y.      X 1 y.i.i.i.y.K v &.2.y.Z q 7 &.=.2.{ W y.i.i.i.i.v , m &.2.y.i.y.y.y.          ",
"            y.i.i.i.k         i.i.i.i.v       y.i.i.i.i.i.i.y.y.i.i.i.i.i.i.T { i.i.y.=.=.y.i.i.&.m i.i.i.W W i.i.i.y.i.i.i.i.i.K s y.i.i.i.=.2.i.i.i.W v i.i.i.y.i.i.i.i.y.    @ % W i.i.i.i.i.i.i.i.i.2.Z t y.i.i.2.&.i.i.i.i.i.T ] i.i.y.W K y.i.i.y.        ",
"            y.i.i.i.k @       i.i.i.i.m       y.i.i.i.2.y.i.i.i.i.y.y.i.i.y.W y.i.i.y.=.&.y.i.i.y.] i.i.i.W W i.i.i.i.K W i.i.i.{ ] i.i.i.i.  3 2.i.i.y.] i.i.i.=.g =.i.i.i.        3 T &.2.y.=.2.y.i.i.i.i.T y.i.i.=.t W i.i.i.T g y.i.i.y.{ ] y.i.i.i.        ",
"            y.i.i.i.2.v g Z 2.i.i.i.y.z       y.i.i.i.] 2.i.i.i.y.=.y.i.i.y.{ y.i.i.y.&.K W ] ] W W i.i.i.W W i.i.i.y.  t i.i.i.{ { i.i.i.2.X , 2.i.i.y.] i.i.i.&.% W i.y.y.    + 3 &.{ { =.&.3 3 &.i.i.i.i.{ y.i.i.=.% m i.i.i.K t y.i.i.y.m z W { { =.        ",
"              y.i.i.i.i.y.y.i.i.i.i.=.        y.i.i.i.]   i.i.i.2.  y.i.i.y.=.y.i.i.y.W Z =.2.2.=.T i.i.i.W W i.i.i.y.  t i.i.i.] m i.i.i.y.K ] i.i.i.&.m i.i.i.y.              + , =.i.i.i.y.&.{ y.i.i.i.2.v y.i.i.=.% m i.i.i.i.T { i.i.y.W Z 2.y.y.y.        ",
"                y.y.i.i.i.i.i.y.y.y.          y.i.i.i.{   y.i.y.    y.i.i.y.    y.i.i.i.i.i.i.i.&.m i.i.i.] W i.i.i.y.  y i.i.i.2.  =.y.i.i.i.i.i.y.y.q g i.i.i.y.                  g 2.y.y.i.i.i.i.y.y.y.g 7 y.i.i.2.= y y.i.i.i.K 7 &.y.i.i.i.i.i.y.y.        ",
"                                                                                                                                                                                                                                                                ",
"                                                                                                                                                                                                                                                                ",
"                                                                                                                                                                                                                                                                ",
"                                                                                                                                                                                                                                                                ",
"                                                                                                                                                                                                                                                                ",
"                                                                                                                                                                                                                                                                ",
"                                                                                                                                                                                                                                                                ",
"                                                                                                                                                                                                                                                                ",
"                                                                                                                                                                                                                                                                ",
"                                                                                                                                                                                                                                                                ",
"                                                                                                                                                                                                                                                                ",
"                                                                                                                                                                                                                                                                ",
"                                                                                                                                                                                                                                                                ",
"                                                                                                                                                                                                                                                                ",
"                                                                                                                                                                                                                                                                ",
"                                                                                                                                                                                                                                                                ",
"                                                                                                                                                                                                                                                                ",
"                                                                                                                                                                                                                                                                ",
"                                                                                                                                                                                                                                                                ",
"                                                                                                                                                                                                                                                                ",
"                                                                                                                                                                                                                                                                ",
"                                                                                                                                                                                                                                                                ",
"                                                                                                                                                                                                                                                                "
};
