/* XPM */
static char *oms_030[] = {
/* columns rows colors chars-per-pixel */
"128 54 200 2 ",
"   c #FF00FF",
".  c #090909",
"X  c #0C0C0C",
"o  c #0D0D0D",
"O  c #0E0E0E",
"+  c #0F0F0F",
"@  c #101010",
"#  c #111111",
"$  c #121212",
"%  c #131313",
"&  c #141414",
"*  c #151515",
"=  c #161616",
"-  c #171717",
";  c #181818",
":  c #191919",
">  c #1B1B1B",
",  c #1C1C1C",
"<  c #1D1D1D",
"1  c #1E1E1E",
"2  c #1F1F1F",
"3  c #202020",
"4  c #212121",
"5  c #222222",
"6  c #242424",
"7  c #252525",
"8  c #272727",
"9  c #282828",
"0  c #292929",
"q  c #2A2A2A",
"w  c #2B2B2B",
"e  c #2C2C2C",
"r  c #2D2D2D",
"t  c #2E2E2E",
"y  c #2F2F2F",
"u  c #303030",
"i  c #313131",
"p  c #323232",
"a  c #343434",
"s  c #363636",
"d  c #373737",
"f  c #393939",
"g  c #3A3A3A",
"h  c #3C3C3C",
"j  c #3D3D3D",
"k  c #3F3F3F",
"l  c #404040",
"z  c #424242",
"x  c #434343",
"c  c #454545",
"v  c #484848",
"b  c #4A4A4A",
"n  c #4B4B4B",
"m  c #4C4C4C",
"M  c #4E4E4E",
"N  c #4F4F4F",
"B  c #505050",
"V  c #515151",
"C  c #525252",
"Z  c #535353",
"A  c #545454",
"S  c #565656",
"D  c #575757",
"F  c #595959",
"G  c #5A5A5A",
"H  c #5B5B5B",
"J  c #5C5C5C",
"K  c #5D5D5D",
"L  c #5E5E5E",
"P  c #606060",
"I  c #616161",
"U  c #656565",
"Y  c #676767",
"T  c #686868",
"R  c #6A6A6A",
"E  c #6B6B6B",
"W  c #6C6C6C",
"Q  c #6D6D6D",
"!  c #6E6E6E",
"~  c #6F6F6F",
"^  c #707070",
"/  c #717171",
"(  c #757575",
")  c #777777",
"_  c #787878",
"`  c #797979",
"'  c #7B7B7B",
"]  c #7C7C7C",
"[  c #808080",
"{  c #818181",
"}  c #828282",
"|  c #838383",
" . c #848484",
".. c #858585",
"X. c #878787",
"o. c #898989",
"O. c #8C8C8C",
"+. c #8D8D8D",
"@. c #8E8E8E",
"#. c #909090",
"$. c #919191",
"%. c #949494",
"&. c #959595",
"*. c #969696",
"=. c #979797",
"-. c #989898",
";. c #9A9A9A",
":. c #9B9B9B",
">. c #9C9C9C",
",. c #9D9D9D",
"<. c #9F9F9F",
"1. c #A0A0A0",
"2. c #A1A1A1",
"3. c #A2A2A2",
"4. c #A3A3A3",
"5. c #A4A4A4",
"6. c #A5A5A5",
"7. c #A6A6A6",
"8. c #A7A7A7",
"9. c #A9A9A9",
"0. c #AAAAAA",
"q. c #ABABAB",
"w. c #ADADAD",
"e. c #AEAEAE",
"r. c #B0B0B0",
"t. c #B1B1B1",
"y. c #B4B4B4",
"u. c #B5B5B5",
"i. c #B6B6B6",
"p. c #B7B7B7",
"a. c #B8B8B8",
"s. c #B9B9B9",
"d. c #BABABA",
"f. c #BBBBBB",
"g. c #BCBCBC",
"h. c #BDBDBD",
"j. c #808080",
"k. c #BFBFBF",
"l. c #C0C0C0",
"z. c #C1C1C1",
"x. c #C2C2C2",
"c. c #C3C3C3",
"v. c #C4C4C4",
"b. c #C5C5C5",
"n. c #C6C6C6",
"m. c #C7C7C7",
"M. c #C8C8C8",
"N. c #C9C9C9",
"B. c #CACACA",
"V. c #CBCBCB",
"C. c #CCCCCC",
"Z. c #CDCDCD",
"A. c #CECECE",
"S. c #CFCFCF",
"D. c #D0D0D0",
"F. c #D1D1D1",
"G. c #D2D2D2",
"H. c #D4D4D4",
"J. c #D5D5D5",
"K. c #D6D6D6",
"L. c #D7D7D7",
"P. c #D8D8D8",
"I. c #D9D9D9",
"U. c #DADADA",
"Y. c #DBDBDB",
"T. c #DCDCDC",
"R. c #DDDDDD",
"E. c #DEDEDE",
"W. c #DFDFDF",
"Q. c #E0E0E0",
"!. c #E1E1E1",
"~. c #E2E2E2",
"^. c #E3E3E3",
"/. c #E4E4E4",
"(. c #E6E6E6",
"). c #E7E7E7",
"_. c #E8E8E8",
"`. c #E9E9E9",
"'. c #EAEAEA",
"]. c #EBEBEB",
"[. c #ECECEC",
"{. c #EDEDED",
"}. c #EEEEEE",
"|. c #EFEFEF",
" X c #F0F0F0",
".X c #F1F1F1",
"XX c #F2F2F2",
"oX c #F3F3F3",
"OX c #F4F4F4",
"+X c #F5F5F5",
"@X c #F6F6F6",
"#X c #F7F7F7",
"$X c #F8F8F8",
"%X c #F9F9F9",
"&X c #FAFAFA",
"*X c #FBFBFB",
"=X c #FCFCFC",
"-X c #FDFDFD",
";X c #FEFEFE",
":X c #FFFFF1",
/* pixels */
"                                                                                                                                                                                                                                                                ",
"                                                                                                                                                                                                                                                                ",
"                                                                                                                                                                                                                                                                ",
"                                                                                                                                                                                                                                                                ",
"                                                                                                                                                                                                                                                                ",
"                                                                                                                                                                                                                                                                ",
"                                                                                                                                                                                                                                                                ",
"                                                                                                                                                                                                                                                                ",
"                                                                                                                                                                                                                                                                ",
"                                                                                                                                                                                                                                                                ",
"                                                                                                                                                                                                                                                                ",
"                                                                                                                                                                                                                                                                ",
"                                                                                                                                                                                                                                                                ",
"                                                                                                                                                                                                                                                                ",
"                                                                                                                                                                                                                                                                ",
"                                                                                                                                                                                                                                                                ",
"                                                                                                                                                                                                                                                                ",
"                                                                                                                                                                                                                                                                ",
"                                                                                                                                                                                                                                                                ",
"                                                                                                                                                                                                                                                                ",
"                                                                                                                                                                                                                                                                ",
"                                                                                                                                                                                                                                                                ",
"                                                                                                                                                                              2 % % % % 3 Q ;.d.Y.C.x.9.o.v 2 ;.}. XY.t ( d.                                    ",
"                                                        % % % 3 f       f % % 2 v Q ..                % % % % _ 7.7.;...J.Y.}.                                              2 % % % % s x.-X-X-X-X-X-X-X-X}.Q d.-X XY.t i.-X-X X                                ",
"                            2 % % t Q 7.x.J.^. X X}.    % % % ..Y.^.}. Xx.3 + v ^. X}. X X            % % % 2 x.-X-XY.d.-X-X X                                3 3 3       ( s % % % + ( -X-X-X X7.o.^.}.Y.Y.;.7.C.C.x...Y.-X-X X7.3 v 9.Y. X X X X              ",
"                          2 % % x C.-X-X-X-X-X-X-X-X-X*.% % % ;.-X-X-X-X XQ % 9.-X-X-X-X}.x + 3 Z   ..Z f 2 2 d.-X-XY.i.-X-X XJ U d.i._ 3 % s ..d.J.J.C.d...t U x.C.C...d.}.}.*.2 % + _ -X-X-X XJ.d.^.Y.x.o.f d.-X-X}.^.-X-X-X-X}.o.}.-X-XY.Y.-X-X X            ",
"                          % % 3 x.-X-X-X XY.Y. X-X-X-Xx.2 % % ;.-X-X-X-X-Xx.J }.-X-X-X-X^.f Q C.}. X-X X}.i.x d.-X-XY.i.-X-X XC.}.-X-X-X7.x J.-X-X-X X-X-X-Xd.*.-X-X-X X-X-X-X XZ + % x ^.-X-X-X-X-X-X-X-X-X9.C.-X-X}.d.}.-X-X Xd.Y.-X-X Xd.C.-X-X-X X          ",
"                          % % v  X-X-X-X*.t t _  X-X-X^.s % % ;.-X-X-X-X-X XY.-X-X-X-X-X^... X-X-XC.i. X-X-Xd.C.-X-XY.i.-X-X-X}.^. X-X-X^.d.-X-X-X*.Z C.-X-X Xx.-X-X-Xd.i.-X-X-X_ + % 2 J 9.J.Y.d.C. X-X-X-X}.^.-X-X^.s x.-X-X}.v C.-X-X XC.x.C.Y.^. X          ",
"                          % + J  X-X-X Xt + + t ^.-X-X}.s + % ;.-X-X X X-X-X-X-X X}.-X-X^.d.-X-X-XY.Y. X X X^.Y.-X-XY.i.-X-X X( s Y.-X-X}.Y.-X-X Xx + ;.-X-X XC. X-X-X*.Q }.d.d.v % % ..Y.Y.^.Y.Q Z Y.-X-X-X^.Y.-X-X^.t d.-X-X XC.J.-X-X X*.*.^.}. X X          ",
"                          % + Z  X-X-X}.Z 2 3 _  X-X-XY.t % % ;.-X-X X9.}.-X-X-Xi.J.-X-X^.x.-X-X Xi...d.J.J.x.Y.-X-XY.i.-X-X Xv % C.-X-X^.x.-X-X-X9.( Y.-X-X}.9.-X-X-X        % % % % U  X-X-X-X X}.-X-X-X X*.x.-X-X^.t 7.-X-X-X}.( Y.-X-X-X-X-X-X X            ",
"                          2 % t Y.-X-X-X}.C.J. X-X-X-Xd.2 % % ;.-X-X-XQ 7.-X-X}.Z J.-X-X^.*. X-X-XJ.i.}.-X-Xx.C.-X-XY.i.-X-X Xv % C.-X-X^.U Y.-X-X-X-X-X-X Xo...-X-X X                2 7. X-X-X-X X X X Xx.t x.-X-X}.     X X}.}.      }. X X                  ",
"                              % _ }.-X-X-X-X-X-X-X-X-X  % % % ;.-X-X-XQ v }.-Xi.3 J.-X-X}.J i. X X-X-X-X X XJ d.-X-XY.d.-X X}.    C.-X-X X       X-X-X X                                                                                                        ",
"                                     X X X X X X X               X}.}.                                                                                                                                                                                          ",
"                                                                                                                                                                                                                                                                ",
"                                                                                                                                                                                                                                                                ",
"                                                                                                                                                                                                                                                                ",
"                                                                                                                                                                                                                                                                ",
"                                                                                                                                                                                                                                                                ",
"                                                                                                                                                                                                                                                                ",
"                                                                                                                                                                                                                                                                ",
"                                                                                                                                                                                                                                                                ",
"                                                                                                                                                                                                                                                                ",
"                                                                                                                                                                                                                                                                ",
"                                                                                                                                                                                                                                                                ",
"                                                                                                                                                                                                                                                                ",
"                                                                                                                                                                                                                                                                ",
"                                                                                                                                                                                                                                                                ",
"                                                                                                                                                                                                                                                                ",
"                                                                                                                                                                                                                                                                ",
"                                                                                                                                                                                                                                                                ",
"                                                                                                                                                                                                                                                                ",
"                                                                                                                                                                                                                                                                ",
"                                                                                                                                                                                                                                                                ",
"                                                                                                                                                                                                                                                                "
};
