/* XPM */
static char *oms_004[] = {
/* columns rows colors chars-per-pixel */
"128 54 132 2 ",
"   c #FF00FF",
".  c #141414",
"X  c #161616",
"o  c #181818",
"O  c #191919",
"+  c #1B1B1B",
"@  c #1C1C1C",
"#  c #1E1E1E",
"$  c #202020",
"%  c #222222",
"&  c #232323",
"*  c #262626",
"=  c #2A2A2A",
"-  c #2C2C2C",
";  c #2F2F2F",
":  c #353535",
">  c #363636",
",  c #393939",
"<  c #3E3E3E",
"1  c #444444",
"2  c #484848",
"3  c #4E4E4E",
"4  c #545454",
"5  c #5C5C5C",
"6  c #5D5D5D",
"7  c #5E5E5E",
"8  c #5F5F5F",
"9  c #626262",
"0  c #636363",
"q  c #666666",
"w  c #696969",
"e  c #6F6F6F",
"r  c #717171",
"t  c #727272",
"y  c #747474",
"u  c #777777",
"i  c #787878",
"p  c #7B7B7B",
"a  c #7C7C7C",
"s  c #808080",
"d  c #828282",
"f  c #848484",
"g  c #858585",
"h  c #878787",
"j  c #888888",
"k  c #8B8B8B",
"l  c #909090",
"z  c #919191",
"x  c #939393",
"c  c #949494",
"v  c #959595",
"b  c #979797",
"n  c #999999",
"m  c #9A9A9A",
"M  c #9C9C9C",
"N  c #9E9E9E",
"B  c #9F9F9F",
"V  c #A0A0A0",
"C  c #A1A1A1",
"Z  c #A2A2A2",
"A  c #A5A5A5",
"S  c #A9A9A9",
"D  c #ACACAC",
"F  c #B1B1B1",
"G  c #B2B2B2",
"H  c #B4B4B4",
"J  c #B6B6B6",
"K  c #B7B7B7",
"L  c #BBBBBB",
"P  c #BCBCBC",
"I  c #BDBDBD",
"U  c #BFBFBF",
"Y  c #C1C1C1",
"T  c #C2C2C2",
"R  c #C3C3C3",
"E  c #C4C4C4",
"W  c #C5C5C5",
"Q  c #C6C6C6",
"!  c #C7C7C7",
"~  c #C8C8C8",
"^  c #C9C9C9",
"/  c #CBCBCB",
"(  c #CCCCCC",
")  c #CDCDCD",
"_  c #CECECE",
"`  c #CFCFCF",
"'  c #D0D0D0",
"]  c #D1D1D1",
"[  c #D2D2D2",
"{  c #D3D3D3",
"}  c #D4D4D4",
"|  c #D5D5D5",
" . c #D6D6D6",
".. c #D7D7D7",
"X. c #D8D8D8",
"o. c #D9D9D9",
"O. c #DADADA",
"+. c #DBDBDB",
"@. c #DCDCDC",
"#. c #DDDDDD",
"$. c #DEDEDE",
"%. c #DFDFDF",
"&. c #E0E0E0",
"*. c #E1E1E1",
"=. c #E2E2E2",
"-. c #E3E3E3",
";. c #E4E4E4",
":. c #E6E6E6",
">. c #E6E6E6",
",. c #E7E7E7",
"<. c #E8E8E8",
"1. c #E9E9E9",
"2. c #EAEAEA",
"3. c #EBEBEB",
"4. c #ECECEC",
"5. c #EDEDED",
"6. c #EEEEEE",
"7. c #EFEFEF",
"8. c #F0F0F0",
"9. c #F1F1F1",
"0. c #F2F2F2",
"q. c #F3F3F3",
"w. c #F4F4F4",
"e. c #F5F5F5",
"r. c #F6F6F6",
"t. c #F7F7F7",
"y. c #F8F8F8",
"u. c #F9F9F9",
"i. c #FAFAFA",
"p. c #FBFBFB",
"a. c #FCFCFC",
"s. c #FDFDFD",
/* pixels */
"                                                                                                                                                                                                                                                                ",
"                                                                                                                                                                                                                                                                ",
"                                                                                                                                                                                                                                                                ",
"                                                                                                                                                                                                                                                                ",
"                                                                                                                                                                                                                                                                ",
"                                                                                                                                                                                                                                                                ",
"                                                                                                                                                                                                                                                                ",
"                                                                                                                                                                                                                                                                ",
"                                                                                                                                                                                                                                                                ",
"                                                                                                                                                                                                                                                                ",
"                                                                                                                                                                                                                                                                ",
"                                                                                                                                                                                                                                                                ",
"                                                                                                                                                                                                                                                                ",
"                                                                                                                                                                                                                                                                ",
"                                                                                                                                                                                                                                                                ",
"                                                                                                                                                                                                                                                                ",
"                                                                                                                                                                                                                                                                ",
"                                                                                                                                                                                                                                                                ",
"                                                                                                                                                                                                                                                                ",
"                                                                                                                                                                                                                                                                ",
"                                                                                                                                                                                                                                                                ",
"                                                                                                                                                                                                                                                                ",
"                  4.r.r.4.E j                                                                                                                                                         ` ,.4.4.4.r.                                                              ",
"            r.y.y.y.y.y.y.r.r.] e o         r.y.y.y.y.` &     r.y.y.y.y.E &                     r.y.y.r.V 4.y.y.,.0                                                               P r.r.y.y.y.y.y.y.y.y.e i y.y.y.` o ` r.r.r.                                  ",
"          r.y.y.y.y.r.r.y.y.y.y.r.0 X       y.y.y.y.y.y.r o ,.y.y.y.y.y.E &                     r.y.y.r.V 4.y.y.,.5                                                             i y.y.y.y.r.o.E r.r.r.y.` i ] ] o.S , ] y.y.y.,.                                ",
"        r.y.y.y.r.v 5 V r.y.y.y.y.P o -     y.y.y.y.y.y.] r r.y.y.y.y.y.E > ` y.y.y.r.r.4.o.B 3 4.y.y.r.V 4.y.y.4.H r.r.r.4.E     r.r.r.r.r.r.r.4.r.  ] 4.4.4.E ] r.r.r.        f y.y.y.y.r.] H ] 4.4.4.0 i 4.,.4.` ] r.y.y.y.y.v 4 E ,.r.r.y.y.r.r.            ",
"        r.y.y.y.P X &     r.y.y.y.o.& &     y.y.y.y.y.y.r.r.y.y.y.y.y.y.E v y.y.y.o.E r.y.y.r.B ] y.y.r.V 4.y.y.y.y.y.y.y.y.r.H r.y.y.y.r.y.r.y.y.y.] o.y.y.y.r.y.y.y.y.r.        ,.y.y.y.y.y.y.y.y.y.y.V j y.y.y.o.,.y.y.y.y.y.P o.y.y.r.P P r.y.y.r.          ",
"        r.y.y.y.` - X     r.y.y.y.] & -     y.y.y.r.,.y.y.y.y.r.] y.y.y.] ` y.y.y.4.,.r.r.r.y.o.,.y.y.r.V 4.y.y.r.E   r.y.y.r.` r.y.y.r.      y.y.y.,.o.y.y.y.4.H r.y.y.r.          o.] ,.r.r.4.r.y.y.y.r.P y.y.y.` 5 o.y.y.y.V v y.y.y.r.,.,.r.r.r.r.          ",
"        r.y.y.y.y.` v B 4.y.y.y.y.V X       y.y.y.,.f r.y.y.y.H v y.y.y.` ` y.y.y.E v ,.] E E H ,.y.y.r.V 4.y.y.,.0   r.y.y.r.` r.y.y.r.    o.y.y.y.,.o.y.y.y.,.  ,.r.r.4.      v 4.o.o.,.4.  r 4.y.y.y.r.` r.y.y.E o ` y.y.y.V j y.y.y.r.B f P E E ,.          ",
"          r.y.y.y.y.y.y.y.y.y.y.] 1 o       y.y.y.,.> H y.y.4.3 B y.y.y.E v y.y.y.,.H ,.r.r.r.E ,.y.y.r.V 4.y.y.,.0   r.y.y.r.P 4.y.y.y.,.] r.y.y.y.o.o.y.y.y.,.                f r.y.y.y.y.,.,.y.y.y.y.] V y.y.y.E & E y.y.y.y.P o.y.y.r.E P 4.r.r.r.          ",
"            r.r.y.y.r.r.y.r.r.` 5           r.y.y.,.- r y.y.H o o.y.y.y.` , o.r.y.y.y.y.y.r.r.  r.y.y.r.S 4.y.y.,.    r.y.y.r.P   r.y.y.y.y.y.y.r.r.  ,.y.y.y.,.                    r.y.y.y.y.y.r.y.r.y.e f y.y.y.4.  B y.y.y.y.H i 4.y.y.y.y.y.y.r.            ",
"                                                                                                                                                                                                                                                                ",
"                                                                                                                                                                                                                                                                ",
"                                                                                                                                                                                                                                                                ",
"                                                                                                                                                                                                                                                                ",
"                                                                                                                                                                                                                                                                ",
"                                                                                                                                                                                                                                                                ",
"                                                                                                                                                                                                                                                                ",
"                                                                                                                                                                                                                                                                ",
"                                                                                                                                                                                                                                                                ",
"                                                                                                                                                                                                                                                                ",
"                                                                                                                                                                                                                                                                ",
"                                                                                                                                                                                                                                                                ",
"                                                                                                                                                                                                                                                                ",
"                                                                                                                                                                                                                                                                ",
"                                                                                                                                                                                                                                                                ",
"                                                                                                                                                                                                                                                                ",
"                                                                                                                                                                                                                                                                ",
"                                                                                                                                                                                                                                                                ",
"                                                                                                                                                                                                                                                                ",
"                                                                                                                                                                                                                                                                ",
"                                                                                                                                                                                                                                                                ",
"                                                                                                                                                                                                                                                                ",
"                                                                                                                                                                                                                                                                "
};
