/* XPM */
static char *oms_007[] = {
/* columns rows colors chars-per-pixel */
"128 54 129 2 ",
"   c #FF00FF",
".  c #121212",
"X  c #141414",
"o  c #161616",
"O  c #191919",
"+  c #1A1A1A",
"@  c #1B1B1B",
"#  c #1D1D1D",
"$  c #1E1E1E",
"%  c #1F1F1F",
"&  c #333333",
"*  c #343434",
"=  c #3B3B3B",
"-  c #3F3F3F",
";  c #424242",
":  c #434343",
">  c #444444",
",  c #454545",
"<  c #494949",
"1  c #4C4C4C",
"2  c #545454",
"3  c #565656",
"4  c #575757",
"5  c #585858",
"6  c #6E6E6E",
"7  c #717171",
"8  c #737373",
"9  c #767676",
"0  c #777777",
"q  c #797979",
"w  c #7C7C7C",
"e  c #7D7D7D",
"r  c #848484",
"t  c #858585",
"y  c #8B8B8B",
"u  c #8C8C8C",
"i  c #8D8D8D",
"p  c #8F8F8F",
"a  c #929292",
"s  c #939393",
"d  c #949494",
"f  c #979797",
"g  c #989898",
"h  c #9A9A9A",
"j  c #9B9B9B",
"k  c #9C9C9C",
"l  c #9E9E9E",
"z  c #9F9F9F",
"x  c #A0A0A0",
"c  c #A1A1A1",
"v  c #A3A3A3",
"b  c #A4A4A4",
"n  c #A5A5A5",
"m  c #A6A6A6",
"M  c #A9A9A9",
"N  c #ABABAB",
"B  c #ACACAC",
"V  c #AEAEAE",
"C  c #AFAFAF",
"Z  c #B0B0B0",
"A  c #B1B1B1",
"S  c #B2B2B2",
"D  c #B2B2B2",
"F  c #B4B4B4",
"G  c #B5B5B5",
"H  c #B7B7B7",
"J  c #B8B8B8",
"K  c #B9B9B9",
"L  c #BABABA",
"P  c #BBBBBB",
"I  c #BDBDBD",
"U  c #808080",
"Y  c #BFBFBF",
"T  c #C0C0C0",
"R  c #C1C1C1",
"E  c #C4C4C4",
"W  c #C5C5C5",
"Q  c #C6C6C6",
"!  c #C7C7C7",
"~  c #C8C8C8",
"^  c #C9C9C9",
"/  c #CBCBCB",
"(  c #CCCCCC",
")  c #CECECE",
"_  c #D0D0D0",
"`  c #D1D1D1",
"'  c #D2D2D2",
"]  c #D4D4D4",
"[  c #D5D5D5",
"{  c #D6D6D6",
"}  c #D7D7D7",
"|  c #D8D8D8",
" . c #D9D9D9",
".. c #DADADA",
"X. c #DBDBDB",
"o. c #DDDDDD",
"O. c #DEDEDE",
"+. c #DFDFDF",
"@. c #E0E0E0",
"#. c #E1E1E1",
"$. c #E2E2E2",
"%. c #E3E3E3",
"&. c #E4E4E4",
"*. c #E6E6E6",
"=. c #E6E6E6",
"-. c #E7E7E7",
";. c #E8E8E8",
":. c #E9E9E9",
">. c #EAEAEA",
",. c #EBEBEB",
"<. c #ECECEC",
"1. c #EDEDED",
"2. c #EEEEEE",
"3. c #EFEFEF",
"4. c #F0F0F0",
"5. c #F1F1F1",
"6. c #F2F2F2",
"7. c #F3F3F3",
"8. c #F4F4F4",
"9. c #F5F5F5",
"0. c #F6F6F6",
"q. c #F7F7F7",
"w. c #F8F8F8",
"e. c #F9F9F9",
"r. c #FAFAFA",
"t. c #FBFBFB",
"y. c #FCFCFC",
"u. c #FDFDFD",
"i. c #FEFEFE",
/* pixels */
"                                                                                                                                                                                                                                                                ",
"                                                                                                                                                                                                                                                                ",
"                                                                                                                                                                                                                                                                ",
"                                                                                                                                                                                                                                                                ",
"                                                                                                                                                                                                                                                                ",
"                                                                                                                                                                                                                                                                ",
"                                                                                                                                                                                                                                                                ",
"                                                                                                                                                                                                                                                                ",
"                                                                                                                                                                                                                                                                ",
"                                                                                                                                                                                                                                                                ",
"                                                                                                                                                                                                                                                                ",
"                                                                                                                                                                                                                                                                ",
"                                                                                                                                                                                                                                                                ",
"                                                                                                                                                                                                                                                                ",
"                                                                                                                                                                                                                                                                ",
"                                                                                                                                                                                                                                                                ",
"                                                                                                                                                                                                                                                                ",
"                                                                                                                                                                                                                                                                ",
"                                                                                                                                                                                                                                                                ",
"                                                                                                                                                                                                                                                                ",
"                                                                                                                                                                                                                                                                ",
"                                                                                                                                                                                                                                                                ",
"                      8.   .B                                                                                                                                                         u P -.8.-.>.                                                              ",
"              8.8.e.e.e.e.e.8.>.T 4           8.e.e.e.e.v       8.8.8.8.e.B                       8.e.e.8.8.e.e.e.>.                                                              : T 8.8.e.e.e.e.e.e.e.T = Z e.e.e.a * -.8.8.>.                                ",
"            8.e.e.e.e.8.8.e.e.e.e. .:         e.e.e.e.e.>.5   e.e.e.e.e.e.B                       8.e.e.8.8.e.e.e.8.                                                            o v e.e.e.e.>.B ` e.8.8.e.v v -. .-.e 4 8.e.e.8.                                ",
"          8.e.e.e.>.a v   8.e.e.e.e.a O       e.e.e.e.e.e.Z h e.e.e.e.e.e.B   8.>.8.8.8.8.>. .    8.e.e.8.8.e.e.e.-.P -.8.8.8.    7 T >.>.8.8.8.8.8.  = ` >.>.-.a ` 8.8.8.      o Z e.e.e.e.>.v Z >.>.>.h 1 B >.>.>.T -.e.e.e.e.8.4 6 ( -.8.e.e.8.8.8.          ",
"          e.e.e.e.h O       8.e.e.e.Z o       e.e.e.e.e.e.8.>.e.e.e.e.e.e.Z T e.e.e.-.-.8.e.e.>.( 8.e.e.8.8.e.e.e.8.8.e.e.e.e.8.e  .e.e.e.e.>.8.e.e.8.u -.e.e.e.8.e.e.e.e.8.    o 7 8.e.e.e.e.e.e.e.e.e.-.7 Z e.e.e.` 8.e.e.e.e.8.Z 8.e.e.>.Z ` e.e.e.8.        ",
"          e.e.e.e.Z O       8.e.e.e.Z O       e.e.e.>.>.e.e.e.e.>.>.e.e.e.P  .e.e.e.-.-.8.e.e.e. .8.e.e.8.8.e.e.e.8.  -.8.e.e.>.P e.e.e.8.    T e.e.e.` >.e.e.e.v B e.e.e.8.        v  .-.>.8.>.8.e.e.e.e.-.( e.e.e.v e 8.e.e.8.e P e.e.e.8.` -.e.e.e.8.        ",
"          8.e.e.e.8.Z u Z 8.e.e.e.e.t         e.e.e.T h e.e.e.e.B ` e.e.e.T -.e.e.8.( (  .` ` ` T 8.e.e.8.8.e.e.e.8.    >.e.e.>.T e.e.e.8.  O P e.e.e.` >.e.e.e.u 7 8.8.8.>.    O P -. .-.>.T : a e.e.e.e.>. .e.e.e.t * >.e.e.8.7 P e.e.e. .u v ` `  .>.        ",
"            8.e.e.e.e.e.e.e.e.e.e.( :         e.e.e.T 1 8.e.e. .  8.e.e.e.B T e.e.e.` T >.8.8.8.-.8.e.e.8.8.e.e.e.8.    >.e.e.8.P 8.e.e.e. .T 8.e.e.8.a -.e.e.8.                O h e.e.e.e.>.` -.e.e.e.e.P T e.e.e.t * >.e.e.e.>.Z 8.e.e.>.B ( 8.8.8.8.        ",
"              8.8.e.e.e.8.e.e.8.-.            e.e.e.T     e.e.B   e.e.e.e.Z   e.8.e.e.e.e.e.8.8.  8.e.e.8.8.e.e.e.8.    >.e.e.8.    8.8.e.e.e.e.e.8.` 1 -.e.e.8.                     .8.e.e.e.e.e.e.e.8.` = Z e.e.e.v O ( e.e.e.8.7 h 8.e.e.e.e.e.e.8.          ",
"                                                                                                                                                                                                                                                                ",
"                                                                                                                                                                                                                                                                ",
"                                                                                                                                                                                                                                                                ",
"                                                                                                                                                                                                                                                                ",
"                                                                                                                                                                                                                                                                ",
"                                                                                                                                                                                                                                                                ",
"                                                                                                                                                                                                                                                                ",
"                                                                                                                                                                                                                                                                ",
"                                                                                                                                                                                                                                                                ",
"                                                                                                                                                                                                                                                                ",
"                                                                                                                                                                                                                                                                ",
"                                                                                                                                                                                                                                                                ",
"                                                                                                                                                                                                                                                                ",
"                                                                                                                                                                                                                                                                ",
"                                                                                                                                                                                                                                                                ",
"                                                                                                                                                                                                                                                                ",
"                                                                                                                                                                                                                                                                ",
"                                                                                                                                                                                                                                                                ",
"                                                                                                                                                                                                                                                                ",
"                                                                                                                                                                                                                                                                ",
"                                                                                                                                                                                                                                                                ",
"                                                                                                                                                                                                                                                                ",
"                                                                                                                                                                                                                                                                "
};
