/* XPM */
static char *oms_118[] = {
/* columns rows colors chars-per-pixel */
"128 54 173 2 ",
"   c #FF00FF",
".  c #0D0D0D",
"X  c #0F0F0F",
"o  c #101010",
"O  c #111111",
"+  c #121212",
"@  c #131313",
"#  c #141414",
"$  c #151515",
"%  c #161616",
"&  c #171717",
"*  c #181818",
"=  c #191919",
"-  c #1A1A1A",
";  c #1B1B1B",
":  c #1C1C1C",
">  c #1D1D1D",
",  c #1E1E1E",
"<  c #1F1F1F",
"1  c #202020",
"2  c #212121",
"3  c #222222",
"4  c #232323",
"5  c #242424",
"6  c #252525",
"7  c #262626",
"8  c #272727",
"9  c #282828",
"0  c #292929",
"q  c #2A2A2A",
"w  c #2B2B2B",
"e  c #2E2E2E",
"r  c #303030",
"t  c #313131",
"y  c #333333",
"u  c #343434",
"i  c #353535",
"p  c #373737",
"a  c #383838",
"s  c #393939",
"d  c #3D3D3D",
"f  c #3E3E3E",
"g  c #3F3F3F",
"h  c #404040",
"j  c #434343",
"k  c #454545",
"l  c #464646",
"z  c #4B4B4B",
"x  c #4C4C4C",
"c  c #4C4C4C",
"v  c #515151",
"b  c #535353",
"n  c #5A5A5A",
"m  c #5B5B5B",
"M  c #5C5C5C",
"N  c #5D5D5D",
"B  c #5E5E5E",
"V  c #5F5F5F",
"C  c #616161",
"Z  c #636363",
"A  c #646464",
"S  c #676767",
"D  c #696969",
"F  c #6A6A6A",
"G  c #6D6D6D",
"H  c #727272",
"J  c #737373",
"K  c #757575",
"L  c #797979",
"P  c #7A7A7A",
"I  c #7D7D7D",
"U  c #7E7E7E",
"Y  c #808080",
"T  c #828282",
"R  c #858585",
"E  c #868686",
"W  c #888888",
"Q  c #898989",
"!  c #8B8B8B",
"~  c #8C8C8C",
"^  c #8D8D8D",
"/  c #8E8E8E",
"(  c #8F8F8F",
")  c #919191",
"_  c #929292",
"`  c #939393",
"'  c #949494",
"]  c #959595",
"[  c #979797",
"{  c #999999",
"}  c #9A9A9A",
"|  c #9B9B9B",
" . c #9C9C9C",
".. c #9D9D9D",
"X. c #9F9F9F",
"o. c #A1A1A1",
"O. c #A2A2A2",
"+. c #A4A4A4",
"@. c #A7A7A7",
"#. c #A8A8A8",
"$. c #A9A9A9",
"%. c #AAAAAA",
"&. c #ABABAB",
"*. c #ACACAC",
"=. c #AEAEAE",
"-. c #AFAFAF",
";. c #B2B2B2",
":. c #B4B4B4",
">. c #B5B5B5",
",. c #B7B7B7",
"<. c #B8B8B8",
"1. c #B9B9B9",
"2. c #BBBBBB",
"3. c #BCBCBC",
"4. c #BDBDBD",
"5. c #808080",
"6. c #BFBFBF",
"7. c #C1C1C1",
"8. c #C2C2C2",
"9. c #C3C3C3",
"0. c #C4C4C4",
"q. c #C5C5C5",
"w. c #C6C6C6",
"e. c #C8C8C8",
"r. c #CBCBCB",
"t. c #CCCCCC",
"y. c #CDCDCD",
"u. c #CECECE",
"i. c #CFCFCF",
"p. c #D1D1D1",
"a. c #D2D2D2",
"s. c #D3D3D3",
"d. c #D5D5D5",
"f. c #D6D6D6",
"g. c #D8D8D8",
"h. c #D9D9D9",
"j. c #DADADA",
"k. c #DBDBDB",
"l. c #DCDCDC",
"z. c #DDDDDD",
"x. c #DEDEDE",
"c. c #DFDFDF",
"v. c #E0E0E0",
"b. c #E1E1E1",
"n. c #E2E2E2",
"m. c #E4E4E4",
"M. c #E6E6E6",
"N. c #E6E6E6",
"B. c #E7E7E7",
"V. c #E8E8E8",
"C. c #E9E9E9",
"Z. c #EAEAEA",
"A. c #EBEBEB",
"S. c #ECECEC",
"D. c #EDEDED",
"F. c #EEEEEE",
"G. c #EFEFEF",
"H. c #F0F0F0",
"J. c #F1F1F1",
"K. c #F2F2F2",
"L. c #F3F3F3",
"P. c #F4F4F4",
"I. c #F5F5F5",
"U. c #F6F6F6",
"Y. c #F7F7F7",
"T. c #F8F8F8",
"R. c #F9F9F9",
"E. c #FAFAFA",
"W. c #FBFBFB",
"Q. c #FCFCFC",
"!. c #FDFDFD",
"~. c #FEFEFE",
"^. c #FFFFF1",
/* pixels */
"                                                                                                                                                                                                                                                                ",
"                                                                                                                                                                                                                                                                ",
"                                                                                                                                                                                                                                                                ",
"                                                                                                                                                                                                                                                                ",
"                                                                                                                                                                                                                                                                ",
"                                                                                                                                                                                                                                                                ",
"                                                                                                                                                                                                                                                                ",
"                                                                                                                                                                                                                                                                ",
"                                                                                                                                                                                                                                                                ",
"                                                                                                                                                                                                                                                                ",
"                                                                                                                                                                                                                                                                ",
"                                                                                                                                                                                                                                                                ",
"                                                                                                    , Z                                                                                                                                                         ",
"                                                                                      o 1 , o o o o o , , o o q 1 x                                                                                                                                             ",
"                                                                                R.G...1 B >.b B 1 o o o o o o o o o B                                                                                                                                           ",
"                                                                                R.M.G.] o.R.] M./ q q o o o o o o o o o , h /                                                                                                                                   ",
"                                                                                G.M.M.M.M.R.1.s.-.e.z.] t o o o o o o o o o q ..                                                                                                                                ",
"                                                                                G.1.z.Y.e.R.G.G.1.M.R.R.e.s o o o o o o o o o b                                                                                                                                 ",
"                                                                                R.z.M.G.o.Y.e.Y.-.] s.>.R...o o o o o o o o o s                                                                                                                                 ",
"                                                                                  Y.R.M.z.Y.] G.z.G.G.s.R.8., o o o o o o o o t                                                                                                                                 ",
"                                                                                        G.Y.] M.G.Y.R.R.R.e., , 1 o o o o o o , 1 o q U                                                                                                                         ",
"                                                                                          G.] G.M.Y.M.>.G.] o Y 8.h 1 o o o o o o o o o 1 /                                                                                                                     ",
"                                                                                              R.8.M.M.o.e.B o -.R.M.8.s , o o o o o o o o 1 1 t Y                                                                                                               ",
"                                                                                                    R.R.R.e.1 -.Y.M.Y.] 8...t o o o , , o o o o 1 t o o o 1 B                                                                                                   ",
"                                                                                                      Y.R.>.o B 8.>.Y.z.R.R.e.t o o Z 1.b , o o o o o o o o o q Z                                                                                               ",
"                                                                                                                    Y.Y.Y.-.G...] / U R.s.1.t o o o o o o o o X s 8.                                                                                            ",
"                                                                                                                    Y.z.G.x s.M.G.Y.s.Y.z.R.x o o o o o o o o o s 8.                                                                                            ",
"                                                                                                                    G.>.Y...M.G.G.Y.Y.Y.z.Y.x X o o 1 q o o o o 1 s o o o o h /                                                                                 ",
"                                                                                                                        Y.R.R.M.G.8...Y.z.Y.U / Z , x e.U , o o o o o o o o o q ..                                                                              ",
"                                                                                                                          Y.Y.8.G.-.J Y.z.Y.z.R.Y.] B Y.G.h t t o o o o o o o o , o s U                                                                         ",
"                                                                                                                                R.-.J Y.z.Y.Y.Y.e.G...Y.R.F ..M.Y , o o o o o o o o o t 1.                                                                      ",
"                                                                                                                                      Y.z.Y.M.z.M.Y.s.Y.R.-.s.R.z.q o o o o o o o o o 1 J                                                                       ",
"                                                                                                                                        M.Y.z.M.o.Y.M.Y.R.G.Y.R.s.1 1 o.-.B , o o o o o o o o o q J                                                             ",
"                                                                                                                                              Y.G.R.z.Y.M.Y.R.R.s.1 F R.R.Y./ , o o o o o o o o o , /                                                           ",
"                                                                                                                                                Y.Y.1.Y.8.G.Y.G.s.1 / R.Y.R.Y.B o o o o o o o o o o s                                                           ",
"                                                                                                                                                      R.o.s.s.s.z.1 ] R./ Y R.-.o o o o o o o o o o , o.                                                        ",
"                                                                                                                                                          z.o.e.z.1 / R.B , s.s.1 o o o o o o o o o o ]                                                         ",
"                                                                                                                                                              M.s.1 F R.] 1 e.M.q o o o o o o o o o o /                                                         ",
"                                                                                                                                                                      Y.G.1.Y.M.q o o o o o o o o o o ]                                                         ",
"                                                                                                                                                                        R.R.R.s.1 o o o o o o o o o , o.                                                        ",
"                                                                                                                                                                          R.R.o.o o o o o o o o o o h                                                           ",
"                                                                                                                                                                                                                                                                ",
"                                                                                                                                                                                                                                                                ",
"                                                                                                                                                                                                                                                                ",
"                                                                                                                                                                                                                                                                ",
"                                                                                                                                                                                                                                                                ",
"                                                                                                                                                                                                                                                                ",
"                                                                                                                                                                                                                                                                ",
"                                                                                                                                                                                                                                                                ",
"                                                                                                                                                                                                                                                                ",
"                                                                                                                                                                                                                                                                ",
"                                                                                                                                                                                                                                                                ",
"                                                                                                                                                                                                                                                                ",
"                                                                                                                                                                                                                                                                "
};
