/* XPM */
static char *oms_011[] = {
/* columns rows colors chars-per-pixel */
"128 54 142 2 ",
"   c #FF00FF",
".  c #101010",
"X  c #111111",
"o  c #121212",
"O  c #131313",
"+  c #171717",
"@  c #1A1A1A",
"#  c #1F1F1F",
"$  c #202020",
"%  c #212121",
"&  c #252525",
"*  c #2A2A2A",
"=  c #2F2F2F",
"-  c #333333",
";  c #343434",
":  c #353535",
">  c #393939",
",  c #3B3B3B",
"<  c #3C3C3C",
"1  c #3D3D3D",
"2  c #3F3F3F",
"3  c #404040",
"4  c #414141",
"5  c #474747",
"6  c #484848",
"7  c #494949",
"8  c #4E4E4E",
"9  c #535353",
"0  c #545454",
"q  c #565656",
"w  c #575757",
"e  c #595959",
"r  c #5B5B5B",
"t  c #5F5F5F",
"y  c #606060",
"u  c #616161",
"i  c #626262",
"p  c #636363",
"a  c #707070",
"s  c #727272",
"d  c #737373",
"f  c #767676",
"g  c #777777",
"h  c #787878",
"j  c #7B7B7B",
"k  c #818181",
"l  c #828282",
"z  c #858585",
"x  c #868686",
"c  c #898989",
"v  c #8A8A8A",
"b  c #8E8E8E",
"n  c #8F8F8F",
"m  c #919191",
"M  c #929292",
"N  c #979797",
"B  c #989898",
"V  c #9C9C9C",
"C  c #9D9D9D",
"Z  c #9F9F9F",
"A  c #A0A0A0",
"S  c #A3A3A3",
"D  c #A8A8A8",
"F  c #AAAAAA",
"G  c #ADADAD",
"H  c #AEAEAE",
"J  c #AFAFAF",
"K  c #B0B0B0",
"L  c #B1B1B1",
"P  c #B2B2B2",
"I  c #B2B2B2",
"U  c #B5B5B5",
"Y  c #B8B8B8",
"T  c #B9B9B9",
"R  c #BABABA",
"E  c #BBBBBB",
"W  c #BCBCBC",
"Q  c #BDBDBD",
"!  c #808080",
"~  c #C0C0C0",
"^  c #C1C1C1",
"/  c #C2C2C2",
"(  c #C3C3C3",
")  c #C4C4C4",
"_  c #C5C5C5",
"`  c #C6C6C6",
"'  c #C7C7C7",
"]  c #C8C8C8",
"[  c #C9C9C9",
"{  c #CACACA",
"}  c #CBCBCB",
"|  c #CCCCCC",
" . c #CDCDCD",
".. c #CECECE",
"X. c #CFCFCF",
"o. c #D0D0D0",
"O. c #D1D1D1",
"+. c #D2D2D2",
"@. c #D3D3D3",
"#. c #D4D4D4",
"$. c #D5D5D5",
"%. c #D6D6D6",
"&. c #D7D7D7",
"*. c #D8D8D8",
"=. c #D9D9D9",
"-. c #DADADA",
";. c #DBDBDB",
":. c #DCDCDC",
">. c #DDDDDD",
",. c #DEDEDE",
"<. c #DFDFDF",
"1. c #E0E0E0",
"2. c #E1E1E1",
"3. c #E2E2E2",
"4. c #E3E3E3",
"5. c #E4E4E4",
"6. c #E6E6E6",
"7. c #E6E6E6",
"8. c #E7E7E7",
"9. c #E8E8E8",
"0. c #E9E9E9",
"q. c #EAEAEA",
"w. c #EBEBEB",
"e. c #ECECEC",
"r. c #EDEDED",
"t. c #EEEEEE",
"y. c #EFEFEF",
"u. c #F0F0F0",
"i. c #F1F1F1",
"p. c #F2F2F2",
"a. c #F3F3F3",
"s. c #F4F4F4",
"d. c #F5F5F5",
"f. c #F6F6F6",
"g. c #F7F7F7",
"h. c #F8F8F8",
"j. c #F9F9F9",
"k. c #FAFAFA",
"l. c #FBFBFB",
"z. c #FCFCFC",
"x. c #FDFDFD",
"c. c #FEFEFE",
/* pixels */
"                                                                                                                                                                                                                                                                ",
"                                                                                                                                                                                                                                                                ",
"                                                                                                                                                                                                                                                                ",
"                                                                                                                                                                                                                                                                ",
"                                                                                                                                                                                                                                                                ",
"                                                                                                                                                                                                                                                                ",
"                                                                                                                                                                                                                                                                ",
"                                                                                                                                                                                                                                                                ",
"                                                                                                                                                                                                                                                                ",
"                                                                                                                                                                                                                                                                ",
"                                                                                                                                                                                                                                                                ",
"                                                                                                                                                                                                                                                                ",
"                                                                                                                                                                                                                                                                ",
"                                                                                                                                                                                                                                                                ",
"                                                                                                                                                                                                                                                                ",
"                                                                                                                                                                                                                                                                ",
"                                                                                                                                                                                                                                                                ",
"                                                                                                                                                                                                                                                                ",
"                                                                                                                                                                                                                                                                ",
"                                                                                                                                                                                                                                                                ",
"                                                                                                                                                                                                                                                                ",
"                                                                                                                                                                                                                                                                ",
"                                                                                                                                                                                      2 x ^   0.0.                                                              ",
"                f.f.h.h.h.f.f.f.0...            f.f.f.f.f.f.      0.f.f.f.f.0.                    6 6.h.h.0.Q h.h.h.f.                                                          O O r &.f.f.h.h.h.h.h.h.6.x 4 0.h.h.0.2 a 0.f.f.0.                              ",
"              f.h.h.h.h.h.h.h.h.h.h.6.h         h.h.h.h.h.f.    &.h.h.h.h.h.f.                    6 0.h.h.0.Q h.h.h.0.                                                          O & &.h.h.h.f.^ U 0.h.h.h.0.a ..>.>...2 V h.h.h.0.                              ",
"            f.h.h.h.f.6.    f.h.h.h.h.Q         h.h.h.h.h.h.0.G f.h.h.h.h.h.0.  N ..6.0.f.0.0.f.  6 0.h.h.0.Q h.h.h...x &.0.f.f.  O 0 U >.6.0.f.f.f.6.6 6 >.>.0.>.x &.f.h.f.    O = 6.h.h.h.f.Q N ..0.f.U a 0 >.0.0.6.^ f.h.h.h.f.G - V &.0.f.h.f.f.f.          ",
"            f.h.h.h...        f.h.h.h.&.        h.h.h.h.h.h.f.0.h.h.h.h.h.h.^ S f.h.h.6.&.0.h.h.0.h 0.h.h.0.Q h.h.h.f.h.h.h.h.h.&.u 6.h.h.h.0.6.h.h.h.>.x f.h.h.h.h.h.h.h.h.    @ O G h.h.h.h.h.h.h.h.h.f.Q u 0.h.h.f.>.h.h.h.h.h...Q h.h.h...U 0.h.h.f.        ",
"            h.h.h.h...=       f.h.h.h.>.        h.h.h.f.f.h.h.h.h.f.0.h.h.h.^ >.h.h.h.>.^ 0.h.h.h.^ 0.h.h.0.Q h.h.h.h.Q G h.h.h.6.Q h.h.h.h.0 2 >.h.h.h.^ 0.h.h.f.c ..h.h.h.0.      2 G &.0.f.6.6.f.h.h.h.h.^ 0.h.h.f.a Q h.h.h...a 0.h.h.f.>...0.h.h.h.f.      ",
"            f.h.h.h.f.U c V &.h.h.h.h.>.        h.h.h.0.>.h.h.h.h.6.>.h.h.h...6.h.h.h.0.Q ^ &.&.&.Q 0.h.h.0.Q h.h.h.f.  2 0.h.h.6.^ h.h.h.f.& @ &.h.h.h...f.h.h.0.4 V h.h.f.    O - ....&.6.6.u 6 ^ h.h.h.h.>.0.h.h.0.- x h.h.h.^ u 0.h.h.f.U c ^ &.&.6.        ",
"              h.h.h.h.h.h.f.h.h.h.h.f.          h.h.h.0.  f.h.h.f.  >.h.h.h.6.6.h.h.h.>.V &.0.0.0.G 0.h.h.0.Q h.h.h.f.  2 6.h.h.6.c f.h.h.f.U Q f.h.h.0.N 0.h.h.f.              O & ..h.h.h.h.>.&.0.h.h.h.f.S 0.h.h.0.- x h.h.h.h...^ h.h.h...G 6.f.f.f.        ",
"                f.f.h.h.h.h.h.h.f.f.            f.f.h.0.    f.f.f.  6.h.f.f.0.  f.h.h.h.h.h.h.h.0.a 0.h.h.0.Q h.h.h.f.  4 0.h.h.f.  ^ f.h.h.h.h.h.h.h.N r f.h.h.f.                  u 6.f.f.h.h.h.h.f.f.f.S 4 0.h.h.f.4 0 0.h.h.h...0 &.f.h.h.h.h.h.f.f.        ",
"                        0.0.                                                                                                                                                                                                                                    ",
"                                                                                                                                                                                                                                                                ",
"                                                                                                                                                                                                                                                                ",
"                                                                                                                                                                                                                                                                ",
"                                                                                                                                                                                                                                                                ",
"                                                                                                                                                                                                                                                                ",
"                                                                                                                                                                                                                                                                ",
"                                                                                                                                                                                                                                                                ",
"                                                                                                                                                                                                                                                                ",
"                                                                                                                                                                                                                                                                ",
"                                                                                                                                                                                                                                                                ",
"                                                                                                                                                                                                                                                                ",
"                                                                                                                                                                                                                                                                ",
"                                                                                                                                                                                                                                                                ",
"                                                                                                                                                                                                                                                                ",
"                                                                                                                                                                                                                                                                ",
"                                                                                                                                                                                                                                                                ",
"                                                                                                                                                                                                                                                                ",
"                                                                                                                                                                                                                                                                ",
"                                                                                                                                                                                                                                                                ",
"                                                                                                                                                                                                                                                                ",
"                                                                                                                                                                                                                                                                ",
"                                                                                                                                                                                                                                                                "
};
