/* XPM */
static char *oms_180[] = {
/* columns rows colors chars-per-pixel */
"128 54 205 2 ",
"   c #FF00FF",
".  c #060606",
"X  c #0B0B0B",
"o  c #0C0C0C",
"O  c #0D0D0D",
"+  c #0E0E0E",
"@  c #0F0F0F",
"#  c #101010",
"$  c #111111",
"%  c #121212",
"&  c #131313",
"*  c #141414",
"=  c #151515",
"-  c #161616",
";  c #171717",
":  c #181818",
">  c #191919",
",  c #1A1A1A",
"<  c #1B1B1B",
"1  c #1C1C1C",
"2  c #1D1D1D",
"3  c #1E1E1E",
"4  c #1F1F1F",
"5  c #202020",
"6  c #212121",
"7  c #222222",
"8  c #232323",
"9  c #242424",
"0  c #252525",
"q  c #262626",
"w  c #272727",
"e  c #282828",
"r  c #292929",
"t  c #2A2A2A",
"y  c #2B2B2B",
"u  c #2C2C2C",
"i  c #2D2D2D",
"p  c #2E2E2E",
"a  c #2F2F2F",
"s  c #303030",
"d  c #313131",
"f  c #323232",
"g  c #333333",
"h  c #343434",
"j  c #353535",
"k  c #363636",
"l  c #373737",
"z  c #393939",
"x  c #3A3A3A",
"c  c #3B3B3B",
"v  c #3C3C3C",
"b  c #3D3D3D",
"n  c #3E3E3E",
"m  c #3F3F3F",
"M  c #404040",
"N  c #414141",
"B  c #434343",
"V  c #444444",
"C  c #454545",
"Z  c #464646",
"A  c #474747",
"S  c #484848",
"D  c #494949",
"F  c #4A4A4A",
"G  c #4B4B4B",
"H  c #4C4C4C",
"J  c #4C4C4C",
"K  c #4F4F4F",
"L  c #505050",
"P  c #515151",
"I  c #525252",
"U  c #535353",
"Y  c #545454",
"T  c #555555",
"R  c #565656",
"E  c #585858",
"W  c #5A5A5A",
"Q  c #5B5B5B",
"!  c #5D5D5D",
"~  c #5E5E5E",
"^  c #606060",
"/  c #616161",
"(  c #626262",
")  c #636363",
"_  c #646464",
"`  c #656565",
"'  c #666666",
"]  c #6A6A6A",
"[  c #6B6B6B",
"{  c #6C6C6C",
"}  c #6D6D6D",
"|  c #6E6E6E",
" . c #707070",
".. c #737373",
"X. c #747474",
"o. c #777777",
"O. c #797979",
"+. c #7A7A7A",
"@. c #7B7B7B",
"#. c #7D7D7D",
"$. c #808080",
"%. c #818181",
"&. c #828282",
"*. c #838383",
"=. c #858585",
"-. c #868686",
";. c #898989",
":. c #8A8A8A",
">. c #8B8B8B",
",. c #8C8C8C",
"<. c #8D8D8D",
"1. c #8E8E8E",
"2. c #8F8F8F",
"3. c #909090",
"4. c #919191",
"5. c #929292",
"6. c #939393",
"7. c #949494",
"8. c #979797",
"9. c #989898",
"0. c #999999",
"q. c #9B9B9B",
"w. c #9C9C9C",
"e. c #9D9D9D",
"r. c #9E9E9E",
"t. c #A0A0A0",
"y. c #A2A2A2",
"u. c #A6A6A6",
"i. c #A7A7A7",
"p. c #A9A9A9",
"a. c #ABABAB",
"s. c #ACACAC",
"d. c #ADADAD",
"f. c #AEAEAE",
"g. c #AFAFAF",
"h. c #B0B0B0",
"j. c #B2B2B2",
"k. c #B2B2B2",
"l. c #B4B4B4",
"z. c #B6B6B6",
"x. c #B7B7B7",
"c. c #B8B8B8",
"v. c #BBBBBB",
"b. c #BCBCBC",
"n. c #C1C1C1",
"m. c #C2C2C2",
"M. c #C3C3C3",
"N. c #C4C4C4",
"B. c #C6C6C6",
"V. c #C7C7C7",
"C. c #C8C8C8",
"Z. c #C9C9C9",
"A. c #CACACA",
"S. c #CBCBCB",
"D. c #CCCCCC",
"F. c #CECECE",
"G. c #CFCFCF",
"H. c #D0D0D0",
"J. c #D1D1D1",
"K. c #D2D2D2",
"L. c #D3D3D3",
"P. c #D4D4D4",
"I. c #D5D5D5",
"U. c #D6D6D6",
"Y. c #D7D7D7",
"T. c #D8D8D8",
"R. c #D9D9D9",
"E. c #DADADA",
"W. c #DBDBDB",
"Q. c #DCDCDC",
"!. c #DDDDDD",
"~. c #DEDEDE",
"^. c #DFDFDF",
"/. c #E0E0E0",
"(. c #E1E1E1",
"). c #E2E2E2",
"_. c #E3E3E3",
"`. c #E4E4E4",
"'. c #E6E6E6",
"]. c #E6E6E6",
"[. c #E7E7E7",
"{. c #E8E8E8",
"}. c #E9E9E9",
"|. c #EAEAEA",
" X c #EBEBEB",
".X c #ECECEC",
"XX c #EDEDED",
"oX c #EEEEEE",
"OX c #EFEFEF",
"+X c #F0F0F0",
"@X c #F1F1F1",
"#X c #F2F2F2",
"$X c #F3F3F3",
"%X c #F4F4F4",
"&X c #F5F5F5",
"*X c #F6F6F6",
"=X c #F7F7F7",
"-X c #F8F8F8",
";X c #F9F9F9",
":X c #FAFAFA",
">X c #FBFBFB",
",X c #FCFCFC",
"<X c #FDFDFD",
"1X c #FEFEFE",
"2X c #FFFFF1",
/* pixels */
"                                                                                                                                                                                                                                                                ",
"                                                                                                                                                                                                                                                                ",
"                                                                                                                                                                                                                                                                ",
"                                                                                                                                                                                                                                                                ",
"                                                                                                                                                                                                                                                                ",
"                                                                                                                                                                                                                                                                ",
"                                                                                                                                                                                                                                                                ",
"                                                                                                                                                                                                                                                                ",
"                                                                                                                                                                                                                                                                ",
"                                                                                                                                                                                                                                                                ",
"                                                                                                                                                                                                                                                                ",
"                                                                                                                                                                                                                                                                ",
"                                                                                                                                                                                                                                                                ",
"                                                                                                                                                                                                                                                                ",
"                                                                                                                                                                                                                                                                ",
"                                                                                                                                                                                                                                                                ",
"                                                                                                                                                                                                                                                                ",
"                                                                                                                                                                                                                                                                ",
"                                  J I I I     u u u u     m u u u u s u s Z                                                                     O.                                                                                                              ",
"                                  % % % %     % % % % u , % % % % % % % % % ,                                                                 , , , , s , , , u                       w w w s s Z         m Z Z m s                 Z s s s J W                 ",
"            Z u w , , w w s     w % % % % w w % % % % % % % % % % % % % % % % ,           I I     W /             W W W {                     % % % % % % % % w                       % % % % % % I     % % % % % %             , % % % % % % % , s o.          ",
"          s % % % % % % % % ,   % % % % % % % u m m m u % % w u m m m s u , % %         , % % , u , % % ,   s w , % % % , , s     u w , , u u @ @ @ % % @ @ @ w     s u w w w s Z   , % % % % % % w   % % % % % % %           % % % % % % % % % % % ,           ",
"          % % % % % @ % % % % % % , 3.a.a.u.u ;.%XoXoX-.s q.Y././.oXoX/.!.Z.3.m       % % % % % % % % % % % % % % % % % % % % w   % % % % % J { / / Z I W W Z w   % % % % % % % % w s s s s u % % % s w w w w , % %         @ % % , , , % % % % % % % m         ",
"          % % % u J / / / I s , , m /.-X-X-XW -./././.;.k.-X-X-X%X!.Y.%X-X-X-XY.      % % % % % % % % % % % % @ % % % % @ % % % % % @ @ % % u.-X-X%Xk.oX-X-XY.u w % % % % % % % % I /.oXoX/.!.W % % o.!.Y.Z.Z.B.I %       m { u.c.Z.Z.B.a.;.I , % % % u         ",
"          % % o.!.%X-X%X-X%X/.a.J Y.-X-X-X-X/.Y.oXoX/.;./ u.Z.oX/.;.;.oX-X-X-X%X      , { k.c.-.J ;.3.;.O., s { ;.q.q.q.-.I w % , Z { { I w u.-X-X-Xk.oX-X-X!.w % u m J J m u , @ W %X-X-X-X-XZ.w s !.-X-X-X-X-X/ %       !.-X-X-X-X-X-X-X-X%Xc.s % % u         ",
"            Z oX-X-XoXa.B.-X-X-XZ.!.-X-X-X-X%XoX-X-X-Xq.;./.%X%X-X-X-X-X-X-X-XY.      ;.%X-X-X-X/.-X-X-XoXO.!.-X-X-X-X-X-X%XZ.Z -.oX-X-X%XB.Y.-X-X-Xk.oX-X-XY.m 3.!.oX%X%XoX!.k.J W %X-X-X-X-X-XO.3.-X-X-X-X-X-X/ %     %X-X-X-X%XY.c.Y.%X-X-X-Xk., %           ",
"            o././.oXoXY./.-X-X-XY.J !.-X-X-Xa.a.-X-X-XY.%X-X-X-X%X/.Y.oX/.Z.q.m       oX-X-X-X%X%X-X-X-XoXoX-X-X-Xa.W k.-X-X-XB.Y.-X-X-X%X-X-X-X-X-Xk.oX-X-X!.k.-X-X-XZ.a.oX-X-X/.;.%X-X-X-X-X-XoXoX-X-X-X-X-X-X/ %     -X-X-X-X3., , w 3.-X-X-X/.s %           ",
"              !././.Y.o.u.%X-X-XY.u.oX-X-X-X  a.-X-X-X%X-X-X-X-X/.{ W Y./.Y.B.B.        %X-X-X    -X-X-X%X%X-X-X-X/ . / -X-X-XoXoX-X-X%Xq.  -X-X-X-Xk.oX-X-XoX/.%X%XoX!.!.oX-X-X-XZ.%X-X-XoX/.-X-X-X-X%X%X-X-X-X/ %     -X-X-X-X{ @ % @ / %X-X-XoXJ             ",
"              -X-X-X-X%X%X-X-X-X  %X-X-X-X%X  !.-X-X-X%X%X-X-X-X-XoXoX-X-X-X-X-X                  -X-X-XoXoX-X-X-XY.;.Z.-X-X-XoX%X-X-XoX-.  -X-X-X-Xc.oX-X-XoX!.%X/.Y.3.O.!.-X-X-XoX-X-X-X!.-.%X-X-X-XoX%X-X-X-X/ @     %X-X-X-X!.-./ O.Y.-X-X-XoX              ",
"                    %X%X%X%X        %X%X%X      %X-X-X      %X%X-X-X-X-X-X%X%X                    -X%X%XoX  %X-X-X-X-X-X-X-X%X  %X-X-X%X    -X-X-X-X!.%X-X-XoX!.-X-X-X%XoX%X-X-X%X  -X-X-X!.  %X-X-X%X  -X-X-X%Xo.        %X-X-X-X-X-X-X-X-X-X-XoX              ",
"                                                                                                                                                                  %X%X%X%X%X%X      -X-X-X%X    %X%X    %X-X-X%X            %X%X-X-X%X-X-X-X%X                  ",
"                                                                                                                                                                                                                                                                ",
"                                                                                                                                                                                                                                                                ",
"                                                                                                                                                                                                                                                                ",
"                                                                                                                                                                                                                                                                ",
"                                                                                                                                                                                                                                                                ",
"                                                                                                                                                                                                                                                                ",
"                                                                                                                                                                                                                                                                ",
"                                                                                                                                                                                                                                                                ",
"                                                                                                                                                                                                                                                                ",
"                                                                                                                                                                                                                                                                ",
"                                                                                                                                                                                                                                                                ",
"                                                                                                                                                                                                                                                                ",
"                                                                                                                                                                                                                                                                ",
"                                                                                                                                                                                                                                                                ",
"                                                                                                                                                                                                                                                                ",
"                                                                                                                                                                                                                                                                ",
"                                                                                                                                                                                                                                                                ",
"                                                                                                                                                                                                                                                                ",
"                                                                                                                                                                                                                                                                ",
"                                                                                                                                                                                                                                                                ",
"                                                                                                                                                                                                                                                                ",
"                                                                                                                                                                                                                                                                ",
"                                                                                                                                                                                                                                                                "
};
