/* XPM */
static char *oms_283[] = {
/* columns rows colors chars-per-pixel */
"128 54 139 2 ",
"   c #FF00FF",
".  c #0E0E0E",
"X  c #0F0F0F",
"o  c #101010",
"O  c #111111",
"+  c #121212",
"@  c #131313",
"#  c #141414",
"$  c #151515",
"%  c #161616",
"&  c #171717",
"*  c #1A1A1A",
"=  c #1C1C1C",
"-  c #1D1D1D",
";  c #1E1E1E",
":  c #1F1F1F",
">  c #222222",
",  c #252525",
"<  c #2A2A2A",
"1  c #2B2B2B",
"2  c #2C2C2C",
"3  c #2E2E2E",
"4  c #303030",
"5  c #323232",
"6  c #353535",
"7  c #373737",
"8  c #383838",
"9  c #393939",
"0  c #3D3D3D",
"q  c #3F3F3F",
"w  c #414141",
"e  c #434343",
"r  c #444444",
"t  c #454545",
"y  c #464646",
"u  c #484848",
"i  c #494949",
"p  c #4A4A4A",
"a  c #4C4C4C",
"s  c #4E4E4E",
"d  c #525252",
"f  c #595959",
"g  c #5E5E5E",
"h  c #636363",
"j  c #6C6C6C",
"k  c #6D6D6D",
"l  c #707070",
"z  c #737373",
"x  c #747474",
"c  c #767676",
"v  c #787878",
"b  c #797979",
"n  c #7A7A7A",
"m  c #7B7B7B",
"M  c #808080",
"N  c #818181",
"B  c #858585",
"V  c #868686",
"C  c #878787",
"Z  c #888888",
"A  c #8A8A8A",
"S  c #8B8B8B",
"D  c #8C8C8C",
"F  c #909090",
"G  c #929292",
"H  c #949494",
"J  c #959595",
"K  c #969696",
"L  c #979797",
"P  c #989898",
"I  c #999999",
"U  c #9A9A9A",
"Y  c #9B9B9B",
"T  c #9E9E9E",
"R  c #A0A0A0",
"E  c #A2A2A2",
"W  c #A4A4A4",
"Q  c #A7A7A7",
"!  c #A8A8A8",
"~  c #AAAAAA",
"^  c #AFAFAF",
"/  c #B2B2B2",
"(  c #B6B6B6",
")  c #B9B9B9",
"_  c #BABABA",
"`  c #BBBBBB",
"'  c #BDBDBD",
"]  c #808080",
"[  c #C0C0C0",
"{  c #C1C1C1",
"}  c #C2C2C2",
"|  c #C3C3C3",
" . c #C4C4C4",
".. c #C6C6C6",
"X. c #C8C8C8",
"o. c #C9C9C9",
"O. c #CACACA",
"+. c #CCCCCC",
"@. c #CECECE",
"#. c #D0D0D0",
"$. c #D1D1D1",
"%. c #D2D2D2",
"&. c #D4D4D4",
"*. c #D5D5D5",
"=. c #D6D6D6",
"-. c #D7D7D7",
";. c #D8D8D8",
":. c #DADADA",
">. c #DBDBDB",
",. c #DCDCDC",
"<. c #DDDDDD",
"1. c #DEDEDE",
"2. c #DFDFDF",
"3. c #E0E0E0",
"4. c #E1E1E1",
"5. c #E2E2E2",
"6. c #E3E3E3",
"7. c #E4E4E4",
"8. c #E6E6E6",
"9. c #E7E7E7",
"0. c #E8E8E8",
"q. c #E9E9E9",
"w. c #EAEAEA",
"e. c #EBEBEB",
"r. c #ECECEC",
"t. c #EDEDED",
"y. c #EEEEEE",
"u. c #EFEFEF",
"i. c #F0F0F0",
"p. c #F1F1F1",
"a. c #F5F5F5",
"s. c #F6F6F6",
"d. c #F7F7F7",
"f. c #F8F8F8",
"g. c #F9F9F9",
"h. c #FAFAFA",
"j. c #FBFBFB",
"k. c #FDFDFD",
"l. c #FEFEFE",
/* pixels */
"                                                                                                                                                                                                                                                                ",
"                                                                                                                                                                                                                                                                ",
"                                                                                                                                                                                                                                                                ",
"                                                                                                                                                                                                                                                                ",
"                                                                                                                                                                                                                                                                ",
"                                                                                                                                                                                                                                                                ",
"                                                                                                                                                                                                                                                                ",
"                                                                                                                                                                                                                                                                ",
"                                                                                                                                                                                                                                                                ",
"                                                                                                                                                                                                                                                                ",
"                                                                                                                                                                                                                                                                ",
"                                                                                                                                                                                                                                                                ",
"                                                                                                                                                                                                                                                                ",
"                                                                                                                                                                                                                                                                ",
"                                                                                                            a                                                                                                                                                   ",
"                                                                                    h.D O O O O O O O O O O - K                                                                                                                                                 ",
"                                                                                    h.O.9 5 O O O O O O O O O y                                                                                                                                                 ",
"                                                                                    =. .x ~ - O O O O O O O O O O x                                                                                                                                             ",
"                                                                                    K I N  .D y O O O O O O O O O - a                                                                                                                                           ",
"                                                                                    I I D =.O.m O O O O O O O O O O 3                                                                                                                                           ",
"                                                                                    =. .D 3.e.x X 5 O O O O O O O O > f                                                                                                                                         ",
"                                                                                    h.e.m e.h.I 9 I N O O O O O O O O O O 3 ~                                                                                                                                   ",
"                                                                                    h.>.k >.s.3. .(  .- O O O O O O O O O O K                                                                                                                                   ",
"                                                                                      _ m O.e.s.>.=. .- O O O O O O O O O O K                                                                                                                                   ",
"                                                                                           .=.s.e.3.=.d O O O O O O O O O O 9                                                                                                                                   ",
"                                                                                            O.3. .>.h. .a - O O O O O O O O O 5 x                                                                                                                               ",
"                                                                                              >.=.>.s.>.>.m O O O O O O O O O O 5 m                                                                                                                             ",
"                                                                                                s.3.=.O.h.=.m - m k O O O O O O O O O O 9                                                                                                                       ",
"                                                                                                  e.O. .O.O.e.x ( 3.y O O O O O O O O O O 9                                                                                                                     ",
"                                                                                                     .O. .O.h.W ~ 3._ a O O O O O O O O O O h                                                                                                                   ",
"                                                                                                      3.>.s.>.I W =.O.W 3 O O O O O O O O O - I                                                                                                                 ",
"                                                                                                        s.e._ x D e.W =.a O O O O O O O O O O K                                                                                                                 ",
"                                                                                                          3.I > N 3.=.e.f O O O O O O O O O O y D                                                                                                               ",
"                                                                                                                 . .3.s._ x O O O O O O O O O O 9                                                                                                               ",
"                                                                                                                h.e.>.>.e.=.3 O O O O O O O O O > W                                                                                                             ",
"                                                                                                                  s.>.=.>.>.y O O O O O O O O O - K                                                                                                             ",
"                                                                                                                    =.=.e.3.a O O O O O O O O O > K                                                                                                             ",
"                                                                                                                      =.>._ y O O O O O O O O O - K                                                                                                             ",
"                                                                                                                        >.e.a O O O O O O O O O - W                                                                                                             ",
"                                                                                                                          3.a X O O                                                                                                                             ",
"                                                                                                                                                                                                                                                                ",
"                                                                                                                                                                                                                                                                ",
"                                                                                                                                                                                                                                                                ",
"                                                                                                                                                                                                                                                                ",
"                                                                                                                                                                                                                                                                ",
"                                                                                                                                                                                                                                                                ",
"                                                                                                                                                                                                                                                                ",
"                                                                                                                                                                                                                                                                ",
"                                                                                                                                                                                                                                                                ",
"                                                                                                                                                                                                                                                                ",
"                                                                                                                                                                                                                                                                ",
"                                                                                                                                                                                                                                                                ",
"                                                                                                                                                                                                                                                                ",
"                                                                                                                                                                                                                                                                "
};
