/* XPM */
static char *oms_047[] = {
/* columns rows colors chars-per-pixel */
"128 54 190 2 ",
"   c #FF00FF",
".  c #0B0B0B",
"X  c #0D0D0D",
"o  c #0E0E0E",
"O  c #0F0F0F",
"+  c #101010",
"@  c #111111",
"#  c #121212",
"$  c #131313",
"%  c #141414",
"&  c #151515",
"*  c #161616",
"=  c #171717",
"-  c #181818",
";  c #191919",
":  c #1A1A1A",
">  c #1B1B1B",
",  c #1C1C1C",
"<  c #1D1D1D",
"1  c #1F1F1F",
"2  c #202020",
"3  c #222222",
"4  c #242424",
"5  c #262626",
"6  c #282828",
"7  c #2A2A2A",
"8  c #2C2C2C",
"9  c #2E2E2E",
"0  c #2F2F2F",
"q  c #303030",
"w  c #363636",
"e  c #373737",
"r  c #383838",
"t  c #393939",
"y  c #3A3A3A",
"u  c #3B3B3B",
"i  c #3D3D3D",
"p  c #3E3E3E",
"a  c #3F3F3F",
"s  c #404040",
"d  c #414141",
"f  c #424242",
"g  c #444444",
"h  c #454545",
"j  c #464646",
"k  c #474747",
"l  c #484848",
"z  c #494949",
"x  c #4A4A4A",
"c  c #4B4B4B",
"v  c #4C4C4C",
"b  c #4E4E4E",
"n  c #4F4F4F",
"m  c #505050",
"M  c #525252",
"N  c #555555",
"B  c #565656",
"V  c #575757",
"C  c #585858",
"Z  c #595959",
"A  c #5B5B5B",
"S  c #5C5C5C",
"D  c #5D5D5D",
"F  c #5E5E5E",
"G  c #606060",
"H  c #616161",
"J  c #636363",
"K  c #656565",
"L  c #666666",
"P  c #686868",
"I  c #6D6D6D",
"U  c #6F6F6F",
"Y  c #717171",
"T  c #747474",
"R  c #757575",
"E  c #767676",
"W  c #787878",
"Q  c #797979",
"!  c #7D7D7D",
"~  c #808080",
"^  c #808080",
"/  c #818181",
"(  c #838383",
")  c #848484",
"_  c #858585",
"`  c #868686",
"'  c #878787",
"]  c #888888",
"[  c #898989",
"{  c #8A8A8A",
"}  c #8B8B8B",
"|  c #8C8C8C",
" . c #8D8D8D",
".. c #909090",
"X. c #919191",
"o. c #929292",
"O. c #939393",
"+. c #949494",
"@. c #969696",
"#. c #979797",
"$. c #989898",
"%. c #9A9A9A",
"&. c #9B9B9B",
"*. c #9D9D9D",
"=. c #9E9E9E",
"-. c #9F9F9F",
";. c #A0A0A0",
":. c #A1A1A1",
">. c #A5A5A5",
",. c #A7A7A7",
"<. c #A8A8A8",
"1. c #A9A9A9",
"2. c #AAAAAA",
"3. c #ACACAC",
"4. c #ADADAD",
"5. c #AEAEAE",
"6. c #B0B0B0",
"7. c #B1B1B1",
"8. c #B2B2B2",
"9. c #B2B2B2",
"0. c #B4B4B4",
"q. c #B5B5B5",
"w. c #B7B7B7",
"e. c #B8B8B8",
"r. c #B9B9B9",
"t. c #BABABA",
"y. c #BBBBBB",
"u. c #BCBCBC",
"i. c #BFBFBF",
"p. c #C1C1C1",
"a. c #C3C3C3",
"s. c #C4C4C4",
"d. c #C5C5C5",
"f. c #C6C6C6",
"g. c #C7C7C7",
"h. c #C8C8C8",
"j. c #CACACA",
"k. c #CBCBCB",
"l. c #CCCCCC",
"z. c #CDCDCD",
"x. c #CECECE",
"c. c #CFCFCF",
"v. c #D0D0D0",
"b. c #D1D1D1",
"n. c #D2D2D2",
"m. c #D3D3D3",
"M. c #D4D4D4",
"N. c #D5D5D5",
"B. c #D6D6D6",
"V. c #D7D7D7",
"C. c #D8D8D8",
"Z. c #D9D9D9",
"A. c #DADADA",
"S. c #DBDBDB",
"D. c #DCDCDC",
"F. c #DDDDDD",
"G. c #DEDEDE",
"H. c #DFDFDF",
"J. c #E0E0E0",
"K. c #E1E1E1",
"L. c #E2E2E2",
"P. c #E3E3E3",
"I. c #E4E4E4",
"U. c #E6E6E6",
"Y. c #E6E6E6",
"T. c #E7E7E7",
"R. c #E8E8E8",
"E. c #E9E9E9",
"W. c #EAEAEA",
"Q. c #EBEBEB",
"!. c #ECECEC",
"~. c #EDEDED",
"^. c #EEEEEE",
"/. c #EFEFEF",
"(. c #F0F0F0",
"). c #F1F1F1",
"_. c #F2F2F2",
"`. c #F3F3F3",
"'. c #F4F4F4",
"]. c #F5F5F5",
"[. c #F6F6F6",
"{. c #F7F7F7",
"}. c #F8F8F8",
"|. c #F9F9F9",
" X c #FAFAFA",
".X c #FBFBFB",
"XX c #FCFCFC",
"oX c #FDFDFD",
"OX c #FEFEFE",
"+X c #FFFFF1",
/* pixels */
"                                                                                                                                                                                                                                                                ",
"                                                                                                                                                                                                                                                                ",
"                                                                                                                                                                                                                                                                ",
"                                                                                                                                                                                                                                                                ",
"                                                                                                                                                                                                                                                                ",
"                                                                                                                                                                                                                                                                ",
"                                                                                                                                                                                                                                                                ",
"                                                                                                                                                                                                                                                                ",
"                                                                                                                                                                                                                                                                ",
"                                                                                                                                                                                                                                                                ",
"                                                                                                                                                                                                                                                                ",
"                                                                                                                                                                                                                                                                ",
"                                                                                                                                                                                                                                                                ",
"                                                                                                                                                                                                                                                                ",
"                                                                                                                                                                                                                                                                ",
"                                                                                                                                                                                                                                                                ",
"                                                                                                                                                                                                                                                                ",
"                                                                                                                                                                                                                                                                ",
"                                                                                                                                                                                                                                                                ",
"                                                                                                                                                                                                                                                                ",
"                                                                                                                                                                                        # > O #                                                                 ",
"                                                                                                                                                                      2 > # # # # # # 2 D ' -.4.4...c t n.[.n.j u.[.~.                                          ",
"                                                                                                                                                                    0 # # # # # # # e s.[..X.X.X.X.XK.Q K.[.s.c K..X[.D # j ..K.[.[.                            ",
"                                                                                                            # 2 > # > # # 2 e t                                   D # # # # # # # # ...X.X[.:.u.[.K.n.] s.G.s.u.[..X.Xu.L G..X[.[..X.X                          ",
"                                                                                  0 # # # # # #           t # # # # # # c n.G.s.l.[.[.Y O O O   2 # # > 0 2 > # 2 j c e j ] Q 2 # # 4..X.X[.w.u.~.l.' D ~..XK.K..X.X.XG.n..X[.4.s..X.X[.                        ",
"                                                    > # # #         L 2 # # # # # B Y ' -.P # > -.K.~.[.G.e # # O O # O L .X.XG.G..X[.B 0 D B > # j ..s.l.n.u.B Y ~.[.G.K..X.XQ # # ] .X.X.X.X.X.X.X[.4.~..XG.-.[..X~.' K..X[.K.G.K.~.[.                        ",
"                                              j > # # # # # t ..s.K.K.l.-.e # # # w..X.X.XG.0 j ~..X.X.X' # 2 c L P B 2 D .X.XG.G..X[.-.n.[.[.] B K..X.X.X.X.XK.w..X.X[.~..X.Xw.# # 0 :.G.K.n.K..X.X.XG.~..Xn.j K..X[.] K..X[.] ..G.~.[.                        ",
"                                              > # # # # # P K..X.X.X.X.X.Xl.0 # # w..X.X.X.XP ] .X.X.X.XQ B l.[..X.X[.w.Q .X.XG.G..X[.[..X.X.Xn.u..X.X4.D G..X[.G..X.Xu.' .X.Xu.# # Y w.l.n.D ' [..X.Xn.~..Xn.j K..X.Xn.s..X.X~.[..X.X                          ",
"                                            j # # # # # e K..X.X[.G.~..X.X.XP O # w..X.X.X.Xl.G..X.X.X.X-.G..X~.4.G..X[.s.[..XG.G..X.X:...[..XK.G..X.XL # s..X[.G..X.X4.e L B t # # 4..X.X.XK.~..X.X~.] ~..XG.t n..X.Xn.L K.[.[.[.[.                            ",
"                                            t # # # # O Y .X.X~.P 2 c K..X.X..# # w..X.X.X.X.X.X.X[..X.Xn.[..X[.G.~.[.~.G.[..XG.G..X[.B j ~..XG.n..X.Xu.] ~..X~.u..X.XK.      O # # c K..X.X.X.X[..X  B K.                                                      ",
"                                            t # # # # # ] .X.Xl.> # # s..X.X..# # w..X[.n.[..X.XG.K..X.XG.[..XK.Q 4.n.n.l.[..XG.G..X[.c j ~..Xn.] [..X.X.X.X.X-.] .X[.[.                                                                                        ",
"                                            j # # # # O ' .X.XK.j > D K..X.XQ O # w..X.X-.l..X.X..s..X.Xw.K..X[.l.~..X~.4.[..XG.G..X[.D j ~..XK.    [..X[.[.                                                                                                    ",
"                                              > # # # O P .X.X.XK.l.~..X.XK.j # # w..X.X' ' .X~.j s..X.X..4..X[..X.X.X    [.[.                                                                                                                                  ",
"                                                # # # # 0 l..X.X.X.X.X.X.Xw.# # # w..X.X-.c ~.G.  l.[.                                                                                                                                                          ",
"                                                            ~.[.[.[.[.[.                                                                                                                                                                                        ",
"                                                                                                                                                                                                                                                                ",
"                                                                                                                                                                                                                                                                ",
"                                                                                                                                                                                                                                                                ",
"                                                                                                                                                                                                                                                                ",
"                                                                                                                                                                                                                                                                ",
"                                                                                                                                                                                                                                                                ",
"                                                                                                                                                                                                                                                                ",
"                                                                                                                                                                                                                                                                ",
"                                                                                                                                                                                                                                                                ",
"                                                                                                                                                                                                                                                                ",
"                                                                                                                                                                                                                                                                ",
"                                                                                                                                                                                                                                                                ",
"                                                                                                                                                                                                                                                                ",
"                                                                                                                                                                                                                                                                ",
"                                                                                                                                                                                                                                                                ",
"                                                                                                                                                                                                                                                                ",
"                                                                                                                                                                                                                                                                ",
"                                                                                                                                                                                                                                                                ",
"                                                                                                                                                                                                                                                                "
};
