/* XPM */
static char *oms_176[] = {
/* columns rows colors chars-per-pixel */
"128 54 203 2 ",
"   c #FF00FF",
".  c #0A0A0A",
"X  c #0C0C0C",
"o  c #0D0D0D",
"O  c #0E0E0E",
"+  c #0F0F0F",
"@  c #101010",
"#  c #111111",
"$  c #121212",
"%  c #131313",
"&  c #141414",
"*  c #151515",
"=  c #161616",
"-  c #171717",
";  c #181818",
":  c #191919",
">  c #1A1A1A",
",  c #1B1B1B",
"<  c #1C1C1C",
"1  c #1D1D1D",
"2  c #1E1E1E",
"3  c #1F1F1F",
"4  c #202020",
"5  c #212121",
"6  c #222222",
"7  c #232323",
"8  c #242424",
"9  c #252525",
"0  c #262626",
"q  c #272727",
"w  c #282828",
"e  c #292929",
"r  c #2A2A2A",
"t  c #2B2B2B",
"y  c #2C2C2C",
"u  c #2D2D2D",
"i  c #2E2E2E",
"p  c #2F2F2F",
"a  c #303030",
"s  c #313131",
"d  c #323232",
"f  c #333333",
"g  c #343434",
"h  c #353535",
"j  c #363636",
"k  c #373737",
"l  c #383838",
"z  c #393939",
"x  c #3A3A3A",
"c  c #3B3B3B",
"v  c #3C3C3C",
"b  c #3D3D3D",
"n  c #3E3E3E",
"m  c #3F3F3F",
"M  c #414141",
"N  c #424242",
"B  c #434343",
"V  c #444444",
"C  c #454545",
"Z  c #464646",
"A  c #474747",
"S  c #494949",
"D  c #4A4A4A",
"F  c #4B4B4B",
"G  c #4C4C4C",
"H  c #4F4F4F",
"J  c #505050",
"K  c #515151",
"L  c #525252",
"P  c #535353",
"I  c #545454",
"U  c #555555",
"Y  c #585858",
"T  c #595959",
"R  c #5A5A5A",
"E  c #5D5D5D",
"W  c #5E5E5E",
"Q  c #5F5F5F",
"!  c #606060",
"~  c #616161",
"^  c #626262",
"/  c #636363",
"(  c #646464",
")  c #656565",
"_  c #666666",
"`  c #676767",
"'  c #686868",
"]  c #6C6C6C",
"[  c #6D6D6D",
"{  c #707070",
"}  c #727272",
"|  c #737373",
" . c #747474",
".. c #757575",
"X. c #767676",
"o. c #777777",
"O. c #797979",
"+. c #7A7A7A",
"@. c #7B7B7B",
"#. c #7C7C7C",
"$. c #7D7D7D",
"%. c #808080",
"&. c #818181",
"*. c #848484",
"=. c #878787",
"-. c #8A8A8A",
";. c #8C8C8C",
":. c #909090",
">. c #919191",
",. c #929292",
"<. c #949494",
"1. c #969696",
"2. c #999999",
"3. c #9A9A9A",
"4. c #9B9B9B",
"5. c #9D9D9D",
"6. c #9E9E9E",
"7. c #9F9F9F",
"8. c #A0A0A0",
"9. c #A1A1A1",
"0. c #A3A3A3",
"q. c #A4A4A4",
"w. c #A5A5A5",
"e. c #A6A6A6",
"r. c #A7A7A7",
"t. c #A8A8A8",
"y. c #A9A9A9",
"u. c #ABABAB",
"i. c #ACACAC",
"p. c #ADADAD",
"a. c #AEAEAE",
"s. c #AFAFAF",
"d. c #B1B1B1",
"f. c #B2B2B2",
"g. c #B4B4B4",
"h. c #B5B5B5",
"j. c #B6B6B6",
"k. c #B7B7B7",
"l. c #B8B8B8",
"z. c #BBBBBB",
"x. c #BCBCBC",
"c. c #BDBDBD",
"v. c #808080",
"b. c #BFBFBF",
"n. c #C0C0C0",
"m. c #C2C2C2",
"M. c #C3C3C3",
"N. c #C4C4C4",
"B. c #C5C5C5",
"V. c #C6C6C6",
"C. c #C8C8C8",
"Z. c #C9C9C9",
"A. c #CACACA",
"S. c #CBCBCB",
"D. c #CCCCCC",
"F. c #CDCDCD",
"G. c #CECECE",
"H. c #D0D0D0",
"J. c #D1D1D1",
"K. c #D3D3D3",
"L. c #D4D4D4",
"P. c #D6D6D6",
"I. c #D7D7D7",
"U. c #D8D8D8",
"Y. c #D9D9D9",
"T. c #DADADA",
"R. c #DBDBDB",
"E. c #DCDCDC",
"W. c #DDDDDD",
"Q. c #DEDEDE",
"!. c #DFDFDF",
"~. c #E0E0E0",
"^. c #E1E1E1",
"/. c #E2E2E2",
"(. c #E3E3E3",
"). c #E4E4E4",
"_. c #E6E6E6",
"`. c #E6E6E6",
"'. c #E7E7E7",
"]. c #E8E8E8",
"[. c #E9E9E9",
"{. c #EAEAEA",
"}. c #EBEBEB",
"|. c #ECECEC",
" X c #EDEDED",
".X c #EEEEEE",
"XX c #EFEFEF",
"oX c #F0F0F0",
"OX c #F1F1F1",
"+X c #F2F2F2",
"@X c #F3F3F3",
"#X c #F4F4F4",
"$X c #F5F5F5",
"%X c #F6F6F6",
"&X c #F7F7F7",
"*X c #F8F8F8",
"=X c #F9F9F9",
"-X c #FAFAFA",
";X c #FBFBFB",
":X c #FCFCFC",
">X c #FDFDFD",
",X c #FEFEFE",
"<X c #FFFFF1",
/* pixels */
"                                                                                                                                                                                                                                                                ",
"                                                                                                                                                                                                                                                                ",
"                                                                                                                                                                                                                                                                ",
"                                                                                                                                                                                                                                                                ",
"                                                                                                                                                                                                                                                                ",
"                                                                                                                                                                                                                                                                ",
"                                                                                                                                                                                                                                                                ",
"                                                                                                                                                                                                                                                                ",
"                                                                                                                                                                                                                                                                ",
"                                                                                                                                                                                                                                                                ",
"                                                                                                                                                                                                                                                                ",
"                                                                                                                                                                                                                                                                ",
"                                                                                                                                                                                                                                                                ",
"                                                                                                                                                                                                                                                                ",
"                                                                                                                                                                                                                                                                ",
"                                                                                                                                                                                                                                                                ",
"                                                                                                                                                                                                                                                                ",
"                                      G E E     y y h m     E V m m h V K                                                                                                                                                                                       ",
"                      E             % % % %     % % % %   ; % % % % % % % % ; m                                                                                                                                                                                 ",
"              h ; ; % ; ; ; y K   q % % % % q y % % % % % % % % % % % % % % % % y                                                               q q y m V m m h K                                                                                               ",
"            q % % % % % % % % % h % % % % % % q h h y q % % % ; ; ; ; % % % % % ;         h h h K   V K G             G )                     % % % % % % % % % y                       ; q q y y K       h m h m V E                      .                    ",
"            % % % O % % % O O % ; %  .m.f.u.G E ^.^.^.Z.q ) w.x.Z.m.x.x.w.&.K ; ;       % % % % % ; % % % ;   q ; % % % % ; q V     q q q y m % % % % % % % % % y           '         % % % % % % ;     % % % % % % q           q q ; ; % ; ; q y G             ",
"            % % V #.,.3.,.&.E y % h f.:X:X:X&.) ^.^.^.Z.,.&X:X:X:X&X&X:X:X:X&X3.V       % % O % % % % % % ; ; % % % % % % % % % h m % % % % m V V m q y y q ; % y   q ; % % ; ; q h q O O O O % % % m   % % % % % % q         % % % % % % % % % % % q  .        ",
"               .}.:X:X}.}.:X&XR.' w.:X:X:X:X}.J.^.^.^.m.#.u.Z.R.}.3. .J.:X:X:X}.)       ; m V q % q ; ; ; % % % % % % % % O % % % ; O O % % u.&X}.^.w.R.R.R.u.% q ; % % % % % % % m  .' ) E G % % % q m h y q q % % q       O O % % % % O % % % % % % y         ",
"              R.:X:X&Xm.f.&X:X:X^.x.}.:X:X:X:X&X&X:X:XR.) x.^.}.&X}.^.&X:X:X:X}.E       x.}.}.J.-.m.Z.Z.w.q G ,.f.x.f.u.,.) q % % m ) E m ; u.:X:X&Xx.&X:X:XZ.; % % % % % % O % O #.:X:X:X:X}.K O ; u.}.R.R.R.m.y O q       ) -.w.3.3.-. .V ; % % % % ;  .      ",
"              J.^.}.J.m.Z.&X:X:X&X) w.:X:X:X}.  &X:X:X}.}.:X:X:X:X:X&X&X&X}.R.#.q       :X:X:X:X&X:X:X:XR.&.}.:X:X:X&X:X:X:XZ.V  .}.:X&X}.u.Z.:X:X&Xf.&X:X:Xm.; K ,.u.x.u.3. .m % #.:X:X:X:X:Xx.; ) &X:X:X:X:X&Xh O q     ^.&X:X:X:X:X:X:X&Xm.K % % % % )       ",
"              }.&X&X^.w.3.}.:X:X&Xu.^.:X:X:X    &X:X:X}.&X:X:X:X&X-.E f.^.x.,. .        :X:X:X}.  :X:X:X^.R.:X:X:Xw.V w.:X:X:Xm.J.:X:X:X&X}.:X:X:X&Xf.&X:X:XZ.-.&X:X:X^.^.:X:X}.#.#.:X:X:X:X:X&X&.Z.:X:X:X:X:X}.h % q   :X:X:X:X&XR.R.&X:X:X:X^.G % % ;         ",
"                &X:X:X:X:X:X:X:X  &X:X:X:X:X    &X:X:X}.&X:X:X:X:XJ.m.}.:X:X:X:X                  &X:X:X^.R.:X:X:X .O ) :X:X:X}.}.:X:X&X .  :X:X:X&Xf.&X:X:XR.^.:X:X&XZ.x.}.:X:X^.u.:X:X:X:X:X:X&X:X:X:X:X:X:X}.h % q m.:X:X:X&X#.y y E R.:X:X:Xw.% % q         ",
"                                                &X:X:X}.    &X&X:X:X:X:X&X:X&X                    &X:X:X^.m.:X:X:XR.w.J.:X:X:X}.&X:X:X&XG   :X:X:X&Xf.&X:X:X^.J.J.^.^.f.x.}.:X:X&Xm.:X:X:XR.R.:X:X:X:XR.&X:X:X}.h % %   :X:X:X^.h O O O 3.:X:X:Xm.; ;           ",
"                                                                                                  &X:X&X}.    &X&X:X:X:X:X&X&X  &X:X:X&X    :X:X:X&Xx.&X:X:XR.J.&X&X&Xf.u.}.:X:X&XR.:X:X:Xm.#.:X:X:X}.w.&X:X:X}.h %     :X:X:X&Xu.G m ) R.:X:X:Xf.;             ",
"                                                                                                                                              &X:X&X  &X&X&X^.  :X&X:X:X:X:X:X&X    :X:X:XZ.  :X:X:XR.  :X:X:X}.m       &X:X:X:X:X&X}.&X:X:X:X&X                ",
"                                                                                                                                                                                                &X&X    &X&X:X&X            &X:X:X:X:X:X:X&X&X                  ",
"                                                                                                                                                                                                                                    }.}.                        ",
"                                                                                                                                                                                                                                                                ",
"                                                                                                                                                                                                                                                                ",
"                                                                                                                                                                                                                                                                ",
"                                                                                                                                                                                                                                                                ",
"                                                                                                                                                                                                                                                                ",
"                                                                                                                                                                                                                                                                ",
"                                                                                                                                                                                                                                                                ",
"                                                                                                                                                                                                                                                                ",
"                                                                                                                                                                                                                                                                ",
"                                                                                                                                                                                                                                                                ",
"                                                                                                                                                                                                                                                                ",
"                                                                                                                                                                                                                                                                ",
"                                                                                                                                                                                                                                                                ",
"                                                                                                                                                                                                                                                                ",
"                                                                                                                                                                                                                                                                ",
"                                                                                                                                                                                                                                                                ",
"                                                                                                                                                                                                                                                                ",
"                                                                                                                                                                                                                                                                ",
"                                                                                                                                                                                                                                                                ",
"                                                                                                                                                                                                                                                                ",
"                                                                                                                                                                                                                                                                "
};
