/* XPM */
static char *oms_194[] = {
/* columns rows colors chars-per-pixel */
"128 54 190 2 ",
"   c #FF00FF",
".  c #0C0C0C",
"X  c #0F0F0F",
"o  c #101010",
"O  c #111111",
"+  c #121212",
"@  c #131313",
"#  c #141414",
"$  c #151515",
"%  c #161616",
"&  c #171717",
"*  c #181818",
"=  c #191919",
"-  c #1A1A1A",
";  c #1B1B1B",
":  c #1C1C1C",
">  c #1D1D1D",
",  c #1E1E1E",
"<  c #1F1F1F",
"1  c #202020",
"2  c #212121",
"3  c #222222",
"4  c #242424",
"5  c #252525",
"6  c #262626",
"7  c #272727",
"8  c #282828",
"9  c #292929",
"0  c #2A2A2A",
"q  c #2B2B2B",
"w  c #2C2C2C",
"e  c #2D2D2D",
"r  c #2E2E2E",
"t  c #303030",
"y  c #313131",
"u  c #323232",
"i  c #333333",
"p  c #343434",
"a  c #353535",
"s  c #363636",
"d  c #373737",
"f  c #383838",
"g  c #393939",
"h  c #3A3A3A",
"j  c #3B3B3B",
"k  c #3C3C3C",
"l  c #3D3D3D",
"z  c #3E3E3E",
"x  c #3F3F3F",
"c  c #404040",
"v  c #414141",
"b  c #424242",
"n  c #434343",
"m  c #454545",
"M  c #464646",
"N  c #474747",
"B  c #484848",
"V  c #494949",
"C  c #4A4A4A",
"Z  c #4B4B4B",
"A  c #4E4E4E",
"S  c #4F4F4F",
"D  c #535353",
"F  c #545454",
"G  c #555555",
"H  c #565656",
"J  c #585858",
"K  c #595959",
"L  c #5A5A5A",
"P  c #5B5B5B",
"I  c #5C5C5C",
"U  c #606060",
"Y  c #626262",
"T  c #636363",
"R  c #646464",
"E  c #656565",
"W  c #666666",
"Q  c #6E6E6E",
"!  c #6F6F6F",
"~  c #727272",
"^  c #757575",
"/  c #767676",
"(  c #787878",
")  c #7B7B7B",
"_  c #7D7D7D",
"`  c #7E7E7E",
"'  c #808080",
"]  c #808080",
"[  c #828282",
"{  c #838383",
"}  c #848484",
"|  c #858585",
" . c #868686",
".. c #878787",
"X. c #888888",
"o. c #8C8C8C",
"O. c #8D8D8D",
"+. c #909090",
"@. c #939393",
"#. c #959595",
"$. c #979797",
"%. c #9A9A9A",
"&. c #9C9C9C",
"*. c #9D9D9D",
"=. c #9E9E9E",
"-. c #9F9F9F",
";. c #A0A0A0",
":. c #A1A1A1",
">. c #A3A3A3",
",. c #A4A4A4",
"<. c #A5A5A5",
"1. c #A8A8A8",
"2. c #AAAAAA",
"3. c #ACACAC",
"4. c #ADADAD",
"5. c #AEAEAE",
"6. c #B1B1B1",
"7. c #B2B2B2",
"8. c #B4B4B4",
"9. c #B5B5B5",
"0. c #B7B7B7",
"q. c #B8B8B8",
"w. c #B9B9B9",
"e. c #BBBBBB",
"r. c #BCBCBC",
"t. c #BDBDBD",
"y. c #808080",
"u. c #BFBFBF",
"i. c #C0C0C0",
"p. c #C1C1C1",
"a. c #C2C2C2",
"s. c #C3C3C3",
"d. c #C5C5C5",
"f. c #C6C6C6",
"g. c #C7C7C7",
"h. c #C8C8C8",
"j. c #CACACA",
"k. c #CBCBCB",
"l. c #CCCCCC",
"z. c #CDCDCD",
"x. c #CECECE",
"c. c #CFCFCF",
"v. c #D0D0D0",
"b. c #D1D1D1",
"n. c #D2D2D2",
"m. c #D3D3D3",
"M. c #D4D4D4",
"N. c #D5D5D5",
"B. c #D6D6D6",
"V. c #D7D7D7",
"C. c #D8D8D8",
"Z. c #D9D9D9",
"A. c #DADADA",
"S. c #DBDBDB",
"D. c #DCDCDC",
"F. c #DDDDDD",
"G. c #DEDEDE",
"H. c #DFDFDF",
"J. c #E0E0E0",
"K. c #E1E1E1",
"L. c #E2E2E2",
"P. c #E3E3E3",
"I. c #E4E4E4",
"U. c #E6E6E6",
"Y. c #E6E6E6",
"T. c #E7E7E7",
"R. c #E8E8E8",
"E. c #E9E9E9",
"W. c #EAEAEA",
"Q. c #EBEBEB",
"!. c #ECECEC",
"~. c #EDEDED",
"^. c #EEEEEE",
"/. c #EFEFEF",
"(. c #F0F0F0",
"). c #F1F1F1",
"_. c #F2F2F2",
"`. c #F3F3F3",
"'. c #F4F4F4",
"]. c #F5F5F5",
"[. c #F6F6F6",
"{. c #F7F7F7",
"}. c #F8F8F8",
"|. c #F9F9F9",
" X c #FAFAFA",
".X c #FBFBFB",
"XX c #FCFCFC",
"oX c #FDFDFD",
"OX c #FEFEFE",
"+X c #FFFFF1",
/* pixels */
"                                                                                                                                                                                                                                                                ",
"                                                                                                                                                                                                                                                                ",
"                                                                                                                                                                                                                                                                ",
"                                                                                                                                                                                                                                                                ",
"                                                                                                                                                                                                                                                                ",
"                                                                                                                                                                                                                                                                ",
"                                                                                                                                                                                                                                                                ",
"                                                                                                                                                                                                                                                                ",
"                                                                                                                                                                                                                                                                ",
"                                                                                                                                                                                                                                                                ",
"                                                                                                                                                                                                                                                                ",
"                                                                                                                                                                                                                                                                ",
"                                                                                                                                                                                                                                                                ",
"                                                                                                                                                                                                                                                                ",
"                                                                                                                                                                                                                                                                ",
"                                                                                                                                                                                                                              A M M k M A                       ",
"                                                                                                                                                                                                  P M k M k a           k 7 @ @ @ @ @ @ @ - k                   ",
"                                                                                                                                                                                r r r - - r       @ @ @ @ @ @         r @ @ @ @ @ @ @ @ @ @ @ a                 ",
"                                                                                                                                        P k k k a r r r 7                       @ @ @ @ @ @     7 @ @ @ @ @ @         @ @ @ @ @ - 7 r r 7 @ @ -                 ",
"                                                                                                                                        7 @ @ @ @ @ @ @ @                       @ @ X X X X - a @ @ - - 7 r a       @ @ @ M | 9.k.n.Z.Z.n.4.D 7                 ",
"                                                                                                                                        7 @ @ @ @ @ @ @ X @ k r - - @ @ @ - r   @ k D T Q | D @ @ a 9.k.n.Z.P.P.    @ - #.~.|.|.|.|.|.|.|.|.~.|                 ",
"                                          P M A       M r 7 7 - - - - - 7                                   A A a a k A       r - - 7 a 7 @ 7 r a k a D T ~ A @ @ @ @ @ @ @ @ 7 - q.|.|.|.|.Z.a @ #.|.|.|.|.|.).      | |.|.|.).k.4.9.~.|.|.|.~.                ",
"                                M A k   k @ @ @ @ r 7 @ @ @ @ @ @ @ @ @ @ @         M r a   k r 7 - 7 P r - @ @ @ @ @ @ -   - @ @ @ @ @ @ - ;.P.P.P.9.).|.|.%.@ @ @ @ - - 7 @ @ - q.|.|.|.|.|.#.k P.|.|.|.|.|.).      Z.|.|.|.;.- @ @ _ |.|.|.).                ",
"                              - @ @ @ @ 7 @ @ @ @ @ @ @ @ @ @ @ X @ @ @ - @ @     a @ @ @ @ @ @ @ @ @ @ @ @ @ @ @ @ @ @ X - @ @ @ X @ @ @ - g.|.|.).9.|.|.|.%.@ k | 4.g.k.k.q._ r q.|.|.|.|.|.~.k.|.|.|.|.|.|.).      |.|.|.|.~ X X @ | |.|.|.).                ",
"              P D M M       M @ @ @ @ @ @ @ @ @ - 7 r a - @ r D _ #.;.9.q.9.;.    - @ @ @ @ X @ @ @ X X @ @ @ @ 7 a k A M a - @ - T %.4.#.P g.|.|.).q.|.|.|.%.~ ~.|.|.Z.P.|.|.|.;.g.|.|.|.).|.|.|.|.).~.|.|.|.).      ).|.|.|.Z.| ~ %.~.|.|.|.).                ",
"        T r - @ @ @ @ @ @ a - @ @ @ @ r a k M - #.Z.P.P.D T n.).|.|.|.|.|.|.|.|.%.@ @ @ @ k P A 7 P ~ | | r M ;.k.~.~.).).P.9.k | ).|.|.|.).).|.|.).q.|.|.|.g.P.|.|.).g.n.|.|.|.Z.n.|.|.|.).|.|.|.|.Z.q.|.|.|.).        |.|.|.|.|.|.|.|.|.|.).                  ",
"        - @ @ @ @ @ @ @ @ @ @ @ @ @ 7 g.~.).Z.r 4.~.P.Z.~ Z.).).).n._ 4.|.|.|.|.P.@ @ @ _ ~.).).k.P.|.|.P.Q Z.|.|.~.g.Z.|.|.|.g.Z.|.|.|.g.#.~.|.|.).q.|.|.|.n.Z.~.Z.Z.%.9.).|.|.n.k.|.|.|.  ).|.|.|.  g.|.|.|.).          ).|.|.|.).|.|.).                      ",
"      k @ @ @ @ @ @ - 7 a k k r @ - T ~.|.|.).4.g.Z.Z.Z.T Q 4.n.P.Z.k.~.|.|.|.|.    X a P.|.|.).Z.).|.|.P.g.|.|.|.o.@ P ).|.|.~.).|.|.|.  @ g.|.|.).q.|.|.|.P.P.~.~.~.9.n.|.|.|.g.n.|.|.|.    |.|.).    ).|.|.                                                  ",
"      k @ @ @ @ 7 ~ q.Z.~.~.~.P.4.P P.|.|.|.|.|.).|.|.)._ g.).|.|.|.|.|.).~.k.|       T ~.|.|.g.k Z.|.|.~.Z.|.|.|.;.a o.|.|.|.k.Z.|.|.).    q.|.|.).g.|.|.|.).  |.|.|.|.|.|.).      ).                                                                          ",
"        @ @ @ - ;.|.|.).q.k.|.|.|.g.g.).|.|.).%.n.|.|.).k.|.|.|.|.k._ #.Z.n.g.q.Z.              7 Z.|.|.).P.|.|.|.).P.).|.|.).  Z.|.|.).    Z.).|.).  ).                                                                                                        ",
"          @ @ M ~.|.|.~.n.P.|.|.|.k.A P.|.|.P.r 9.|.|.).n.|.|.|.|.n.;.k.|.|.|.|.                  P.|.|.|.    ).).|.|.).).                                                                                                                                      ",
"            X M n.P.Z.k._ ;.).|.|.k.g.).|.|.~.a 9.|.|.|.~.).|.|.|.|.|.|.|.|.).                                                                                                                                                                                  ",
"                ~.).).).Z.~.|.|.).o.P.|.|.|.).  k.|.|.).        ).).                                                                                                                                                                                            ",
"                  ).).).|.|.).                                                                                                                                                                                                                                  ",
"                                                                                                                                                                                                                                                                ",
"                                                                                                                                                                                                                                                                ",
"                                                                                                                                                                                                                                                                ",
"                                                                                                                                                                                                                                                                ",
"                                                                                                                                                                                                                                                                ",
"                                                                                                                                                                                                                                                                ",
"                                                                                                                                                                                                                                                                ",
"                                                                                                                                                                                                                                                                ",
"                                                                                                                                                                                                                                                                ",
"                                                                                                                                                                                                                                                                ",
"                                                                                                                                                                                                                                                                ",
"                                                                                                                                                                                                                                                                ",
"                                                                                                                                                                                                                                                                ",
"                                                                                                                                                                                                                                                                ",
"                                                                                                                                                                                                                                                                ",
"                                                                                                                                                                                                                                                                ",
"                                                                                                                                                                                                                                                                ",
"                                                                                                                                                                                                                                                                ",
"                                                                                                                                                                                                                                                                ",
"                                                                                                                                                                                                                                                                "
};
