/* XPM */
static char *oms_113[] = {
/* columns rows colors chars-per-pixel */
"128 54 161 2 ",
"   c #FF00FF",
".  c #0E0E0E",
"X  c #0F0F0F",
"o  c #101010",
"O  c #111111",
"+  c #121212",
"@  c #131313",
"#  c #141414",
"$  c #151515",
"%  c #161616",
"&  c #171717",
"*  c #181818",
"=  c #191919",
"-  c #1A1A1A",
";  c #1B1B1B",
":  c #1C1C1C",
">  c #1D1D1D",
",  c #1F1F1F",
"<  c #212121",
"1  c #222222",
"2  c #242424",
"3  c #252525",
"4  c #262626",
"5  c #272727",
"6  c #282828",
"7  c #292929",
"8  c #2A2A2A",
"9  c #2B2B2B",
"0  c #2C2C2C",
"q  c #2D2D2D",
"w  c #2F2F2F",
"e  c #303030",
"r  c #313131",
"t  c #323232",
"y  c #333333",
"u  c #343434",
"i  c #373737",
"p  c #393939",
"a  c #3A3A3A",
"s  c #3E3E3E",
"d  c #404040",
"f  c #444444",
"g  c #454545",
"h  c #474747",
"j  c #484848",
"k  c #4A4A4A",
"l  c #4B4B4B",
"z  c #4C4C4C",
"x  c #4C4C4C",
"c  c #4F4F4F",
"v  c #505050",
"b  c #515151",
"n  c #545454",
"m  c #555555",
"M  c #565656",
"N  c #585858",
"B  c #626262",
"V  c #636363",
"C  c #686868",
"Z  c #696969",
"A  c #6A6A6A",
"S  c #6D6D6D",
"D  c #727272",
"F  c #797979",
"G  c #7A7A7A",
"H  c #7D7D7D",
"J  c #808080",
"K  c #818181",
"L  c #828282",
"P  c #838383",
"I  c #878787",
"U  c #888888",
"Y  c #8D8D8D",
"T  c #969696",
"R  c #9A9A9A",
"E  c #9B9B9B",
"W  c #9C9C9C",
"Q  c #9D9D9D",
"!  c #A0A0A0",
"~  c #A1A1A1",
"^  c #A4A4A4",
"/  c #A5A5A5",
"(  c #A7A7A7",
")  c #A9A9A9",
"_  c #AAAAAA",
"`  c #ABABAB",
"'  c #ACACAC",
"]  c #ADADAD",
"[  c #AFAFAF",
"{  c #B0B0B0",
"}  c #B1B1B1",
"|  c #B2B2B2",
" . c #B4B4B4",
".. c #B5B5B5",
"X. c #B6B6B6",
"o. c #B7B7B7",
"O. c #B8B8B8",
"+. c #B9B9B9",
"@. c #BABABA",
"#. c #BBBBBB",
"$. c #BCBCBC",
"%. c #BDBDBD",
"&. c #BFBFBF",
"*. c #C0C0C0",
"=. c #C1C1C1",
"-. c #C2C2C2",
";. c #C3C3C3",
":. c #C4C4C4",
">. c #C5C5C5",
",. c #C7C7C7",
"<. c #C8C8C8",
"1. c #C9C9C9",
"2. c #CACACA",
"3. c #CBCBCB",
"4. c #CDCDCD",
"5. c #CECECE",
"6. c #CFCFCF",
"7. c #D0D0D0",
"8. c #D3D3D3",
"9. c #D4D4D4",
"0. c #D5D5D5",
"q. c #D6D6D6",
"w. c #D8D8D8",
"e. c #D9D9D9",
"r. c #DADADA",
"t. c #DBDBDB",
"y. c #DCDCDC",
"u. c #DDDDDD",
"i. c #DEDEDE",
"p. c #DFDFDF",
"a. c #E0E0E0",
"s. c #E1E1E1",
"d. c #E2E2E2",
"f. c #E3E3E3",
"g. c #E4E4E4",
"h. c #E6E6E6",
"j. c #E6E6E6",
"k. c #E7E7E7",
"l. c #E8E8E8",
"z. c #E9E9E9",
"x. c #EAEAEA",
"c. c #EBEBEB",
"v. c #ECECEC",
"b. c #EDEDED",
"n. c #EEEEEE",
"m. c #EFEFEF",
"M. c #F0F0F0",
"N. c #F1F1F1",
"B. c #F2F2F2",
"V. c #F3F3F3",
"C. c #F4F4F4",
"Z. c #F5F5F5",
"A. c #F6F6F6",
"S. c #F7F7F7",
"D. c #F8F8F8",
"F. c #F9F9F9",
"G. c #FAFAFA",
"H. c #FBFBFB",
"J. c #FDFDFD",
"K. c #FEFEFE",
"L. c #FFFFF1",
/* pixels */
"                                                                                                                                                                                                                                                                ",
"                                                                                                                                                                                                                                                                ",
"                                                                                                                                                                                                                                                                ",
"                                                                                                                                                                                                                                                                ",
"                                                                                                                                                                                                                                                                ",
"                                                                                                                                                                                                                                                                ",
"                                                                                                                                                                                                                                                                ",
"                                                                                                                                                                                                                                                                ",
"                                                                                                                                                                                                                                                                ",
"                                                                                                                                                                                                                                                                ",
"                                                                                                                                                                                                                                                                ",
"                                                                                                                                                                                                                                                                ",
"                                                                                                                                                                                                                                                                ",
"                                                                                                  X X & & & & - 1 & - c                                                                                                                                         ",
"                                                                                        A.A.P 1 Q V c - & & & & & & & & & c                                                                                                                                     ",
"                                                                                        G.c.d.H d.| 0.Z 1 & & & & & & & & & - e H                                                                                                                               ",
"                                                                                        A.d.d.t.A.4.4.` 0.( e & & & & & & & & X - H                                                                                                                             ",
"                                                                                        A.4.d.d.c.A.d.&.A.G.0.e & & & & & & & & & e ;.                                                                                                                          ",
"                                                                                          t.d.4.0.d.c.Q &.&.A.P X & & & & & & & & - (                                                                                                                           ",
"                                                                                          G.G.t.c.| t.t.A.0.A.` & & & & & & & & & - Q                                                                                                                           ",
"                                                                                            A.4.A.` t.G.G.G.G.| & 1 & & & & & & & & 9 & c                                                                                                                       ",
"                                                                                                G.` d.c.A.;.d.P 9 &.V - & & & & & & X & & 9 D                                                                                                                   ",
"                                                                                                    A.;.A.` &.c s c.c.| 9 & X & & & & & & & 9 g M                                                                                                               ",
"                                                                                                        A.G.G.` g c.c.c.Q | c & & & 1 & & & & & - g     & s                                                                                                     ",
"                                                                                                          A.G.Q 1 Q | c.d.G.d.g & 1 ` Z - & & & & X & & & & 9 Z                                                                                                 ",
"                                                                                                                      A.G.0.0.` Q D 4.d.| 1 & & & & & & & & X 9 |                                                                                               ",
"                                                                                                                      A.c.( T d.c.d.d.d.d.s & & & & & & & & & 9 |                                                                                               ",
"                                                                                                                      d.4.0.&.c.c.A.A.d.d.e X & - 1 & & & & & - g   & & c                                                                                       ",
"                                                                                                                          A.G.d.c.( t.d.d.P Y 9 g ;.M & & & & & X & & & & g                                                                                     ",
"                                                                                                                            G.4.c.P 4.d.c.d.G.&.V G.| 9 s & & & & & & & & - 1 9 P                                                                               ",
"                                                                                                                                G.P 4.d.A.A.t.d.| A.4.D d.H & & & & & & & & & & 9 &.                                                                            ",
"                                                                                                                                    c.t.A.t.t.A.d.A.d.| G.;.- & & X & & & & & & - P                                                                             ",
"                                                                                                                                      d.c.t.&.0.G.G.A.c.G.&.- Z ;.Z - & & & & & & & & & 1 H                                                                     ",
"                                                                                                                                          0.A.A.A.A.c.G.G.&.1 ;.G.A.H & & & & & & & & & X - Q                                                                   ",
"                                                                                                                                              A.4.c.;.A.A.&.e t.G.G.d.e & & & & & & & & & X M                                                                   ",
"                                                                                                                                                  c.( d.4.;.e d.| H A.Z X & & & & & & & & X e ;.                                                                ",
"                                                                                                                                                      ;.&.;.9 t.T 9 t.Y X & & & & & & & & & 1 |                                                                 ",
"                                                                                                                                                        d.;.1 ;.&.s t.Q & & & & & & & & & & - (                                                                 ",
"                                                                                                                                                              ;.A.4.A.Q & & & & & & & & & & - `                                                                 ",
"                                                                                                                                                                G.G.G.P X & & & & & & & & & 9 &.                                                                ",
"                                                                                                                                                                  A.A.M & & & & & & & & & & M                                                                   ",
"                                                                                                                                                                                                                                                                ",
"                                                                                                                                                                                                                                                                ",
"                                                                                                                                                                                                                                                                ",
"                                                                                                                                                                                                                                                                ",
"                                                                                                                                                                                                                                                                ",
"                                                                                                                                                                                                                                                                ",
"                                                                                                                                                                                                                                                                ",
"                                                                                                                                                                                                                                                                ",
"                                                                                                                                                                                                                                                                ",
"                                                                                                                                                                                                                                                                ",
"                                                                                                                                                                                                                                                                ",
"                                                                                                                                                                                                                                                                ",
"                                                                                                                                                                                                                                                                "
};
