/* XPM */
static char *oms_019[] = {
/* columns rows colors chars-per-pixel */
"128 54 178 2 ",
"   c #FF00FF",
".  c #060606",
"X  c #090909",
"o  c #0A0A0A",
"O  c #0D0D0D",
"+  c #0F0F0F",
"@  c #101010",
"#  c #111111",
"$  c #121212",
"%  c #131313",
"&  c #141414",
"*  c #151515",
"=  c #161616",
"-  c #171717",
";  c #181818",
":  c #191919",
">  c #1A1A1A",
",  c #212121",
"<  c #232323",
"1  c #242424",
"2  c #252525",
"3  c #262626",
"4  c #272727",
"5  c #282828",
"6  c #2A2A2A",
"7  c #2B2B2B",
"8  c #2C2C2C",
"9  c #2E2E2E",
"0  c #313131",
"q  c #323232",
"w  c #353535",
"e  c #383838",
"r  c #393939",
"t  c #3A3A3A",
"y  c #3C3C3C",
"u  c #3E3E3E",
"i  c #3F3F3F",
"p  c #494949",
"a  c #4C4C4C",
"s  c #4C4C4C",
"d  c #505050",
"f  c #525252",
"g  c #535353",
"h  c #545454",
"j  c #565656",
"k  c #575757",
"l  c #5A5A5A",
"z  c #5B5B5B",
"x  c #5C5C5C",
"c  c #5D5D5D",
"v  c #606060",
"b  c #616161",
"n  c #636363",
"m  c #646464",
"M  c #666666",
"N  c #676767",
"B  c #686868",
"V  c #696969",
"C  c #6B6B6B",
"Z  c #6C6C6C",
"A  c #6D6D6D",
"S  c #6E6E6E",
"D  c #707070",
"F  c #727272",
"G  c #757575",
"H  c #777777",
"J  c #787878",
"K  c #7A7A7A",
"L  c #7B7B7B",
"P  c #7C7C7C",
"I  c #7D7D7D",
"U  c #7E7E7E",
"Y  c #808080",
"T  c #828282",
"R  c #858585",
"E  c #868686",
"W  c #878787",
"Q  c #898989",
"!  c #8A8A8A",
"~  c #8C8C8C",
"^  c #8D8D8D",
"/  c #8E8E8E",
"(  c #929292",
")  c #949494",
"_  c #979797",
"`  c #999999",
"'  c #9A9A9A",
"]  c #9B9B9B",
"[  c #9E9E9E",
"{  c #9F9F9F",
"}  c #A0A0A0",
"|  c #A1A1A1",
" . c #A2A2A2",
".. c #A3A3A3",
"X. c #A4A4A4",
"o. c #A5A5A5",
"O. c #A6A6A6",
"+. c #A8A8A8",
"@. c #A9A9A9",
"#. c #AAAAAA",
"$. c #ABABAB",
"%. c #ACACAC",
"&. c #ADADAD",
"*. c #AEAEAE",
"=. c #AFAFAF",
"-. c #B0B0B0",
";. c #B1B1B1",
":. c #B2B2B2",
">. c #B2B2B2",
",. c #B4B4B4",
"<. c #B5B5B5",
"1. c #B6B6B6",
"2. c #B8B8B8",
"3. c #BBBBBB",
"4. c #BCBCBC",
"5. c #BDBDBD",
"6. c #BFBFBF",
"7. c #C0C0C0",
"8. c #C1C1C1",
"9. c #C2C2C2",
"0. c #C3C3C3",
"q. c #C4C4C4",
"w. c #C5C5C5",
"e. c #C6C6C6",
"r. c #C7C7C7",
"t. c #C8C8C8",
"y. c #C9C9C9",
"u. c #CBCBCB",
"i. c #CCCCCC",
"p. c #CDCDCD",
"a. c #CECECE",
"s. c #CFCFCF",
"d. c #D1D1D1",
"f. c #D2D2D2",
"g. c #D3D3D3",
"h. c #D4D4D4",
"j. c #D5D5D5",
"k. c #D6D6D6",
"l. c #D7D7D7",
"z. c #D8D8D8",
"x. c #D9D9D9",
"c. c #DADADA",
"v. c #DBDBDB",
"b. c #DCDCDC",
"n. c #DDDDDD",
"m. c #DEDEDE",
"M. c #DFDFDF",
"N. c #E0E0E0",
"B. c #E1E1E1",
"V. c #E2E2E2",
"C. c #E3E3E3",
"Z. c #E4E4E4",
"A. c #E6E6E6",
"S. c #E6E6E6",
"D. c #E7E7E7",
"F. c #E8E8E8",
"G. c #E9E9E9",
"H. c #EAEAEA",
"J. c #EBEBEB",
"K. c #ECECEC",
"L. c #EDEDED",
"P. c #EEEEEE",
"I. c #EFEFEF",
"U. c #F0F0F0",
"Y. c #F1F1F1",
"T. c #F2F2F2",
"R. c #F3F3F3",
"E. c #F4F4F4",
"W. c #F5F5F5",
"Q. c #F6F6F6",
"!. c #F7F7F7",
"~. c #F8F8F8",
"^. c #F9F9F9",
"/. c #FAFAFA",
"(. c #FBFBFB",
"). c #FCFCFC",
"_. c #FDFDFD",
"`. c #FEFEFE",
/* pixels */
"                                                                                                                                                                                                                                                                ",
"                                                                                                                                                                                                                                                                ",
"                                                                                                                                                                                                                                                                ",
"                                                                                                                                                                                                                                                                ",
"                                                                                                                                                                                                                                                                ",
"                                                                                                                                                                                                                                                                ",
"                                                                                                                                                                                                                                                                ",
"                                                                                                                                                                                                                                                                ",
"                                                                                                                                                                                                                                                                ",
"                                                                                                                                                                                                                                                                ",
"                                                                                                                                                                                                                                                                ",
"                                                                                                                                                                                                                                                                ",
"                                                                                                                                                                                                                                                                ",
"                                                                                                                                                                                                                                                                ",
"                                                                                                                                                                                                                                                                ",
"                                                                                                                                                                                                                                                                ",
"                                                                                                                                                                                                                                                                ",
"                                                                                                                                                                                                                                                                ",
"                                                                                                                                                                                                                                                                ",
"                                                                                                                                                                                                                                                                ",
"                                                                                                                                                                                                                                                                ",
"                                                                                                                                                                                                                                                                ",
"                                                                                                                                                                                    * * 0 N ) 7.I.I.    E y o j                                                 ",
"                      j ) 7.b.C.C.C.I.I.          * | b.g.g.b.I.    * ~ C.b.b.I.R.                y * y b.I.I.7.| I.I.(.                                                        * * * l g.R.(.(.(.(.(.(.R.g.l D (.(.(.| 2 7.I.R.R.                              ",
"                  : I C.(.(.(.(.(.(.(.(.R.I.      : 7.(.(.(.(.(.y.* y C.(.(.(.(.R.                y o y R.(.(.b.>.(.(.(.y.                                                    2 * * 2 g.(.(.(.R.>.3.R.R.R.(.g.I b.C.b.~ p I.(.(.R.E : * y I                     ",
"                  j I.(.(.(.R.R.R.R.(.(.(.R.      : 7.(.(.(.(.(.C.y { (.(.(.(.(.C.0 0 I @.7.g.C.R.| 8 y R.(.(.g.>.(.(.(.{ A y.R.(.3.2 * l @.y.C.I.R.I.>.N 2 >.b.g.y.I 7.I.R.I.y o * 8 C.(.(.(.R.| | b.b.7.{ l I I.I.I.3.b.(.(.(.(.C.p E b.I.R.(.(.(.R.          ",
"                  ) (.(.(.R.      D C.(.(.(.I.    : 7.(.(.(.(.(.(.7.I.(.(.(.(.(.g.j g.(.(.R.b.R.(.(.y.N I.(.(.g.>.(.(.(.I.(.(.(.(.(.E D R.(.(.(.I.R.(.(.R.I g.(.(.(.(.(.(.(.(.@.* * : >.(.(.(.(.(.(.(.R.R.I.) E (.(.(.y.I.(.(.(.(.I.@.R.(.(.g.{ b.(.(.(.        ",
"                  @.(.(.(.R.      * 3.(.(.(.R.    : 7.(.(.(.R.(.(.(.(.(.R.(.(.(.b.>.(.(.(.g.| b.(.(.(.7.I.(.(.g.>.(.(.(.C.@.b.(.(.(.y.b.(.(.(.~ 0 | (.(.(.g.b.(.(.(.@.7.(.(.(.g.  * * 0 { g.C.I.C.I.R.(.(.(.R.7.R.(.(.>.A I.(.(.R.D 7.(.(.(.C.b.I.R.R.R.R.      ",
"                  | (.(.(.R.    2 l C.(.(.(.R.    : 7.(.(.(.7.C.(.(.(.R.>.R.(.(.b.7.(.(.(.C.y.g.C.b.C.7.R.(.(.b.>.(.(.(.{ o I (.(.(.b.I.(.(.R.j . D (.(.(.C.C.(.(.R.N I R.R.(.~ * * 0 >.3.7.g.7.j j b.(.(.(.R.g.R.(.(.| 8 C.(.(.R.E 7.(.(.(.7.I @.g.g.C.        ",
"                  ~ R.(.(.(.I.g.g.I.(.(.(.R.      * 7.(.(.(.~ { (.(.(.3.N R.(.(.b.>.(.(.(.3.A >.C.C.C.3.I.(.(.b.>.(.(.(.~ o A (.(.(.7.7.(.(.(.7.~ g.(.(.(.>.g.(.(.R.            * * 8 g.(.(.(.(.b.g.R.(.(.(.b.| (.(.(.| 8 C.(.(.(.I.| R.(.(.C.3.C.R.R.R.        ",
"                    I.(.(.(.(.(.(.(.(.(.R.R.      : 7.(.(.(.{ y C.(.R.l j (.(.(.C.A C.(.(.(.(.(.(.(.C.I I.(.(.b.>.(.(.(.) o A (.(.(.7.l C.(.(.(.(.(.(.(.g.p y.(.(.R.                * N C.R.(.(.(.(.(.R.R.I.A I (.(.(.3.: >.(.R.R.I.N ) R.R.(.(.(.R.R.          ",
"                        R.R.R.R.R.R.R.R.            y.(.(.(.    7.(.R.    R.(.(.R.      R.R.I.R.R.      C.R.      R.R.                        I.I.I.                                                                                                            ",
"                                                                                                                                                                                                                                                                ",
"                                                                                                                                                                                                                                                                ",
"                                                                                                                                                                                                                                                                ",
"                                                                                                                                                                                                                                                                ",
"                                                                                                                                                                                                                                                                ",
"                                                                                                                                                                                                                                                                ",
"                                                                                                                                                                                                                                                                ",
"                                                                                                                                                                                                                                                                ",
"                                                                                                                                                                                                                                                                ",
"                                                                                                                                                                                                                                                                ",
"                                                                                                                                                                                                                                                                ",
"                                                                                                                                                                                                                                                                ",
"                                                                                                                                                                                                                                                                ",
"                                                                                                                                                                                                                                                                ",
"                                                                                                                                                                                                                                                                ",
"                                                                                                                                                                                                                                                                ",
"                                                                                                                                                                                                                                                                ",
"                                                                                                                                                                                                                                                                ",
"                                                                                                                                                                                                                                                                ",
"                                                                                                                                                                                                                                                                ",
"                                                                                                                                                                                                                                                                ",
"                                                                                                                                                                                                                                                                "
};
