/* XPM */
static char *oms_148[] = {
/* columns rows colors chars-per-pixel */
"128 54 200 2 ",
"   c #FF00FF",
".  c #0B0B0B",
"X  c #0D0D0D",
"o  c #0E0E0E",
"O  c #0F0F0F",
"+  c #101010",
"@  c #111111",
"#  c #121212",
"$  c #131313",
"%  c #141414",
"&  c #151515",
"*  c #161616",
"=  c #171717",
"-  c #181818",
";  c #191919",
":  c #1A1A1A",
">  c #1B1B1B",
",  c #1C1C1C",
"<  c #1D1D1D",
"1  c #1E1E1E",
"2  c #1F1F1F",
"3  c #202020",
"4  c #212121",
"5  c #222222",
"6  c #232323",
"7  c #242424",
"8  c #252525",
"9  c #262626",
"0  c #272727",
"q  c #282828",
"w  c #292929",
"e  c #2B2B2B",
"r  c #2C2C2C",
"t  c #2D2D2D",
"y  c #2E2E2E",
"u  c #2F2F2F",
"i  c #303030",
"p  c #313131",
"a  c #323232",
"s  c #343434",
"d  c #353535",
"f  c #363636",
"g  c #373737",
"h  c #383838",
"j  c #3A3A3A",
"k  c #3B3B3B",
"l  c #3D3D3D",
"z  c #3E3E3E",
"x  c #3F3F3F",
"c  c #404040",
"v  c #414141",
"b  c #434343",
"n  c #444444",
"m  c #454545",
"M  c #464646",
"N  c #474747",
"B  c #484848",
"V  c #4A4A4A",
"C  c #4B4B4B",
"Z  c #4C4C4C",
"A  c #4C4C4C",
"S  c #4E4E4E",
"D  c #4F4F4F",
"F  c #505050",
"G  c #515151",
"H  c #525252",
"J  c #555555",
"K  c #565656",
"L  c #575757",
"P  c #5A5A5A",
"I  c #5C5C5C",
"U  c #5E5E5E",
"Y  c #606060",
"T  c #616161",
"R  c #626262",
"E  c #636363",
"W  c #646464",
"Q  c #656565",
"!  c #666666",
"~  c #676767",
"^  c #696969",
"/  c #6C6C6C",
"(  c #6E6E6E",
")  c #6F6F6F",
"_  c #707070",
"`  c #727272",
"'  c #737373",
"]  c #747474",
"[  c #757575",
"{  c #767676",
"}  c #777777",
"|  c #787878",
" . c #797979",
".. c #7C7C7C",
"X. c #7E7E7E",
"o. c #808080",
"O. c #808080",
"+. c #828282",
"@. c #848484",
"#. c #878787",
"$. c #888888",
"%. c #898989",
"&. c #8A8A8A",
"*. c #8B8B8B",
"=. c #8C8C8C",
"-. c #8E8E8E",
";. c #919191",
":. c #929292",
">. c #939393",
",. c #949494",
"<. c #959595",
"1. c #979797",
"2. c #989898",
"3. c #999999",
"4. c #9A9A9A",
"5. c #9B9B9B",
"6. c #A0A0A0",
"7. c #A1A1A1",
"8. c #A3A3A3",
"9. c #A4A4A4",
"0. c #A5A5A5",
"q. c #A6A6A6",
"w. c #A7A7A7",
"e. c #A8A8A8",
"r. c #A9A9A9",
"t. c #AAAAAA",
"y. c #ABABAB",
"u. c #ACACAC",
"i. c #ADADAD",
"p. c #AFAFAF",
"a. c #B0B0B0",
"s. c #B1B1B1",
"d. c #B2B2B2",
"f. c #B4B4B4",
"g. c #B5B5B5",
"h. c #B8B8B8",
"j. c #BABABA",
"k. c #BDBDBD",
"l. c #808080",
"z. c #BFBFBF",
"x. c #C0C0C0",
"c. c #C1C1C1",
"v. c #C2C2C2",
"b. c #C3C3C3",
"n. c #C4C4C4",
"m. c #C5C5C5",
"M. c #C6C6C6",
"N. c #C7C7C7",
"B. c #C8C8C8",
"V. c #C9C9C9",
"C. c #CACACA",
"Z. c #CBCBCB",
"A. c #CDCDCD",
"S. c #CECECE",
"D. c #D0D0D0",
"F. c #D2D2D2",
"G. c #D3D3D3",
"H. c #D4D4D4",
"J. c #D6D6D6",
"K. c #D7D7D7",
"L. c #D8D8D8",
"P. c #D9D9D9",
"I. c #DADADA",
"U. c #DBDBDB",
"Y. c #DCDCDC",
"T. c #DDDDDD",
"R. c #DEDEDE",
"E. c #DFDFDF",
"W. c #E0E0E0",
"Q. c #E1E1E1",
"!. c #E2E2E2",
"~. c #E3E3E3",
"^. c #E4E4E4",
"/. c #E6E6E6",
"(. c #E6E6E6",
"). c #E7E7E7",
"_. c #E8E8E8",
"`. c #E9E9E9",
"'. c #EAEAEA",
"]. c #EBEBEB",
"[. c #ECECEC",
"{. c #EDEDED",
"}. c #EEEEEE",
"|. c #EFEFEF",
" X c #F0F0F0",
".X c #F1F1F1",
"XX c #F2F2F2",
"oX c #F3F3F3",
"OX c #F4F4F4",
"+X c #F5F5F5",
"@X c #F6F6F6",
"#X c #F7F7F7",
"$X c #F8F8F8",
"%X c #F9F9F9",
"&X c #FAFAFA",
"*X c #FBFBFB",
"=X c #FCFCFC",
"-X c #FDFDFD",
";X c #FEFEFE",
":X c #FFFFF1",
/* pixels */
"                                                                                                                                                                                                                                                                ",
"                                                                                                                                                                                                                                                                ",
"                                                                                                                                                                                                                                                                ",
"                                                                                                                                                                                                                                                                ",
"                                                                                                                                                                                                                                                                ",
"                                                                                                                                                                                                                                                                ",
"                                                                                                                                                                                                                                                                ",
"                                                                                                                                                                                                                                                                ",
"                                                                                                                                                                                                                                                                ",
"                                                                                                                                                                                                                                                                ",
"                                                                                                                                                                                                                                                                ",
"                                                                                                                                                                                                                                                                ",
"                                                                                                                                                                                                                                                                ",
"                                              , e i c         % 3 i K   e D R                                                                                                                                                                                   ",
"                                          % % % % % % % e , % % % % % % % % % K     j K                                                                                                                                                                         ",
"                                      D e % % % % % i j 3 % , , % % % % % % % 3 , % % % , 3 e D                                                                                                                                                                 ",
"                                    '.!.T.c.&.c % % 2.OXT.+.c c.6.] 3 % % % % O % % % % % % % % 3 R                                                                                                                                                             ",
"                                  $X$X$X!.T.$X'.] R T.$X$Xh.K '.$X'.D ] d.d.2.] D 3 % % % % % % % 3                                                                                                                                                             ",
"                                  '.'.OXT.c.OX$X!.h.$X$X$X'.c.K.K.c.&.OX$X$X$X$XOXK.1.e % % % % % , ..                                                                                                                                                          ",
"                                  '.!.T.d.d.OX$X$X6.c.$X$X$X'.OX$X!.R 1.V.'.K.i.!.$X$Xc.e % % % % 3       % , e R                                                                                                                                               ",
"                                    $X$XK.d.OX$X$X&.d.$X$Xc.+.OX$X'...V.!.'.K.i.!.$X$X$XR O % % e     % % % % % % , , 3 j                                                                                                                                       ",
"                                      OX$X$X$X$X'.V.OX$X$Xi.D OX$X'.T.$X$X$X$X$X$X$X$X$XR O % 3 ] / 3 % % O % % % % % % , j % % 3 e j K               % 3 c K                                                                                                   ",
"                                                    $X$X$Xd.U OX$X'.T.$X$X$XK.d.T.'.!.d.e % % 1.OXOXd.] &.R j % % % % O % % % % % % % % e ..    , % % % % % % , 3 e c                                                                                           ",
"                                                              OX$X'.1.OX$X$Xc.R h.T.d./ e % , V.$X$X$XOX$X$Xc.i ] 1.&.R j , % % % % % % % R R e , % O % % % % % % % , 1.                                                                                        ",
"                                                                        $X$X$XOX$X$X$X$X] O 3 !.$X$Xd.V.$X$XK.d.$X$X$X$X'.h.K % % 3 3 % , V.OXT.1.1.] D , % % % % % , 1.                3 c R                                                                   ",
"                                                                            OXOXOX$X$XOX              T.$X$X!.!.$X$XK.6.'.$X'.U ] T.K.2.j V.$X$Xc.'.$X'.c % % % % % , R   % e c c % % % % % % , i 6.                                                            ",
"                                                                                                        $X$X!.!.$X$X&.O 6.$X$XV.T.$X$X$XT.'.$X$Xc.'.$XOXD O O % % % % % , c i , % % % % % % % % % c 3 % , e i c /                                               ",
"                                                                                                        $X$XK.6.$X$XV.D h.$X$XOXOX$X$XT.V.$X$X$Xc.'.$X'.D j / / D e % O e T.!.V.i.D % % % % % O % % % % % % % % j                                               ",
"                                                                                                                OX$X$XOXOX$X$XK.!.$X$X+.e T.$X$Xc.'.$X'.&.!.$X$XOXT.6.c e !.$X$X$Xc., , 1.d.+.U i % % % % % % % i         % % , 3 i D                           ",
"                                                                                                                    OXOXOX$XOX  '.$X$X..% V.$X$Xc.'.$X'.K.$X$X'.d.!.$XT.R T.$X$X$XOXD D OX$X$XOXT.e % % % % % % 3 e O % % % % % % % % , j &.                    ",
"                                                                                                                                  $X$X&., !.$X$Xc.'.$XOXc.!.'.!.T.'.$X$Xc.!.$X$X$X$Xi.d.$X$X$X$X'.i % % 3 ..d.h.6...K 3 % % % % % % % % % e 1.                  ",
"                                                                                                                                            $X$XV.'.$X'.d.OX'.c...V.$X$X!.'.$X$XOX$XOXOX$X$X$X$X'.i % % 1.$X$X$X$X$XOXK..., % % % % % % % % D                   ",
"                                                                                                                                                    OX'.&.OX$X$X!.'.$X$XV.!.$X$Xh.!.$X$X$XOX$X$X'.i % e T.$X$X$X'.OX$X$X$X6., % % % % % % % 3                   ",
"                                                                                                                                                              OX$X$X$XOX2.'.$X$X&.i.$X$X!.i.$X$X'.i % j '.$X$Xh.j c 6.OX$X$X/ % % % % % % % 3 1.                ",
"                                                                                                                                                                          $XOX$X&.R $X$X2...$X$X'.i % e T.$X$X1.O O 3 K.$X$Xi.% % % % % % % 3                   ",
"                                                                                                                                                                                    OXOXU 2.$X$X'.i % , c.$X$XT.K , j T.$X$Xh., % % % % % % c                   ",
"                                                                                                                                                                                              $X'.j       OX$X$X'.V.T.$X$X$Xd.% % % % % % ,                     ",
"                                                                                                                                                                                                            OX$X$X$X$X$X$XOX] % % %                             ",
"                                                                                                                                                                                                                OXOX$X$XOXT.                                    ",
"                                                                                                                                                                                                                                                                ",
"                                                                                                                                                                                                                                                                ",
"                                                                                                                                                                                                                                                                ",
"                                                                                                                                                                                                                                                                ",
"                                                                                                                                                                                                                                                                ",
"                                                                                                                                                                                                                                                                ",
"                                                                                                                                                                                                                                                                ",
"                                                                                                                                                                                                                                                                ",
"                                                                                                                                                                                                                                                                ",
"                                                                                                                                                                                                                                                                ",
"                                                                                                                                                                                                                                                                ",
"                                                                                                                                                                                                                                                                ",
"                                                                                                                                                                                                                                                                ",
"                                                                                                                                                                                                                                                                ",
"                                                                                                                                                                                                                                                                "
};
