/* XPM */
static char *oms_183[] = {
/* columns rows colors chars-per-pixel */
"128 54 208 2 ",
"   c #FF00FF",
".  c #040404",
"X  c #0D0D0D",
"o  c #0E0E0E",
"O  c #0F0F0F",
"+  c #101010",
"@  c #111111",
"#  c #121212",
"$  c #131313",
"%  c #141414",
"&  c #151515",
"*  c #161616",
"=  c #171717",
"-  c #181818",
";  c #191919",
":  c #1A1A1A",
">  c #1B1B1B",
",  c #1C1C1C",
"<  c #1D1D1D",
"1  c #1E1E1E",
"2  c #1F1F1F",
"3  c #202020",
"4  c #212121",
"5  c #222222",
"6  c #232323",
"7  c #242424",
"8  c #252525",
"9  c #262626",
"0  c #272727",
"q  c #282828",
"w  c #292929",
"e  c #2A2A2A",
"r  c #2C2C2C",
"t  c #2D2D2D",
"y  c #2E2E2E",
"u  c #2F2F2F",
"i  c #303030",
"p  c #323232",
"a  c #333333",
"s  c #343434",
"d  c #353535",
"f  c #363636",
"g  c #373737",
"h  c #393939",
"j  c #3A3A3A",
"k  c #3B3B3B",
"l  c #3C3C3C",
"z  c #3D3D3D",
"x  c #3E3E3E",
"c  c #3F3F3F",
"v  c #404040",
"b  c #414141",
"n  c #424242",
"m  c #434343",
"M  c #444444",
"N  c #454545",
"B  c #464646",
"V  c #484848",
"C  c #494949",
"Z  c #4C4C4C",
"A  c #4C4C4C",
"S  c #4E4E4E",
"D  c #4F4F4F",
"F  c #505050",
"G  c #515151",
"H  c #525252",
"J  c #535353",
"K  c #545454",
"L  c #555555",
"P  c #565656",
"I  c #575757",
"U  c #585858",
"Y  c #595959",
"T  c #5A5A5A",
"R  c #5B5B5B",
"E  c #5C5C5C",
"W  c #5D5D5D",
"Q  c #5E5E5E",
"!  c #5F5F5F",
"~  c #606060",
"^  c #616161",
"/  c #636363",
"(  c #646464",
")  c #656565",
"_  c #666666",
"`  c #676767",
"'  c #696969",
"]  c #6C6C6C",
"[  c #6D6D6D",
"{  c #6E6E6E",
"}  c #707070",
"|  c #717171",
" . c #727272",
".. c #747474",
"X. c #757575",
"o. c #767676",
"O. c #787878",
"+. c #797979",
"@. c #7A7A7A",
"#. c #7B7B7B",
"$. c #7C7C7C",
"%. c #7E7E7E",
"&. c #808080",
"*. c #808080",
"=. c #818181",
"-. c #838383",
";. c #848484",
":. c #888888",
">. c #898989",
",. c #8C8C8C",
"<. c #8D8D8D",
"1. c #8F8F8F",
"2. c #909090",
"3. c #919191",
"4. c #929292",
"5. c #939393",
"6. c #949494",
"7. c #959595",
"8. c #969696",
"9. c #979797",
"0. c #989898",
"q. c #999999",
"w. c #9A9A9A",
"e. c #9D9D9D",
"r. c #9F9F9F",
"t. c #A0A0A0",
"y. c #A2A2A2",
"u. c #A3A3A3",
"i. c #A6A6A6",
"p. c #A7A7A7",
"a. c #A8A8A8",
"s. c #A9A9A9",
"d. c #AAAAAA",
"f. c #ABABAB",
"g. c #ACACAC",
"h. c #ADADAD",
"j. c #AEAEAE",
"k. c #B0B0B0",
"l. c #B1B1B1",
"z. c #B2B2B2",
"x. c #B2B2B2",
"c. c #B5B5B5",
"v. c #B7B7B7",
"b. c #BABABA",
"n. c #BCBCBC",
"m. c #BDBDBD",
"M. c #808080",
"N. c #BFBFBF",
"B. c #C0C0C0",
"V. c #C1C1C1",
"C. c #C2C2C2",
"Z. c #C3C3C3",
"A. c #C4C4C4",
"S. c #C5C5C5",
"D. c #C6C6C6",
"F. c #C7C7C7",
"G. c #C8C8C8",
"H. c #CACACA",
"J. c #CBCBCB",
"K. c #CCCCCC",
"L. c #CDCDCD",
"P. c #CFCFCF",
"I. c #D1D1D1",
"U. c #D2D2D2",
"Y. c #D3D3D3",
"T. c #D4D4D4",
"R. c #D6D6D6",
"E. c #D7D7D7",
"W. c #D8D8D8",
"Q. c #D9D9D9",
"!. c #DADADA",
"~. c #DBDBDB",
"^. c #DCDCDC",
"/. c #DDDDDD",
"(. c #DEDEDE",
"). c #DFDFDF",
"_. c #E0E0E0",
"`. c #E1E1E1",
"'. c #E2E2E2",
"]. c #E3E3E3",
"[. c #E4E4E4",
"{. c #E6E6E6",
"}. c #E6E6E6",
"|. c #E7E7E7",
" X c #E8E8E8",
".X c #E9E9E9",
"XX c #EAEAEA",
"oX c #EBEBEB",
"OX c #ECECEC",
"+X c #EDEDED",
"@X c #EEEEEE",
"#X c #EFEFEF",
"$X c #F0F0F0",
"%X c #F1F1F1",
"&X c #F2F2F2",
"*X c #F3F3F3",
"=X c #F4F4F4",
"-X c #F5F5F5",
";X c #F6F6F6",
":X c #F7F7F7",
">X c #F8F8F8",
",X c #F9F9F9",
"<X c #FAFAFA",
"1X c #FBFBFB",
"2X c #FCFCFC",
"3X c #FDFDFD",
"4X c #FEFEFE",
"5X c #FFFFF1",
/* pixels */
"                                                                                                                                                                                                                                                                ",
"                                                                                                                                                                                                                                                                ",
"                                                                                                                                                                                                                                                                ",
"                                                                                                                                                                                                                                                                ",
"                                                                                                                                                                                                                                                                ",
"                                                                                                                                                                                                                                                                ",
"                                                                                                                                                                                                                                                                ",
"                                                                                                                                                                                                                                                                ",
"                                                                                                                                                                                                                                                                ",
"                                                                                                                                                                                                                                                                ",
"                                                                                                                                                                                                                                                                ",
"                                                                                                                                                                                                                                                                ",
"                                                                                                                                                                                                                                                                ",
"                                                                                                                                                                                                                                                                ",
"                                                                                                                                                                                                                                                                ",
"                                                                                                                                                                                                                                                                ",
"                                                                                                                                                                                                                                                                ",
"                                                                                                                                                                                                                                                                ",
"                                                              R     R                                                                         R G G     R ~ ~                         G V V V G         m m m m x V               x x f f f m V                 ",
"                                m m x f     < < < <   G w < < < # # < < < w                                                                 # # # # w < # # #                       # # # # # # x     # # # # # # w           0 # # # # # # # # < x             ",
"                                < # # # #   # # # # 0 < # # # # # # # # # # <                                                               # # # # 0 # # # #                       # # # # # # <     # # # # # # w         # # # # # # # # # # # # x           ",
"            x w 0 0 0 0 f V   0 < # # # # < # # O O O # # # # O O O O O O O #         f < < 0 m w 0 0 0     w < < < # < < w G     0 < < < x 0 O # O 0 # O # #     0 < # # # # < w V # # # # # # # w 0 # # # # # # w       O O # < < 0 0 < # # # # # <           ",
"          < # # # # # # # # < # # # # # # # # f R R R f # 0 V ~  .&.&.&. .R f         # # # # # # # # # < # # # # # # # # # < x # # # # # # ~ 3.3.>.&.3.3.3.-.f # # # # # # # # # x p.h.h.h.p.x # # V h.h.h.h.h.G 0       w [ p.M.P.W.W.P.z.&.f # # <           ",
"        w # # # # # # # # # # # # < 3.z.z.h.w 3.1X1X1X>.G P.;X1X1X1X1X1X1X;XW.p.      # # O O # # O O O # # # # O O O O O # # < # # O O O # h.1X1X1XB.;X1X1X{.f # O # # # # # # O G 1X1X1X1X1Xz.< < B.1X1X1X1X1X .0       P.1X1X1X1X1X1X1X1X1XW.G # <           ",
"        0 # # # < f V V V m w # # m W.1X1X;X~ >.W.U.U.-.M.@X@X@X@Xh.r.@X1X1X1X;X      # w ~ ~ m 0 G G R m # 0 V [ &.-.-. .V 0 < < V &.-.~ w p.1X1X1XB.@X1X1XW.w w ~ >.r.p.r.-.G < G ;X1X1X1X1X;XR [ ;X1X1X1X1X1X .0     ;X1X1X1X;XB.h.B.@X1X1X1XU.0 <           ",
"        < # # R B.{.;X;X;X@XW.r.V U.1X1X1X1X@X{.;X@X@X>.V r.M.U.U.z.B.;X1X1X1X1X      m U.1X1X@XB.@X;X;XB.V B.;X1X1X1X1X1X;XB.V -.;X1X1X1XU.W.1X1X1XB.@X1X1XW.~ U.1X1X;X@X1X1X;Xh.[ ;X1X1X1X1X1XW.W.1X1X1X1X1X1X .0     ;X1X1X1X3.< # #  .;X1X1X@XV             ",
"          # x @X1X1X@Xh.P.1X1X1XB.U.;X1X1X1X{.{.1X1X1Xp.z.;X1X1X1X1X1X1X1X;XW.3.      z.1X1X1X;X@X1X1X1XU.B.1X1X1XM.&.M.1X1X1XU.{.1X1X1X;X1X1X1X1X1XB.@X1X1X{.P.1X1X1XP.z.{.1X1X;XM.;X1X1X;X@X1X1X1X1X;X;X1X1X1X .<     ;X1X1X1X&.O O O ~ ;X1X1X;X              ",
"            [ @X;X;X@XW.{.1X1X1XU.V W.1X1X;X~ r.1X1X1XU.;X1X1X1X@Xp.3.W.W.M.>.~       ;X;X;X;X{.3.;X1X1X@X@X1X1X1XR . ~ 1X1X1X;X;X1X1X;X    1X1X1X1XW.;X1X1X@X{.;X;X@XP.M.{.1X1X1X@X;X1X1XW.p.1X1X1X1X;X;X1X1X1X&.      ;X1X1X1X{.3. .>.W.1X1X1X;X              ",
"            >.P.W.@XP. .h.1X1X1XU.p.;X1X1X1X[ r.1X1X1X@X;X1X1X1X@X3.3.@X;X;X;X;X                  ;X1X1X@X@X1X1X1XB. .B.1X1X1X;X;X1X1X;X    1X1X1X1X{.;X1X1X;X@X;X;X;Xz.3.{.1X1X;X@X1X1X1XW.  1X1X1X;X  ;X1X1X1X3.        1X1X1X1X1X1X1X1X1X1X1X                ",
"              ;X1X1X;X@X;X1X1X1Xz.{.1X1X1X;X  B.1X1X1X;X  ;X1X1X1X1X1X1X1X1X;X                    ;X1X1X@X  ;X1X1X1X1X1X1X1X;X  ;X1X1X;X    1X1X1X1X{.;X1X1X;X  ;X1X1X1X1X1X1X;X    ;X1X1X@X    ;X;X    ;X;X;X;X            ;X1X1X1X1X1X;X;X;X                  ",
"                  ;X1X1X1X;X                                  ;X;X;X;X;X                                                                                                                                                                                        ",
"                                                                                                                                                                                                                                                                ",
"                                                                                                                                                                                                                                                                ",
"                                                                                                                                                                                                                                                                ",
"                                                                                                                                                                                                                                                                ",
"                                                                                                                                                                                                                                                                ",
"                                                                                                                                                                                                                                                                ",
"                                                                                                                                                                                                                                                                ",
"                                                                                                                                                                                                                                                                ",
"                                                                                                                                                                                                                                                                ",
"                                                                                                                                                                                                                                                                ",
"                                                                                                                                                                                                                                                                ",
"                                                                                                                                                                                                                                                                ",
"                                                                                                                                                                                                                                                                ",
"                                                                                                                                                                                                                                                                ",
"                                                                                                                                                                                                                                                                ",
"                                                                                                                                                                                                                                                                ",
"                                                                                                                                                                                                                                                                ",
"                                                                                                                                                                                                                                                                ",
"                                                                                                                                                                                                                                                                ",
"                                                                                                                                                                                                                                                                ",
"                                                                                                                                                                                                                                                                ",
"                                                                                                                                                                                                                                                                ",
"                                                                                                                                                                                                                                                                "
};
