/* XPM */
static char *oms_021[] = {
/* columns rows colors chars-per-pixel */
"128 54 179 2 ",
"   c #FF00FF",
".  c #0B0B0B",
"X  c #0C0C0C",
"o  c #0D0D0D",
"O  c #0F0F0F",
"+  c #101010",
"@  c #111111",
"#  c #121212",
"$  c #131313",
"%  c #141414",
"&  c #151515",
"*  c #161616",
"=  c #171717",
"-  c #181818",
";  c #191919",
":  c #1A1A1A",
">  c #1B1B1B",
",  c #1C1C1C",
"<  c #202020",
"1  c #242424",
"2  c #262626",
"3  c #272727",
"4  c #282828",
"5  c #292929",
"6  c #2B2B2B",
"7  c #2C2C2C",
"8  c #2D2D2D",
"9  c #2E2E2E",
"0  c #333333",
"q  c #343434",
"w  c #383838",
"e  c #3B3B3B",
"r  c #3C3C3C",
"t  c #444444",
"y  c #454545",
"u  c #464646",
"i  c #474747",
"p  c #484848",
"a  c #494949",
"s  c #4B4B4B",
"d  c #4F4F4F",
"f  c #505050",
"g  c #525252",
"h  c #545454",
"j  c #555555",
"k  c #575757",
"l  c #585858",
"z  c #595959",
"x  c #5F5F5F",
"c  c #616161",
"v  c #636363",
"b  c #656565",
"n  c #676767",
"m  c #686868",
"M  c #696969",
"N  c #6A6A6A",
"B  c #6B6B6B",
"V  c #6C6C6C",
"C  c #6F6F6F",
"Z  c #707070",
"A  c #717171",
"S  c #737373",
"D  c #747474",
"F  c #757575",
"G  c #777777",
"H  c #797979",
"J  c #7A7A7A",
"K  c #7B7B7B",
"L  c #7C7C7C",
"P  c #7E7E7E",
"I  c #808080",
"U  c #808080",
"Y  c #818181",
"T  c #828282",
"R  c #848484",
"E  c #858585",
"W  c #868686",
"Q  c #878787",
"!  c #8B8B8B",
"~  c #8C8C8C",
"^  c #909090",
"/  c #919191",
"(  c #939393",
")  c #949494",
"_  c #959595",
"`  c #989898",
"'  c #9A9A9A",
"]  c #9B9B9B",
"[  c #9C9C9C",
"{  c #9D9D9D",
"}  c #9E9E9E",
"|  c #9F9F9F",
" . c #A1A1A1",
".. c #A3A3A3",
"X. c #A4A4A4",
"o. c #A5A5A5",
"O. c #A6A6A6",
"+. c #A7A7A7",
"@. c #A8A8A8",
"#. c #A9A9A9",
"$. c #ABABAB",
"%. c #ADADAD",
"&. c #AEAEAE",
"*. c #AFAFAF",
"=. c #B0B0B0",
"-. c #B1B1B1",
";. c #B2B2B2",
":. c #B2B2B2",
">. c #B4B4B4",
",. c #B6B6B6",
"<. c #B7B7B7",
"1. c #B8B8B8",
"2. c #B9B9B9",
"3. c #BBBBBB",
"4. c #BCBCBC",
"5. c #BDBDBD",
"6. c #808080",
"7. c #BFBFBF",
"8. c #C0C0C0",
"9. c #C1C1C1",
"0. c #C2C2C2",
"q. c #C3C3C3",
"w. c #C4C4C4",
"e. c #C5C5C5",
"r. c #C6C6C6",
"t. c #C7C7C7",
"y. c #C9C9C9",
"u. c #CACACA",
"i. c #CBCBCB",
"p. c #CCCCCC",
"a. c #CDCDCD",
"s. c #CECECE",
"d. c #CFCFCF",
"f. c #D0D0D0",
"g. c #D1D1D1",
"h. c #D2D2D2",
"j. c #D3D3D3",
"k. c #D4D4D4",
"l. c #D5D5D5",
"z. c #D6D6D6",
"x. c #D7D7D7",
"c. c #D8D8D8",
"v. c #D9D9D9",
"b. c #DADADA",
"n. c #DBDBDB",
"m. c #DCDCDC",
"M. c #DDDDDD",
"N. c #DEDEDE",
"B. c #DFDFDF",
"V. c #E0E0E0",
"C. c #E2E2E2",
"Z. c #E3E3E3",
"A. c #E4E4E4",
"S. c #E6E6E6",
"D. c #E6E6E6",
"F. c #E7E7E7",
"G. c #E8E8E8",
"H. c #E9E9E9",
"J. c #EAEAEA",
"K. c #EBEBEB",
"L. c #ECECEC",
"P. c #EDEDED",
"I. c #EEEEEE",
"U. c #EFEFEF",
"Y. c #F0F0F0",
"T. c #F1F1F1",
"R. c #F2F2F2",
"E. c #F3F3F3",
"W. c #F4F4F4",
"Q. c #F5F5F5",
"!. c #F6F6F6",
"~. c #F7F7F7",
"^. c #F8F8F8",
"/. c #F9F9F9",
"(. c #FAFAFA",
"). c #FBFBFB",
"_. c #FCFCFC",
"`. c #FDFDFD",
"'. c #FEFEFE",
/* pixels */
"                                                                                                                                                                                                                                                                ",
"                                                                                                                                                                                                                                                                ",
"                                                                                                                                                                                                                                                                ",
"                                                                                                                                                                                                                                                                ",
"                                                                                                                                                                                                                                                                ",
"                                                                                                                                                                                                                                                                ",
"                                                                                                                                                                                                                                                                ",
"                                                                                                                                                                                                                                                                ",
"                                                                                                                                                                                                                                                                ",
"                                                                                                                                                                                                                                                                ",
"                                                                                                                                                                                                                                                                ",
"                                                                                                                                                                                                                                                                ",
"                                                                                                                                                                                                                                                                ",
"                                                                                                                                                                                                                                                                ",
"                                                                                                                                                                                                                                                                ",
"                                                                                                                                                                                                                                                                ",
"                                                                                                                                                                                                                                                                ",
"                                                                                                                                                                                                                                                                ",
"                                                                                                                                                                                                                                                                ",
"                                                                                                                                                                                                                                                                ",
"                                                                                                                                                                                                                                                                ",
"                                                                                                                                                                                                                                                                ",
"                                                                                                                                                                                  + + + 8 b ( =.b.  P.$.Z w + i 3.g.                                            ",
"                        2 b ( =.3.e.g.P.          8 + ( 3.3.e.b.W.  + + ( g.g.g.P.W.                + + m b.b.b.' 3.Z.W.W.                                                    2 + + + i p.W././././././.W.b.m m /././.X.8 p.Z.W.W.                              ",
"                    + i e.W./././././././.W.      8 ; p./././././.R X i P././././.W.                + + K /././.=.b././.W.                                                    + + + + =./././.W.3.=.P.W.W.W.g.K b.b.b.( j P././.W.Z ; + j (                     ",
"                    8 g././././.W.W././././.W.    8 ; p./././././.e.2 $./././././.p.; q Z $.e.Z.W.p.j + K /././.$.b././.Z.z ~ g.P.b.s + 8 R 3.b.P.W.P.e.K 2 Z g.g.g.R X.P./.b.w + + ; e./././.W.=.' b.Z.e.( z Z W.W.W.e.b././././.Z.j ' P.W.W.W././.W.          ",
"                  X m /././.W.W.    K P./././.W.  8 ; p./././././.W.$.P./././././.e.j b././.W.P././.W.( R /././.$.b././.W.Z././././.g.s e./././.P.W./././.X.' /././.W././././.=.; + + R /./././././././.W.P.X.R /././.p.Z././././.P.e./././.e.' Z./././.        ",
"                  X R /././.W.      + 3./././.W.  8 ; p./././.W./././././.W./././.p.e././.W.3.' P././.P.=./././.$.b./././.g.e.W././.P.=./././.p.s b P././.P.e./././.p.X.W././.P.  + + 2 ~ g.Z.P.Z.P.W./././.W.e.W././.$.b P././.P.b p./././.P.b.P.W.W.W.        ",
"                  X K /././.W.    + w g./././.W.  8 ; p./././.e.W./././.P.e./././.b.Z./././.Z.g.Z.P.P.Z.p./././.$.b././.P.i 2 g././.P.p./././.$.X 8 b././.W.g./././.X.i Z.W.W.$.; + 2 ' 3.p.b.b.b s g./././.W.p.W././.X.8 Z././.W.R p./././.$.m =.g.g.P.        ",
"                    z P./././.Z.=.$.b././././.    8 ; p./././.K 3./././.=.R /././.g.p././.W.' m e.b.b.b.e./././.$.b././.Z.q ; e././.P.' W././.Z.~ $.W././.b.=./././.W.          + + ; =././././.Z.g.W./././.b.' W././.X.8 Z./././.P.X.W././.P.g.P././.W.        ",
"                      e././././././././././.W.    8 ; p./././.Z j W./.W.s Z /././.p.R W././.W.W./././.p.' /././.=.b././.Z.w ; e././.W.b $.W././././././.W.m ( /././.W.              + i g.W.W.W./././././.W.m Z W.W./.=.; $./././.P.j ' P.W.W./.W.W.W.          ",
"                          W.W././././.W.W.            g./././.    g.W.P.  R W.W.W.P.    W.W.W.W.W.W.    ~ /./.W.3.b.P.P.Z.      W.W.          P.W.W.P.                                                                                                          ",
"                                                                                                                                                                                                                                                                ",
"                                                                                                                                                                                                                                                                ",
"                                                                                                                                                                                                                                                                ",
"                                                                                                                                                                                                                                                                ",
"                                                                                                                                                                                                                                                                ",
"                                                                                                                                                                                                                                                                ",
"                                                                                                                                                                                                                                                                ",
"                                                                                                                                                                                                                                                                ",
"                                                                                                                                                                                                                                                                ",
"                                                                                                                                                                                                                                                                ",
"                                                                                                                                                                                                                                                                ",
"                                                                                                                                                                                                                                                                ",
"                                                                                                                                                                                                                                                                ",
"                                                                                                                                                                                                                                                                ",
"                                                                                                                                                                                                                                                                ",
"                                                                                                                                                                                                                                                                ",
"                                                                                                                                                                                                                                                                ",
"                                                                                                                                                                                                                                                                ",
"                                                                                                                                                                                                                                                                ",
"                                                                                                                                                                                                                                                                ",
"                                                                                                                                                                                                                                                                ",
"                                                                                                                                                                                                                                                                "
};
