/* XPM */
static char *oms_032[] = {
/* columns rows colors chars-per-pixel */
"128 54 194 2 ",
"   c #FF00FF",
".  c #040404",
"X  c #0C0C0C",
"o  c #0D0D0D",
"O  c #0E0E0E",
"+  c #0F0F0F",
"@  c #101010",
"#  c #111111",
"$  c #121212",
"%  c #131313",
"&  c #141414",
"*  c #151515",
"=  c #161616",
"-  c #171717",
";  c #181818",
":  c #191919",
">  c #1A1A1A",
",  c #1B1B1B",
"<  c #1C1C1C",
"1  c #1D1D1D",
"2  c #1E1E1E",
"3  c #1F1F1F",
"4  c #202020",
"5  c #212121",
"6  c #222222",
"7  c #242424",
"8  c #252525",
"9  c #262626",
"0  c #272727",
"q  c #282828",
"w  c #292929",
"e  c #2A2A2A",
"r  c #2B2B2B",
"t  c #2E2E2E",
"y  c #303030",
"u  c #313131",
"i  c #323232",
"p  c #333333",
"a  c #343434",
"s  c #353535",
"d  c #363636",
"f  c #373737",
"g  c #383838",
"h  c #393939",
"j  c #3A3A3A",
"k  c #3B3B3B",
"l  c #3D3D3D",
"z  c #3E3E3E",
"x  c #404040",
"c  c #424242",
"v  c #434343",
"b  c #444444",
"n  c #454545",
"m  c #464646",
"M  c #484848",
"N  c #4C4C4C",
"B  c #4E4E4E",
"V  c #505050",
"C  c #525252",
"Z  c #535353",
"A  c #545454",
"S  c #555555",
"D  c #585858",
"F  c #5A5A5A",
"G  c #5D5D5D",
"H  c #5E5E5E",
"J  c #606060",
"K  c #636363",
"L  c #646464",
"P  c #656565",
"I  c #676767",
"U  c #6A6A6A",
"Y  c #6B6B6B",
"T  c #6C6C6C",
"R  c #6D6D6D",
"E  c #6F6F6F",
"W  c #707070",
"Q  c #727272",
"!  c #737373",
"~  c #747474",
"^  c #787878",
"/  c #797979",
"(  c #7C7C7C",
")  c #7D7D7D",
"_  c #7E7E7E",
"`  c #808080",
"'  c #808080",
"]  c #818181",
"[  c #828282",
"{  c #848484",
"}  c #868686",
"|  c #878787",
" . c #8A8A8A",
".. c #8B8B8B",
"X. c #8C8C8C",
"o. c #8D8D8D",
"O. c #8E8E8E",
"+. c #8F8F8F",
"@. c #909090",
"#. c #949494",
"$. c #969696",
"%. c #979797",
"&. c #999999",
"*. c #9A9A9A",
"=. c #9D9D9D",
"-. c #9E9E9E",
";. c #A0A0A0",
":. c #A1A1A1",
">. c #A2A2A2",
",. c #A4A4A4",
"<. c #A5A5A5",
"1. c #A6A6A6",
"2. c #A7A7A7",
"3. c #A8A8A8",
"4. c #A9A9A9",
"5. c #ABABAB",
"6. c #ADADAD",
"7. c #AEAEAE",
"8. c #AFAFAF",
"9. c #B0B0B0",
"0. c #B1B1B1",
"q. c #B2B2B2",
"w. c #B2B2B2",
"e. c #B5B5B5",
"r. c #B6B6B6",
"t. c #B8B8B8",
"y. c #B9B9B9",
"u. c #BABABA",
"i. c #BBBBBB",
"p. c #BCBCBC",
"a. c #BDBDBD",
"s. c #808080",
"d. c #BFBFBF",
"f. c #C0C0C0",
"g. c #C1C1C1",
"h. c #C2C2C2",
"j. c #C3C3C3",
"k. c #C4C4C4",
"l. c #C5C5C5",
"z. c #C6C6C6",
"x. c #C7C7C7",
"c. c #C8C8C8",
"v. c #C9C9C9",
"b. c #CACACA",
"n. c #CBCBCB",
"m. c #CCCCCC",
"M. c #CDCDCD",
"N. c #CECECE",
"B. c #CFCFCF",
"V. c #D0D0D0",
"C. c #D1D1D1",
"Z. c #D3D3D3",
"A. c #D4D4D4",
"S. c #D6D6D6",
"D. c #D7D7D7",
"F. c #D8D8D8",
"G. c #D9D9D9",
"H. c #DADADA",
"J. c #DBDBDB",
"K. c #DCDCDC",
"L. c #DDDDDD",
"P. c #DEDEDE",
"I. c #DFDFDF",
"U. c #E0E0E0",
"Y. c #E1E1E1",
"T. c #E2E2E2",
"R. c #E3E3E3",
"E. c #E4E4E4",
"W. c #E6E6E6",
"Q. c #E7E7E7",
"!. c #E8E8E8",
"~. c #E9E9E9",
"^. c #EAEAEA",
"/. c #EBEBEB",
"(. c #ECECEC",
"). c #EDEDED",
"_. c #EEEEEE",
"`. c #EFEFEF",
"'. c #F0F0F0",
"]. c #F1F1F1",
"[. c #F2F2F2",
"{. c #F3F3F3",
"}. c #F4F4F4",
"|. c #F5F5F5",
" X c #F6F6F6",
".X c #F7F7F7",
"XX c #F8F8F8",
"oX c #F9F9F9",
"OX c #FAFAFA",
"+X c #FBFBFB",
"@X c #FCFCFC",
"#X c #FDFDFD",
"$X c #FEFEFE",
"%X c #FFFFF1",
/* pixels */
"                                                                                                                                                                                                                                                                ",
"                                                                                                                                                                                                                                                                ",
"                                                                                                                                                                                                                                                                ",
"                                                                                                                                                                                                                                                                ",
"                                                                                                                                                                                                                                                                ",
"                                                                                                                                                                                                                                                                ",
"                                                                                                                                                                                                                                                                ",
"                                                                                                                                                                                                                                                                ",
"                                                                                                                                                                                                                                                                ",
"                                                                                                                                                                                                                                                                ",
"                                                                                                                                                                                                                                                                ",
"                                                                                                                                                                                                                                                                ",
"                                                                                                                                                                                                                                                                ",
"                                                                                                                                                                                                                                                                ",
"                                                                                                                                                                                                                                                                ",
"                                                                                                                                                                                                                                                                ",
"                                                                                                                                                                                                                                                                ",
"                                                                                                                                                                                                                                                                ",
"                                                                                                                                                                                                                                                                ",
"                                                                                                                                                                                                                                                                ",
"                                                                                                                                                                                                                                                                ",
"                                                                                                                                                                                                                                                                ",
"                                                                                                                                                                            r = = = = = r / 0.c.c.z.z.i.$.x r z.Q.'.i.r <.c.Q.                                  ",
"                                                                          , = = , x                   9 = = = f $.-.-./ 0.F.'.                                            x = = = = = f c.+X+X+X+X+X+X+X+XQ.I V.'.'.0.f F.+X+Xc.,                               ",
"                              , = = = x / <.z.F.'.'.    h = = = { c.V.Q.Q.-.= = I Q././.'.'.          , o = = A +X+X+Xz./.+X+X/.                              , 9 9       F f , = = o / +X+X+X'.....Q./.Q.c.{ 0.V.V.0.<.'.+X+X/./ r ..V./.+X+X'.'.              ",
"                            9 = = 9 $./.+X+X+X+X+X+X+X'.A o = = 7.+X+X+X+X/.x , z.+X+X+X+Xc., o r   { N h 9 o A '.+X+Xz.Q.+X+X0.f -.-.{ h = , I 7.c.V.c.i.$.h N z.c.c...0././.<., = o { +X+X+X'.c.z.Q.F.c./ x F.+X+XQ.'.+X+X+X+Xz.0.+X+X/.z.Q.+X+X'.            ",
"                            = = = ..+X+X+X+X'.'.+X+X+X+X7.= = = <.+X+X+X+X+X-.I '.+X+X+X+Xi.9 / c.Q./.'./.V.E F '.+X+Xz.Q.+X+XF.F.+X+X+XF.h <.+X+X+X+X+X+X+XV...+X+X+X'.+X+X+X'.A o = x F.+X+X+X+X+X+X+X+X'.<.F.+X+XF.i.'.+X+XQ.7.'.+X+XQ.c./.+X+X+X            ",
"                          f = = 9 F.+X+X+X<.x x $.'.+X+XF.r = = <.+X+X+X+X+X/.F.+X+X+X+X+Xz...+X+X'.i.V.+X+X/.<.'.+X+Xz.Q.+X+X'.Q.'.+X+X'.7.'.+X+Xi.A 7.+X+X+Xc.'.+X+Xz.7.+X+X+XW o = , A <.V.Q.i.z.'.+X+X+XF.Q.+X+Xi.h Q.+X+Xi.F '.+X+XF.<.i.V.F./.            ",
"                          h = = f /.+X+X/.h o o r F.+X+X/.h = = <.+X+X+X'.+X+X+X+X'.'.+X+Xc.V.+X+X'.V.F.+X+X'.V.'.+X+Xz.Q.+X+Xc.f -.+X+X'.z.'.+X+X/ . E +X+X+XF.'.+X+X7.F F.i.i.A = = { F.F./.Q.E E /.+X+X+Xc.Q.+X+Xi.f Q.+X+X'.z./.+X+XF.$.V.'.'.'.            ",
"                            = = f Q.+X+X/.N = = F /.+X+XQ.f = = <.+X+X'.i.'.+X+X'.7./.+X+XV.F.+X+X/.-.<.c.V.c.z.'.+X+Xz.Q.+X+X7.o W +X+X'.0.'.+X+Xc.E z.+X+X'.0.'.+X+X      r = = = = I '.+X+X+X'.'.+X+X+X/./ F.+X+Xi.r V.+X+X+Xi.{ /.+X+X+X+X+X'.              ",
"                            = = 9 V.+X+X+XQ.7.0.Q.+X+X+X0., = = 7.+X+X'.I c.+X+XV.A /.+X+Xz.0.+X+X'.7.z.'.'./.i.'.+X+Xz.Q.+X+X0.o W +X+X'./ 0.+X+X+X+X+X+X+X7.E '.+X'.                , -./.'.'.'.'.'.'.'.  h F.+X+X                                            ",
"                              = = W '.+X+X+X+X+X+X+X+X+XI o = = <.+X+X'.N W +X+X..f /.+X+Xc.F Q.+X+X+X+X+X+Xi.E '.'.'.z.Q.+X+Xc.  / '.'.+X      '.+X+X+X'.                                                                                                      ",
"                                      '.'.+X'.+X+X'.'.          7.+X+X+X    /.'.                                                                                                                                                                                ",
"                                                                                                                                                                                                                                                                ",
"                                                                                                                                                                                                                                                                ",
"                                                                                                                                                                                                                                                                ",
"                                                                                                                                                                                                                                                                ",
"                                                                                                                                                                                                                                                                ",
"                                                                                                                                                                                                                                                                ",
"                                                                                                                                                                                                                                                                ",
"                                                                                                                                                                                                                                                                ",
"                                                                                                                                                                                                                                                                ",
"                                                                                                                                                                                                                                                                ",
"                                                                                                                                                                                                                                                                ",
"                                                                                                                                                                                                                                                                ",
"                                                                                                                                                                                                                                                                ",
"                                                                                                                                                                                                                                                                ",
"                                                                                                                                                                                                                                                                ",
"                                                                                                                                                                                                                                                                ",
"                                                                                                                                                                                                                                                                ",
"                                                                                                                                                                                                                                                                ",
"                                                                                                                                                                                                                                                                ",
"                                                                                                                                                                                                                                                                ",
"                                                                                                                                                                                                                                                                "
};
