/* XPM */
static char *oms_138[] = {
/* columns rows colors chars-per-pixel */
"128 54 199 2 ",
"   c #FF00FF",
".  c #0A0A0A",
"X  c #0E0E0E",
"o  c #0F0F0F",
"O  c #101010",
"+  c #111111",
"@  c #121212",
"#  c #131313",
"$  c #141414",
"%  c #151515",
"&  c #161616",
"*  c #171717",
"=  c #181818",
"-  c #191919",
";  c #1A1A1A",
":  c #1B1B1B",
">  c #1C1C1C",
",  c #1D1D1D",
"<  c #1E1E1E",
"1  c #1F1F1F",
"2  c #202020",
"3  c #212121",
"4  c #222222",
"5  c #232323",
"6  c #242424",
"7  c #252525",
"8  c #262626",
"9  c #272727",
"0  c #282828",
"q  c #2B2B2B",
"w  c #2C2C2C",
"e  c #2D2D2D",
"r  c #2F2F2F",
"t  c #303030",
"y  c #313131",
"u  c #323232",
"i  c #333333",
"p  c #353535",
"a  c #363636",
"s  c #373737",
"d  c #383838",
"f  c #393939",
"g  c #3B3B3B",
"h  c #3C3C3C",
"j  c #3D3D3D",
"k  c #3E3E3E",
"l  c #3F3F3F",
"z  c #414141",
"x  c #424242",
"c  c #434343",
"v  c #444444",
"b  c #464646",
"n  c #474747",
"m  c #4A4A4A",
"M  c #4C4C4C",
"N  c #4C4C4C",
"B  c #4F4F4F",
"V  c #505050",
"C  c #535353",
"Z  c #545454",
"A  c #565656",
"S  c #575757",
"D  c #585858",
"F  c #595959",
"G  c #5C5C5C",
"H  c #5D5D5D",
"J  c #606060",
"K  c #616161",
"L  c #636363",
"P  c #646464",
"I  c #656565",
"U  c #666666",
"Y  c #676767",
"T  c #696969",
"R  c #6A6A6A",
"E  c #6B6B6B",
"W  c #6C6C6C",
"Q  c #6D6D6D",
"!  c #6F6F6F",
"~  c #717171",
"^  c #727272",
"/  c #737373",
"(  c #747474",
")  c #757575",
"_  c #777777",
"`  c #787878",
"'  c #797979",
"]  c #7A7A7A",
"[  c #7B7B7B",
"{  c #808080",
"}  c #838383",
"|  c #848484",
" . c #868686",
".. c #878787",
"X. c #898989",
"o. c #8A8A8A",
"O. c #8B8B8B",
"+. c #8E8E8E",
"@. c #909090",
"#. c #919191",
"$. c #939393",
"%. c #959595",
"&. c #969696",
"*. c #989898",
"=. c #999999",
"-. c #9A9A9A",
";. c #9B9B9B",
":. c #9D9D9D",
">. c #9E9E9E",
",. c #9F9F9F",
"<. c #A0A0A0",
"1. c #A1A1A1",
"2. c #A2A2A2",
"3. c #A4A4A4",
"4. c #A5A5A5",
"5. c #A6A6A6",
"6. c #A8A8A8",
"7. c #A9A9A9",
"8. c #AAAAAA",
"9. c #ABABAB",
"0. c #ADADAD",
"q. c #AEAEAE",
"w. c #AFAFAF",
"e. c #B0B0B0",
"r. c #B2B2B2",
"t. c #B2B2B2",
"y. c #B4B4B4",
"u. c #B5B5B5",
"i. c #B6B6B6",
"p. c #B9B9B9",
"a. c #BABABA",
"s. c #BBBBBB",
"d. c #BCBCBC",
"f. c #BDBDBD",
"g. c #808080",
"h. c #BFBFBF",
"j. c #C0C0C0",
"k. c #C1C1C1",
"l. c #C2C2C2",
"z. c #C3C3C3",
"x. c #C4C4C4",
"c. c #C5C5C5",
"v. c #C6C6C6",
"b. c #C7C7C7",
"n. c #C8C8C8",
"m. c #C9C9C9",
"M. c #CACACA",
"N. c #CBCBCB",
"B. c #CCCCCC",
"V. c #CDCDCD",
"C. c #CECECE",
"Z. c #CFCFCF",
"A. c #D0D0D0",
"S. c #D1D1D1",
"D. c #D3D3D3",
"F. c #D4D4D4",
"G. c #D5D5D5",
"H. c #D6D6D6",
"J. c #D7D7D7",
"K. c #D8D8D8",
"L. c #D9D9D9",
"P. c #DADADA",
"I. c #DBDBDB",
"U. c #DCDCDC",
"Y. c #DDDDDD",
"T. c #DEDEDE",
"R. c #DFDFDF",
"E. c #E0E0E0",
"W. c #E1E1E1",
"Q. c #E2E2E2",
"!. c #E3E3E3",
"~. c #E4E4E4",
"^. c #E6E6E6",
"/. c #E6E6E6",
"(. c #E7E7E7",
"). c #E8E8E8",
"_. c #E9E9E9",
"`. c #EAEAEA",
"'. c #EBEBEB",
"]. c #ECECEC",
"[. c #EDEDED",
"{. c #EEEEEE",
"}. c #EFEFEF",
"|. c #F0F0F0",
" X c #F1F1F1",
".X c #F2F2F2",
"XX c #F3F3F3",
"oX c #F4F4F4",
"OX c #F5F5F5",
"+X c #F6F6F6",
"@X c #F7F7F7",
"#X c #F8F8F8",
"$X c #F9F9F9",
"%X c #FAFAFA",
"&X c #FBFBFB",
"*X c #FCFCFC",
"=X c #FDFDFD",
"-X c #FEFEFE",
";X c #FFFFF1",
/* pixels */
"                                                                                                                                                                                                                                                                ",
"                                                                                                                                                                                                                                                                ",
"                                                                                                                                                                                                                                                                ",
"                                                                                                                                                                                                                                                                ",
"                                                                                                                                                                                                                                                                ",
"                                                                                                                                                                                                                                                                ",
"                                                                                                                                                                                                                                                                ",
"                                                                                                                                                                                                                                                                ",
"                                                                                                                                                                                                                                                                ",
"                                                                                                                                                                                                                                                                ",
"                                                                                                                                                                                                                                                                ",
"                                                                                                                                                                                                                                                                ",
"                                                              2 v F         s K                                                                                                                                                                                 ",
"                                                        % % % % % % 2 q % % % % > > > q M                                                                                                                                                                       ",
"                                                    v > % % % j s > % % % % % % % % % % > M % 2 s V                                                                                                                                                             ",
"                                                .X.X].M.) 2 % 0.].h.v >.#.F > o o o % % % % % % % % > q F                                                                                                                                                       ",
"                                              #X#X.Xb.E.#X1.W E.#X.XK b.#XE.j K  .W v 2 % % % % % % % % % M                                                                                                                                                     ",
"                                              ].].].J.E.#X.XM.#X#X#XJ.M.R.b.#.#X#X#X].M.o.s % % % % % % % > o.                                                                                                                                                  ",
"                                              .X].R.#.M.#X#X0.M.#X#X.X.X.XR.[ b.]..XR..X#XR.V % % % % % % % [                                                                                                                                                   ",
"                                                #X#XJ.R.#X#X>.b.#X.X#.R.#X].) h.R.R. .b.#X#Xh.> % % % % % >       % 2 F                                                                                                                                         ",
"                                                  .X#X#X#X].M.#X#X.XF b.#X].R.#X#X#X.X.X#X#XR.2 % % % % > > > % % % % % > 2 s W                                                                                                                                 ",
"                                                              #X#X].V M.#X].E.#X#X.X]..X#X#Xh.> % j 0.#.s > % % % % % % % % % q v % > v K                                                                                                                       ",
"                                                                      ].#X].y.#X#XR.K 1.J.1.v % % #.#X#XM.b.y.) > % % % o % % % % % % % % q )       % % % > s M                                                                                                 ",
"                                                                          E.  .X#X.XE.]..XE.0.2 % 0.#X.X]..X#X].F >.y.>.K q % % % % % % s s 2 2 o % % % % % % % % 2 v                                                                                           ",
"                                                                                  .X#X#X#X#XM.2 %   #X.X .E.#X].M.#X#X#X#XR.) % % 2 > o o.E.h.W V q % % % % % % % % 2                                                                                           ",
"                                                                                        .X.X              .X#X.X.X#X#X0.y.#X.XK [ J.y.M o.#X#Xh..XE.) % % % % % % % 2                 j                                                                         ",
"                                                                                                          #X#X.XR.#X.XM j ].#XM.R.#X#XE.M.#X.Xh..X#X>.o % % % % % % > j % 2 s > % % % % > 2 v                                                                   ",
"                                                                                                          #X#X].>..X#X1.[ .X#X].].#X.XR..X#X.Xh..X#X#.% 2 2 % % % % [ ) v 2 % % % % % % % % % V   % s F                                                         ",
"                                                                                                                    #X#X.X#X#XJ.R.#XE.j 0.#X.Xh..X#X1.#.R.J.y.W 2 % b.#X].M.j % > 2 % o % % % % % % % % > M                                                     ",
"                                                                                                                        .X.X.X1.E.#XR.2 o.#X.Xh..X#XJ..X#X.XE..Xb.j h.#X#X#X .o  .J.1.W s % % % % % % % o j                                                     ",
"                                                                                                                                #X#XR.2 >.#X.Xh..X#X].]..XE.h.].#Xy.b.#X#X#XM.j J.#X#X#X0.% % % % % % o o 2 j % % % % % % 2 v [                                 ",
"                                                                                                                                          #X.Xh..X#XR.R.E.b.h..X#X].E.#X#X#X].y..X#X#X#Xy.% % > K 1.1.[ v > o % % % % % % % % > F                               ",
"                                                                                                                                                .X#Xy.R.#XR.>.].#X.X.X#X.X].#X#X#X#X#X#Xy.% % W .X#X#X#X.Xb.F % % % % % % % % % % )                             ",
"                                                                                                                                                        .X#X#X#X#XJ.J.#X.X0..X#X#X].#X#Xy.% % y.#X#X#X.X#X#X].) % % % % % % % % % s h.                          ",
"                                                                                                                                                              .X.X  E.#X.XW J.#X].1..X#Xy.% > b.#X#X0.V #..X#XE.j % % % % % % % % > >.                          ",
"                                                                                                                                                                      .X.XK h.#Xh.W .X#Xy.% > h.#X#XW o % 1.#X#X[ o % % % % % % % > #.                          ",
"                                                                                                                                                                              #X#. ..X#Xy.% % o.#X#X0.2 % #.#X#X>.% % % % % % % % > >.                          ",
"                                                                                                                                                                                      #Xh.%     #X#X#XM.0.E.#X#X>.% % % % % % % % j                             ",
"                                                                                                                                                                                                  #X#X#X#X#X#X#X) o % % % % % % >                               ",
"                                                                                                                                                                                                      #X.X.X#XR.s % %                                           ",
"                                                                                                                                                                                                                                                                ",
"                                                                                                                                                                                                                                                                ",
"                                                                                                                                                                                                                                                                ",
"                                                                                                                                                                                                                                                                ",
"                                                                                                                                                                                                                                                                ",
"                                                                                                                                                                                                                                                                ",
"                                                                                                                                                                                                                                                                ",
"                                                                                                                                                                                                                                                                ",
"                                                                                                                                                                                                                                                                ",
"                                                                                                                                                                                                                                                                ",
"                                                                                                                                                                                                                                                                ",
"                                                                                                                                                                                                                                                                ",
"                                                                                                                                                                                                                                                                ",
"                                                                                                                                                                                                                                                                "
};
