/* XPM */
static char *oms_073[] = {
/* columns rows colors chars-per-pixel */
"128 54 161 2 ",
"   c #FF00FF",
".  c #0E0E0E",
"X  c #0F0F0F",
"o  c #101010",
"O  c #111111",
"+  c #121212",
"@  c #131313",
"#  c #141414",
"$  c #151515",
"%  c #161616",
"&  c #171717",
"*  c #181818",
"=  c #191919",
"-  c #1A1A1A",
";  c #1B1B1B",
":  c #1C1C1C",
">  c #1D1D1D",
",  c #1E1E1E",
"<  c #1F1F1F",
"1  c #202020",
"2  c #232323",
"3  c #242424",
"4  c #252525",
"5  c #262626",
"6  c #282828",
"7  c #2A2A2A",
"8  c #2D2D2D",
"9  c #2E2E2E",
"0  c #303030",
"q  c #313131",
"w  c #323232",
"e  c #333333",
"r  c #353535",
"t  c #373737",
"y  c #383838",
"u  c #393939",
"i  c #3A3A3A",
"p  c #3B3B3B",
"a  c #3D3D3D",
"s  c #3E3E3E",
"d  c #3F3F3F",
"f  c #404040",
"g  c #414141",
"h  c #424242",
"j  c #434343",
"k  c #444444",
"l  c #454545",
"z  c #464646",
"x  c #474747",
"c  c #484848",
"v  c #4B4B4B",
"b  c #4C4C4C",
"n  c #4E4E4E",
"m  c #4F4F4F",
"M  c #505050",
"N  c #515151",
"B  c #525252",
"V  c #535353",
"C  c #575757",
"Z  c #585858",
"A  c #5B5B5B",
"S  c #5D5D5D",
"D  c #5F5F5F",
"F  c #626262",
"G  c #646464",
"H  c #6E6E6E",
"J  c #6F6F6F",
"K  c #777777",
"L  c #787878",
"P  c #797979",
"I  c #7A7A7A",
"U  c #7C7C7C",
"Y  c #7D7D7D",
"T  c #7E7E7E",
"R  c #848484",
"E  c #858585",
"W  c #878787",
"Q  c #8A8A8A",
"!  c #8C8C8C",
"~  c #8D8D8D",
"^  c #909090",
"/  c #919191",
"(  c #979797",
")  c #989898",
"_  c #9B9B9B",
"`  c #9F9F9F",
"'  c #A0A0A0",
"]  c #A6A6A6",
"[  c #A8A8A8",
"{  c #A9A9A9",
"}  c #AAAAAA",
"|  c #ABABAB",
" . c #AEAEAE",
".. c #AFAFAF",
"X. c #B0B0B0",
"o. c #B2B2B2",
"O. c #B4B4B4",
"+. c #B6B6B6",
"@. c #B7B7B7",
"#. c #B8B8B8",
"$. c #B9B9B9",
"%. c #BBBBBB",
"&. c #BCBCBC",
"*. c #BDBDBD",
"=. c #808080",
"-. c #BFBFBF",
";. c #C0C0C0",
":. c #C2C2C2",
">. c #C3C3C3",
",. c #C4C4C4",
"<. c #C5C5C5",
"1. c #C6C6C6",
"2. c #C7C7C7",
"3. c #C9C9C9",
"4. c #CBCBCB",
"5. c #CECECE",
"6. c #CFCFCF",
"7. c #D0D0D0",
"8. c #D1D1D1",
"9. c #D2D2D2",
"0. c #D4D4D4",
"q. c #D5D5D5",
"w. c #D6D6D6",
"e. c #D7D7D7",
"r. c #D8D8D8",
"t. c #D9D9D9",
"y. c #DADADA",
"u. c #DCDCDC",
"i. c #DDDDDD",
"p. c #DEDEDE",
"a. c #DFDFDF",
"s. c #E0E0E0",
"d. c #E1E1E1",
"f. c #E2E2E2",
"g. c #E4E4E4",
"h. c #E6E6E6",
"j. c #E6E6E6",
"k. c #E7E7E7",
"l. c #E8E8E8",
"z. c #E9E9E9",
"x. c #EAEAEA",
"c. c #EBEBEB",
"v. c #ECECEC",
"b. c #EDEDED",
"n. c #EEEEEE",
"m. c #EFEFEF",
"M. c #F0F0F0",
"N. c #F1F1F1",
"B. c #F2F2F2",
"V. c #F3F3F3",
"C. c #F4F4F4",
"Z. c #F5F5F5",
"A. c #F6F6F6",
"S. c #F7F7F7",
"D. c #F8F8F8",
"F. c #F9F9F9",
"G. c #FAFAFA",
"H. c #FBFBFB",
"J. c #FCFCFC",
"K. c #FDFDFD",
"L. c #FFFFF1",
/* pixels */
"                                                                                                                                                                                                                                                                ",
"                                                                                                                                                                                                                                                                ",
"                                                                                                                                                                                                                                                                ",
"                                                                                                                                                                                                                                                                ",
"                                                                                                                                                                                                                                                                ",
"                                                                                                                                                                                                                                                                ",
"                                                                                                                                                                                                                                                                ",
"                                                                                                                                                                                                                                                                ",
"                                                                                                                                                                                                                                                                ",
"                                                                                                                                                                                                                                                                ",
"                                                                                                                                                                                                                                                                ",
"                                                                                                                                                                                                                                                                ",
"                                                                                                                                                                                                                                                                ",
"                                                                                                                                                                                                                                                                ",
"                                                                                                                                                                                                                                                                ",
"                                                                                                                                                                                                                                                                ",
"                                                                                                                                                                                                                                                                ",
"                                                                                                                                                              5 @ @                                                                                             ",
"                                                                                                                                                        y < @ @ @ @ @ @ @ < g 0 ` X.:.X.5  .C.                                                                  ",
"                                                                                                                                                  n @ @ @ @ @ @ @ @ @ @ n :.C.:.:.X.q.q.! c.C.C.                                                                ",
"                                                                                                                                                ( < @ @ @ @ @ @ @ @ @ 5 5.D.C.j.-.q.C.c.j.u.j.C.                                                                ",
"                                                                                                                                                W @ @ @ @ @ @ @ @ @ @ g C.:.-.( :.C.C.j.j.c.j.c.                                                                ",
"                                                                                                                                            0 5 g @ @ @ @ @ @ @ @ 5 @ n C.C.C.u.u.5.u.:.u.:.5.C.                                                                ",
"                                                                                                                                        y < @ @ < @ @ @ @ @ @ y H :.G y c.D.D.C.c.-.:.c.c.C.C.                                                                  ",
"                                                                                                                      Z < @ @ @ @ @ @ @ @ @ y P  .5 X @ g ( H :.C.D.( < ] X.q.C.c.-.:.c.-.C.C.                                                                  ",
"                                                                                                                      g @ @ @ @ @ X @ @ @ 0 u.j.q.y g y u.D.j.j.c.C.( 0 :.-.q.j.u.:.X.C.                                                                        ",
"                                                                                                            7 @ @ @ < < @ @ @ @ 5 n 5 @ X y c.u.u.-.u. .c.5.D.D.X.` Z n C.D.D.q.-.                                                                              ",
"                                                                                                      0 < 7 @ @ @ @ @ @ @ < 0 5 -.u.0 < y n c.u.C.D.c.j.-.K D.D.-.< @ 7 q.D.C.                                                                                  ",
"                                                                                                    C @ @ @ @ @ @ X @ @ y :.:.C c.j.n X.c.X.c.u.c.:.C.c.:.` c.c.c.                                                                                              ",
"                                                                                            7 @ @ @ @ @ @ @ @ @ 0 P Z @ C D.j.W C.j. .c.c.C.C.j.q.P c.u.C.C.q.q.C.                                                                                              ",
"                                                                                          g @ @ @ @ @ @ @ @ @ g q.D.c.y C C.C.5.D.c.u.c.j.C.C.j.q.K j.X.C.C.                                                                                                    ",
"                                                                                          5 @ @ @ @ @ @ @ @ <  .D.D.D.H C C.D.C.D.C.C.u.-.u.C.u.q.P c.                                                                                                          ",
"                                                                                        ! < @ @ @ @ @ @ @ @ 0 j.q.] D.W C C.C.C.j.C.C.q.u.j.C.j.c.                                                                                                              ",
"                                                                                        P @ @ @ @ @ @ @ @ @ g C.P 0 c.W C c.q.c.:.j.q.D.D.                                                                                                                      ",
"                                                                                        P @ @ @ @ @ @ @ @ @ n C.G y C.P C c.X.q. .c. .C.                                                                                                                        ",
"                                                                                        ! < @ @ @ @ @ @ @ @ n C. . .C.Z C C.( 5.                                                                                                                                ",
"                                                                                          7 @ @ @ @ @ @ @ @ g c.D.D.c.g Z C.                                                                                                                                    ",
"                                                                                              @ @ @ @ @ @ @ 5 5.D.D.C.                                                                                                                                          ",
"                                                                                                                C.                                                                                                                                              ",
"                                                                                                                                                                                                                                                                ",
"                                                                                                                                                                                                                                                                ",
"                                                                                                                                                                                                                                                                ",
"                                                                                                                                                                                                                                                                ",
"                                                                                                                                                                                                                                                                ",
"                                                                                                                                                                                                                                                                ",
"                                                                                                                                                                                                                                                                ",
"                                                                                                                                                                                                                                                                ",
"                                                                                                                                                                                                                                                                ",
"                                                                                                                                                                                                                                                                ",
"                                                                                                                                                                                                                                                                ",
"                                                                                                                                                                                                                                                                ",
"                                                                                                                                                                                                                                                                ",
"                                                                                                                                                                                                                                                                ",
"                                                                                                                                                                                                                                                                "
};
