/* XPM */
static char *oms_065[] = {
/* columns rows colors chars-per-pixel */
"128 54 179 2 ",
"   c #FF00FF",
".  c #0E0E0E",
"X  c #0F0F0F",
"o  c #101010",
"O  c #111111",
"+  c #121212",
"@  c #131313",
"#  c #141414",
"$  c #151515",
"%  c #161616",
"&  c #171717",
"*  c #181818",
"=  c #191919",
"-  c #1A1A1A",
";  c #1B1B1B",
":  c #1C1C1C",
">  c #1D1D1D",
",  c #1F1F1F",
"<  c #202020",
"1  c #222222",
"2  c #232323",
"3  c #252525",
"4  c #262626",
"5  c #282828",
"6  c #292929",
"7  c #2B2B2B",
"8  c #2D2D2D",
"9  c #2E2E2E",
"0  c #303030",
"q  c #313131",
"w  c #323232",
"e  c #333333",
"r  c #343434",
"t  c #363636",
"y  c #373737",
"u  c #383838",
"i  c #393939",
"p  c #3A3A3A",
"a  c #3B3B3B",
"s  c #3C3C3C",
"d  c #3E3E3E",
"f  c #3F3F3F",
"g  c #404040",
"h  c #434343",
"j  c #444444",
"k  c #464646",
"l  c #474747",
"z  c #484848",
"x  c #4B4B4B",
"c  c #4C4C4C",
"v  c #4C4C4C",
"b  c #4E4E4E",
"n  c #505050",
"m  c #525252",
"M  c #555555",
"N  c #565656",
"B  c #575757",
"V  c #595959",
"C  c #5C5C5C",
"Z  c #5D5D5D",
"A  c #5E5E5E",
"S  c #606060",
"D  c #616161",
"F  c #636363",
"G  c #646464",
"H  c #666666",
"J  c #6D6D6D",
"K  c #6E6E6E",
"L  c #6F6F6F",
"P  c #727272",
"I  c #737373",
"U  c #747474",
"Y  c #757575",
"T  c #767676",
"R  c #777777",
"E  c #787878",
"W  c #797979",
"Q  c #7A7A7A",
"!  c #7C7C7C",
"~  c #7D7D7D",
"^  c #7E7E7E",
"/  c #808080",
"(  c #818181",
")  c #838383",
"_  c #878787",
"`  c #888888",
"'  c #898989",
"]  c #8A8A8A",
"[  c #8F8F8F",
"{  c #919191",
"}  c #929292",
"|  c #949494",
" . c #959595",
".. c #969696",
"X. c #9B9B9B",
"o. c #9C9C9C",
"O. c #9D9D9D",
"+. c #9E9E9E",
"@. c #A1A1A1",
"#. c #A2A2A2",
"$. c #A3A3A3",
"%. c #A4A4A4",
"&. c #A6A6A6",
"*. c #A7A7A7",
"=. c #A8A8A8",
"-. c #AAAAAA",
";. c #ABABAB",
":. c #ACACAC",
">. c #ADADAD",
",. c #AEAEAE",
"<. c #AFAFAF",
"1. c #B0B0B0",
"2. c #B1B1B1",
"3. c #B2B2B2",
"4. c #B2B2B2",
"5. c #B4B4B4",
"6. c #B6B6B6",
"7. c #BCBCBC",
"8. c #BDBDBD",
"9. c #808080",
"0. c #BFBFBF",
"q. c #C1C1C1",
"w. c #C3C3C3",
"e. c #C4C4C4",
"r. c #C5C5C5",
"t. c #C7C7C7",
"y. c #C9C9C9",
"u. c #CACACA",
"i. c #CBCBCB",
"p. c #CCCCCC",
"a. c #CDCDCD",
"s. c #CECECE",
"d. c #CFCFCF",
"f. c #D2D2D2",
"g. c #D3D3D3",
"h. c #D4D4D4",
"j. c #D5D5D5",
"k. c #D6D6D6",
"l. c #D7D7D7",
"z. c #D8D8D8",
"x. c #D9D9D9",
"c. c #DADADA",
"v. c #DBDBDB",
"b. c #DCDCDC",
"n. c #DDDDDD",
"m. c #DEDEDE",
"M. c #DFDFDF",
"N. c #E0E0E0",
"B. c #E1E1E1",
"V. c #E2E2E2",
"C. c #E3E3E3",
"Z. c #E4E4E4",
"A. c #E6E6E6",
"S. c #E6E6E6",
"D. c #E7E7E7",
"F. c #E8E8E8",
"G. c #E9E9E9",
"H. c #EAEAEA",
"J. c #EBEBEB",
"K. c #ECECEC",
"L. c #EDEDED",
"P. c #EEEEEE",
"I. c #EFEFEF",
"U. c #F0F0F0",
"Y. c #F1F1F1",
"T. c #F2F2F2",
"R. c #F3F3F3",
"E. c #F4F4F4",
"W. c #F5F5F5",
"Q. c #F6F6F6",
"!. c #F7F7F7",
"~. c #F8F8F8",
"^. c #F9F9F9",
"/. c #FAFAFA",
"(. c #FBFBFB",
"). c #FCFCFC",
"_. c #FDFDFD",
"`. c #FEFEFE",
"'. c #FFFFF1",
/* pixels */
"                                                                                                                                                                                                                                                                ",
"                                                                                                                                                                                                                                                                ",
"                                                                                                                                                                                                                                                                ",
"                                                                                                                                                                                                                                                                ",
"                                                                                                                                                                                                                                                                ",
"                                                                                                                                                                                                                                                                ",
"                                                                                                                                                                                                                                                                ",
"                                                                                                                                                                                                                                                                ",
"                                                                                                                                                                                                                                                                ",
"                                                                                                                                                                                                                                                                ",
"                                                                                                                                                                                                                                                                ",
"                                                                                                                                                                                                                                                                ",
"                                                                                                                                                                                                                                                                ",
"                                                                                                                                                                                                                                                                ",
"                                                                                                                                                                                                                                                                ",
"                                                                                                                                                                                                                                                                ",
"                                                                                                                                                                                                                                                                ",
"                                                                                                                                                                                                                                                                ",
"                                                                                                                                                                    4 @ = = @ @ X                                                                               ",
"                                                                                                                                                          r = @ = 4 @ @ @ @ @ @ p G L r  .K.I j.m.r 4   K.                                                      ",
"                                                                                                                                                        r @ @ @ @ @ @ @ @ @ 5 *.K.'.'.7.5.S._ S.K.C X.W.'.W.                                                    ",
"                                                                                                                                                      W @ @ @ @ @ @ @ @ @ @ [ '.K.S.W.u.>.j.u.W.'.u.W.j.j.'.K.                                                  ",
"                                                                                                                                                      C @ @ @ @ @ @ @ @ @ = 7.'.r.X.u.I 5.'.S.'.K.m.'.K.S.W.                                                    ",
"                                                                                                                        4 @                 r 5 = @ @ @ @ X @ @ = 4 k _ 5 = r.'.W.W.'.m.u.W.*.K.j.>.'.5.*.K.                                                    ",
"                                                                                                                  G @ @ @ @ @ @ @ @ @ p I  .u.L X @ @ @ 5 C n r >.u.j.'.I X  .'.W.'.'.W.S.W.W S.W.m.'.S.K.'.                                                    ",
"                                                                                                                  z @ @ @ @ @ @ @ @ @ >.'.S.'.W 5 k @ G m.W.W.*.S.'.W.'. .X p 5.*.X.'.K.m.W.I S.'.7.S.'.'.                                                      ",
"                                                                                              4   p @ @ @ @ @ X @ = @ z X.>.4 @ X X @ 5.'.m.'.>.u.K.I m.W.m.'.m.K.S.>.'.[ = 5.W.m.u.'.j.r.W.W j.'.                                                              ",
"                                                                                          n @ @ @ X X X @ @ = I >.[ = 7.'.S.5 4 C W p 5.'.m.'.W.'.'.j.'.5.C W.S.K.m.z n 5 @ >.'.'.'.'.>.5.                                                                      ",
"                                                                              r @ @ @ @ @ = @ @ = z I G = X p W.'.j.k m.'.S.z r.'.'.u.r.W.m.'.u.u.'.W.'.*.C W.m.K.W.        L W.W.W.                                                                            ",
"                                                                            k @ @ @ @ @ @ @ @ 5 5.W.'.'. .@ p K.'.K. .W.'.S.5.'.7.K.W.m.W.m.'._ [ '.m.W.K.m.'.*.m.W.                                                                                            ",
"                                                                          _ = @ @ @ @ @ @ @ @ X.'.'.'.'.m.5 p K.'.W.K.W.'.K.S.'.S.K.m.m.W.m.'.W _ '.>.m.'.'.W.                                                                                                  ",
"                                                                          G @ @ @ @ @ @ @ @ r S.'.5.>.W.K.p p K.'.'.'.W.W.W.K.W.X.7.j.m.W.m.'._ _ '.                                                                                                            ",
"                                                                          n @ @ @ @ @ @ @ @ n W.m.5 5 S.W.p p W.K.S.'.r.K.K.m.'.m.W.j.r.'.S.W.                                                                                                                  ",
"                                                                          C @ @ @ @ @ @ @ X G '.u.= r K.K.p p W.m.5.'. .S.S.*.W.'.'.                                                                                                                            ",
"                                                                          W @ @ @ @ @ @ @ X C '.K.I *.'.j.4 p W.j.W K.L S.W.                                                                                                                                    ",
"                                                                            r @ @ @ @ @ @ @ k W.'.'.'.'.>.X p K.K.                                                                                                                                              ",
"                                                                                @ @ @ @ @ @ 4 r.'.'.W.W.                                                                                                                                                        ",
"                                                                                                W.W.                                                                                                                                                            ",
"                                                                                                                                                                                                                                                                ",
"                                                                                                                                                                                                                                                                ",
"                                                                                                                                                                                                                                                                ",
"                                                                                                                                                                                                                                                                ",
"                                                                                                                                                                                                                                                                ",
"                                                                                                                                                                                                                                                                ",
"                                                                                                                                                                                                                                                                ",
"                                                                                                                                                                                                                                                                ",
"                                                                                                                                                                                                                                                                ",
"                                                                                                                                                                                                                                                                ",
"                                                                                                                                                                                                                                                                ",
"                                                                                                                                                                                                                                                                ",
"                                                                                                                                                                                                                                                                ",
"                                                                                                                                                                                                                                                                ",
"                                                                                                                                                                                                                                                                ",
"                                                                                                                                                                                                                                                                "
};
