/* XPM */
static char *oms_017[] = {
/* columns rows colors chars-per-pixel */
"128 54 168 2 ",
"   c #FF00FF",
".  c #0B0B0B",
"X  c #0E0E0E",
"o  c #0F0F0F",
"O  c #101010",
"+  c #111111",
"@  c #121212",
"#  c #141414",
"$  c #151515",
"%  c #161616",
"&  c #171717",
"*  c #191919",
"=  c #1A1A1A",
"-  c #1B1B1B",
";  c #1C1C1C",
":  c #1E1E1E",
">  c #212121",
",  c #252525",
"<  c #282828",
"1  c #2B2B2B",
"2  c #2C2C2C",
"3  c #2F2F2F",
"4  c #323232",
"5  c #353535",
"6  c #373737",
"7  c #393939",
"8  c #3A3A3A",
"9  c #3B3B3B",
"0  c #3F3F3F",
"q  c #404040",
"w  c #414141",
"e  c #424242",
"r  c #464646",
"t  c #494949",
"y  c #4B4B4B",
"u  c #4C4C4C",
"i  c #505050",
"p  c #535353",
"a  c #565656",
"s  c #575757",
"d  c #595959",
"f  c #5B5B5B",
"g  c #5C5C5C",
"h  c #5E5E5E",
"j  c #5F5F5F",
"k  c #606060",
"l  c #646464",
"z  c #656565",
"x  c #676767",
"c  c #6D6D6D",
"v  c #6E6E6E",
"b  c #6F6F6F",
"n  c #747474",
"m  c #767676",
"M  c #777777",
"N  c #787878",
"B  c #797979",
"V  c #7A7A7A",
"C  c #7B7B7B",
"Z  c #7C7C7C",
"A  c #808080",
"S  c #818181",
"D  c #828282",
"F  c #848484",
"G  c #858585",
"H  c #868686",
"J  c #878787",
"K  c #888888",
"L  c #898989",
"P  c #8B8B8B",
"I  c #8C8C8C",
"U  c #8E8E8E",
"Y  c #909090",
"T  c #919191",
"R  c #929292",
"E  c #949494",
"W  c #979797",
"Q  c #989898",
"!  c #999999",
"~  c #9A9A9A",
"^  c #9B9B9B",
"/  c #9C9C9C",
"(  c #9E9E9E",
")  c #9F9F9F",
"_  c #A1A1A1",
"`  c #A2A2A2",
"'  c #A3A3A3",
"]  c #A4A4A4",
"[  c #A5A5A5",
"{  c #A7A7A7",
"}  c #A8A8A8",
"|  c #A9A9A9",
" . c #ABABAB",
".. c #ACACAC",
"X. c #ADADAD",
"o. c #AEAEAE",
"O. c #AFAFAF",
"+. c #B1B1B1",
"@. c #B2B2B2",
"#. c #B2B2B2",
"$. c #B4B4B4",
"%. c #B6B6B6",
"&. c #B7B7B7",
"*. c #B8B8B8",
"=. c #B9B9B9",
"-. c #BBBBBB",
";. c #BCBCBC",
":. c #808080",
">. c #BFBFBF",
",. c #C0C0C0",
"<. c #C1C1C1",
"1. c #C2C2C2",
"2. c #C3C3C3",
"3. c #C4C4C4",
"4. c #C5C5C5",
"5. c #C7C7C7",
"6. c #C8C8C8",
"7. c #C9C9C9",
"8. c #CBCBCB",
"9. c #CCCCCC",
"0. c #CDCDCD",
"q. c #CECECE",
"w. c #CFCFCF",
"e. c #D0D0D0",
"r. c #D1D1D1",
"t. c #D2D2D2",
"y. c #D3D3D3",
"u. c #D4D4D4",
"i. c #D5D5D5",
"p. c #D6D6D6",
"a. c #D7D7D7",
"s. c #D9D9D9",
"d. c #DADADA",
"f. c #DBDBDB",
"g. c #DCDCDC",
"h. c #DDDDDD",
"j. c #DEDEDE",
"k. c #DFDFDF",
"l. c #E0E0E0",
"z. c #E1E1E1",
"x. c #E2E2E2",
"c. c #E4E4E4",
"v. c #E6E6E6",
"b. c #E6E6E6",
"n. c #E7E7E7",
"m. c #E8E8E8",
"M. c #E9E9E9",
"N. c #EAEAEA",
"B. c #EBEBEB",
"V. c #ECECEC",
"C. c #EDEDED",
"Z. c #EEEEEE",
"A. c #EFEFEF",
"S. c #F0F0F0",
"D. c #F1F1F1",
"F. c #F2F2F2",
"G. c #F3F3F3",
"H. c #F4F4F4",
"J. c #F5F5F5",
"K. c #F6F6F6",
"L. c #F7F7F7",
"P. c #F8F8F8",
"I. c #F9F9F9",
"U. c #FAFAFA",
"Y. c #FBFBFB",
"T. c #FCFCFC",
"R. c #FDFDFD",
"E. c #FEFEFE",
/* pixels */
"                                                                                                                                                                                                                                                                ",
"                                                                                                                                                                                                                                                                ",
"                                                                                                                                                                                                                                                                ",
"                                                                                                                                                                                                                                                                ",
"                                                                                                                                                                                                                                                                ",
"                                                                                                                                                                                                                                                                ",
"                                                                                                                                                                                                                                                                ",
"                                                                                                                                                                                                                                                                ",
"                                                                                                                                                                                                                                                                ",
"                                                                                                                                                                                                                                                                ",
"                                                                                                                                                                                                                                                                ",
"                                                                                                                                                                                                                                                                ",
"                                                                                                                                                                                                                                                                ",
"                                                                                                                                                                                                                                                                ",
"                                                                                                                                                                                                                                                                ",
"                                                                                                                                                                                                                                                                ",
"                                                                                                                                                                                                                                                                ",
"                                                                                                                                                                                                                                                                ",
"                                                                                                                                                                                                                                                                ",
"                                                                                                                                                                                                                                                                ",
"                                                                                                                                                                                                                                                                ",
"                                                                                                                                                                                                                                                                ",
"                                                                                                                                                                                    @ @ 7 m { ;.m.      V < o d                                                 ",
"                    z O.u.v.v.m.m.m.m.            c v.v.v.v.m.    @ i h.m.v.v.L.                  @ @ Y m.v.v.O.h.m.L.L.                                                        @ @ @ m h.L.L.Y.Y.Y.Y.L.L.0.y F Y.Y.Y.( > 5.v.L.L.                              ",
"                  F v.Y.Y.Y.Y.Y.Y.Y.Y.Y.L.        V Y.Y.Y.Y.Y.L.  * $.Y.Y.Y.Y.Y.                  o o { Y.Y.Y.5.m.Y.Y.L.                                                      * @ @ 7 m.Y.Y.Y.m.O.5.L.L.L.Y.5.F h.h.v.K y m.Y.Y.L.K * @ 4                       ",
"                d v.Y.Y.Y.L.L.L.L.Y.Y.Y.Y.L.      V Y.Y.Y.Y.Y.Y.F d L.Y.Y.Y.Y.Y.F * c O.0.h.v.m.L.V * { Y.Y.Y.;.m.Y.Y.v.z ( u.m.L.K @ < F 5.h.v.m.L.m.O.e 7 u.h.h.$.V u.L.L.  < @ o y L.Y.Y.Y.m.( ( v.v.5.Y i F m.m.m.5.h.L.Y.Y.Y.h.y V u.m.L.L.Y.L.L.L.        ",
"                ( Y.Y.Y.L.        5.Y.Y.Y.L.      V Y.Y.Y.Y.Y.Y.h.u.Y.Y.Y.Y.Y.Y.V { L.Y.Y.v.v.Y.Y.L.Y { Y.Y.Y.;.m.Y.Y.L.m.Y.Y.Y.Y.m.i ;.Y.Y.Y.m.m.Y.Y.Y.h.V m.Y.Y.Y.Y.Y.Y.Y.Y.  @ @ < 0.Y.Y.Y.Y.Y.Y.Y.Y.L.v.F Y Y.Y.Y.u.L.Y.Y.Y.Y.m.O.L.Y.Y.h.{ h.Y.Y.Y.        ",
"                O.Y.Y.Y.L.        Y Y.Y.Y.L.      V Y.Y.Y.L.L.Y.Y.Y.Y.L.L.Y.Y.L.O.m.Y.Y.L.;.5.L.Y.Y.m.0.Y.Y.Y.;.m.Y.Y.Y.5.O.L.Y.Y.L.;.L.Y.Y.v.i e 0.Y.Y.Y.;.m.Y.Y.m.Y h.Y.Y.Y.      @ e O.h.v.v.v.m.Y.Y.Y.Y.m.5.Y.Y.Y.O.c m.Y.Y.m.m 5.Y.Y.Y.m.h.m.L.L.L.L.      ",
"                $.L.Y.Y.Y.0.  7 d u.Y.Y.Y.L.      V Y.Y.Y.0.;.Y.Y.Y.Y.;.h.Y.Y.L.5.L.Y.Y.L.u.u.h.u.u.0.u.Y.Y.Y.;.m.Y.Y.m.e * 5.Y.Y.L.0.L.Y.Y.u.* @ $.Y.Y.Y.5.m.Y.Y.m.7 $.L.L.Y.z o o y ;.;.0.h.$.y z m.Y.Y.Y.L.u.Y.Y.Y.( < v.Y.Y.L.m ;.Y.Y.Y.5.V { u.0.v.m.      ",
"                  L.Y.Y.Y.L.v.h.L.Y.Y.Y.L.L.      V Y.Y.Y.u.d m.Y.Y.v.i 0.Y.Y.L.{ v.Y.Y.m.K K h.h.h.u.0.Y.Y.Y.;.m.Y.Y.v.4 @ ;.Y.Y.L.( v.Y.Y.L.O.( m.Y.Y.L.( m.Y.Y.L.            @ @ e v.Y.Y.Y.L.u.h.L.Y.Y.Y.u.O.Y.Y.Y.( < v.Y.Y.Y.m.{ L.Y.Y.v.;.h.L.L.L.L.      ",
"                    L.Y.Y.Y.Y.Y.Y.Y.Y.L.m.        V Y.Y.Y.L.4 O.Y.Y.;.> u.Y.Y.Y.( $.Y.Y.Y.L.L.Y.Y.Y.{ O.Y.Y.Y.;.m.Y.Y.m.e * ;.Y.Y.Y.F Y L.Y.Y.Y.Y.Y.Y.Y.{ i m.Y.L.L.                @ V m.L.Y.Y.Y.Y.L.L.L.v.d K Y.Y.Y.O.* ;.Y.Y.Y.m.d ( L.L.Y.Y.Y.L.L.L.        ",
"                        L.L.L.L.L.L.L.              Y.Y.Y.      L.L.    u.m.m.m.        L.Y.Y.L.L.                                            m.m.L.                                                                                                            ",
"                                                                                                                                                                                                                                                                ",
"                                                                                                                                                                                                                                                                ",
"                                                                                                                                                                                                                                                                ",
"                                                                                                                                                                                                                                                                ",
"                                                                                                                                                                                                                                                                ",
"                                                                                                                                                                                                                                                                ",
"                                                                                                                                                                                                                                                                ",
"                                                                                                                                                                                                                                                                ",
"                                                                                                                                                                                                                                                                ",
"                                                                                                                                                                                                                                                                ",
"                                                                                                                                                                                                                                                                ",
"                                                                                                                                                                                                                                                                ",
"                                                                                                                                                                                                                                                                ",
"                                                                                                                                                                                                                                                                ",
"                                                                                                                                                                                                                                                                ",
"                                                                                                                                                                                                                                                                ",
"                                                                                                                                                                                                                                                                ",
"                                                                                                                                                                                                                                                                ",
"                                                                                                                                                                                                                                                                ",
"                                                                                                                                                                                                                                                                ",
"                                                                                                                                                                                                                                                                ",
"                                                                                                                                                                                                                                                                "
};
