/* XPM */
static char *oms_031[] = {
/* columns rows colors chars-per-pixel */
"128 54 186 2 ",
"   c #FF00FF",
".  c #060606",
"X  c #0A0A0A",
"o  c #0D0D0D",
"O  c #0F0F0F",
"+  c #101010",
"@  c #111111",
"#  c #121212",
"$  c #131313",
"%  c #141414",
"&  c #161616",
"*  c #171717",
"=  c #181818",
"-  c #1A1A1A",
";  c #1B1B1B",
":  c #1C1C1C",
">  c #1D1D1D",
",  c #1E1E1E",
"<  c #1F1F1F",
"1  c #222222",
"2  c #252525",
"3  c #272727",
"4  c #292929",
"5  c #2A2A2A",
"6  c #2B2B2B",
"7  c #2C2C2C",
"8  c #2D2D2D",
"9  c #2E2E2E",
"0  c #303030",
"q  c #313131",
"w  c #333333",
"e  c #363636",
"r  c #373737",
"t  c #3A3A3A",
"y  c #3B3B3B",
"u  c #3C3C3C",
"i  c #3D3D3D",
"p  c #3E3E3E",
"a  c #3F3F3F",
"s  c #424242",
"d  c #434343",
"f  c #444444",
"g  c #464646",
"h  c #484848",
"j  c #494949",
"k  c #4A4A4A",
"l  c #4B4B4B",
"z  c #4C4C4C",
"x  c #4C4C4C",
"c  c #505050",
"v  c #515151",
"b  c #525252",
"n  c #545454",
"m  c #585858",
"M  c #595959",
"N  c #5B5B5B",
"B  c #5C5C5C",
"V  c #606060",
"C  c #616161",
"Z  c #636363",
"A  c #656565",
"S  c #666666",
"D  c #676767",
"F  c #686868",
"G  c #696969",
"H  c #6D6D6D",
"J  c #6E6E6E",
"K  c #6F6F6F",
"L  c #717171",
"P  c #727272",
"I  c #737373",
"U  c #767676",
"Y  c #787878",
"T  c #7A7A7A",
"R  c #7B7B7B",
"E  c #7C7C7C",
"W  c #808080",
"Q  c #808080",
"!  c #828282",
"~  c #838383",
"^  c #858585",
"/  c #868686",
"(  c #888888",
")  c #8A8A8A",
"_  c #8B8B8B",
"`  c #8C8C8C",
"'  c #8D8D8D",
"]  c #909090",
"[  c #919191",
"{  c #929292",
"}  c #939393",
"|  c #949494",
" . c #959595",
".. c #969696",
"X. c #979797",
"o. c #989898",
"O. c #999999",
"+. c #9A9A9A",
"@. c #9D9D9D",
"#. c #A0A0A0",
"$. c #A1A1A1",
"%. c #A2A2A2",
"&. c #A3A3A3",
"*. c #A4A4A4",
"=. c #A5A5A5",
"-. c #A7A7A7",
";. c #A8A8A8",
":. c #A9A9A9",
">. c #AAAAAA",
",. c #ACACAC",
"<. c #ADADAD",
"1. c #AEAEAE",
"2. c #AFAFAF",
"3. c #B2B2B2",
"4. c #B4B4B4",
"5. c #B6B6B6",
"6. c #B7B7B7",
"7. c #B8B8B8",
"8. c #B9B9B9",
"9. c #BABABA",
"0. c #BBBBBB",
"q. c #BCBCBC",
"w. c #BDBDBD",
"e. c #C0C0C0",
"r. c #C1C1C1",
"t. c #C2C2C2",
"y. c #C3C3C3",
"u. c #C4C4C4",
"i. c #C5C5C5",
"p. c #C6C6C6",
"a. c #C7C7C7",
"s. c #C8C8C8",
"d. c #C9C9C9",
"f. c #CACACA",
"g. c #CBCBCB",
"h. c #CCCCCC",
"j. c #CDCDCD",
"k. c #CECECE",
"l. c #CFCFCF",
"z. c #D0D0D0",
"x. c #D1D1D1",
"c. c #D2D2D2",
"v. c #D3D3D3",
"b. c #D4D4D4",
"n. c #D5D5D5",
"m. c #D6D6D6",
"M. c #D7D7D7",
"N. c #D8D8D8",
"B. c #D9D9D9",
"V. c #DADADA",
"C. c #DBDBDB",
"Z. c #DCDCDC",
"A. c #DDDDDD",
"S. c #DEDEDE",
"D. c #DFDFDF",
"F. c #E0E0E0",
"G. c #E1E1E1",
"H. c #E2E2E2",
"J. c #E3E3E3",
"K. c #E4E4E4",
"L. c #E6E6E6",
"P. c #E6E6E6",
"I. c #E7E7E7",
"U. c #E8E8E8",
"Y. c #E9E9E9",
"T. c #EAEAEA",
"R. c #EBEBEB",
"E. c #ECECEC",
"W. c #EDEDED",
"Q. c #EEEEEE",
"!. c #F0F0F0",
"~. c #F1F1F1",
"^. c #F2F2F2",
"/. c #F3F3F3",
"(. c #F4F4F4",
"). c #F5F5F5",
"_. c #F6F6F6",
"`. c #F7F7F7",
"'. c #F8F8F8",
"]. c #F9F9F9",
"[. c #FAFAFA",
"{. c #FBFBFB",
"}. c #FCFCFC",
"|. c #FDFDFD",
" X c #FEFEFE",
".X c #FFFFF1",
/* pixels */
"                                                                                                                                                                                                                                                                ",
"                                                                                                                                                                                                                                                                ",
"                                                                                                                                                                                                                                                                ",
"                                                                                                                                                                                                                                                                ",
"                                                                                                                                                                                                                                                                ",
"                                                                                                                                                                                                                                                                ",
"                                                                                                                                                                                                                                                                ",
"                                                                                                                                                                                                                                                                ",
"                                                                                                                                                                                                                                                                ",
"                                                                                                                                                                                                                                                                ",
"                                                                                                                                                                                                                                                                ",
"                                                                                                                                                                                                                                                                ",
"                                                                                                                                                                                                                                                                ",
"                                                                                                                                                                                                                                                                ",
"                                                                                                                                                                                                                                                                ",
"                                                                                                                                                                                                                                                                ",
"                                                                                                                                                                                                                                                                ",
"                                                                                                                                                                                                                                                                ",
"                                                                                                                                                                                                                                                                ",
"                                                                                                                                                                                                                                                                ",
"                                                                                                                                                                                                                                                                ",
"                                                                                                                                                                                                                                                                ",
"                                                                                                                                                                              = % % % % 7 F $.e.c.e.e.6.{ x = 2.E.^.h.7 ^                                       ",
"                                                          % % = e         % % % a Z                   % % % % Z $.+.+.Y h.V.^.                                              % % % % % e h.}.}.}.}.}.}.}.}.E.Z e.^.^.h.7 h.}.}.E.                                ",
"                              % % % g ^ 2.h.V.^.^.^.    = % o x c.V.H.E.V.g o 1 e.E.^.^.^.            % % % % $.}.}.^.w.}.}.}.                                = 1 1       F e % % % o Y }.}.}.^.+._ V.E.H.H.{ $.c.c.w._ H.}.}.^.{ 1 Z 6.V.^.}.^.^.              ",
"                            % % = { E.}.}.}.}.}.}.}.}.w.= % o N }.}.}.}.}.$.% I ^.}.}.}.^.F o = g   { c a = o $.}.}.^.6.^.}.}.I c 2.$.^ 7 % 7 Y w.c.c.h.w._ 7 N e.h.h.^ w.E.E.+.= % o Y }.}.}.^.c.w.V.V.h._ a e.}.}.H.E.}.}.}.}.H.{ ^.}.^.c.V.}.}.}.            ",
"                          = % % I }.}.}.}.E.H.^.}.}.}.E.a % o N ^.}.}.}.}.H.c h.}.}.}.}.^.Z x 6.H.^.^.^.E.e.x $.}.}.^.6.^.}.^.h.E.}.}.}.6.a e.}.}.}.}.}.}.}.e.{ }.}.}.^.}.}.}.^.c o % g H.}.}.}.}.}.}.}.}.^.$.c.}.}.V.w.^.}.}.^.6.H.}.}.^.e.c.}.}.}.^.          ",
"                          % % = w.}.}.}.c.a 7 N V.}.}.}.F o o N ^.}.}.}.}.}.V.^.}.}.}.}.^.^ V.}.}.V.2.H.}.}.h.w.}.}.^.6.^.}.}.^.H.^.}.}.H.2.}.}.}.$.c e.}.}.^.h.}.}.}.w.6.}.}.}.Y o % = N 2.h.H.e.h.^.}.}.}.H.H.}.}.c.e c.}.}.H.x V.}.}.E.6.6.c.V.H.            ",
"                          = % 1 c.}.}.}.Y o % % 2.}.}.}.Y o o N ^.}.}.^.^.}.}.}.^.E.}.}.^.6.^.}.}.H.h.E.^.^.E.V.}.}.^.6.^.}.}.{ 7 e.}.}.E.h.}.}.^.c . _ }.}.^.c.^.}.}.+.F H.w.w.x % % ^ V.V.H.H.F N H.}.}.}.V.V.}.}.h.e c.}.}.^.h.V.}.}.E.{ 2.E.E.^.^.          ",
"                          = % = h.}.}.}._ = = g V.}.}.}.Z o o N ^.}.}.e.c.}.}.}.h.2.}.}.^.w.^.}.}.e._ w.h.c.h.c.}.}.^.6.^.}.}.Z o $.}.}.H.6.}.}.}.6.I c.}.}.E.w.}.}.}.      e = % % % Z ^.}.}.}.^.^.}.}.}.^._ h.}.}.c.7 6.}.}.}.V.Y H.}.}.}.}.}.}.^.            ",
"                            % % $.}.}.}.^.h.e.H.}.}.}.H.e % o N ^.}.}.+.Y }.}.}.I { }.}.^.{ H.}.}.V.2.H.^.}.V.e.}.}.^.6.}.}.}.F % 2.}.}.H.Z c.}.}.}.}.}.}.^.{ ^ }.}.^.                = $.^.^.^.^.^.^.^.^.  e h.}.}.H.    ^.E.^.        ^.E.E.                  ",
"                              % g V.}.}.}.}.}.}.}.}.^.h.= % o N ^.}.}.$.7 V.}.V.7 +.}.}.^.Y +.^.^.}.}.}.}.^.I 2.}.}.^.6.^.}.^.{   2.}.}.^.      ^.}.}.^.^.                                                                                                      ",
"                                    ^.}.^.^.^.^.^.^.            ^.}.^.                                                                                                                                                                                          ",
"                                                                                                                                                                                                                                                                ",
"                                                                                                                                                                                                                                                                ",
"                                                                                                                                                                                                                                                                ",
"                                                                                                                                                                                                                                                                ",
"                                                                                                                                                                                                                                                                ",
"                                                                                                                                                                                                                                                                ",
"                                                                                                                                                                                                                                                                ",
"                                                                                                                                                                                                                                                                ",
"                                                                                                                                                                                                                                                                ",
"                                                                                                                                                                                                                                                                ",
"                                                                                                                                                                                                                                                                ",
"                                                                                                                                                                                                                                                                ",
"                                                                                                                                                                                                                                                                ",
"                                                                                                                                                                                                                                                                ",
"                                                                                                                                                                                                                                                                ",
"                                                                                                                                                                                                                                                                ",
"                                                                                                                                                                                                                                                                ",
"                                                                                                                                                                                                                                                                ",
"                                                                                                                                                                                                                                                                ",
"                                                                                                                                                                                                                                                                ",
"                                                                                                                                                                                                                                                                "
};
