/* XPM */
static char *oms_165[] = {
/* columns rows colors chars-per-pixel */
"128 54 208 2 ",
"   c #FF00FF",
".  c #0D0D0D",
"X  c #0E0E0E",
"o  c #0F0F0F",
"O  c #101010",
"+  c #111111",
"@  c #121212",
"#  c #131313",
"$  c #141414",
"%  c #151515",
"&  c #161616",
"*  c #171717",
"=  c #181818",
"-  c #191919",
";  c #1A1A1A",
":  c #1B1B1B",
">  c #1C1C1C",
",  c #1D1D1D",
"<  c #1E1E1E",
"1  c #1F1F1F",
"2  c #202020",
"3  c #212121",
"4  c #222222",
"5  c #232323",
"6  c #242424",
"7  c #252525",
"8  c #262626",
"9  c #272727",
"0  c #282828",
"q  c #292929",
"w  c #2A2A2A",
"e  c #2B2B2B",
"r  c #2C2C2C",
"t  c #2D2D2D",
"y  c #2F2F2F",
"u  c #303030",
"i  c #313131",
"p  c #323232",
"a  c #333333",
"s  c #343434",
"d  c #353535",
"f  c #363636",
"g  c #373737",
"h  c #383838",
"j  c #393939",
"k  c #3A3A3A",
"l  c #3B3B3B",
"z  c #3C3C3C",
"x  c #3D3D3D",
"c  c #3E3E3E",
"v  c #3F3F3F",
"b  c #404040",
"n  c #414141",
"m  c #424242",
"M  c #434343",
"N  c #444444",
"B  c #454545",
"V  c #464646",
"C  c #474747",
"Z  c #484848",
"A  c #494949",
"S  c #4A4A4A",
"D  c #4C4C4C",
"F  c #4C4C4C",
"G  c #4E4E4E",
"H  c #4F4F4F",
"J  c #505050",
"K  c #515151",
"L  c #535353",
"P  c #545454",
"I  c #555555",
"U  c #565656",
"Y  c #585858",
"T  c #595959",
"R  c #5A5A5A",
"E  c #5B5B5B",
"W  c #5C5C5C",
"Q  c #5D5D5D",
"!  c #5E5E5E",
"~  c #646464",
"^  c #656565",
"/  c #666666",
"(  c #676767",
")  c #696969",
"_  c #6B6B6B",
"`  c #6C6C6C",
"'  c #6E6E6E",
"]  c #6F6F6F",
"[  c #707070",
"{  c #717171",
"}  c #727272",
"|  c #737373",
" . c #747474",
".. c #777777",
"X. c #787878",
"o. c #797979",
"O. c #7A7A7A",
"+. c #7B7B7B",
"@. c #7C7C7C",
"#. c #7D7D7D",
"$. c #7E7E7E",
"%. c #808080",
"&. c #818181",
"*. c #828282",
"=. c #838383",
"-. c #858585",
";. c #868686",
":. c #878787",
">. c #888888",
",. c #898989",
"<. c #8A8A8A",
"1. c #8D8D8D",
"2. c #8E8E8E",
"3. c #919191",
"4. c #929292",
"5. c #939393",
"6. c #949494",
"7. c #959595",
"8. c #969696",
"9. c #979797",
"0. c #989898",
"q. c #999999",
"w. c #9B9B9B",
"e. c #9C9C9C",
"r. c #9D9D9D",
"t. c #9E9E9E",
"y. c #A0A0A0",
"u. c #A2A2A2",
"i. c #A3A3A3",
"p. c #A4A4A4",
"a. c #A5A5A5",
"s. c #A6A6A6",
"d. c #A8A8A8",
"f. c #A9A9A9",
"g. c #AAAAAA",
"h. c #ABABAB",
"j. c #ACACAC",
"k. c #ADADAD",
"l. c #B0B0B0",
"z. c #B5B5B5",
"x. c #B6B6B6",
"c. c #B7B7B7",
"v. c #B8B8B8",
"b. c #B9B9B9",
"n. c #BABABA",
"m. c #BCBCBC",
"M. c #BDBDBD",
"N. c #808080",
"B. c #C0C0C0",
"V. c #C2C2C2",
"C. c #C5C5C5",
"Z. c #C6C6C6",
"A. c #C7C7C7",
"S. c #C8C8C8",
"D. c #C9C9C9",
"F. c #CACACA",
"G. c #CBCBCB",
"H. c #CCCCCC",
"J. c #CDCDCD",
"K. c #CECECE",
"L. c #CFCFCF",
"P. c #D0D0D0",
"I. c #D1D1D1",
"U. c #D2D2D2",
"Y. c #D3D3D3",
"T. c #D4D4D4",
"R. c #D5D5D5",
"E. c #D6D6D6",
"W. c #D7D7D7",
"Q. c #D8D8D8",
"!. c #DADADA",
"~. c #DBDBDB",
"^. c #DCDCDC",
"/. c #DDDDDD",
"(. c #DEDEDE",
"). c #DFDFDF",
"_. c #E0E0E0",
"`. c #E1E1E1",
"'. c #E2E2E2",
"]. c #E3E3E3",
"[. c #E4E4E4",
"{. c #E6E6E6",
"}. c #E6E6E6",
"|. c #E7E7E7",
" X c #E8E8E8",
".X c #E9E9E9",
"XX c #EAEAEA",
"oX c #EBEBEB",
"OX c #ECECEC",
"+X c #EDEDED",
"@X c #EEEEEE",
"#X c #EFEFEF",
"$X c #F0F0F0",
"%X c #F1F1F1",
"&X c #F2F2F2",
"*X c #F3F3F3",
"=X c #F4F4F4",
"-X c #F5F5F5",
";X c #F6F6F6",
":X c #F7F7F7",
">X c #F8F8F8",
",X c #F9F9F9",
"<X c #FAFAFA",
"1X c #FBFBFB",
"2X c #FCFCFC",
"3X c #FDFDFD",
"4X c #FEFEFE",
"5X c #FFFFF1",
/* pixels */
"                                                                                                                                                                                                                                                                ",
"                                                                                                                                                                                                                                                                ",
"                                                                                                                                                                                                                                                                ",
"                                                                                                                                                                                                                                                                ",
"                                                                                                                                                                                                                                                                ",
"                                                                                                                                                                                                                                                                ",
"                                                                                                                                                                                                                                                                ",
"                                                                                                                                                                                                                                                                ",
"                                                                                                                                                                                                                                                                ",
"                                                                                                                                                                                                                                                                ",
"                                                                                                                                                                                                                                                                ",
"                                                                                                                                                                                                                                                                ",
"                                                                                                                                                                                                                                                                ",
"                                                                                                                                                                                                                                                                ",
"                                                                                                                                                                                                                                                                ",
"                                            w C C P     l C Z                                                                                                                                                                                                   ",
"                        w w 9 w u C !       # # # ;   # # # # P   9 9 ; 9 w u l C                                                                                                                                                                               ",
"                      # # # # # # # # u C o # # # # # # # # # w # # # # # # # # # ; u                                                                                                                                                                           ",
"                      o # o o # # # # # C Z u w # l Z l w ; # # # # # o o # # # # # # C                                                                                                                                                                         ",
"                    C [ *.*.[ P u # # ; z.;XOXR.u r.;XOX).Z w [ 5.r.1.X.( Z w # # # # w           C                                                                                                                                                             ",
"                    }.>X>X;X;X;X}.r.u 1.}.>X>X;X_ r.).}.)._ L.>X>X>X>X>X>X;X).y.l # #         # # # # w 9 9 w u           !                       # ; 9 w l u l P P                                                                                             ",
"                  >X>X>X>XZ.g.OX>X>XM.).>X>X>X>X;X).OX}.R.[ g.L.}.OXL.5.R.>X>X>XL.9 9         # # # # # # # # # l ; # # # # ; 9 u !             # # # # # # # # # ;                                                                                             ",
"                    ).}.}.R.R.;X>X>XOX5.).>X>X;X).).>X>X;X( 1.L.}.OXR.g.).>X>X>X;XC ; l     C u # # # # o # # # # # # # # # # # # # C   # # ; ; # # # o # o # # # ;                     # # ; 9 9 u X.                                                          ",
"                    ;X;XOXy.*.}.>X>XOXX.L.>X>XOXP M.>X>X;XM.>X>X>X>X>X>X>X>X>X>X).w # ;   OXOX}.r.[ y.5.X.u # 9 u u u 9 # # # # # # # # # 9 g.z.y.X.! ( P l ; # # ;     9 9 w w l Z   # # # # # # # l     # # ; ; 9 w _                                         ",
"                    ;X>X>X>X;X>X>X>X;X;X>X>X>XOX  OX>X>X;XR.>X>X>X>XL.y.L.).R.g.Z # #     >X>X>X>XOX>X>X>XX.X.R.OXOX}.R.M.*.u # # u C u ; w ).>X>X}.L.>X;X}.C # # # w # # # # # ; w ; # # # # # # # # w # # # # # # # !           ; ; ; 9 9 w l !               ",
"                          ;X;X;X;X    ;X>X>X>X;X  ;X>X>X;Xy.;X>X>X>XM.[ M.OX).Z.g.Z     ;X>X>X;Xz.OX>X>X>XM.;X>X>X;X).OX>X>XR.C [ }.OX}.M._ ).>X>X).Z.>X>X;XC o # # # # o # # # X.).L.M.y._ # # # u u 9 ; # # # # # # !       # # # # # # # # # # 9 (           ",
"                                                    ;X;X;X    ;X>X>X>X>X>X>X>X>X;X            OX    >X>X;X).;X>X>Xg.9 ( ;X>X>XZ.R.>X>X>X>X;X;X>X>X).Z.>X>X;XZ l 1.y.y.5.[ Z ; o *.>X>X>X>X}.l o Z }.}.).L.M.! # # # # !   w 9 9 ; # # # # # # # # # ; [         ",
"                                                                    ;X;X>X;X;X;X                    >X>X>XM.OX>X>XM.w P OX>X>XOXOX>X>X;X1.5.;X>X>X).Z.>X>X;X1.}.>X>X;XOX>X;XZ.C *.>X>X>X>X>Xr.; z.>X>X>X>X>X1.# # # ; r.).R.).R.Z.g.X.C # # # # # # # u         ",
"                                                                                                    >X>X>X5.R.>X>X>XR.}.>X>X>X}.OX>X>X}.w w }.>X>X).Z.>X>X;XR.;X>X>XR.g.OX>X>XL.r.>X>X>X>X>XOXr.;X>X>X>X>X>X1.# # # 5.;X>X>X>X>X>X>X>XOXy.w # # # # # w         ",
"                                                                                                                ;X;X>X>X>X;X;X  ;X>X>X}.u   ;X>X>X).Z.>X>X;XZ.).}.).L.Z.OX>X>X;XZ.>X>X>X;X>X>X>X>X>X>X>X>X>X1.# # u }.>X>X>X}.M.Z.OX>X>X>XM.9 # # # # w         ",
"                                                                                                                                    ;XOX    ;X>X>X).L.>X>X;Xz.;X;X;XM.*.).>X>XOXZ.>X>X>XZ.).>X>X>X;X}.>X>X>X*.# # C OX>X>XOXP # ; P }.>X>X;X! # # # # u         ",
"                                                                                                                                                      ;X;X;X    ;X>X>X>X>X>X>X}.R.>X>X>X5.*.>X>X>Xg.y.>X>X>X1.# # l OX>X>XOXC o o # M.>X>X>X*.# # # #           ",
"                                                                                                                                                                      ;X;X;X      >X;X>Xy.  ;X>XOXP M.>X>X>X*.o #   ;X>X>X>XR.[ P *.OX>X>X>XX.o #               ",
"                                                                                                                                                                                              ;X      ;X;X>X5.        ;X>X>X>X>X;X>X>X>X>XOXP                   ",
"                                                                                                                                                                                                                          ;X>X>X>X>X>X>X;X                      ",
"                                                                                                                                                                                                                                                                ",
"                                                                                                                                                                                                                                                                ",
"                                                                                                                                                                                                                                                                ",
"                                                                                                                                                                                                                                                                ",
"                                                                                                                                                                                                                                                                ",
"                                                                                                                                                                                                                                                                ",
"                                                                                                                                                                                                                                                                ",
"                                                                                                                                                                                                                                                                ",
"                                                                                                                                                                                                                                                                ",
"                                                                                                                                                                                                                                                                ",
"                                                                                                                                                                                                                                                                ",
"                                                                                                                                                                                                                                                                ",
"                                                                                                                                                                                                                                                                ",
"                                                                                                                                                                                                                                                                ",
"                                                                                                                                                                                                                                                                ",
"                                                                                                                                                                                                                                                                ",
"                                                                                                                                                                                                                                                                ",
"                                                                                                                                                                                                                                                                ",
"                                                                                                                                                                                                                                                                "
};
