/* XPM */
static char *oms_311[] = {
/* columns rows colors chars-per-pixel */
"128 54 186 2 ",
"   c #FF00FF",
".  c #0C0C0C",
"X  c #0D0D0D",
"o  c #0E0E0E",
"O  c #0F0F0F",
"+  c #101010",
"@  c #111111",
"#  c #121212",
"$  c #131313",
"%  c #141414",
"&  c #151515",
"*  c #161616",
"=  c #171717",
"-  c #181818",
";  c #191919",
":  c #1A1A1A",
">  c #1B1B1B",
",  c #1C1C1C",
"<  c #1D1D1D",
"1  c #1E1E1E",
"2  c #1F1F1F",
"3  c #202020",
"4  c #212121",
"5  c #222222",
"6  c #242424",
"7  c #252525",
"8  c #272727",
"9  c #282828",
"0  c #292929",
"q  c #2A2A2A",
"w  c #2B2B2B",
"e  c #2C2C2C",
"r  c #2D2D2D",
"t  c #2F2F2F",
"y  c #303030",
"u  c #323232",
"i  c #343434",
"p  c #373737",
"a  c #3A3A3A",
"s  c #3B3B3B",
"d  c #3D3D3D",
"f  c #3E3E3E",
"g  c #414141",
"h  c #424242",
"j  c #454545",
"k  c #464646",
"l  c #494949",
"z  c #4A4A4A",
"x  c #4B4B4B",
"c  c #4E4E4E",
"v  c #515151",
"b  c #535353",
"n  c #565656",
"m  c #575757",
"M  c #5A5A5A",
"N  c #5B5B5B",
"B  c #5C5C5C",
"V  c #5D5D5D",
"C  c #5E5E5E",
"Z  c #5F5F5F",
"A  c #606060",
"S  c #616161",
"D  c #626262",
"F  c #636363",
"G  c #656565",
"H  c #666666",
"J  c #676767",
"K  c #686868",
"L  c #696969",
"P  c #6A6A6A",
"I  c #6C6C6C",
"U  c #6E6E6E",
"Y  c #707070",
"T  c #717171",
"R  c #727272",
"E  c #737373",
"W  c #747474",
"Q  c #757575",
"!  c #767676",
"~  c #787878",
"^  c #797979",
"/  c #7D7D7D",
"(  c #7E7E7E",
")  c #808080",
"_  c #838383",
"`  c #868686",
"'  c #888888",
"]  c #8A8A8A",
"[  c #8C8C8C",
"{  c #8D8D8D",
"}  c #8E8E8E",
"|  c #929292",
" . c #939393",
".. c #969696",
"X. c #999999",
"o. c #9B9B9B",
"O. c #9C9C9C",
"+. c #9D9D9D",
"@. c #9F9F9F",
"#. c #A0A0A0",
"$. c #A2A2A2",
"%. c #A3A3A3",
"&. c #A4A4A4",
"*. c #A7A7A7",
"=. c #A8A8A8",
"-. c #A9A9A9",
";. c #ABABAB",
":. c #ACACAC",
">. c #ADADAD",
",. c #AEAEAE",
"<. c #B0B0B0",
"1. c #B1B1B1",
"2. c #B2B2B2",
"3. c #B2B2B2",
"4. c #B4B4B4",
"5. c #B5B5B5",
"6. c #B7B7B7",
"7. c #B8B8B8",
"8. c #B9B9B9",
"9. c #BBBBBB",
"0. c #BCBCBC",
"q. c #BDBDBD",
"w. c #808080",
"e. c #BFBFBF",
"r. c #C0C0C0",
"t. c #C3C3C3",
"y. c #C4C4C4",
"u. c #C5C5C5",
"i. c #C6C6C6",
"p. c #C7C7C7",
"a. c #C8C8C8",
"s. c #C9C9C9",
"d. c #CACACA",
"f. c #CBCBCB",
"g. c #CCCCCC",
"h. c #CDCDCD",
"j. c #CECECE",
"k. c #CFCFCF",
"l. c #D0D0D0",
"z. c #D1D1D1",
"x. c #D2D2D2",
"c. c #D3D3D3",
"v. c #D4D4D4",
"b. c #D5D5D5",
"n. c #D6D6D6",
"m. c #D7D7D7",
"M. c #D8D8D8",
"N. c #D9D9D9",
"B. c #DADADA",
"V. c #DBDBDB",
"C. c #DCDCDC",
"Z. c #DDDDDD",
"A. c #DEDEDE",
"S. c #DFDFDF",
"D. c #E0E0E0",
"F. c #E1E1E1",
"G. c #E2E2E2",
"H. c #E3E3E3",
"J. c #E4E4E4",
"K. c #E6E6E6",
"L. c #E6E6E6",
"P. c #E7E7E7",
"I. c #E8E8E8",
"U. c #E9E9E9",
"Y. c #EAEAEA",
"T. c #EBEBEB",
"R. c #ECECEC",
"E. c #EDEDED",
"W. c #EEEEEE",
"Q. c #EFEFEF",
"!. c #F0F0F0",
"~. c #F1F1F1",
"^. c #F2F2F2",
"/. c #F3F3F3",
"(. c #F4F4F4",
"). c #F5F5F5",
"_. c #F6F6F6",
"`. c #F7F7F7",
"'. c #F8F8F8",
"]. c #F9F9F9",
"[. c #FAFAFA",
"{. c #FBFBFB",
"}. c #FCFCFC",
"|. c #FDFDFD",
" X c #FEFEFE",
".X c #FFFFF1",
/* pixels */
"                                                                                                                                                                                                                                                                ",
"                                                                                                                                                                                                                                                                ",
"                                                                                                                                                                                                                                                                ",
"                                                                                                                                                                                                                                                                ",
"                                                                                                                                                                                                                                                                ",
"                                                                                                                                                                                                                                                                ",
"                                                                                                                                                                                                                                                                ",
"                                                                                                                                                                                                                                                                ",
"                                                                                                                                                                                                                                                                ",
"                                                                                                                                                                                                                                                                ",
"                                                                                                                                                                                                                                                                ",
"                                                                                                                                                                                                                                                                ",
"                                                                                                                                                                                                                                                                ",
"                                                                                                                                                                                                                                                                ",
"                                                                                                                                                                                                                                                                ",
"                                                                                                                                                                                                                                                                ",
"                                                                                                                                                                                                                                                                ",
"                                                                                                                                                                                                                                                                ",
"                                                        & & & >                                                                                                                                                                                                 ",
"                                      `.`.`.l._ 8 & & & 8 > & & & > j                                                                                                                                                                                           ",
"                                    [.[.[.[.[.[.7.8 & > 3.k.3.) > & d y 8 > & & & 8 t & & 8 8                                                                                                                                                                   ",
"                                  [.[.[.L.k.Q.[.[.) & > l.[.[.Q.d t C.Q.C.] & & & & & & & > > R                                                                                                                                                                 ",
"                                  `.[.`.A > R `.[.7.& > l.[.[.[.R L [.[.[.3.& . . & & & c k.3._ ] L t & & & & & & & & )                                                                                                                                         ",
"                                  `.[.Q.d . t L.[.k.> > l.[.[.[.7.7.[.[.[.,.& j n j 8 . V [.[.p.`.`.V . & & & & & & & )                                                                                                                                         ",
"                                  [.[.[.| 8 A `.[.k.> > l.[.[.[.`.`.[.[.[.3.] Q.`.`.k.A V [.`.7.`.`.V . & & & & . & . j t 8                                                                                                                                     ",
"                                    [.[.`.C.Q.[.[.3.& > l.[.Q.Q.[.[.`.[.[.l.L.[.C.p.[.L.| `.`.7.`.`.| *.3.V & > d j y > . & > > & & & > j         p.| c > & & & & & & > d                                                                                       ",
"                                      [.[.[.[.[.`.A & > l.[.C.,.[.[.p.Q.[.L.Q.[.Q.l.`.[.C.`.`.7.`.[.`.[.[.C.c ,.Q.`.L.7.c y L c 8 t 8 & & > 7.[.[.[.`.Q.*.y ] O.A & & & & & & & t d                                                                             ",
"                                        `.`.`.`.*.> &   L.[.l.L `.Q.R Q.[.C.Q.[.k.O.l.C.L.[.`.7.`.[.p.k.[.`.3.`.[.Q.Q.[.C.| [.`.7.C.k.j . t L.[.`.p.C.[.[.O.k.[.7.n ,.] y & & & & & & > |                                                                       ",
"                                                          [.l.j Q.k.c Q.[.7.7.[.L.7.Q.L.C.[.`.7.`.[.A L [.`.l.[.`.L R `.`.l.`.[.[.[.[.O.& t C.[.`.,.,.C.k.O.,.C.*._ [.[.V . & . . & & & c                                                                       ",
"                                                                        [.,.R [.[.[.[.Q.,.`.`.7.`.`.V V [.`.k.[.`.n c `.[.[.[.[.*.C.[.7.> & | [.[.[.[.`.k.V p.`.l.C.[.[.,.8 c L V y & & & & & & & 8 A                                                           ",
"                                                                                          [.`.p.`.`.V A [.`.O.L.[.k.k.[.[.C.[.`.A ] l.,.& > n ,.C.L.`.[.[.p.l.[.L.Q.[.[.L.O.Q.[.[.L.| > & & & & & & t                                                           ",
"                                                                                                        `.`.R 7.[.[.[.[.C.O.[.`.V & 8 8 & y C.L.C.L O.[.[.Q.L.[.p.*.[.`.k.L.[.L.3.`.[.L . & & & & & & )                                                         ",
"                                                                                                                    Q.Q.    [.`.A . &       `.[.[.C.C.[.[.L.L.[.3.R [.`.) l.[.`.C.`.[.,.& & & & & & &                                                           ",
"                                                                                                                                              `.[.[.[.[.[.,.l.[.7.R [.[.l.L.[.l.] p.C.*.& & & & & & > )                                                         ",
"                                                                                                                                                    `.`.    L.[.7.V `.[.L.3.[.`.k.Q.`.*.& & & & & & y                                                           ",
"                                                                                                                                                                            `.[.[.[.`.R . & &                                                                   ",
"                                                                                                                                                                                                                                                                ",
"                                                                                                                                                                                                                                                                ",
"                                                                                                                                                                                                                                                                ",
"                                                                                                                                                                                                                                                                ",
"                                                                                                                                                                                                                                                                ",
"                                                                                                                                                                                                                                                                ",
"                                                                                                                                                                                                                                                                ",
"                                                                                                                                                                                                                                                                ",
"                                                                                                                                                                                                                                                                ",
"                                                                                                                                                                                                                                                                ",
"                                                                                                                                                                                                                                                                ",
"                                                                                                                                                                                                                                                                ",
"                                                                                                                                                                                                                                                                ",
"                                                                                                                                                                                                                                                                ",
"                                                                                                                                                                                                                                                                ",
"                                                                                                                                                                                                                                                                ",
"                                                                                                                                                                                                                                                                ",
"                                                                                                                                                                                                                                                                "
};
