/* XPM */
static char *oms_161[] = {
/* columns rows colors chars-per-pixel */
"128 54 191 2 ",
"   c #FF00FF",
".  c #0C0C0C",
"X  c #0D0D0D",
"o  c #0E0E0E",
"O  c #0F0F0F",
"+  c #101010",
"@  c #111111",
"#  c #121212",
"$  c #131313",
"%  c #141414",
"&  c #151515",
"*  c #161616",
"=  c #171717",
"-  c #181818",
";  c #191919",
":  c #1A1A1A",
">  c #1B1B1B",
",  c #1C1C1C",
"<  c #1D1D1D",
"1  c #1E1E1E",
"2  c #1F1F1F",
"3  c #202020",
"4  c #212121",
"5  c #222222",
"6  c #232323",
"7  c #242424",
"8  c #252525",
"9  c #262626",
"0  c #272727",
"q  c #282828",
"w  c #292929",
"e  c #2A2A2A",
"r  c #2D2D2D",
"t  c #2E2E2E",
"y  c #2F2F2F",
"u  c #303030",
"i  c #313131",
"p  c #323232",
"a  c #333333",
"s  c #353535",
"d  c #373737",
"f  c #383838",
"g  c #393939",
"h  c #3A3A3A",
"j  c #3D3D3D",
"k  c #3E3E3E",
"l  c #3F3F3F",
"z  c #404040",
"x  c #414141",
"c  c #424242",
"v  c #434343",
"b  c #444444",
"n  c #454545",
"m  c #464646",
"M  c #474747",
"N  c #484848",
"B  c #4A4A4A",
"V  c #4B4B4B",
"C  c #4C4C4C",
"Z  c #4C4C4C",
"A  c #4E4E4E",
"S  c #505050",
"D  c #515151",
"F  c #525252",
"G  c #535353",
"H  c #555555",
"J  c #565656",
"K  c #575757",
"L  c #585858",
"P  c #595959",
"I  c #5B5B5B",
"U  c #5C5C5C",
"Y  c #5D5D5D",
"T  c #5F5F5F",
"R  c #606060",
"E  c #616161",
"W  c #626262",
"Q  c #636363",
"!  c #646464",
"~  c #656565",
"^  c #676767",
"/  c #686868",
"(  c #6B6B6B",
")  c #6C6C6C",
"_  c #6D6D6D",
"`  c #6E6E6E",
"'  c #707070",
"]  c #717171",
"[  c #727272",
"{  c #737373",
"}  c #747474",
"|  c #767676",
" . c #777777",
".. c #787878",
"X. c #797979",
"o. c #7A7A7A",
"O. c #7B7B7B",
"+. c #7E7E7E",
"@. c #808080",
"#. c #808080",
"$. c #838383",
"%. c #858585",
"&. c #8B8B8B",
"*. c #8E8E8E",
"=. c #8F8F8F",
"-. c #919191",
";. c #929292",
":. c #939393",
">. c #959595",
",. c #979797",
"<. c #999999",
"1. c #9B9B9B",
"2. c #9E9E9E",
"3. c #9F9F9F",
"4. c #A2A2A2",
"5. c #A3A3A3",
"6. c #A4A4A4",
"7. c #A7A7A7",
"8. c #A9A9A9",
"9. c #AFAFAF",
"0. c #B0B0B0",
"q. c #B2B2B2",
"w. c #B2B2B2",
"e. c #B4B4B4",
"r. c #B5B5B5",
"t. c #B8B8B8",
"y. c #B9B9B9",
"u. c #BABABA",
"i. c #BBBBBB",
"p. c #BCBCBC",
"a. c #BDBDBD",
"s. c #C0C0C0",
"d. c #C2C2C2",
"f. c #C3C3C3",
"g. c #C4C4C4",
"h. c #C5C5C5",
"j. c #C6C6C6",
"k. c #C7C7C7",
"l. c #C8C8C8",
"z. c #C9C9C9",
"x. c #CCCCCC",
"c. c #CDCDCD",
"v. c #CECECE",
"b. c #CFCFCF",
"n. c #D0D0D0",
"m. c #D2D2D2",
"M. c #D3D3D3",
"N. c #D4D4D4",
"B. c #D5D5D5",
"V. c #D6D6D6",
"C. c #D7D7D7",
"Z. c #D8D8D8",
"A. c #D9D9D9",
"S. c #DADADA",
"D. c #DBDBDB",
"F. c #DCDCDC",
"G. c #DDDDDD",
"H. c #DEDEDE",
"J. c #DFDFDF",
"K. c #E0E0E0",
"L. c #E1E1E1",
"P. c #E2E2E2",
"I. c #E3E3E3",
"U. c #E4E4E4",
"Y. c #E6E6E6",
"T. c #E6E6E6",
"R. c #E7E7E7",
"E. c #E8E8E8",
"W. c #E9E9E9",
"Q. c #EAEAEA",
"!. c #EBEBEB",
"~. c #ECECEC",
"^. c #EDEDED",
"/. c #EEEEEE",
"(. c #EFEFEF",
"). c #F0F0F0",
"_. c #F1F1F1",
"`. c #F2F2F2",
"'. c #F3F3F3",
"]. c #F4F4F4",
"[. c #F5F5F5",
"{. c #F6F6F6",
"}. c #F7F7F7",
"|. c #F8F8F8",
" X c #F9F9F9",
".X c #FAFAFA",
"XX c #FBFBFB",
"oX c #FCFCFC",
"OX c #FDFDFD",
"+X c #FEFEFE",
"@X c #FFFFF1",
/* pixels */
"                                                                                                                                                                                                                                                                ",
"                                                                                                                                                                                                                                                                ",
"                                                                                                                                                                                                                                                                ",
"                                                                                                                                                                                                                                                                ",
"                                                                                                                                                                                                                                                                ",
"                                                                                                                                                                                                                                                                ",
"                                                                                                                                                                                                                                                                ",
"                                                                                                                                                                                                                                                                ",
"                                                                                                                                                                                                                                                                ",
"                                                                                                                                                                                                                                                                ",
"                                                                                                                                                                                                                                                                ",
"                                                                                                                                                                                                                                                                ",
"                                                                                                                                                                                                                                                                ",
"                                                                                                                                                                                                                                                                ",
"                                                  W                                                                                                                                                                                                             ",
"                            w w w w z F       & & & < w   & < < w       z z T                                                                                                                                                                                   ",
"                          & & & & & & & < z w & & & & & & & & & <   & & & & & < < 3 k W                                                                                                                                                                         ",
"                          O O O & & & & & w i 3 & & 3 3 < & & & & & & & & & & & & & & & z                                                                                                                                                                       ",
"                        ` $.$.} F w & & & 2.U.N.p.i ,.H.d.5.w < i z z i w < & O & & & & <                                                                                                                                                                       ",
"                      }.}. X X}.}.U.2.i T N. X X}.T 2./.}./.T 8./.}.}.U.H.d.5.` w & & & <           w z                                                                                                                                                         ",
"                       X X XH.5.H. X Xp.r. X X X}.U.N.H.H.x.$.U./.}. X/.U. X X Xx.z & & &       & & & & < < < 3 w `       F `                       3 k k F                                                                                                     ",
"                      U.H.U.H.N./. X X}.5.H. X X X}.}. X X}.F } p.N.U.,.O.U. X X X5.& 3       O & & & & & & & & & k 3 & & & < < 3 k O.            & & & & & & & < 3 W                                                                                           ",
"                      }.}./.p.} x. X X}.` r. X X}.} p. X X}.8./.}. X}.}.}. X X X Xp.& & < $.5.} z < 3 < & & & & O & & & & & & & & & < W   & < < & & & & & & & & & & F                     k Z W                                                                 ",
"                         X X X}.}. X X}.H.}. X X/.z r. X X}.H. X X X X/./.}.}.}.U.W & & 3 U. X X/.5.x.d.r.W & i Z Z z w < & & & & & & & & w 5.,.O.Z k i 3 < & & & & F                   & & & & < 3 `       z W                                                 ",
"                              }.}.}.}.  }. X X X/.  }. X X}.d.}. X X}.$.T d.N.8.} i & &    X X X}./. X X Xr.O.U.}.}.}.U.d.*.i & & w k w & k }. X Xp.N./.H.5.< & & & z w & & & < < w < O & & & & & & i   O & & & < < w                                           ",
"                                                      }. X}.*./.}. X XU.N.}. X}.}.d.      }.}. Xx.8. X X XN./. X X}.x.U. X XH.Z } U./.H.2.W /. X Xp.H. X Xx.< & & O & & & & & w O.` F k w & & & & O & & & & & & & & <           & < < 3 w i z W                 ",
"                                                                  }.}. X X X X X X                  }. X XH./. X Xx.3 Z /. X Xd.N. X X X X/.}. X Xp.N. X Xx.< i F T Z i 3 & O z /. X}./.x.i & < ` } F z w < & & & & <       & & & & & & & & & & w W             ",
"                                                                                                    }. X Xd.N. X XH.z Z /. X X/.}. X X/.,.p. X X Xp.N. X Xx.} H.}. X}./.x.,.i k /. X X X X*.O F }. X}./.U.` & & & & < }   i 3 < & O & & & & & & & & W           ",
"                                                                                                    }.}. Xp.   X X XU./. X X XH.U. X XH.< z }. X Xp.N. X XH.H. X X/.r.x. X Xx.W /. X X X XH.z p. X X X X X$.& & & i 2.H.U.U.N.d.5.` w & & & & & & & 3           ",
"                                                                                                                  }. X X}. X}.  }. X XH.< Z }. X Xp.H. X X/.H.U././.H.U.}. X Xp./. X X X X XN.}. X X X X XO.& & < p. X X X X X X X XH.} & & & & & & & }         ",
"                                                                                                                                  }. XH.     X X Xp.H. X XH.x././.N.O.8. X X XN./. X XU./. X X X X}. X X XO.& & z /. X X XN.r.x.}. X X}.` & & & & & & }         ",
"                                                                                                                                                    /.}. XN.,. X X XU./. X X Xr./. X Xd.,. X X X/.p. X X XO.& O F }. X XN.w & < } }. X Xx.3 & & & & <           ",
"                                                                                                                                                                  }. X X}.}.    }. X Xp.z /. X X2.$. X X XO.& & z /. X XH.i O O i /. X XU.i & & & & k           ",
"                                                                                                                                                                                  }. Xx.  /. X/.F r. X X XO.O &   }. X X Xd.} W 5.}. X XU.w & & &               ",
"                                                                                                                                                                                                    }.}. X*.        }. X X X X X X X X Xd.< &                   ",
"                                                                                                                                                                                                                        }. X X X X X X}.                        ",
"                                                                                                                                                                                                                                                                ",
"                                                                                                                                                                                                                                                                ",
"                                                                                                                                                                                                                                                                ",
"                                                                                                                                                                                                                                                                ",
"                                                                                                                                                                                                                                                                ",
"                                                                                                                                                                                                                                                                ",
"                                                                                                                                                                                                                                                                ",
"                                                                                                                                                                                                                                                                ",
"                                                                                                                                                                                                                                                                ",
"                                                                                                                                                                                                                                                                ",
"                                                                                                                                                                                                                                                                ",
"                                                                                                                                                                                                                                                                ",
"                                                                                                                                                                                                                                                                ",
"                                                                                                                                                                                                                                                                ",
"                                                                                                                                                                                                                                                                ",
"                                                                                                                                                                                                                                                                ",
"                                                                                                                                                                                                                                                                ",
"                                                                                                                                                                                                                                                                "
};
