/* XPM */
static char *oms_089[] = {
/* columns rows colors chars-per-pixel */
"128 54 101 2 ",
"   c #FF00FF",
".  c #0F0F0F",
"X  c #101010",
"o  c #111111",
"O  c #121212",
"+  c #131313",
"@  c #141414",
"#  c #151515",
"$  c #161616",
"%  c #171717",
"&  c #181818",
"*  c #191919",
"=  c #1A1A1A",
"-  c #1B1B1B",
";  c #1C1C1C",
":  c #1D1D1D",
">  c #1F1F1F",
",  c #202020",
"<  c #222222",
"1  c #252525",
"2  c #262626",
"3  c #272727",
"4  c #282828",
"5  c #2A2A2A",
"6  c #2B2B2B",
"7  c #2E2E2E",
"8  c #2F2F2F",
"9  c #313131",
"0  c #323232",
"q  c #333333",
"w  c #343434",
"e  c #353535",
"r  c #373737",
"t  c #393939",
"y  c #3A3A3A",
"u  c #3C3C3C",
"i  c #3D3D3D",
"p  c #3F3F3F",
"a  c #404040",
"s  c #434343",
"d  c #484848",
"f  c #4C4C4C",
"g  c #4C4C4C",
"h  c #505050",
"j  c #545454",
"k  c #585858",
"l  c #5A5A5A",
"z  c #5D5D5D",
"x  c #606060",
"c  c #616161",
"v  c #666666",
"b  c #6C6C6C",
"n  c #717171",
"m  c #747474",
"M  c #757575",
"N  c #767676",
"B  c #787878",
"V  c #7C7C7C",
"C  c #808080",
"Z  c #818181",
"A  c #898989",
"S  c #8E8E8E",
"D  c #959595",
"F  c #9C9C9C",
"G  c #9D9D9D",
"H  c #9E9E9E",
"J  c #A0A0A0",
"K  c #AAAAAA",
"L  c #AFAFAF",
"P  c #B6B6B6",
"I  c #BABABA",
"U  c #BBBBBB",
"Y  c #BCBCBC",
"T  c #BFBFBF",
"R  c #C3C3C3",
"E  c #CACACA",
"W  c #CBCBCB",
"Q  c #CCCCCC",
"!  c #CDCDCD",
"~  c #CFCFCF",
"^  c #D3D3D3",
"/  c #D4D4D4",
"(  c #D6D6D6",
")  c #D9D9D9",
"_  c #DADADA",
"`  c #DBDBDB",
"'  c #DCDCDC",
"]  c #DFDFDF",
"[  c #E0E0E0",
"{  c #E3E3E3",
"}  c #E4E4E4",
"|  c #E6E6E6",
" . c #E6E6E6",
".. c #E7E7E7",
"X. c #EAEAEA",
"o. c #ECECEC",
"O. c #EEEEEE",
"+. c #F0F0F0",
"@. c #F1F1F1",
"#. c #F4F4F4",
"$. c #F7F7F7",
/* pixels */
"                                                                                                                                                                                                                                                                ",
"                                                                                                                                                                                                                                                                ",
"                                                                                                                                                                                                                                                                ",
"                                                                                                                                                                                                                                                                ",
"                                                                                                                                                                                                                                                                ",
"                                                                                                                                                                                                                                                                ",
"                                                                                                                                                                                                                                                                ",
"                                                                                                                                                                                                                                                                ",
"                                                                                                                                                                                                                                                                ",
"                                                                                                                                                                                                                                                                ",
"                                                                                                                                                                                                                                                                ",
"                                                                                                                                                                                                                                                                ",
"                                                                                                                                                                                                                                                                ",
"                                                                                                                                                                                                                                                                ",
"                                                                                                                                                                                                                                                                ",
"                                                                                                                                                                                                                                                                ",
"                                                                                                                                      g O O O O O O O O O O m ~                                                                                                 ",
"                                                                                                                                    v - O O O O O O O O O 4 U /                                                                                                 ",
"                                                                                                                                    s O O O O O O O O O O j  . .                                                                                                ",
"                                                                                                                                    i O O O O O O O O O O j ' $.                                                                                                ",
"                                                                                                                                    i O O O O O O O O O O l O.$.                                                                                                ",
"                                                                                                                                  P q O O O O O O O O O O b $. .                                                                                                ",
"                                                                                                                                  v - O O O O O O O O O q G O.                                                                                                  ",
"                                                                                                                                  4 O O O O O O O O O O m U '                                                                                                   ",
"                                                                                                                              A 4 O O O O O O O O O - s U ~ O.                                                                                                  ",
"                                                                                                                              v . O O O O O O O O O q A / L                                                                                                     ",
"                                                                                                                              v O O O O O O O O O O q R ~                                                                                                       ",
"                                                                                                                              q O O O O O O O O O , g ~ ~                                                                                                       ",
"                                                                                                                            i O O O O O O O O O O j J ~ O.                                                                                                      ",
"                                                                                                                          Z - O O O O O O O O O - G ' ~ O.                                                                                                      ",
"                                                                                                                          l O O O O O O O O O O 4 U  ./                                                                                                         ",
"                                                                                                                        D , O O O O O O O O O - m ~  .'                                                                                                         ",
"                                                                                                                        B O O O O O O O O O O 4 L '  .                                                                                                          ",
"                                                                                                                        B , O O O O O O O O O q U ' $.                                                                                                          ",
"                                                                                                                        Z q O O O O O O O O O q J / $.                                                                                                          ",
"                                                                                                                        Z i O O O O O O O O O i G ~                                                                                                             ",
"                                                                                                                        B , O O O O O O O O , s U  .                                                                                                            ",
"                                                                                                                        m O O O O O O O O O O s /                                                                                                               ",
"                                                                                                                        m O O O O O O O O O O i '                                                                                                               ",
"                                                                                                                                  - - O - - O i ~                                                                                                               ",
"                                                                                                                                                                                                                                                                ",
"                                                                                                                                                                                                                                                                ",
"                                                                                                                                                                                                                                                                ",
"                                                                                                                                                                                                                                                                ",
"                                                                                                                                                                                                                                                                ",
"                                                                                                                                                                                                                                                                ",
"                                                                                                                                                                                                                                                                ",
"                                                                                                                                                                                                                                                                ",
"                                                                                                                                                                                                                                                                ",
"                                                                                                                                                                                                                                                                ",
"                                                                                                                                                                                                                                                                ",
"                                                                                                                                                                                                                                                                ",
"                                                                                                                                                                                                                                                                ",
"                                                                                                                                                                                                                                                                "
};
