/* XPM */
static char *oms_184[] = {
/* columns rows colors chars-per-pixel */
"128 54 210 2 ",
"   c #FF00FF",
".  c #040404",
"X  c #0D0D0D",
"o  c #0E0E0E",
"O  c #0F0F0F",
"+  c #101010",
"@  c #111111",
"#  c #121212",
"$  c #131313",
"%  c #141414",
"&  c #151515",
"*  c #161616",
"=  c #171717",
"-  c #181818",
";  c #191919",
":  c #1A1A1A",
">  c #1B1B1B",
",  c #1C1C1C",
"<  c #1D1D1D",
"1  c #1E1E1E",
"2  c #1F1F1F",
"3  c #202020",
"4  c #212121",
"5  c #222222",
"6  c #232323",
"7  c #242424",
"8  c #252525",
"9  c #262626",
"0  c #272727",
"q  c #282828",
"w  c #292929",
"e  c #2A2A2A",
"r  c #2C2C2C",
"t  c #2D2D2D",
"y  c #2E2E2E",
"u  c #2F2F2F",
"i  c #303030",
"p  c #323232",
"a  c #333333",
"s  c #343434",
"d  c #353535",
"f  c #363636",
"g  c #373737",
"h  c #383838",
"j  c #393939",
"k  c #3A3A3A",
"l  c #3B3B3B",
"z  c #3C3C3C",
"x  c #3D3D3D",
"c  c #3E3E3E",
"v  c #3F3F3F",
"b  c #404040",
"n  c #414141",
"m  c #424242",
"M  c #434343",
"N  c #444444",
"B  c #454545",
"V  c #464646",
"C  c #484848",
"Z  c #494949",
"A  c #4C4C4C",
"S  c #4C4C4C",
"D  c #4E4E4E",
"F  c #4F4F4F",
"G  c #505050",
"H  c #515151",
"J  c #525252",
"K  c #535353",
"L  c #545454",
"P  c #555555",
"I  c #565656",
"U  c #575757",
"Y  c #585858",
"T  c #595959",
"R  c #5A5A5A",
"E  c #5B5B5B",
"W  c #5C5C5C",
"Q  c #5D5D5D",
"!  c #5E5E5E",
"~  c #5F5F5F",
"^  c #606060",
"/  c #616161",
"(  c #626262",
")  c #636363",
"_  c #646464",
"`  c #656565",
"'  c #666666",
"]  c #676767",
"[  c #696969",
"{  c #6C6C6C",
"}  c #6D6D6D",
"|  c #6E6E6E",
" . c #707070",
".. c #717171",
"X. c #727272",
"o. c #747474",
"O. c #757575",
"+. c #767676",
"@. c #787878",
"#. c #797979",
"$. c #7A7A7A",
"%. c #7B7B7B",
"&. c #7C7C7C",
"*. c #7E7E7E",
"=. c #808080",
"-. c #808080",
";. c #818181",
":. c #838383",
">. c #848484",
",. c #888888",
"<. c #898989",
"1. c #8C8C8C",
"2. c #8D8D8D",
"3. c #8F8F8F",
"4. c #909090",
"5. c #919191",
"6. c #929292",
"7. c #939393",
"8. c #949494",
"9. c #959595",
"0. c #969696",
"q. c #979797",
"w. c #989898",
"e. c #999999",
"r. c #9A9A9A",
"t. c #9D9D9D",
"y. c #9F9F9F",
"u. c #A0A0A0",
"i. c #A2A2A2",
"p. c #A3A3A3",
"a. c #A6A6A6",
"s. c #A7A7A7",
"d. c #A8A8A8",
"f. c #A9A9A9",
"g. c #AAAAAA",
"h. c #ABABAB",
"j. c #ACACAC",
"k. c #ADADAD",
"l. c #AEAEAE",
"z. c #B0B0B0",
"x. c #B1B1B1",
"c. c #B2B2B2",
"v. c #B2B2B2",
"b. c #B5B5B5",
"n. c #B7B7B7",
"m. c #BABABA",
"M. c #BCBCBC",
"N. c #BDBDBD",
"B. c #808080",
"V. c #BFBFBF",
"C. c #C0C0C0",
"Z. c #C1C1C1",
"A. c #C2C2C2",
"S. c #C3C3C3",
"D. c #C4C4C4",
"F. c #C5C5C5",
"G. c #C6C6C6",
"H. c #C7C7C7",
"J. c #C8C8C8",
"K. c #CACACA",
"L. c #CBCBCB",
"P. c #CCCCCC",
"I. c #CDCDCD",
"U. c #CFCFCF",
"Y. c #D1D1D1",
"T. c #D2D2D2",
"R. c #D3D3D3",
"E. c #D4D4D4",
"W. c #D6D6D6",
"Q. c #D7D7D7",
"!. c #D8D8D8",
"~. c #D9D9D9",
"^. c #DADADA",
"/. c #DBDBDB",
"(. c #DCDCDC",
"). c #DDDDDD",
"_. c #DEDEDE",
"`. c #DFDFDF",
"'. c #E0E0E0",
"]. c #E1E1E1",
"[. c #E2E2E2",
"{. c #E3E3E3",
"}. c #E4E4E4",
"|. c #E6E6E6",
" X c #E6E6E6",
".X c #E7E7E7",
"XX c #E8E8E8",
"oX c #E9E9E9",
"OX c #EAEAEA",
"+X c #EBEBEB",
"@X c #ECECEC",
"#X c #EDEDED",
"$X c #EEEEEE",
"%X c #EFEFEF",
"&X c #F0F0F0",
"*X c #F1F1F1",
"=X c #F2F2F2",
"-X c #F3F3F3",
";X c #F4F4F4",
":X c #F5F5F5",
">X c #F6F6F6",
",X c #F7F7F7",
"<X c #F8F8F8",
"1X c #F9F9F9",
"2X c #FAFAFA",
"3X c #FBFBFB",
"4X c #FCFCFC",
"5X c #FDFDFD",
"6X c #FEFEFE",
"7X c #FFFFF1",
/* pixels */
"                                                                                                                                                                                                                                                                ",
"                                                                                                                                                                                                                                                                ",
"                                                                                                                                                                                                                                                                ",
"                                                                                                                                                                                                                                                                ",
"                                                                                                                                                                                                                                                                ",
"                                                                                                                                                                                                                                                                ",
"                                                                                                                                                                                                                                                                ",
"                                                                                                                                                                                                                                                                ",
"                                                                                                                                                                                                                                                                ",
"                                                                                                                                                                                                                                                                ",
"                                                                                                                                                                                                                                                                ",
"                                                                                                                                                                                                                                                                ",
"                                                                                                                                                                                                                                                                ",
"                                                                                                                                                                                                                                                                ",
"                                                                                                                                                                                                                                                                ",
"                                                                                                                                                                                                                                                                ",
"                                                                                                                                                                                                                                                                ",
"                                                                                                                                                                                                                                                                ",
"                                                              E     E                                                                         E H H   E ^ ^ ^                         H C C C H         M M M M c C               c c f f f M C                 ",
"                                M M c f     < < < <   H w < < < # # < < < w                                                                 # # # # w < # # #                       # # # # # # c     # # # # # # w           0 # # # # # # # # < c             ",
"                                < # # # #   # # # # 0 < # # # # # # # # # # <                                                               # # # # 0 # # # #                       # # # # # # <     # # # # # # w         # # # # # # # # # # # # c           ",
"            c w 0 0 0 0 f C   0 < # # # # < # # O O O # # # # O O O O O O O #         f < < 0 M w 0 0 0     w < < < # < < w H     0 < < < c 0 O # O 0 # O # #     0 < # # # # < w C # # # # # # # w 0 # # # # # # w       O O # < < 0 0 < # # # # # <           ",
"          < # # # # # # # # < # # # # # # # # f E E E f # 0 C ^ X.=.=.=.X.E f         # # # # # # # # # < # # # # # # # # # < c # # # # # # ^ 5.5.<.=.5.5.5.:.c # # # # # # # # # c s.k.k.k.s.c # # C k.k.k.k.k.H 0       w } s.B.U.!.!.U.c.=.f # # <           ",
"        w # # # # # # # # # # # # < 5.c.c.k.w 5.3X3X3X<.H U.,X3X3X3X3X3X3X,X!.s.      # # O O # # O O O # # # # O O O O O # # < # # O O O # k.3X3X3XC.,X3X3X|.f # O # # # # # # O H 3X3X3X3X3Xc.< < C.3X3X3X3X3XX.0       U.3X3X3X3X3X3X3X3X3X!.H # <           ",
"        0 # # # < f C C C M w # # M !.3X3X,X^ <.!.T.T.:.B.$X$X$X$Xk.y.$X3X3X3X,X      # w ^ ^ M 0 H H E M # 0 C } =.:.:.X.C 0 < < C =.:.^ w s.3X3X,XC.$X3X3X!.w w ^ <.y.s.y.:.H < H ,X3X3X3X3X,XE } ,X3X3X3X3X3XX.0     ,X3X3X3X,XC.k.C.$X3X3X3XT.0 <           ",
"        < # # E C.|.,X,X,X$X!.y.C T.3X3X3X3X$X|.,X$X$X<.C y.C.T.T.c.C.,X3X3X3X3X      M T.3X3X$XC.$X,X,XC.C C.,X3X3X3X3X3X,XC.C :.,X3X3X3XT.!.3X3X3XC.$X3X3X!.^ T.3X3X,X$X3X3X,Xk.} ,X3X3X3X3X3X!.!.3X3X3X3X3X3XX.0     ,X3X3X3X5.< # # X.,X3X3X$XC             ",
"          # c $X3X3X$Xk.U.3X3X3XC.T.,X3X3X3X|.|.3X3X3Xs.c.,X3X3X3X3X3X3X3X,X!.5.      c.3X3X3X,X$X3X3X3XT.C.3X3X3XB.=.B.3X3X3XT.|.3X3X3X,X3X3X3X3X3XC.$X3X3X|.U.3X3X3XU.c.|.3X3X,XB.,X3X3X,X$X3X3X3X3X,X,X3X3X3XX.<     ,X3X3X3X=.O O O ^ ,X3X3X,X              ",
"            } $X,X,X$X!.|.3X3X3XT.C !.3X3X,X^ y.3X3X3XT.,X3X3X3X$Xs.5.!.!.B.:.^       ,X,X,X,X|.5.,X3X3X$X$X3X3X3XE . ^ 3X3X3X,X,X3X3X,X    3X3X3X3X!.,X3X3X$X|.,X,X$XU.B.|.3X3X3X$X,X3X3XT.s.3X3X3X3X,X,X3X3X3X=.      ,X3X3X3X|.5.X.<.!.3X3X3X,X              ",
"            <.U.!.$XU.X.k.3X3X3XT.s.,X3X3X3X} y.3X3X3X$X,X3X3X3X$X5.5.$X,X,X,X,X                  ,X3X3X$X$X3X3X3XC.X.C.3X3X3X,X,X3X3X,X    3X3X3X3X|.,X3X3X,X$X,X,X,Xc.5.|.3X3X,X$X3X3X3X!.  3X3X3X,X  ,X3X3X3X5.        3X3X3X3X3X3X3X3X3X3X3X                ",
"              ,X3X3X,X$X,X3X3X3Xc.|.3X3X3X,X  C.3X3X3X,X  ,X,X3X3X3X3X3X3X3X3X                    ,X3X3X$X  ,X3X3X3X3X3X3X3X,X  ,X3X3X,X    3X3X3X3X|.,X3X3X,X  ,X3X3X3X3X3X3X,X    ,X3X3X$X    ,X,X    ,X,X,X,X            ,X3X3X3X3X3X,X,X,X                  ",
"                  ,X3X3X3X,X                                  ,X,X,X,X,X                                                                                                                                                                                        ",
"                                                                                                                                                                                                                                                                ",
"                                                                                                                                                                                                                                                                ",
"                                                                                                                                                                                                                                                                ",
"                                                                                                                                                                                                                                                                ",
"                                                                                                                                                                                                                                                                ",
"                                                                                                                                                                                                                                                                ",
"                                                                                                                                                                                                                                                                ",
"                                                                                                                                                                                                                                                                ",
"                                                                                                                                                                                                                                                                ",
"                                                                                                                                                                                                                                                                ",
"                                                                                                                                                                                                                                                                ",
"                                                                                                                                                                                                                                                                ",
"                                                                                                                                                                                                                                                                ",
"                                                                                                                                                                                                                                                                ",
"                                                                                                                                                                                                                                                                ",
"                                                                                                                                                                                                                                                                ",
"                                                                                                                                                                                                                                                                ",
"                                                                                                                                                                                                                                                                ",
"                                                                                                                                                                                                                                                                ",
"                                                                                                                                                                                                                                                                ",
"                                                                                                                                                                                                                                                                ",
"                                                                                                                                                                                                                                                                ",
"                                                                                                                                                                                                                                                                "
};
