/* XPM */
static char *oms_207[] = {
/* columns rows colors chars-per-pixel */
"128 54 198 2 ",
"   c #FF00FF",
".  c #0C0C0C",
"X  c #0E0E0E",
"o  c #0F0F0F",
"O  c #101010",
"+  c #111111",
"@  c #121212",
"#  c #131313",
"$  c #141414",
"%  c #151515",
"&  c #161616",
"*  c #171717",
"=  c #181818",
"-  c #191919",
";  c #1A1A1A",
":  c #1B1B1B",
">  c #1C1C1C",
",  c #1D1D1D",
"<  c #1E1E1E",
"1  c #1F1F1F",
"2  c #202020",
"3  c #212121",
"4  c #222222",
"5  c #232323",
"6  c #242424",
"7  c #252525",
"8  c #262626",
"9  c #272727",
"0  c #282828",
"q  c #292929",
"w  c #2A2A2A",
"e  c #2B2B2B",
"r  c #2C2C2C",
"t  c #2D2D2D",
"y  c #2E2E2E",
"u  c #2F2F2F",
"i  c #303030",
"p  c #313131",
"a  c #323232",
"s  c #333333",
"d  c #343434",
"f  c #353535",
"g  c #363636",
"h  c #373737",
"j  c #383838",
"k  c #393939",
"l  c #3A3A3A",
"z  c #3B3B3B",
"x  c #3C3C3C",
"c  c #3D3D3D",
"v  c #3E3E3E",
"b  c #3F3F3F",
"n  c #424242",
"m  c #434343",
"M  c #444444",
"N  c #454545",
"B  c #464646",
"V  c #474747",
"C  c #484848",
"Z  c #494949",
"A  c #4B4B4B",
"S  c #4C4C4C",
"D  c #4C4C4C",
"F  c #4E4E4E",
"G  c #4F4F4F",
"H  c #505050",
"J  c #515151",
"K  c #525252",
"L  c #545454",
"P  c #555555",
"I  c #565656",
"U  c #575757",
"Y  c #595959",
"T  c #5A5A5A",
"R  c #5B5B5B",
"E  c #5C5C5C",
"W  c #5D5D5D",
"Q  c #5E5E5E",
"!  c #5F5F5F",
"~  c #606060",
"^  c #616161",
"/  c #636363",
"(  c #646464",
")  c #676767",
"_  c #686868",
"`  c #6A6A6A",
"'  c #6D6D6D",
"]  c #707070",
"[  c #737373",
"{  c #787878",
"}  c #7C7C7C",
"|  c #7D7D7D",
" . c #818181",
".. c #828282",
"X. c #838383",
"o. c #848484",
"O. c #868686",
"+. c #878787",
"@. c #888888",
"#. c #898989",
"$. c #8A8A8A",
"%. c #8C8C8C",
"&. c #919191",
"*. c #929292",
"=. c #949494",
"-. c #959595",
";. c #969696",
":. c #979797",
">. c #989898",
",. c #999999",
"<. c #9A9A9A",
"1. c #9B9B9B",
"2. c #9C9C9C",
"3. c #9D9D9D",
"4. c #9E9E9E",
"5. c #A0A0A0",
"6. c #A2A2A2",
"7. c #A3A3A3",
"8. c #A5A5A5",
"9. c #A6A6A6",
"0. c #A9A9A9",
"q. c #AAAAAA",
"w. c #ABABAB",
"e. c #ADADAD",
"r. c #B2B2B2",
"t. c #B2B2B2",
"y. c #B4B4B4",
"u. c #B6B6B6",
"i. c #B7B7B7",
"p. c #B8B8B8",
"a. c #B9B9B9",
"s. c #BABABA",
"d. c #BBBBBB",
"f. c #BCBCBC",
"g. c #BDBDBD",
"h. c #808080",
"j. c #C1C1C1",
"k. c #C2C2C2",
"l. c #C3C3C3",
"z. c #C4C4C4",
"x. c #C5C5C5",
"c. c #C7C7C7",
"v. c #C8C8C8",
"b. c #C9C9C9",
"n. c #CACACA",
"m. c #CBCBCB",
"M. c #CCCCCC",
"N. c #CDCDCD",
"B. c #CECECE",
"V. c #CFCFCF",
"C. c #D0D0D0",
"Z. c #D1D1D1",
"A. c #D2D2D2",
"S. c #D3D3D3",
"D. c #D4D4D4",
"F. c #D5D5D5",
"G. c #D6D6D6",
"H. c #D7D7D7",
"J. c #D8D8D8",
"K. c #D9D9D9",
"L. c #DADADA",
"P. c #DBDBDB",
"I. c #DCDCDC",
"U. c #DDDDDD",
"Y. c #DEDEDE",
"T. c #DFDFDF",
"R. c #E0E0E0",
"E. c #E1E1E1",
"W. c #E2E2E2",
"Q. c #E3E3E3",
"!. c #E4E4E4",
"~. c #E6E6E6",
"^. c #E6E6E6",
"/. c #E7E7E7",
"(. c #E8E8E8",
"). c #E9E9E9",
"_. c #EAEAEA",
"`. c #EBEBEB",
"'. c #ECECEC",
"]. c #EDEDED",
"[. c #EEEEEE",
"{. c #EFEFEF",
"}. c #F0F0F0",
"|. c #F1F1F1",
" X c #F2F2F2",
".X c #F3F3F3",
"XX c #F4F4F4",
"oX c #F5F5F5",
"OX c #F6F6F6",
"+X c #F7F7F7",
"@X c #F8F8F8",
"#X c #F9F9F9",
"$X c #FAFAFA",
"%X c #FBFBFB",
"&X c #FCFCFC",
"*X c #FDFDFD",
"=X c #FEFEFE",
"-X c #FFFFF1",
/* pixels */
"                                                                                                                                                                                                                                                                ",
"                                                                                                                                                                                                                                                                ",
"                                                                                                                                                                                                                                                                ",
"                                                                                                                                                                                                                                                                ",
"                                                                                                                                                                                                                                                                ",
"                                                                                                                                                                                                                                                                ",
"                                                                                                                                                                                                                                                                ",
"                                                                                                                                                                                                                                                                ",
"                                                                                                                                                                                                                                                                ",
"                                                                                                                                                                                                                                                                ",
"                                                                                                                                                                                                                                                                ",
"                                                                                                                                                                                                                                                                ",
"                                                                                                                                                                                                                        ` ^                                     ",
"                                                                                                                                                                                                                m q 7 = O O O 7                                 ",
"                                                                                                                                                                                              F m           m = O O O O O O O O O                               ",
"                                                                                                                                                                              !         g = O O O O       m O O O O O O O = 7 q q 7                             ",
"                                                                                                                                                                        q = = O O O   H O O O O O O O     = O O O O 7 ! <.g.D.K.R.D.g.                          ",
"                                                                                                                                                                        O O O O O O = = O O O O 7 q m ! X.= O O O ! N..X=X=X=X=X=X=X=X.X                        ",
"                                                                                                                                    m k q 7 7 = O O                     O O O O = 7 g F g O O ^ N.R.].=XD.7 O O H ].=X=X.XD.i.D.=X=X=X.X                        ",
"                                                                                                                                  q O O O O O O O O O = g 7 7 = = = = k O O O ` x.K.R..Xi.= 7 N.=X=X=X=X].q O = i.=X=X.XX.7 O g R.=X=X=X                        ",
"                                                                                                                                  q O O O O o O O O 7 g F k O O O O O O O O o <.=X=X=X=X.X! ^ .X=X=X=X=X=X  O 7 D.=X=XR.g o o g R.=X=X.X                        ",
"                                                                                                                          k q 7 q 7 O O O 7 ` %.5.%.N.R..X<.o O O = q k k q o *.=X=X=X=X=XD.N.=X=X=X=X=X.X    q D.=X=X.X5.H ` x.=X=X=X.X                        ",
"                                                                                                        F g g 7 7 =     7 O O O O O O O o F =X=X=Xg.].=X=X<.O m *.N.R.].].K.] <.=X=X=X=X=X=X=X=XR.].=X=X.X      D.=X=X=X=X.X=X=X=X=X.X                          ",
"                                                        H k g 7 7 = = O                   F k g =   k = O O O O O O O = O O O O O O = = O F .X=X=Xg.].=X=X<.` ].=X].g.R.=X=XR.x.=X=X.XN..X=X=X.X*.K.=X=X.X        .X=X=X.X=X=X=X.X                              ",
"                                          H k g 7   F 7 O O O O O O O O O O     ` q = O = O O O O O O O O O O O O O O 7 q 7 O O = ] g.N.i.5..X=X=Xi.].=X=Xx.K.=X=X].N.].=X=X].D.=X=X.X} N.=X=XK.F K.=X=X.X              .X                                      ",
"                                  H m 7 ^ 7 O O O O O O O O O O O O O = 7 g m ^ F O O O O O O O O O O O = = O = ! *.g.D.K.D.e.k %.=X=X=X=X.X=X=X=Xg.].=X=XK.R.R.R.g.%.D.=X=XK.g.=X=X=X  *..X=X    R..X.X                                                        ",
"                                7 O O O O O O O O O O O O = 7 O = ! *.g.D.R.].].].<.= O O O 7 F H g ] 5.g.5.k g..X=X.X].=X=X=Xx.K.=X=X].^ *.=X=X=Xi.].=X=XK.K.]..XK.N..X=X=Xi.e.=X.X=X                                                                          ",
"                              F O O O O O O O O O O 7 X.i.N.<.k g..X=X=X].].=X=X=X].k O O k x..X.XK.].=X=XD.g.=X=X].^ H R.=X=X.X.X=X=XN.O F .X=X=Xi.].=X=XR..X=X=X=X=X.X.X                                                                                      ",
"              ` m g 7 7 = O H = O O O O O O ! %.e.*.g K.=X.Xe.5..X].].N.] i.=X=X=X].k O O <.=X=X.XD..X=X=XR.].=X=XD.7 g R.=X=XN.R.=X=XR.O H .X=X=Xx.]..X.X                                                                                                      ",
"            k = O O O O O O O O O O O O O = N.=X=XD.^ g.D.K.5.! <.N.R.].].=X=X=X.X].    = x.=X=XD.k K.=X=XK.R.=X=X.Xg.N.=X=X.X} K.=X=X=X                                                                                                                        ",
"          m O O O O O O O O O 7 k m F q = X.].=X=X=XK.R.=X=Xi.X.].=X=X=X.XR.R.N.<.5.      K..X<.m 7 K.=X=XR.N..X=X=X=X=X.X.X                                                                                                                                    ",
"          q O O O O O O = ! e.K.]..X.XR.X.K.=X=X=X.Xx.R.=X=XN.K.=X=X=XN.! %.].R.]..X              q K.=X.X.X                                                                                                                                                    ",
"          g O O O O O = *..X=XR.g.].=X=XR.<.R.=X=XN.m K.=X=XD.R.=X=X=XR.N.].=X=X=X.X                                                                                                                                                                            ",
"          q O O O O O m .X=X=XR.D.].=X=XR.^ K.=X=Xx.g K.=X=XK.K.=X=X.X=X=X=X.X.X                                                                                                                                                                                ",
"              O O O O ! R.R.K.e.X.K.=X=XD.D.=X=X=XN.g K.=X=X.X      ].                                                                                                                                                                                          ",
"                  O o H R.]..XR.D..X=X.X%.D.=X.X.X                                                                                                                                                                                                              ",
"                        ].=X.X=X=X.X.X                                                                                                                                                                                                                          ",
"                                                                                                                                                                                                                                                                ",
"                                                                                                                                                                                                                                                                ",
"                                                                                                                                                                                                                                                                ",
"                                                                                                                                                                                                                                                                ",
"                                                                                                                                                                                                                                                                ",
"                                                                                                                                                                                                                                                                ",
"                                                                                                                                                                                                                                                                ",
"                                                                                                                                                                                                                                                                ",
"                                                                                                                                                                                                                                                                ",
"                                                                                                                                                                                                                                                                ",
"                                                                                                                                                                                                                                                                ",
"                                                                                                                                                                                                                                                                ",
"                                                                                                                                                                                                                                                                ",
"                                                                                                                                                                                                                                                                ",
"                                                                                                                                                                                                                                                                ",
"                                                                                                                                                                                                                                                                ",
"                                                                                                                                                                                                                                                                "
};
